LukePepin/On-Edge/deceleration_data_1782665139.csv
timestamp_sec,timestamp_nanosec,shoulder_pan_pos,shoulder_lift_pos,elbow_pos,wrist_1_pos,wrist_2_pos,wrist_3_pos,shoulder_pan_vel,shoulder_lift_vel,elbow_vel,wrist_1_vel,wrist_2_vel,wrist_3_vel
1782665139,691618354,-1.6561983267413538,0.12955284118652344,-1.521893326436178,0.006880068685859442,0.0008153018425218761,0.6743901968002319,0.0,-0.0,0.0,0.0,0.0,0.0
1782665139,699579770,-1.6562584082232874,0.12954092025756836,-1.5218694845782679,0.006844115909188986,0.0008033175836317241,0.6744141578674316,0.0,-0.0,0.0,0.0,0.0,0.0
1782665139,707607907,-1.6562703291522425,0.12956476211547852,-1.5218575636493128,0.006880068685859442,0.0008392703020945191,0.6743302345275879,0.0,-0.0,0.0,0.0,0.0,0.0
1782665139,715639951,-1.6562345663653772,0.1295170783996582,-1.5218456427203577,0.006892052944749594,0.0007909588748589158,0.6743542551994324,0.0,-0.0,0.0,0.0,0.0,0.0
1782665139,724043211,-1.6562226454364222,0.12956476211547852,-1.521881405507223,0.006916021462529898,0.0007669904152862728,0.6743302345275879,0.0,-0.0,0.0,0.0,0.0,0.0
1782665139,731569542,-1.6562226454364222,0.1295766830444336,-1.5218694845782679,0.00686808442696929,0.0008392703020945191,0.6743542551994324,0.0,-0.0,0.0,0.0,0.0,0.0
1782665139,739564087,-1.6562703291522425,0.12955284118652344,-1.521893326436178,0.006939989980310202,0.0008512545027770102,0.6743302345275879,0.0,-0.0,0.0,0.0,0.0,0.0
1782665139,747632890,-1.6562226454364222,0.12952899932861328,-1.521881405507223,0.006892052944749594,0.0008153018425218761,0.6743901968002319,0.0,-0.0,0.0,0.0,0.0,0.0
1782665139,756204647,-1.6562703291522425,0.12955284118652344,-1.5218575636493128,0.006904037203639746,0.0008033175836317241,0.6744021773338318,0.0,-0.0,0.0,0.0,0.0,0.0
1782665139,764199859,-1.6562703291522425,0.1295766830444336,-1.5218575636493128,0.006916021462529898,0.0008153018425218761,0.6743422150611877,0.0,-0.0,0.0,0.0,0.0,0.0
1782665139,771731560,-1.6561983267413538,0.12952899932861328,-1.5218456427203577,0.006904037203639746,0.0008272860432043672,0.6743422150611877,0.0,-0.0,0.0,0.0,0.0,0.0
1782665139,779560849,-1.6562345663653772,0.12958860397338867,-1.5218213240252894,0.006880068685859442,0.0008033175836317241,0.6743422150611877,0.0,-0.0,0.0,0.0,0.0,0.0
1782665139,787573060,-1.656210724507467,0.12952899932861328,-1.5218456427203577,0.006916021462529898,0.0008272860432043672,0.6743302345275879,0.0,-0.0,0.0,0.0,0.0,0.0
1782665139,795578068,-1.6562464872943323,0.12954092025756836,-1.5218213240252894,0.006856100168079138,0.0008153018425218761,0.6744141578674316,0.0,-0.0,0.0,0.0,0.0,0.0
1782665139,805745704,-1.6562584082232874,0.12955284118652344,-1.5218213240252894,0.006892052944749594,0.0008153018425218761,0.6743782162666321,0.0,-0.0,0.0,0.0,0.0,0.0
1782665139,811602953,-1.6562584082232874,0.12955284118652344,-1.5218213240252894,0.006892052944749594,0.0008153018425218761,0.6743782162666321,0.0,-0.0,0.0,0.0,0.0,0.0
1782665139,819560388,-1.6562464872943323,0.12958860397338867,-1.5218575636493128,0.006904037203639746,0.0008153018425218761,0.6743542551994324,0.0,-0.0,0.0,0.0,0.0,0.0
1782665139,827555636,-1.656210724507467,0.12956476211547852,-1.5218337217914026,0.00692800572142005,0.0007909588748589158,0.6743542551994324,0.0,-0.0,0.0,0.0,0.0,0.0
1782665139,835571218,-1.6562345663653772,0.12958860397338867,-1.5218337217914026,0.006916021462529898,0.0008392703020945191,0.6743782162666321,0.0,-0.0,0.0,0.0,0.0,0.0
1782665139,843555393,-1.6562345663653772,0.12960100173950195,-1.5218456427203577,0.006892052944749594,0.0007789746159687638,0.674318253993988,0.0,-0.0,0.0,0.0,0.0,0.0
1782665139,851562585,-1.6562822500811976,0.1295766830444336,-1.5218694845782679,0.006904037203639746,0.0007909588748589158,0.6743542551994324,0.0,-0.0,0.0,0.0,0.0,0.0
1782665139,859565964,-1.6562464872943323,0.12956476211547852,-1.521893326436178,0.006916021462529898,0.0008512545027770102,0.6743542551994324,0.0,-0.0,0.0,0.0,0.0,0.0
1782665139,867550842,-1.6562345663653772,0.12955284118652344,-1.5218694845782679,0.006916021462529898,0.0008272860432043672,0.6743542551994324,0.0,-0.0,0.0,0.0,0.0,0.0
1782665139,875545683,-1.6562464872943323,0.1295766830444336,-1.5218575636493128,0.006880068685859442,0.0008033175836317241,0.6743662357330322,0.0,-0.0,0.0,0.0,0.0,0.0
1782665139,883592912,-1.6562464872943323,0.12955284118652344,-1.5218337217914026,0.006904037203639746,0.0008272860432043672,0.6743782162666321,0.0,-0.0,0.0,0.0,0.0,0.0
1782665139,891674511,-1.6562464872943323,0.12960100173950195,-1.5218694845782679,0.006880068685859442,0.0008033175836317241,0.6743662357330322,0.0,-0.0,0.0,0.0,0.0,0.0
1782665139,899554873,-1.6561983267413538,0.12952899932861328,-1.5218213240252894,0.006892052944749594,0.0008033175836317241,0.6743901968002319,0.0,-0.0,0.0,0.0,0.0,0.0
1782665139,907547196,-1.6562703291522425,0.1295766830444336,-1.5218213240252894,0.006892052944749594,0.0008392703020945191,0.6743662357330322,0.0,-0.0,0.0,0.0,0.0,0.0
1782665139,915541426,-1.6562703291522425,0.12956476211547852,-1.5218213240252894,0.006880068685859442,0.0007789746159687638,0.6743901968002319,0.0,-0.0,0.0,0.0,0.0,0.0
1782665139,923548026,-1.6562345663653772,0.12955284118652344,-1.5218337217914026,0.006904037203639746,0.0007909588748589158,0.674318253993988,0.0,-0.0,0.0,0.0,0.0,0.0
1782665139,931546904,-1.6562226454364222,0.12954092025756836,-1.5218694845782679,0.00686808442696929,0.0007909588748589158,0.6744021773338318,0.0,-0.0,0.0,0.0,0.0,0.0
1782665139,939545635,-1.656210724507467,0.12955284118652344,-1.5218337217914026,0.00692800572142005,0.0008392703020945191,0.6743662357330322,0.0,-0.0,0.0,0.0,0.0,0.0
1782665139,947544661,-1.6562703291522425,0.12958860397338867,-1.521893326436178,0.006892052944749594,0.0008033175836317241,0.6743542551994324,0.0,-0.0,0.0,0.0,0.0,0.0
1782665139,955546798,-1.6561983267413538,0.12955284118652344,-1.521881405507223,0.006892052944749594,0.0008272860432043672,0.674318253993988,0.0,-0.0,0.0,0.0,0.0,0.0
1782665139,963550917,-1.656210724507467,0.1295766830444336,-1.521893326436178,0.006880068685859442,0.0007669904152862728,0.6743542551994324,0.0,-0.0,0.0,0.0,0.0,0.0
1782665139,971546888,-1.6562464872943323,0.1295766830444336,-1.521881405507223,0.006916021462529898,0.0008153018425218761,0.6743542551994324,0.0,-0.0,0.0,0.0,0.0,0.0
1782665139,979541137,-1.6562345663653772,0.12958860397338867,-1.521893326436178,0.006951974239200354,0.0008512545027770102,0.6743542551994324,0.0,-0.0,0.0,0.0,0.0,0.0
1782665139,987547441,-1.6562703291522425,0.1295766830444336,-1.5218694845782679,0.006916021462529898,0.0007669904152862728,0.6743782162666321,0.0,-0.0,0.0,0.0,0.0,0.0
1782665139,995543856,-1.6562345663653772,0.12952899932861328,-1.5218094030963343,0.006880068685859442,0.0007909588748589158,0.6743062734603882,0.0,-0.0,0.0,0.0,0.0,0.0
1782665140,3547697,-1.6562345663653772,0.1295766830444336,-1.5218456427203577,0.00686808442696929,0.0008272860432043672,0.6743901968002319,0.0,-0.0,0.0,0.0,0.0,0.0
1782665140,11541872,-1.6561864058123987,0.12955284118652344,-1.521881405507223,0.006916021462529898,0.0008033175836317241,0.6743662357330322,0.0,-0.0,0.0,0.0,0.0,0.0
1782665140,19544436,-1.6562584082232874,0.12955284118652344,-1.521881405507223,0.006904037203639746,0.0007669904152862728,0.6742942929267883,0.0,-0.0,0.0,0.0,0.0,0.0
1782665140,27544648,-1.6562345663653772,0.12956476211547852,-1.5218575636493128,0.006939989980310202,0.0008033175836317241,0.6743422150611877,0.0,-0.0,0.0,0.0,0.0,0.0
1782665140,35550526,-1.6562226454364222,0.12952899932861328,-1.5218337217914026,0.006856100168079138,0.0007909588748589158,0.6743422150611877,0.0,-0.0,0.0,0.0,0.0,0.0
1782665140,43543108,-1.6562464872943323,0.1295766830444336,-1.5218575636493128,0.006892052944749594,0.0007789746159687638,0.6743422150611877,0.0,-0.0,0.0,0.0,0.0,0.0
1782665140,51543746,-1.6561983267413538,0.1295766830444336,-1.5218337217914026,0.006904037203639746,0.0008153018425218761,0.6743782162666321,0.0,-0.0,0.0,0.0,0.0,0.0
1782665140,59544088,-1.6562226454364222,0.12956476211547852,-1.521881405507223,0.006856100168079138,0.0008153018425218761,0.6743302345275879,0.0,-0.0,0.0,0.0,0.0,0.0
1782665140,67541615,-1.6562345663653772,0.12955284118652344,-1.521893326436178,0.006856100168079138,0.0008392703020945191,0.6743302345275879,0.0,-0.0,0.0,0.0,0.0,0.0
1782665140,75543252,-1.6562464872943323,0.12958860397338867,-1.5218213240252894,0.006916021462529898,0.0007789746159687638,0.6743782162666321,0.0,-0.0,0.0,0.0,0.0,0.0
1782665140,83558853,-1.6562345663653772,0.12956476211547852,-1.521881405507223,0.006832132115960121,0.0007789746159687638,0.674318253993988,0.0,-0.0,0.0,0.0,0.0,0.0
1782665140,91544880,-1.6562584082232874,0.12956476211547852,-1.5218575636493128,0.006880068685859442,0.0007789746159687638,0.674318253993988,0.0,-0.0,0.0,0.0,0.0,0.0
1782665140,99551833,-1.6562226454364222,0.1295170783996582,-1.5218337217914026,0.006880068685859442,0.0008033175836317241,0.6743901968002319,0.0,-0.0,0.0,0.0,0.0,0.0
1782665140,107552211,-1.6562226454364222,0.12958860397338867,-1.5218694845782679,0.006916021462529898,0.0008033175836317241,0.6743302345275879,0.0,-0.0,0.0,0.0,0.0,0.0
1782665140,115544905,-1.6562703291522425,0.1295766830444336,-1.5218456427203577,0.00686808442696929,0.0007789746159687638,0.6743901968002319,0.0,-0.0,0.0,0.0,0.0,0.0
1782665140,123548654,-1.6562226454364222,0.12958860397338867,-1.5218575636493128,0.006892052944749594,0.0008153018425218761,0.6743782162666321,0.0,-0.0,0.0,0.0,0.0,0.0
1782665140,131545588,-1.6562584082232874,0.1295766830444336,-1.5218694845782679,0.006904037203639746,0.0008033175836317241,0.6743901968002319,0.0,-0.0,0.0,0.0,0.0,0.0
1782665140,139550596,-1.6562822500811976,0.12958860397338867,-1.5218213240252894,0.00692800572142005,0.0008033175836317241,0.6743422150611877,0.0,-0.0,0.0,0.0,0.0,0.0
1782665140,147554715,-1.6562584082232874,0.12958860397338867,-1.5218337217914026,0.006904037203639746,0.0007669904152862728,0.6743662357330322,0.0,-0.0,0.0,0.0,0.0,0.0
1782665140,155545686,-1.6562226454364222,0.12956476211547852,-1.5218456427203577,0.006904037203639746,0.0007789746159687638,0.6743662357330322,0.0,-0.0,0.0,0.0,0.0,0.0
1782665140,163563065,-1.656210724507467,0.12955284118652344,-1.5218337217914026,0.006916021462529898,0.0007909588748589158,0.6742942929267883,0.0,-0.0,0.0,0.0,0.0,0.0
1782665140,171552740,-1.6562464872943323,0.12955284118652344,-1.5218456427203577,0.006916021462529898,0.0008153018425218761,0.6743302345275879,0.0,-0.0,0.0,0.0,0.0,0.0
1782665140,179545748,-1.6562345663653772,0.1295766830444336,-1.5218456427203577,0.006939989980310202,0.0008153018425218761,0.6743542551994324,0.0,-0.0,0.0,0.0,0.0,0.0
1782665140,187548997,-1.6562226454364222,0.12960100173950195,-1.5218575636493128,0.006880068685859442,0.0007909588748589158,0.6743422150611877,0.0,-0.0,0.0,0.0,0.0,0.0
1782665140,195557116,-1.6562464872943323,0.12952899932861328,-1.521893326436178,0.00692800572142005,0.0007909588748589158,0.6743422150611877,0.0,-0.0,0.0,0.0,0.0,0.0
1782665140,203562791,-1.6562345663653772,0.12954092025756836,-1.5218575636493128,0.006939989980310202,0.0008392703020945191,0.6743662357330322,0.0,-0.0,0.0,0.0,0.0,0.0
1782665140,211560447,-1.6561864058123987,0.12955284118652344,-1.5218575636493128,0.006892052944749594,0.0007669904152862728,0.6743662357330322,0.0,-0.0,0.0,0.0,0.0,0.0
1782665140,219600325,-1.6562345663653772,0.12960100173950195,-1.521881405507223,0.006880068685859442,0.0007909588748589158,0.6743901968002319,0.0,-0.0,0.0,0.0,0.0,0.0
1782665140,227597463,-1.6562464872943323,0.12960100173950195,-1.5218213240252894,0.006892052944749594,0.0007909588748589158,0.6743901968002319,0.0,-0.0,0.0,0.0,0.0,0.0
1782665140,235553602,-1.6562345663653772,0.1295766830444336,-1.521905247365133,0.006880068685859442,0.0008033175836317241,0.6743662357330322,0.0,-0.0,0.0,0.0,0.0,0.0
1782665140,243548314,-1.6561983267413538,0.12954092025756836,-1.5218337217914026,0.006916021462529898,0.0008033175836317241,0.6743901968002319,0.0,-0.0,0.0,0.0,0.0,0.0
1782665140,251536304,-1.6562345663653772,0.12954092025756836,-1.5218694845782679,0.006904037203639746,0.0007789746159687638,0.6743901968002319,0.0,-0.0,0.0,0.0,0.0,0.0
1782665140,259561293,-1.6562345663653772,0.12961292266845703,-1.5218456427203577,0.006892052944749594,0.0008033175836317241,0.6743422150611877,0.0,-0.0,0.0,0.0,0.0,0.0
1782665140,267555412,-1.6562584082232874,0.12958860397338867,-1.521905247365133,0.006916021462529898,0.0008272860432043672,0.6743422150611877,0.0,-0.0,0.0,0.0,0.0,0.0
1782665140,275564698,-1.6562584082232874,0.12956476211547852,-1.5218337217914026,0.006880068685859442,0.0008392703020945191,0.6743302345275879,0.0,-0.0,0.0,0.0,0.0,0.0
1782665140,283551392,-1.6562345663653772,0.12954092025756836,-1.5218694845782679,0.00686808442696929,0.0007909588748589158,0.6743542551994324,0.0,-0.0,0.0,0.0,0.0,0.0
1782665140,291552604,-1.6562464872943323,0.1295766830444336,-1.5218337217914026,0.00692800572142005,0.0008153018425218761,0.6743542551994324,0.0,-0.0,0.0,0.0,0.0,0.0
1782665140,299584445,-1.6562584082232874,0.12955284118652344,-1.5218213240252894,0.006892052944749594,0.0007789746159687638,0.6743542551994324,0.0,-0.0,0.0,0.0,0.0,0.0
1782665140,307604379,-1.6562226454364222,0.12956476211547852,-1.5218575636493128,0.00686808442696929,0.0008033175836317241,0.6744021773338318,0.0,-0.0,0.0,0.0,0.0,0.0
1782665140,315550777,-1.6561983267413538,0.12955284118652344,-1.5218575636493128,0.006892052944749594,0.0007909588748589158,0.6743422150611877,0.0,-0.0,0.0,0.0,0.0,0.0
1782665140,323565544,-1.656210724507467,0.1295766830444336,-1.5218456427203577,0.00686808442696929,0.0008392703020945191,0.6743782162666321,0.0,-0.0,0.0,0.0,0.0,0.0
1782665140,331548830,-1.6561864058123987,0.12954092025756836,-1.5218337217914026,0.006951974239200354,0.0007669904152862728,0.6743662357330322,0.0,-0.0,0.0,0.0,0.0,0.0
1782665140,339553486,-1.6562345663653772,0.12952899932861328,-1.5218337217914026,0.006892052944749594,0.0008272860432043672,0.6743542551994324,0.0,-0.0,0.0,0.0,0.0,0.0
1782665140,347543161,-1.6562345663653772,0.1295766830444336,-1.5218694845782679,0.006904037203639746,0.0007909588748589158,0.6743662357330322,0.0,-0.0,0.0,0.0,0.0,0.0
1782665140,355555984,-1.6562584082232874,0.12958860397338867,-1.5218456427203577,0.006892052944749594,0.0008153018425218761,0.6743302345275879,0.0,-0.0,0.0,0.0,0.0,0.0
1782665140,363572974,-1.6562703291522425,0.12954092025756836,-1.521905247365133,0.006892052944749594,0.0008153018425218761,0.6743542551994324,0.0,-0.0,0.0,0.0,0.0,0.0
1782665140,371559445,-1.6562464872943323,0.12956476211547852,-1.5218575636493128,0.006904037203639746,0.0008512545027770102,0.6743542551994324,0.0,-0.0,0.0,0.0,0.0,0.0
1782665140,379558120,-1.6562464872943323,0.12961292266845703,-1.521893326436178,0.006880068685859442,0.0008153018425218761,0.6743662357330322,0.0,-0.0,0.0,0.0,0.0,0.0
1782665140,387585054,-1.6562226454364222,0.12955284118652344,-1.5218694845782679,0.006939989980310202,0.0007909588748589158,0.6743422150611877,0.0,-0.0,0.0,0.0,0.0,0.0
1782665140,395580210,-1.6562226454364222,0.12956476211547852,-1.5218456427203577,0.006880068685859442,0.0008392703020945191,0.6743782162666321,0.0,-0.0,0.0,0.0,0.0,0.0
1782665140,403591663,-1.6562941710101526,0.12955284118652344,-1.521893326436178,0.006892052944749594,0.0008033175836317241,0.6743422150611877,0.0,-0.0,0.0,0.0,0.0,0.0
1782665140,411566005,-1.6562226454364222,0.12961292266845703,-1.5217974821673792,0.006844115909188986,0.0008033175836317241,0.6743542551994324,0.0,-0.0,0.0,0.0,0.0,0.0
1782665140,419571827,-1.6562584082232874,0.12955284118652344,-1.5218694845782679,0.006916021462529898,0.0008033175836317241,0.6743782162666321,0.0,-0.0,0.0,0.0,0.0,0.0
1782665140,427551040,-1.6562345663653772,0.1295766830444336,-1.5218456427203577,0.006844115909188986,0.0007909588748589158,0.6743542551994324,0.0,-0.0,0.0,0.0,0.0,0.0
1782665140,435599455,-1.6562226454364222,0.1295766830444336,-1.5218694845782679,0.006880068685859442,0.0008392703020945191,0.6743782162666321,0.0,-0.0,0.0,0.0,0.0,0.0
1782665140,443559815,-1.6562584082232874,0.1295766830444336,-1.521881405507223,0.006892052944749594,0.0008033175836317241,0.6743302345275879,0.0,-0.0,0.0,0.0,0.0,0.0
1782665140,451552175,-1.656210724507467,0.12956476211547852,-1.5218575636493128,0.006904037203639746,0.0008153018425218761,0.6743901968002319,0.0,-0.0,0.0,0.0,0.0,0.0
1782665140,459554461,-1.6562703291522425,0.12955284118652344,-1.5218694845782679,0.006892052944749594,0.0007789746159687638,0.6743901968002319,0.0,-0.0,0.0,0.0,0.0,0.0
1782665140,467554859,-1.6562464872943323,0.12960100173950195,-1.5218094030963343,0.006892052944749594,0.0008153018425218761,0.6743901968002319,0.0,-0.0,0.0,0.0,0.0,0.0
1782665140,475555367,-1.6562226454364222,0.12958860397338867,-1.5218694845782679,0.006904037203639746,0.0007909588748589158,0.6743422150611877,0.0,-0.0,0.0,0.0,0.0,0.0
1782665140,483562079,-1.6562703291522425,0.12956476211547852,-1.521905247365133,0.00686808442696929,0.0007789746159687638,0.674318253993988,0.0,-0.0,0.0,0.0,0.0,0.0
1782665140,491555939,-1.6562464872943323,0.12958860397338867,-1.5218575636493128,0.006892052944749594,0.0008153018425218761,0.6743422150611877,0.0,-0.0,0.0,0.0,0.0,0.0
1782665140,499557725,-1.6562345663653772,0.12954092025756836,-1.521893326436178,0.006892052944749594,0.0007909588748589158,0.6743782162666321,0.0,-0.0,0.0,0.0,0.0,0.0
1782665140,507573529,-1.6562345663653772,0.12956476211547852,-1.521881405507223,0.006880068685859442,0.0008033175836317241,0.6744261384010315,0.0,-0.0,0.0,0.0,0.0,0.0
1782665140,515569222,-1.6561983267413538,0.1295170783996582,-1.5218694845782679,0.006892052944749594,0.0007669904152862728,0.6743062734603882,0.0,-0.0,0.0,0.0,0.0,0.0
1782665140,523564601,-1.656210724507467,0.12955284118652344,-1.5218694845782679,0.006892052944749594,0.0007909588748589158,0.6743542551994324,0.0,-0.0,0.0,0.0,0.0,0.0
1782665140,531597979,-1.6562345663653772,0.1295766830444336,-1.5218456427203577,0.00686808442696929,0.0008272860432043672,0.6743901968002319,0.0,-0.0,0.0,0.0,0.0,0.0
1782665140,539557247,-1.6561744848834437,0.12954092025756836,-1.521893326436178,0.006880068685859442,0.0007669904152862728,0.6743662357330322,0.0,-0.0,0.0,0.0,0.0,0.0
1782665140,547562774,-1.6562464872943323,0.12954092025756836,-1.5218337217914026,0.00686808442696929,0.0008153018425218761,0.6743542551994324,0.0,-0.0,0.0,0.0,0.0,0.0
1782665140,555566671,-1.6562464872943323,0.12955284118652344,-1.5218575636493128,0.006916021462529898,0.0008153018425218761,0.6743422150611877,0.0,-0.0,0.0,0.0,0.0,0.0
1782665140,563556383,-1.6562345663653772,0.12958860397338867,-1.5218575636493128,0.006904037203639746,0.0007909588748589158,0.6743901968002319,0.0,-0.0,0.0,0.0,0.0,0.0
1782665140,571562502,-1.6561864058123987,0.12954092025756836,-1.5218456427203577,0.006916021462529898,0.0008632387034595013,0.6743422150611877,0.0,-0.0,0.0,0.0,0.0,0.0
1782665140,579581566,-1.6561864058123987,0.12958860397338867,-1.5218575636493128,0.006904037203639746,0.0008392703020945191,0.6742942929267883,0.0,-0.0,0.0,0.0,0.0,0.0
1782665140,587556982,-1.6562226454364222,0.12954092025756836,-1.5218094030963343,0.006951974239200354,0.0007550062146037817,0.6743782162666321,0.0,-0.0,0.0,0.0,0.0,0.0
1782665140,596072518,-1.656210724507467,0.12954092025756836,-1.5218213240252894,0.006856100168079138,0.0008272860432043672,0.6743422150611877,0.0,-0.0,0.0,0.0,0.0,0.0
1782665140,603595627,-1.656210724507467,0.12954092025756836,-1.5218213240252894,0.006856100168079138,0.0008272860432043672,0.6743422150611877,0.0,-0.0,0.0,0.0,0.0,0.0
1782665140,611565580,-1.6561864058123987,0.12952899932861328,-1.521893326436178,0.006904037203639746,0.0008153018425218761,0.6743662357330322,0.0,-0.0,0.0,0.0,0.0,0.0
1782665140,619560681,-1.6562464872943323,0.12955284118652344,-1.5218694845782679,0.00692800572142005,0.0008153018425218761,0.6743542551994324,0.0,-0.0,0.0,0.0,0.0,0.0
1782665140,627559523,-1.6562584082232874,0.12960100173950195,-1.5218213240252894,0.00686808442696929,0.0008033175836317241,0.6743302345275879,0.0,-0.0,0.0,0.0,0.0,0.0
1782665140,635550587,-1.6562464872943323,0.12958860397338867,-1.521881405507223,0.00686808442696929,0.0008153018425218761,0.6743542551994324,0.0,-0.0,0.0,0.0,0.0,0.0
1782665140,643569446,-1.6561983267413538,0.12956476211547852,-1.5218337217914026,0.00692800572142005,0.0008392703020945191,0.6743901968002319,0.0,-0.0,0.0,0.0,0.0,0.0
1782665140,651563788,-1.6562822500811976,0.12952899932861328,-1.5218094030963343,0.006892052944749594,0.0008153018425218761,0.6743542551994324,0.0,-0.0,0.0,0.0,0.0,0.0
1782665140,659582851,-1.6562584082232874,0.1295766830444336,-1.5218094030963343,0.006904037203639746,0.0008392703020945191,0.6743782162666321,0.0,-0.0,0.0,0.0,0.0,0.0
1782665140,667565249,-1.6562822500811976,0.1295766830444336,-1.521881405507223,0.006892052944749594,0.0007789746159687638,0.6744021773338318,0.0,-0.0,0.0,0.0,0.0,0.0
1782665140,675572016,-1.6562584082232874,0.1295766830444336,-1.5218456427203577,0.00686808442696929,0.0008272860432043672,0.6743422150611877,0.0,-0.0,0.0,0.0,0.0,0.0
1782665140,683551673,-1.6562464872943323,0.12958860397338867,-1.5218337217914026,0.006880068685859442,0.0008153018425218761,0.6743302345275879,0.0,-0.0,0.0,0.0,0.0,0.0
1782665140,691577977,-1.6562464872943323,0.12958860397338867,-1.521881405507223,0.006904037203639746,0.0008153018425218761,0.674318253993988,0.0,-0.0,0.0,0.0,0.0,0.0
1782665140,699553263,-1.656210724507467,0.12952899932861328,-1.5218694845782679,0.006880068685859442,0.0007909588748589158,0.6743302345275879,0.0,-0.0,0.0,0.0,0.0,0.0
1782665140,707560123,-1.6562703291522425,0.1295766830444336,-1.521893326436178,0.006916021462529898,0.0008392703020945191,0.6743302345275879,0.0,-0.0,0.0,0.0,0.0,0.0
1782665140,715566372,-1.6562345663653772,0.1295766830444336,-1.521881405507223,0.006880068685859442,0.0008153018425218761,0.6743542551994324,0.0,-0.0,0.0,0.0,0.0,0.0
1782665140,723599232,-1.6562226454364222,0.12956476211547852,-1.521893326436178,0.006892052944749594,0.0007909588748589158,0.6743302345275879,0.0,-0.0,0.0,0.0,0.0,0.0
1782665140,731570555,-1.6562226454364222,0.12958860397338867,-1.521881405507223,0.006856100168079138,0.0008392703020945191,0.6744021773338318,0.0,-0.0,0.0,0.0,0.0,0.0
1782665140,739566952,-1.656210724507467,0.1296243667602539,-1.5218456427203577,0.00692800572142005,0.0008272860432043672,0.6743901968002319,0.0,-0.0,0.0,0.0,0.0,0.0
1782665140,747557072,-1.6562584082232874,0.12955284118652344,-1.521893326436178,0.006904037203639746,0.0008153018425218761,0.6743662357330322,0.0,-0.0,0.0,0.0,0.0,0.0
1782665140,755558339,-1.6562822500811976,0.12960100173950195,-1.5218094030963343,0.006916021462529898,0.0008033175836317241,0.6743422150611877,0.0,-0.0,0.0,0.0,0.0,0.0
1782665140,763559366,-1.6562345663653772,0.12952899932861328,-1.5218575636493128,0.006856100168079138,0.0008272860432043672,0.6743901968002319,0.0,-0.0,0.0,0.0,0.0,0.0
1782665140,771574319,-1.6562345663653772,0.12956476211547852,-1.5218575636493128,0.006904037203639746,0.0008153018425218761,0.6743302345275879,0.0,-0.0,0.0,0.0,0.0,0.0
1782665140,779552420,-1.6562464872943323,0.12954092025756836,-1.5218337217914026,0.006880068685859442,0.0008153018425218761,0.6743542551994324,0.0,-0.0,0.0,0.0,0.0,0.0
1782665140,787625427,-1.6562584082232874,0.12958860397338867,-1.521881405507223,0.00692800572142005,0.0007789746159687638,0.6743901968002319,0.0,-0.0,0.0,0.0,0.0,0.0
1782665140,795548751,-1.6562345663653772,0.12956476211547852,-1.5218456427203577,0.006904037203639746,0.0007909588748589158,0.674318253993988,0.0,-0.0,0.0,0.0,0.0,0.0
1782665140,803552000,-1.6562345663653772,0.12958860397338867,-1.5218337217914026,0.006904037203639746,0.0008153018425218761,0.6743542551994324,0.0,-0.0,0.0,0.0,0.0,0.0
1782665140,811555860,-1.6561983267413538,0.12956476211547852,-1.5218456427203577,0.00686808442696929,0.0007789746159687638,0.6743542551994324,0.0,-0.0,0.0,0.0,0.0,0.0
1782665140,819547498,-1.6562226454364222,0.12954092025756836,-1.521881405507223,0.006880068685859442,0.0008272860432043672,0.6743422150611877,0.0,-0.0,0.0,0.0,0.0,0.0
1782665140,827554969,-1.6562703291522425,0.12958860397338867,-1.5218337217914026,0.006904037203639746,0.0008033175836317241,0.6743662357330322,0.0,-0.0,0.0,0.0,0.0,0.0
1782665140,835557496,-1.656210724507467,0.12955284118652344,-1.5218694845782679,0.006916021462529898,0.0007909588748589158,0.6743662357330322,0.0,-0.0,0.0,0.0,0.0,0.0
1782665140,843564911,-1.6562584082232874,0.12956476211547852,-1.5218213240252894,0.006892052944749594,0.0008272860432043672,0.6743901968002319,0.0,-0.0,0.0,0.0,0.0,0.0
1782665140,851575808,-1.656210724507467,0.12956476211547852,-1.5218694845782679,0.006880068685859442,0.0007909588748589158,0.6743302345275879,0.0,-0.0,0.0,0.0,0.0,0.0
1782665140,859577631,-1.6562226454364222,0.12955284118652344,-1.5218694845782679,0.006892052944749594,0.0008392703020945191,0.674318253993988,0.0,-0.0,0.0,0.0,0.0,0.0
1782665140,867567732,-1.6562345663653772,0.1295766830444336,-1.5218694845782679,0.00686808442696929,0.0007909588748589158,0.6743422150611877,0.0,-0.0,0.0,0.0,0.0,0.0
1782665140,875553592,-1.6562226454364222,0.12958860397338867,-1.5218456427203577,0.006916021462529898,0.0008392703020945191,0.6743542551994324,0.0,-0.0,0.0,0.0,0.0,0.0
1782665140,883554582,-1.6562584082232874,0.1295766830444336,-1.5218575636493128,0.006856100168079138,0.0008153018425218761,0.6743302345275879,0.0,-0.0,0.0,0.0,0.0,0.0
1782665140,891547924,-1.6562226454364222,0.12960100173950195,-1.521893326436178,0.006880068685859442,0.0008153018425218761,0.6743302345275879,0.0,-0.0,0.0,0.0,0.0,0.0
1782665140,899547969,-1.6561864058123987,0.12954092025756836,-1.5218456427203577,0.006916021462529898,0.0008512545027770102,0.6743782162666321,0.0,-0.0,0.0,0.0,0.0,0.0
1782665140,907558681,-1.6562464872943323,0.12952899932861328,-1.5218694845782679,0.006939989980310202,0.0007789746159687638,0.6743422150611877,0.0,-0.0,0.0,0.0,0.0,0.0
1782665140,915552152,-1.6561864058123987,0.12956476211547852,-1.521881405507223,0.006904037203639746,0.0008272860432043672,0.6743662357330322,0.0,-0.0,0.0,0.0,0.0,0.0
1782665140,923559475,-1.6562464872943323,0.12955284118652344,-1.521881405507223,0.00686808442696929,0.0007669904152862728,0.6743542551994324,0.0,-0.0,0.0,0.0,0.0,0.0
1782665140,931556094,-1.6562226454364222,0.1295766830444336,-1.5218694845782679,0.006892052944749594,0.0008033175836317241,0.6743542551994324,0.0,-0.0,0.0,0.0,0.0,0.0
1782665140,939551399,-1.656210724507467,0.12956476211547852,-1.5218694845782679,0.006904037203639746,0.0008033175836317241,0.6743302345275879,0.0,-0.0,0.0,0.0,0.0,0.0
1782665140,947563648,-1.656210724507467,0.12952899932861328,-1.5218337217914026,0.006904037203639746,0.0008272860432043672,0.674318253993988,0.0,-0.0,0.0,0.0,0.0,0.0
1782665140,955571693,-1.6561983267413538,0.12956476211547852,-1.5218694845782679,0.00692800572142005,0.0007909588748589158,0.6743062734603882,0.0,-0.0,0.0,0.0,0.0,0.0
1782665140,963567034,-1.6562345663653772,0.12954092025756836,-1.521893326436178,0.00686808442696929,0.0008153018425218761,0.6743782162666321,0.0,-0.0,0.0,0.0,0.0,0.0
1782665140,971557783,-1.6562703291522425,0.1295766830444336,-1.5218094030963343,0.006904037203639746,0.0007909588748589158,0.6743542551994324,0.0,-0.0,0.0,0.0,0.0,0.0
1782665140,979553329,-1.6562822500811976,0.12956476211547852,-1.5218456427203577,0.006904037203639746,0.0007789746159687638,0.6743782162666321,0.0,-0.0,0.0,0.0,0.0,0.0
1782665140,987551004,-1.6561744848834437,0.12950468063354492,-1.5218694845782679,0.006916021462529898,0.0008153018425218761,0.674318253993988,0.0,-0.0,0.0,0.0,0.0,0.0
1782665140,995554567,-1.6562345663653772,0.12960100173950195,-1.5218575636493128,0.006951974239200354,0.0008512545027770102,0.6743901968002319,0.0,-0.0,0.0,0.0,0.0,0.0
1782665141,3559983,-1.6562464872943323,0.12958860397338867,-1.521881405507223,0.006904037203639746,0.0008033175836317241,0.6743662357330322,0.0,-0.0,0.0,0.0,0.0,0.0
1782665141,11559251,-1.6562345663653772,0.12954092025756836,-1.5218694845782679,0.00692800572142005,0.0007430219557136297,0.6743302345275879,0.0,-0.0,0.0,0.0,0.0,0.0
1782665141,19545889,-1.6562822500811976,0.1295766830444336,-1.521905247365133,0.006880068685859442,0.0008272860432043672,0.6743302345275879,0.0,-0.0,0.0,0.0,0.0,0.0
1782665141,27550398,-1.6562226454364222,0.1295766830444336,-1.521905247365133,0.006916021462529898,0.0008033175836317241,0.6743422150611877,0.0,-0.0,0.0,0.0,0.0,0.0
1782665141,35546814,-1.6562226454364222,0.12955284118652344,-1.5218694845782679,0.006892052944749594,0.0008392703020945191,0.6743662357330322,0.0,-0.0,0.0,0.0,0.0,0.0
1782665141,43546989,-1.6562584082232874,0.1295766830444336,-1.5218694845782679,0.006916021462529898,0.0007909588748589158,0.6743422150611877,0.0,-0.0,0.0,0.0,0.0,0.0
1782665141,51557609,-1.6562345663653772,0.12955284118652344,-1.5218337217914026,0.006904037203639746,0.0008153018425218761,0.6743422150611877,0.0,-0.0,0.0,0.0,0.0,0.0
1782665141,59561358,-1.6562464872943323,0.12955284118652344,-1.5218337217914026,0.006904037203639746,0.0008272860432043672,0.6743422150611877,0.0,-0.0,0.0,0.0,0.0,0.0
1782665141,67550571,-1.6562345663653772,0.1295766830444336,-1.521893326436178,0.00686808442696929,0.0007909588748589158,0.6743302345275879,0.0,-0.0,0.0,0.0,0.0,0.0
1782665141,75546320,-1.6562941710101526,0.12960100173950195,-1.5218694845782679,0.006904037203639746,0.0008033175836317241,0.6743901968002319,0.0,-0.0,0.0,0.0,0.0,0.0
1782665141,83564162,-1.6562345663653772,0.12954092025756836,-1.5218337217914026,0.006951974239200354,0.0008153018425218761,0.6743422150611877,0.0,-0.0,0.0,0.0,0.0,0.0
1782665141,91617577,-1.6562345663653772,0.12958860397338867,-1.521893326436178,0.006916021462529898,0.0008392703020945191,0.6743542551994324,0.0,-0.0,0.0,0.0,0.0,0.0
1782665141,99572549,-1.6562226454364222,0.1295766830444336,-1.521881405507223,0.006880068685859442,0.0008033175836317241,0.6743901968002319,0.0,-0.0,0.0,0.0,0.0,0.0
1782665141,109034218,-1.6561864058123987,0.12955284118652344,-1.521893326436178,0.00692800572142005,0.0008392703020945191,0.6743782162666321,0.0,-0.0,0.0,0.0,0.0,0.0
1782665141,115697342,-1.6561864058123987,0.12955284118652344,-1.521893326436178,0.00692800572142005,0.0008392703020945191,0.6743782162666321,0.0,-0.0,0.0,0.0,0.0,0.0
1782665141,123582853,-1.656210724507467,0.12956476211547852,-1.521881405507223,0.006880068685859442,0.0007669904152862728,0.6743782162666321,0.0,-0.0,0.0,0.0,0.0,0.0
1782665141,132173110,-1.6562464872943323,0.12955284118652344,-1.5218456427203577,0.006904037203639746,0.0007909588748589158,0.6743542551994324,0.0,-0.0,0.0,0.0,0.0,0.0
1782665141,139750719,-1.6562464872943323,0.12955284118652344,-1.5218456427203577,0.006904037203639746,0.0007909588748589158,0.6743542551994324,0.0,-0.0,0.0,0.0,0.0,0.0
1782665141,147548472,-1.6562345663653772,0.12954092025756836,-1.5218694845782679,0.006856100168079138,0.0008392703020945191,0.6743782162666321,0.0,-0.0,0.0,0.0,0.0,0.0
1782665141,155586054,-1.656210724507467,0.12956476211547852,-1.5218337217914026,0.00686808442696929,0.0007789746159687638,0.674318253993988,0.0,-0.0,0.0,0.0,0.0,0.0
1782665141,163587488,-1.6562464872943323,0.12955284118652344,-1.5218694845782679,0.006856100168079138,0.0007909588748589158,0.674318253993988,0.0,-0.0,0.0,0.0,0.0,0.0
1782665141,171663885,-1.656210724507467,0.12956476211547852,-1.521893326436178,0.006916021462529898,0.0008512545027770102,0.674318253993988,0.0,-0.0,0.0,0.0,0.0,0.0
1782665141,179572635,-1.6562226454364222,0.12955284118652344,-1.5218456427203577,0.00686808442696929,0.0007789746159687638,0.6743782162666321,0.0,-0.0,0.0,0.0,0.0,0.0
1782665141,187602755,-1.6562703291522425,0.1295766830444336,-1.5218694845782679,0.006904037203639746,0.0008033175836317241,0.6743542551994324,0.0,-0.0,0.0,0.0,0.0,0.0
1782665141,198903928,-1.656210724507467,0.12961292266845703,-1.5218456427203577,0.00692800572142005,0.0008153018425218761,0.6743302345275879,0.0,-0.0,0.0,0.0,0.0,0.0
1782665141,222282631,-1.6562345663653772,0.12958860397338867,-1.5218694845782679,0.006892052944749594,0.0008392703020945191,0.674318253993988,0.0,-0.0,0.0,0.0,0.0,0.0
1782665141,235931912,-1.6562464872943323,0.12958860397338867,-1.5218575636493128,0.006904037203639746,0.0008033175836317241,0.6743662357330322,0.0,-0.0,0.0,0.0,0.0,0.0
1782665141,259745163,-1.6562345663653772,0.12956476211547852,-1.521881405507223,0.006951974239200354,0.0008033175836317241,0.6743302345275879,0.0,-0.0,0.0,0.0,0.0,0.0
1782665141,275551369,-1.6562822500811976,0.12952899932861328,-1.5218694845782679,0.00692800572142005,0.0008153018425218761,0.6743662357330322,0.0,-0.0,0.0,0.0,0.0,0.0
1782665141,291603274,-1.6562226454364222,0.12960100173950195,-1.5218456427203577,0.00692800572142005,0.0008153018425218761,0.6743542551994324,0.0,-0.0,0.0,0.0,0.0,0.0
1782665141,299602542,-1.6562345663653772,0.12955284118652344,-1.5218575636493128,0.00686808442696929,0.0008153018425218761,0.6743782162666321,0.0,-0.0,0.0,0.0,0.0,0.0
1782665141,307558255,-1.6562584082232874,0.12956476211547852,-1.521881405507223,0.006951974239200354,0.0008272860432043672,0.6743302345275879,0.0,-0.0,0.0,0.0,0.0,0.0
1782665141,315555171,-1.6562345663653772,0.12956476211547852,-1.5218694845782679,0.00692800572142005,0.0008272860432043672,0.6743422150611877,0.0,-0.0,0.0,0.0,0.0,0.0
1782665141,323550810,-1.6562941710101526,0.12955284118652344,-1.5218694845782679,0.006880068685859442,0.0008272860432043672,0.6743422150611877,0.0,-0.0,0.0,0.0,0.0,0.0
1782665141,331551744,-1.6562226454364222,0.12954092025756836,-1.521881405507223,0.00692800572142005,0.0008392703020945191,0.6743782162666321,0.0,-0.0,0.0,0.0,0.0,0.0
1782665141,339547938,-1.6562584082232874,0.12954092025756836,-1.521905247365133,0.006939989980310202,0.0007909588748589158,0.6744021773338318,0.0,-0.0,0.0,0.0,0.0,0.0
1782665141,347547095,-1.6562464872943323,0.12958860397338867,-1.5218694845782679,0.006880068685859442,0.0008153018425218761,0.6743302345275879,0.0,-0.0,0.0,0.0,0.0,0.0
1782665141,355560307,-1.6562584082232874,0.12960100173950195,-1.5219176451312464,0.006939989980310202,0.0008272860432043672,0.6744021773338318,0.0,-0.0,0.0,0.0,0.0,0.0
1782665141,363569667,-1.6562464872943323,0.12956476211547852,-1.5218213240252894,0.006916021462529898,0.0008153018425218761,0.6743542551994324,0.0,-0.0,0.0,0.0,0.0,0.0
1782665141,371581028,-1.6562226454364222,0.12954092025756836,-1.5218337217914026,0.006820147857069969,0.0008512545027770102,0.6743422150611877,0.0,-0.0,0.0,0.0,0.0,0.0
1782665141,379661998,-1.6561864058123987,0.12954092025756836,-1.521893326436178,0.006939989980310202,0.0007669904152862728,0.6743302345275879,0.0,-0.0,0.0,0.0,0.0,0.0
1782665141,387606952,-1.6562226454364222,0.1295766830444336,-1.5218456427203577,0.006916021462529898,0.0007909588748589158,0.6743662357330322,0.0,-0.0,0.0,0.0,0.0,0.0
1782665141,395565554,-1.6562584082232874,0.12958860397338867,-1.5218456427203577,0.006892052944749594,0.0007669904152862728,0.6743422150611877,0.0,-0.0,0.0,0.0,0.0,0.0
1782665141,403547137,-1.6562941710101526,0.12958860397338867,-1.5218694845782679,0.00692800572142005,0.0008392703020945191,0.6743901968002319,0.0,-0.0,0.0,0.0,0.0,0.0
1782665141,411624181,-1.6562345663653772,0.12958860397338867,-1.5218456427203577,0.006892052944749594,0.0007789746159687638,0.6743901968002319,0.0,-0.0,0.0,0.0,0.0,0.0
1782665141,419561820,-1.6562464872943323,0.12956476211547852,-1.5218213240252894,0.006904037203639746,0.0008153018425218761,0.6743302345275879,0.0,-0.0,0.0,0.0,0.0,0.0
1782665141,427626513,-1.6562345663653772,0.12954092025756836,-1.521881405507223,0.006904037203639746,0.0008392703020945191,0.6743302345275879,0.0,-0.0,0.0,0.0,0.0,0.0
1782665141,435603504,-1.6562345663653772,0.12958860397338867,-1.5218094030963343,0.00686808442696929,0.0008272860432043672,0.6743422150611877,0.0,-0.0,0.0,0.0,0.0,0.0
1782665141,443565383,-1.6562226454364222,0.12958860397338867,-1.5218456427203577,0.006880068685859442,0.0007789746159687638,0.6743542551994324,0.0,-0.0,0.0,0.0,0.0,0.0
1782665141,451552188,-1.656210724507467,0.12958860397338867,-1.521881405507223,0.006880068685859442,0.0007669904152862728,0.6743542551994324,0.0,-0.0,0.0,0.0,0.0,0.0
1782665141,459730842,-1.6562345663653772,0.1295766830444336,-1.5218694845782679,0.006880068685859442,0.0007909588748589158,0.6743422150611877,0.0,-0.0,0.0,0.0,0.0,0.0
1782665141,471568228,-1.6562703291522425,0.12960100173950195,-1.5218456427203577,0.006892052944749594,0.0008392703020945191,0.6743901968002319,0.0,-0.0,0.0,0.0,0.0,0.0
1782665141,475956763,-1.6562703291522425,0.12960100173950195,-1.5218456427203577,0.006892052944749594,0.0008392703020945191,0.6743901968002319,0.0,-0.0,0.0,0.0,0.0,0.0
1782665141,483555186,-1.6562345663653772,0.12960100173950195,-1.5218694845782679,0.006892052944749594,0.0008153018425218761,0.6743422150611877,0.0,-0.0,0.0,0.0,0.0,0.0
1782665141,491720210,-1.6562226454364222,0.12960100173950195,-1.5218456427203577,0.006844115909188986,0.0008512545027770102,0.6743422150611877,0.0,-0.0,0.0,0.0,0.0,0.0
1782665141,499560684,-1.6562226454364222,0.12952899932861328,-1.521881405507223,0.006916021462529898,0.0008153018425218761,0.6743542551994324,0.0,-0.0,0.0,0.0,0.0,0.0
1782665141,507554730,-1.6562226454364222,0.12955284118652344,-1.5218456427203577,0.00692800572142005,0.0008392703020945191,0.6743662357330322,0.0,-0.0,0.0,0.0,0.0,0.0
1782665141,515555794,-1.6562464872943323,0.12952899932861328,-1.521881405507223,0.00686808442696929,0.0008392703020945191,0.6743662357330322,0.0,-0.0,0.0,0.0,0.0,0.0
1782665141,523553525,-1.6562584082232874,0.12958860397338867,-1.5218575636493128,0.006904037203639746,0.0007909588748589158,0.6743782162666321,0.0,-0.0,0.0,0.0,0.0,0.0
1782665141,531551775,-1.6562703291522425,0.12960100173950195,-1.521893326436178,0.006880068685859442,0.0008033175836317241,0.6743542551994324,0.0,-0.0,0.0,0.0,0.0,0.0
1782665141,539606930,-1.6562226454364222,0.12958860397338867,-1.5218213240252894,0.00692800572142005,0.0008153018425218761,0.6743422150611877,0.0,-0.0,0.0,0.0,0.0,0.0
1782665141,547551903,-1.6562464872943323,0.1295170783996582,-1.5218575636493128,0.006892052944749594,0.0008033175836317241,0.6743901968002319,0.0,-0.0,0.0,0.0,0.0,0.0
1782665141,555573763,-1.656210724507467,0.12956476211547852,-1.521881405507223,0.006892052944749594,0.0008033175836317241,0.6743901968002319,0.0,-0.0,0.0,0.0,0.0,0.0
1782665141,563551365,-1.6562584082232874,0.12954092025756836,-1.521893326436178,0.006904037203639746,0.0008153018425218761,0.6743662357330322,0.0,-0.0,0.0,0.0,0.0,0.0
1782665141,571560447,-1.6562226454364222,0.12956476211547852,-1.5218456427203577,0.006939989980310202,0.0007669904152862728,0.6743422150611877,0.0,-0.0,0.0,0.0,0.0,0.0
1782665141,579552382,-1.6562226454364222,0.12958860397338867,-1.521881405507223,0.006892052944749594,0.0008272860432043672,0.6743422150611877,0.0,-0.0,0.0,0.0,0.0,0.0
1782665141,587611649,-1.6562345663653772,0.1295766830444336,-1.5218575636493128,0.006844115909188986,0.0007550062146037817,0.6743782162666321,0.0,-0.0,0.0,0.0,0.0,0.0
1782665141,595556621,-1.6562226454364222,0.12956476211547852,-1.5218337217914026,0.006880068685859442,0.0008153018425218761,0.6743422150611877,0.0,-0.0,0.0,0.0,0.0,0.0
1782665141,603553500,-1.6562822500811976,0.12956476211547852,-1.5218456427203577,0.006892052944749594,0.0008153018425218761,0.6743302345275879,0.0,-0.0,0.0,0.0,0.0,0.0
1782665141,611573360,-1.6562464872943323,0.12952899932861328,-1.521881405507223,0.006916021462529898,0.0008153018425218761,0.6743662357330322,0.0,-0.0,0.0,0.0,0.0,0.0
1782665141,619552036,-1.6562226454364222,0.12960100173950195,-1.521893326436178,0.006916021462529898,0.0008272860432043672,0.6743901968002319,0.0,-0.0,0.0,0.0,0.0,0.0
1782665141,627572341,-1.656210724507467,0.12954092025756836,-1.521881405507223,0.006916021462529898,0.0008153018425218761,0.6743302345275879,0.0,-0.0,0.0,0.0,0.0,0.0
1782665141,635546628,-1.6562345663653772,0.12956476211547852,-1.5218694845782679,0.006904037203639746,0.0008512545027770102,0.6743542551994324,0.0,-0.0,0.0,0.0,0.0,0.0
1782665141,643564488,-1.6562584082232874,0.1295766830444336,-1.521881405507223,0.00686808442696929,0.0007789746159687638,0.6743542551994324,0.0,-0.0,0.0,0.0,0.0,0.0
1782665141,652129301,-1.6562584082232874,0.12958860397338867,-1.5218694845782679,0.006904037203639746,0.0008392703020945191,0.6743662357330322,0.0,-0.0,0.0,0.0,0.0,0.0
1782665141,659658133,-1.6562584082232874,0.12958860397338867,-1.5218694845782679,0.006904037203639746,0.0008392703020945191,0.6743662357330322,0.0,-0.0,0.0,0.0,0.0,0.0
1782665141,667552236,-1.6562584082232874,0.12958860397338867,-1.5218456427203577,0.006916021462529898,0.0008153018425218761,0.6743422150611877,0.0,-0.0,0.0,0.0,0.0,0.0
1782665141,675653058,-1.6562464872943323,0.12961292266845703,-1.5218694845782679,0.006904037203639746,0.0008272860432043672,0.6743422150611877,0.0,-0.0,0.0,0.0,0.0,0.0
1782665141,683557383,-1.6562464872943323,0.12952899932861328,-1.5218694845782679,0.006939989980310202,0.0007669904152862728,0.6743542551994324,0.0,-0.0,0.0,0.0,0.0,0.0
1782665141,691548114,-1.6562464872943323,0.1295766830444336,-1.5218337217914026,0.006939989980310202,0.0007669904152862728,0.6743901968002319,0.0,-0.0,0.0,0.0,0.0,0.0
1782665141,699547808,-1.6562345663653772,0.12960100173950195,-1.5218213240252894,0.00686808442696929,0.0008033175836317241,0.6743662357330322,0.0,-0.0,0.0,0.0,0.0,0.0
1782665141,707547872,-1.6562703291522425,0.12955284118652344,-1.5218337217914026,0.006880068685859442,0.0007789746159687638,0.6743782162666321,0.0,-0.0,0.0,0.0,0.0,0.0
1782665141,715552806,-1.6562703291522425,0.1295766830444336,-1.5218575636493128,0.00692800572142005,0.0008033175836317241,0.6743542551994324,0.0,-0.0,0.0,0.0,0.0,0.0
1782665141,723559852,-1.6562226454364222,0.12956476211547852,-1.5218694845782679,0.006916021462529898,0.0008512545027770102,0.6743662357330322,0.0,-0.0,0.0,0.0,0.0,0.0
1782665141,731661933,-1.656210724507467,0.12958860397338867,-1.5218575636493128,0.006916021462529898,0.0007909588748589158,0.6743062734603882,0.0,-0.0,0.0,0.0,0.0,0.0
1782665141,739653275,-1.656210724507467,0.12955284118652344,-1.5218694845782679,0.006904037203639746,0.0008033175836317241,0.674318253993988,0.0,-0.0,0.0,0.0,0.0,0.0
1782665141,747554600,-1.6562226454364222,0.12956476211547852,-1.521881405507223,0.006916021462529898,0.0008033175836317241,0.6744021773338318,0.0,-0.0,0.0,0.0,0.0,0.0
1782665141,755604941,-1.6562226454364222,0.12960100173950195,-1.5218575636493128,0.006904037203639746,0.0008272860432043672,0.6742703318595886,0.0,-0.0,0.0,0.0,0.0,0.0
1782665141,771636495,-1.656210724507467,0.12956476211547852,-1.5218694845782679,0.00692800572142005,0.0008153018425218761,0.6743062734603882,0.0,-0.0,0.0,0.0,0.0,0.0
1782665141,779553486,-1.6562345663653772,0.12956476211547852,-1.5218694845782679,0.006904037203639746,0.0008153018425218761,0.6743422150611877,0.0,-0.0,0.0,0.0,0.0,0.0
1782665141,795656224,-1.6562584082232874,0.12958860397338867,-1.5218456427203577,0.006916021462529898,0.0008512545027770102,0.6743302345275879,0.0,-0.0,0.0,0.0,0.0,0.0
1782665141,804012523,-1.6562584082232874,0.12954092025756836,-1.5218213240252894,0.006939989980310202,0.0008153018425218761,0.674318253993988,0.0,-0.0,0.0,0.0,0.0,0.0
1782665141,811801257,-1.6562584082232874,0.12954092025756836,-1.5218213240252894,0.006939989980310202,0.0008153018425218761,0.674318253993988,0.0,-0.0,0.0,0.0,0.0,0.0
1782665141,819560270,-1.6562345663653772,0.12956476211547852,-1.5218337217914026,0.006880068685859442,0.0008153018425218761,0.6743662357330322,0.0,-0.0,0.0,0.0,0.0,0.0
1782665141,827559038,-1.6562345663653772,0.12958860397338867,-1.521881405507223,0.006892052944749594,0.0007669904152862728,0.6743901968002319,0.0,-0.0,0.0,0.0,0.0,0.0
1782665141,835632897,-1.656210724507467,0.12958860397338867,-1.521881405507223,0.00686808442696929,0.0007789746159687638,0.6743422150611877,0.0,-0.0,0.0,0.0,0.0,0.0
1782665141,843572462,-1.656210724507467,0.12954092025756836,-1.5218456427203577,0.00692800572142005,0.0008392703020945191,0.6743542551994324,0.0,-0.0,0.0,0.0,0.0,0.0
1782665141,851570082,-1.6561983267413538,0.12956476211547852,-1.5218575636493128,0.006939989980310202,0.0008272860432043672,0.6744021773338318,0.0,-0.0,0.0,0.0,0.0,0.0
1782665141,859553202,-1.6562345663653772,0.12958860397338867,-1.521881405507223,0.006880068685859442,0.0008153018425218761,0.6743782162666321,0.0,-0.0,0.0,0.0,0.0,0.0
1782665141,867594007,-1.6562226454364222,0.12958860397338867,-1.5218337217914026,0.00692800572142005,0.0008153018425218761,0.6743542551994324,0.0,-0.0,0.0,0.0,0.0,0.0
1782665141,875749772,-1.6562464872943323,0.12961292266845703,-1.521881405507223,0.006916021462529898,0.0008392703020945191,0.6743422150611877,0.0,-0.0,0.0,0.0,0.0,0.0
1782665141,883563821,-1.656210724507467,0.12955284118652344,-1.521881405507223,0.006916021462529898,0.0007909588748589158,0.6743542551994324,0.0,-0.0,0.0,0.0,0.0,0.0
1782665141,891559200,-1.6561864058123987,0.12955284118652344,-1.5218694845782679,0.006916021462529898,0.0008153018425218761,0.674318253993988,0.0,-0.0,0.0,0.0,0.0,0.0
1782665141,899583430,-1.6562345663653772,0.12958860397338867,-1.5218337217914026,0.00692800572142005,0.0008512545027770102,0.6743422150611877,0.0,-0.0,0.0,0.0,0.0,0.0
1782665141,907716548,-1.6562464872943323,0.12952899932861328,-1.5218694845782679,0.006892052944749594,0.0008153018425218761,0.6743662357330322,0.0,-0.0,0.0,0.0,0.0,0.0
1782665141,915572670,-1.6562584082232874,0.12955284118652344,-1.5218575636493128,0.00692800572142005,0.0008033175836317241,0.6743422150611877,0.0,-0.0,0.0,0.0,0.0,0.0
1782665141,923570827,-1.656210724507467,0.1295766830444336,-1.521893326436178,0.00692800572142005,0.0008033175836317241,0.6743302345275879,0.0,-0.0,0.0,0.0,0.0,0.0
1782665141,931570817,-1.656210724507467,0.12955284118652344,-1.521893326436178,0.00692800572142005,0.0007909588748589158,0.6743662357330322,0.0,-0.0,0.0,0.0,0.0,0.0
1782665141,939612250,-1.6562464872943323,0.12950468063354492,-1.521893326436178,0.006916021462529898,0.0008272860432043672,0.6743662357330322,0.0,-0.0,0.0,0.0,0.0,0.0
1782665141,947571704,-1.6562822500811976,0.12956476211547852,-1.5218337217914026,0.006939989980310202,0.0008272860432043672,0.6743422150611877,0.0,-0.0,0.0,0.0,0.0,0.0
1782665141,955795765,-1.6562226454364222,0.12954092025756836,-1.521881405507223,0.006916021462529898,0.0008392703020945191,0.6743662357330322,0.0,-0.0,0.0,0.0,0.0,0.0
1782665141,963564962,-1.6562345663653772,0.1295766830444336,-1.5218094030963343,0.006880068685859442,0.0008153018425218761,0.6744021773338318,0.0,-0.0,0.0,0.0,0.0,0.0
1782665141,971581174,-1.6562584082232874,0.12956476211547852,-1.521893326436178,0.006904037203639746,0.0008392703020945191,0.6743782162666321,0.0,-0.0,0.0,0.0,0.0,0.0
1782665141,979565943,-1.6562345663653772,0.12955284118652344,-1.5218456427203577,0.006880068685859442,0.0008153018425218761,0.6743302345275879,0.0,-0.0,0.0,0.0,0.0,0.0
1782665141,987577951,-1.6562703291522425,0.12955284118652344,-1.5218456427203577,0.006880068685859442,0.0008392703020945191,0.6743422150611877,0.0,-0.0,0.0,0.0,0.0,0.0
1782665141,995572960,-1.6562464872943323,0.12955284118652344,-1.521881405507223,0.006904037203639746,0.0008392703020945191,0.6743422150611877,0.0,-0.0,0.0,0.0,0.0,0.0
1782665142,3656967,-1.6562345663653772,0.12958860397338867,-1.5218456427203577,0.006951974239200354,0.0008392703020945191,0.6744021773338318,0.0,-0.0,0.0,0.0,0.0,0.0
1782665142,11551774,-1.6562345663653772,0.12955284118652344,-1.5218456427203577,0.006880068685859442,0.0008153018425218761,0.6743542551994324,0.0,-0.0,0.0,0.0,0.0,0.0
1782665142,19559190,-1.6562822500811976,0.12956476211547852,-1.5218337217914026,0.006880068685859442,0.0008153018425218761,0.6743542551994324,0.0,-0.0,0.0,0.0,0.0,0.0
1782665142,27574125,-1.6562226454364222,0.12956476211547852,-1.5218694845782679,0.006856100168079138,0.0008512545027770102,0.6743782162666321,0.0,-0.0,0.0,0.0,0.0,0.0
1782665142,35571430,-1.6562584082232874,0.12954092025756836,-1.5218337217914026,0.006916021462529898,0.0008153018425218761,0.6743662357330322,0.0,-0.0,0.0,0.0,0.0,0.0
1782665142,43568051,-1.6562464872943323,0.12956476211547852,-1.521881405507223,0.006880068685859442,0.0008272860432043672,0.6743542551994324,0.0,-0.0,0.0,0.0,0.0,0.0
1782665142,51562745,-1.6562584082232874,0.12954092025756836,-1.521881405507223,0.006904037203639746,0.0007789746159687638,0.6743542551994324,0.0,-0.0,0.0,0.0,0.0,0.0
1782665142,59570402,-1.6562345663653772,0.12955284118652344,-1.5218456427203577,0.006939989980310202,0.0008272860432043672,0.6743901968002319,0.0,-0.0,0.0,0.0,0.0,0.0
1782665142,67598485,-1.6562345663653772,0.1295170783996582,-1.5218456427203577,0.00686808442696929,0.0007909588748589158,0.6743422150611877,0.0,-0.0,0.0,0.0,0.0,0.0
1782665142,75573087,-1.6562584082232874,0.12960100173950195,-1.5218575636493128,0.006916021462529898,0.0008272860432043672,0.6743422150611877,0.0,-0.0,0.0,0.0,0.0,0.0
1782665142,83553448,-1.6562703291522425,0.1295766830444336,-1.5218694845782679,0.006880068685859442,0.0008153018425218761,0.6743302345275879,0.0,-0.0,0.0,0.0,0.0,0.0
1782665142,92307407,-1.6562822500811976,0.1296243667602539,-1.5218694845782679,0.00692800572142005,0.0008033175836317241,0.6743662357330322,0.0,-0.0,0.0,0.0,0.0,0.0
1782665142,99920941,-1.6562822500811976,0.1296243667602539,-1.5218694845782679,0.00692800572142005,0.0008033175836317241,0.6743662357330322,0.0,-0.0,0.0,0.0,0.0,0.0
1782665142,107589215,-1.6562464872943323,0.12958860397338867,-1.5219176451312464,0.006916021462529898,0.0007669904152862728,0.6743422150611877,0.0,-0.0,0.0,0.0,0.0,0.0
1782665142,115546595,-1.6562345663653772,0.12960100173950195,-1.5218213240252894,0.006916021462529898,0.0007789746159687638,0.6743422150611877,0.0,-0.0,0.0,0.0,0.0,0.0
1782665142,123560715,-1.6562464872943323,0.12955284118652344,-1.521893326436178,0.00692800572142005,0.0008153018425218761,0.6743302345275879,0.0,-0.0,0.0,0.0,0.0,0.0
1782665142,131567409,-1.6562822500811976,0.12955284118652344,-1.5218456427203577,0.006856100168079138,0.0008153018425218761,0.674318253993988,0.0,-0.0,0.0,0.0,0.0,0.0
1782665142,139591288,-1.6562584082232874,0.12956476211547852,-1.5218694845782679,0.00692800572142005,0.0008033175836317241,0.6743782162666321,0.0,-0.0,0.0,0.0,0.0,0.0
1782665142,147578020,-1.6562345663653772,0.1295170783996582,-1.5218213240252894,0.006880068685859442,0.0007789746159687638,0.6743422150611877,0.0,-0.0,0.0,0.0,0.0,0.0
1782665142,155623047,-1.6562345663653772,0.12958860397338867,-1.5219176451312464,0.006832132115960121,0.0008272860432043672,0.6743422150611877,0.0,-0.0,0.0,0.0,0.0,0.0
1782665142,163566964,-1.6562345663653772,0.1295766830444336,-1.5218575636493128,0.00692800572142005,0.0008392703020945191,0.6743422150611877,0.0,-0.0,0.0,0.0,0.0,0.0
1782665142,171567566,-1.6562226454364222,0.12958860397338867,-1.521881405507223,0.006916021462529898,0.0007669904152862728,0.6743542551994324,0.0,-0.0,0.0,0.0,0.0,0.0
1782665142,179565482,-1.6562226454364222,0.1295766830444336,-1.521881405507223,0.006916021462529898,0.0008153018425218761,0.6743422150611877,0.0,-0.0,0.0,0.0,0.0,0.0
1782665142,187564139,-1.6562345663653772,0.12958860397338867,-1.5218575636493128,0.00692800572142005,0.0007789746159687638,0.6743782162666321,0.0,-0.0,0.0,0.0,0.0,0.0
1782665142,195576148,-1.656210724507467,0.12955284118652344,-1.5218694845782679,0.006880068685859442,0.0007669904152862728,0.6743782162666321,0.0,-0.0,0.0,0.0,0.0,0.0
1782665142,203579157,-1.6562345663653772,0.1295766830444336,-1.521881405507223,0.006916021462529898,0.0007909588748589158,0.6743302345275879,0.0,-0.0,0.0,0.0,0.0,0.0
1782665142,211562407,-1.6562822500811976,0.12955284118652344,-1.5218456427203577,0.00692800572142005,0.0008153018425218761,0.6743542551994324,0.0,-0.0,0.0,0.0,0.0,0.0
1782665142,219555564,-1.656210724507467,0.1296243667602539,-1.5218575636493128,0.006892052944749594,0.0008272860432043672,0.6743422150611877,0.0,-0.0,0.0,0.0,0.0,0.0
1782665142,227584110,-1.6562345663653772,0.12960100173950195,-1.5218094030963343,0.006904037203639746,0.0007789746159687638,0.6743422150611877,0.0,-0.0,0.0,0.0,0.0,0.0
1782665142,235750468,-1.656210724507467,0.12956476211547852,-1.521893326436178,0.006856100168079138,0.0008153018425218761,0.6743782162666321,0.0,-0.0,0.0,0.0,0.0,0.0
1782665142,243582480,-1.6562584082232874,0.12955284118652344,-1.5218456427203577,0.006892052944749594,0.0007909588748589158,0.6743542551994324,0.0,-0.0,0.0,0.0,0.0,0.0
1782665142,251564674,-1.6561983267413538,0.12958860397338867,-1.5218694845782679,0.006892052944749594,0.0008153018425218761,0.6743901968002319,0.0,-0.0,0.0,0.0,0.0,0.0
1782665142,259585739,-1.6562464872943323,0.12960100173950195,-1.5218337217914026,0.006916021462529898,0.0008272860432043672,0.6743542551994324,0.0,-0.0,0.0,0.0,0.0,0.0
1782665142,267678505,-1.6562703291522425,0.12958860397338867,-1.5218337217914026,0.006904037203639746,0.0007669904152862728,0.6743662357330322,0.0,-0.0,0.0,0.0,0.0,0.0
1782665142,275568757,-1.6562226454364222,0.1295766830444336,-1.521881405507223,0.00692800572142005,0.0007789746159687638,0.6743782162666321,0.0,-0.0,0.0,0.0,0.0,0.0
1782665142,283561840,-1.6562345663653772,0.1295766830444336,-1.5218337217914026,0.006844115909188986,0.0008033175836317241,0.6742942929267883,0.0,-0.0,0.0,0.0,0.0,0.0
1782665142,291834622,-1.6562464872943323,0.12960100173950195,-1.521893326436178,0.00692800572142005,0.0007789746159687638,0.6743901968002319,0.0,-0.0,0.0,0.0,0.0,0.0
1782665142,299573377,-1.6561983267413538,0.1295766830444336,-1.5218575636493128,0.006880068685859442,0.0008033175836317241,0.6743542551994324,0.0,-0.0,0.0,0.0,0.0,0.0
1782665142,307572682,-1.6562226454364222,0.1295766830444336,-1.5218456427203577,0.006916021462529898,0.0007789746159687638,0.6743422150611877,0.0,-0.0,0.0,0.0,0.0,0.0
1782665142,315556062,-1.6562345663653772,0.12958860397338867,-1.5218575636493128,0.00686808442696929,0.0008033175836317241,0.6743901968002319,0.0,-0.0,0.0,0.0,0.0,0.0
1782665142,323578219,-1.6562345663653772,0.12956476211547852,-1.521881405507223,0.00692800572142005,0.0008033175836317241,0.6743542551994324,0.0,-0.0,0.0,0.0,0.0,0.0
1782665142,331569265,-1.656210724507467,0.12955284118652344,-1.5218456427203577,0.006880068685859442,0.0008272860432043672,0.6743782162666321,0.0,-0.0,0.0,0.0,0.0,0.0
1782665142,339574755,-1.6562584082232874,0.12954092025756836,-1.521881405507223,0.00692800572142005,0.0008153018425218761,0.6744021773338318,0.0,-0.0,0.0,0.0,0.0,0.0
1782665142,347563690,-1.6562703291522425,0.12961292266845703,-1.5218456427203577,0.00692800572142005,0.0008153018425218761,0.6743422150611877,0.0,-0.0,0.0,0.0,0.0,0.0
1782665142,355570810,-1.6562464872943323,0.12955284118652344,-1.5218456427203577,0.006892052944749594,0.0008272860432043672,0.6743422150611877,0.0,-0.0,0.0,0.0,0.0,0.0
1782665142,363603689,-1.6562584082232874,0.1295766830444336,-1.5218337217914026,0.006880068685859442,0.0008153018425218761,0.6743542551994324,0.0,-0.0,0.0,0.0,0.0,0.0
1782665142,371571680,-1.6562703291522425,0.12954092025756836,-1.5218456427203577,0.006880068685859442,0.0008153018425218761,0.6743302345275879,0.0,-0.0,0.0,0.0,0.0,0.0
1782665142,379560227,-1.6562226454364222,0.12956476211547852,-1.5218694845782679,0.006904037203639746,0.0008272860432043672,0.6743542551994324,0.0,-0.0,0.0,0.0,0.0,0.0
1782665142,387562884,-1.6562703291522425,0.12956476211547852,-1.5218694845782679,0.006916021462529898,0.0007909588748589158,0.6743542551994324,0.0,-0.0,0.0,0.0,0.0,0.0
1782665142,395597559,-1.6562345663653772,0.12955284118652344,-1.5218575636493128,0.006939989980310202,0.0008153018425218761,0.6743422150611877,0.0,-0.0,0.0,0.0,0.0,0.0
1782665142,403600290,-1.6562226454364222,0.12958860397338867,-1.521881405507223,0.006892052944749594,0.0008033175836317241,0.6743542551994324,0.0,-0.0,0.0,0.0,0.0,0.0
1782665142,411570614,-1.6562584082232874,0.12955284118652344,-1.521905247365133,0.006892052944749594,0.0008272860432043672,0.6743542551994324,0.0,-0.0,0.0,0.0,0.0,0.0
1782665142,419587753,-1.6562703291522425,0.1295766830444336,-1.5218337217914026,0.006844115909188986,0.0007909588748589158,0.6743542551994324,0.0,-0.0,0.0,0.0,0.0,0.0
1782665142,427610817,-1.6562226454364222,0.12952899932861328,-1.5218575636493128,0.006939989980310202,0.0007789746159687638,0.6743422150611877,0.0,-0.0,0.0,0.0,0.0,0.0
1782665142,435575660,-1.6562226454364222,0.1295766830444336,-1.5218456427203577,0.006892052944749594,0.0008272860432043672,0.6743901968002319,0.0,-0.0,0.0,0.0,0.0,0.0
1782665142,443565484,-1.6562226454364222,0.12958860397338867,-1.521881405507223,0.00692800572142005,0.0007909588748589158,0.6743782162666321,0.0,-0.0,0.0,0.0,0.0,0.0
1782665142,451575122,-1.6562464872943323,0.12958860397338867,-1.5218575636493128,0.006892052944749594,0.0008033175836317241,0.6743542551994324,0.0,-0.0,0.0,0.0,0.0,0.0
1782665142,459637075,-1.6562345663653772,0.12954092025756836,-1.5218575636493128,0.006916021462529898,0.0007909588748589158,0.674318253993988,0.0,-0.0,0.0,0.0,0.0,0.0
1782665142,467570215,-1.6561864058123987,0.12956476211547852,-1.5218694845782679,0.006892052944749594,0.0008153018425218761,0.6743662357330322,0.0,-0.0,0.0,0.0,0.0,0.0
1782665142,475568131,-1.6562941710101526,0.12954092025756836,-1.5218575636493128,0.006904037203639746,0.0008033175836317241,0.6743302345275879,0.0,-0.0,0.0,0.0,0.0,0.0
1782665142,483575381,-1.6562226454364222,0.1295766830444336,-1.5218694845782679,0.006904037203639746,0.0008033175836317241,0.6743782162666321,0.0,-0.0,0.0,0.0,0.0,0.0
1782665142,491613445,-1.6561983267413538,0.1295766830444336,-1.5218694845782679,0.006880068685859442,0.0007669904152862728,0.6743422150611877,0.0,-0.0,0.0,0.0,0.0,0.0
1782665142,499579602,-1.6562345663653772,0.1295766830444336,-1.5218694845782679,0.006916021462529898,0.0008153018425218761,0.6742942929267883,0.0,-0.0,0.0,0.0,0.0,0.0
1782665142,507563390,-1.6562226454364222,0.1295766830444336,-1.5218575636493128,0.00686808442696929,0.0007789746159687638,0.6743901968002319,0.0,-0.0,0.0,0.0,0.0,0.0
1782665142,515561584,-1.6562703291522425,0.12956476211547852,-1.5218213240252894,0.00692800572142005,0.0008153018425218761,0.6743302345275879,0.0,-0.0,0.0,0.0,0.0,0.0
1782665142,523634277,-1.6562226454364222,0.12956476211547852,-1.5218575636493128,0.006892052944749594,0.0008153018425218761,0.6743542551994324,0.0,-0.0,0.0,0.0,0.0,0.0
1782665142,531570139,-1.6562345663653772,0.12955284118652344,-1.521881405507223,0.006904037203639746,0.0008153018425218761,0.6743782162666321,0.0,-0.0,0.0,0.0,0.0,0.0
1782665142,539553333,-1.6562584082232874,0.12955284118652344,-1.5218575636493128,0.006892052944749594,0.0008153018425218761,0.6743542551994324,0.0,-0.0,0.0,0.0,0.0,0.0
1782665142,547564453,-1.6562584082232874,0.12958860397338867,-1.521893326436178,0.00692800572142005,0.0008033175836317241,0.6743062734603882,0.0,-0.0,0.0,0.0,0.0,0.0
1782665142,555565833,-1.6562822500811976,0.12954092025756836,-1.521893326436178,0.006880068685859442,0.0007909588748589158,0.6743662357330322,0.0,-0.0,0.0,0.0,0.0,0.0
1782665142,563567582,-1.656210724507467,0.12960100173950195,-1.5218694845782679,0.00692800572142005,0.0008033175836317241,0.6743302345275879,0.0,-0.0,0.0,0.0,0.0,0.0
1782665142,571550314,-1.6562703291522425,0.12958860397338867,-1.521881405507223,0.006892052944749594,0.0008392703020945191,0.6743542551994324,0.0,-0.0,0.0,0.0,0.0,0.0
1782665142,579567119,-1.6562464872943323,0.12955284118652344,-1.5218337217914026,0.006892052944749594,0.0007789746159687638,0.6743542551994324,0.0,-0.0,0.0,0.0,0.0,0.0
1782665142,587604683,-1.6562345663653772,0.12956476211547852,-1.5218456427203577,0.006939989980310202,0.0007909588748589158,0.6743782162666321,0.0,-0.0,0.0,0.0,0.0,0.0
1782665142,595564396,-1.6561625639544886,0.12954092025756836,-1.521893326436178,0.006892052944749594,0.0008272860432043672,0.6743422150611877,0.0,-0.0,0.0,0.0,0.0,0.0
1782665142,603549165,-1.6562226454364222,0.1296243667602539,-1.5218456427203577,0.006892052944749594,0.0008153018425218761,0.6743901968002319,0.0,-0.0,0.0,0.0,0.0,0.0
1782665142,611586914,-1.6562464872943323,0.1295766830444336,-1.5218337217914026,0.006904037203639746,0.0008632387034595013,0.6743062734603882,0.0,-0.0,0.0,0.0,0.0,0.0
1782665142,619683440,-1.656210724507467,0.12956476211547852,-1.5218694845782679,0.006880068685859442,0.0007909588748589158,0.6743302345275879,0.0,-0.0,0.0,0.0,0.0,0.0
1782665142,627569284,-1.6562464872943323,0.12958860397338867,-1.521893326436178,0.006880068685859442,0.0008153018425218761,0.6743782162666321,0.0,-0.0,0.0,0.0,0.0,0.0
1782665142,635573830,-1.6562464872943323,0.12956476211547852,-1.5218337217914026,0.00686808442696929,0.0007789746159687638,0.6743782162666321,0.0,-0.0,0.0,0.0,0.0,0.0
1782665142,643567654,-1.6561983267413538,0.12954092025756836,-1.5218694845782679,0.006916021462529898,0.0008153018425218761,0.674318253993988,0.0,-0.0,0.0,0.0,0.0,0.0
1782665142,651617218,-1.6562703291522425,0.1295766830444336,-1.521893326436178,0.006880068685859442,0.0008033175836317241,0.6743302345275879,0.0,-0.0,0.0,0.0,0.0,0.0
1782665142,659567839,-1.6562345663653772,0.12958860397338867,-1.5218337217914026,0.006904037203639746,0.0008033175836317241,0.6743782162666321,0.0,-0.0,0.0,0.0,0.0,0.0
1782665142,667554348,-1.656210724507467,0.12952899932861328,-1.5218456427203577,0.006880068685859442,0.0008752229623496532,0.6743422150611877,0.0,-0.0,0.0,0.0,0.0,0.0
1782665142,675569579,-1.6562464872943323,0.12956476211547852,-1.5218694845782679,0.006904037203639746,0.0008272860432043672,0.6743662357330322,0.0,-0.0,0.0,0.0,0.0,0.0
1782665142,683565440,-1.6562345663653772,0.1295766830444336,-1.521905247365133,0.006904037203639746,0.0008033175836317241,0.6743422150611877,0.0,-0.0,0.0,0.0,0.0,0.0
1782665142,691571153,-1.6562345663653772,0.12956476211547852,-1.521905247365133,0.006880068685859442,0.0007550062146037817,0.6743782162666321,0.0,-0.0,0.0,0.0,0.0,0.0
1782665142,699556347,-1.6562584082232874,0.1295766830444336,-1.5218337217914026,0.006880068685859442,0.0007789746159687638,0.674318253993988,0.0,-0.0,0.0,0.0,0.0,0.0
1782665142,707573986,-1.6562584082232874,0.1295170783996582,-1.521881405507223,0.006904037203639746,0.0008033175836317241,0.6743901968002319,0.0,-0.0,0.0,0.0,0.0,0.0
1782665142,715600198,-1.6562226454364222,0.1295766830444336,-1.5218694845782679,0.006904037203639746,0.0007909588748589158,0.6742942929267883,0.0,-0.0,0.0,0.0,0.0,0.0
1782665142,723561800,-1.6562345663653772,0.1295766830444336,-1.5218694845782679,0.006904037203639746,0.0008033175836317241,0.6743422150611877,0.0,-0.0,0.0,0.0,0.0,0.0
1782665142,731559013,-1.6562584082232874,0.12956476211547852,-1.5218694845782679,0.006939989980310202,0.0007550062146037817,0.6742823123931885,0.0,-0.0,0.0,0.0,0.0,0.0
1782665142,739614428,-1.6561864058123987,0.12952899932861328,-1.5218456427203577,0.006916021462529898,0.0008153018425218761,0.6743302345275879,0.0,-0.0,0.0,0.0,0.0,0.0
1782665142,747575531,-1.6562941710101526,0.1295766830444336,-1.5218213240252894,0.006916021462529898,0.0008272860432043672,0.674318253993988,0.0,-0.0,0.0,0.0,0.0,0.0
1782665142,755567984,-1.6562584082232874,0.12958860397338867,-1.5218456427203577,0.006904037203639746,0.0007789746159687638,0.674318253993988,0.0,-0.0,0.0,0.0,0.0,0.0
1782665142,763548716,-1.6562345663653772,0.12956476211547852,-1.521881405507223,0.00686808442696929,0.0007789746159687638,0.6743542551994324,0.0,-0.0,0.0,0.0,0.0,0.0
1782665142,771572725,-1.6562584082232874,0.1295766830444336,-1.5218694845782679,0.006892052944749594,0.0008272860432043672,0.6743302345275879,0.0,-0.0,0.0,0.0,0.0,0.0
1782665142,779666880,-1.6562345663653772,0.12955284118652344,-1.5218094030963343,0.006892052944749594,0.0007909588748589158,0.6743542551994324,0.0,-0.0,0.0,0.0,0.0,0.0
1782665142,787574613,-1.6562941710101526,0.12960100173950195,-1.5218694845782679,0.006892052944749594,0.0008033175836317241,0.6743062734603882,0.0,-0.0,0.0,0.0,0.0,0.0
1782665142,795550289,-1.6562464872943323,0.12954092025756836,-1.521893326436178,0.006904037203639746,0.0008153018425218761,0.6743302345275879,0.0,-0.0,0.0,0.0,0.0,0.0
1782665142,803571353,-1.6562584082232874,0.12960100173950195,-1.521881405507223,0.006892052944749594,0.0007909588748589158,0.6743782162666321,0.0,-0.0,0.0,0.0,0.0,0.0
1782665142,811678416,-1.6562464872943323,0.12952899932861328,-1.5218094030963343,0.006904037203639746,0.0008153018425218761,0.6743662357330322,0.0,-0.0,0.0,0.0,0.0,0.0
1782665142,819558631,-1.6562703291522425,0.12956476211547852,-1.521905247365133,0.006880068685859442,0.0008272860432043672,0.6743422150611877,0.0,-0.0,0.0,0.0,0.0,0.0
1782665142,827547918,-1.6561744848834437,0.1295766830444336,-1.5218456427203577,0.006844115909188986,0.0008153018425218761,0.6743422150611877,0.0,-0.0,0.0,0.0,0.0,0.0
1782665142,835583204,-1.6562345663653772,0.12956476211547852,-1.5218694845782679,0.00692800572142005,0.0007789746159687638,0.6743422150611877,0.0,-0.0,0.0,0.0,0.0,0.0
1782665142,843572454,-1.6562226454364222,0.12955284118652344,-1.521881405507223,0.006880068685859442,0.0008153018425218761,0.674318253993988,0.0,-0.0,0.0,0.0,0.0,0.0
1782665142,851575259,-1.6562822500811976,0.12954092025756836,-1.521881405507223,0.006856100168079138,0.0007909588748589158,0.674318253993988,0.0,-0.0,0.0,0.0,0.0,0.0
1782665142,859575342,-1.6562584082232874,0.12956476211547852,-1.521881405507223,0.00686808442696929,0.0008153018425218761,0.6743542551994324,0.0,-0.0,0.0,0.0,0.0,0.0
1782665142,867556092,-1.6562345663653772,0.12955284118652344,-1.521893326436178,0.006951974239200354,0.0007909588748589158,0.6743662357330322,0.0,-0.0,0.0,0.0,0.0,0.0
1782665142,875577231,-1.6562703291522425,0.12958860397338867,-1.5218575636493128,0.006892052944749594,0.0007669904152862728,0.6743542551994324,0.0,-0.0,0.0,0.0,0.0,0.0
1782665142,883672553,-1.6562464872943323,0.12954092025756836,-1.5218575636493128,0.006892052944749594,0.0008272860432043672,0.6743422150611877,0.0,-0.0,0.0,0.0,0.0,0.0
1782665142,891573916,-1.6561983267413538,0.12958860397338867,-1.5218456427203577,0.006939989980310202,0.0008272860432043672,0.6743302345275879,0.0,-0.0,0.0,0.0,0.0,0.0
1782665142,899561962,-1.6562226454364222,0.12952899932861328,-1.5218456427203577,0.006904037203639746,0.0008033175836317241,0.6743542551994324,0.0,-0.0,0.0,0.0,0.0,0.0
1782665142,907571915,-1.656210724507467,0.12954092025756836,-1.521893326436178,0.00692800572142005,0.0008392703020945191,0.674318253993988,0.0,-0.0,0.0,0.0,0.0,0.0
1782665142,915606942,-1.6562584082232874,0.12956476211547852,-1.5218456427203577,0.00692800572142005,0.0008153018425218761,0.6743662357330322,0.0,-0.0,0.0,0.0,0.0,0.0
1782665142,923563730,-1.6562226454364222,0.12955284118652344,-1.5218694845782679,0.006880068685859442,0.0007669904152862728,0.6743782162666321,0.0,-0.0,0.0,0.0,0.0,0.0
1782665142,931555887,-1.6562703291522425,0.1295766830444336,-1.5218694845782679,0.006880068685859442,0.0008272860432043672,0.6743302345275879,0.0,-0.0,0.0,0.0,0.0,0.0
1782665142,939574081,-1.6562345663653772,0.12955284118652344,-1.5218694845782679,0.006904037203639746,0.0008392703020945191,0.6743542551994324,0.0,-0.0,0.0,0.0,0.0,0.0
1782665142,947671477,-1.656210724507467,0.1295766830444336,-1.5218456427203577,0.00692800572142005,0.0008272860432043672,0.6743901968002319,0.0,-0.0,0.0,0.0,0.0,0.0
1782665142,955576192,-1.656210724507467,0.12958860397338867,-1.5218094030963343,0.006892052944749594,0.0008392703020945191,0.6743422150611877,0.0,-0.0,0.0,0.0,0.0,0.0
1782665142,963552701,-1.6562226454364222,0.12961292266845703,-1.521881405507223,0.006892052944749594,0.0008392703020945191,0.6743542551994324,0.0,-0.0,0.0,0.0,0.0,0.0
1782665142,971572487,-1.6562584082232874,0.12955284118652344,-1.5218213240252894,0.00692800572142005,0.0008153018425218761,0.6743302345275879,0.0,-0.0,0.0,0.0,0.0,0.0
1782665142,979671495,-1.6562703291522425,0.1295766830444336,-1.5218213240252894,0.006880068685859442,0.0008392703020945191,0.6743422150611877,0.0,-0.0,0.0,0.0,0.0,0.0
1782665142,987569913,-1.656210724507467,0.12958860397338867,-1.521893326436178,0.006892052944749594,0.0007909588748589158,0.674318253993988,0.0,-0.0,0.0,0.0,0.0,0.0
1782665142,995567403,-1.656210724507467,0.12960100173950195,-1.5218456427203577,0.006892052944749594,0.0008512545027770102,0.674318253993988,0.0,-0.0,0.0,0.0,0.0,0.0
1782665143,3565913,-1.656210724507467,0.1295170783996582,-1.5218575636493128,0.00692800572142005,0.0008512545027770102,0.6743422150611877,0.0,-0.0,0.0,0.0,0.0,0.0
1782665143,11609310,-1.6562226454364222,0.12960100173950195,-1.5218575636493128,0.006880068685859442,0.0007669904152862728,0.6743542551994324,0.0,-0.0,0.0,0.0,0.0,0.0
1782665143,19568857,-1.656210724507467,0.1296243667602539,-1.521881405507223,0.006939989980310202,0.0008392703020945191,0.6743302345275879,0.0,-0.0,0.0,0.0,0.0,0.0
1782665143,27556386,-1.6562345663653772,0.12955284118652344,-1.5218575636493128,0.006880068685859442,0.0008392703020945191,0.6743901968002319,0.0,-0.0,0.0,0.0,0.0,0.0
1782665143,35566506,-1.6562464872943323,0.1295766830444336,-1.5218456427203577,0.006856100168079138,0.0008153018425218761,0.6743422150611877,0.0,-0.0,0.0,0.0,0.0,0.0
1782665143,43604181,-1.6562345663653772,0.12958860397338867,-1.5218575636493128,0.006880068685859442,0.0008033175836317241,0.6743901968002319,0.0,-0.0,0.0,0.0,0.0,0.0
1782665143,51567247,-1.6562345663653772,0.12954092025756836,-1.5218094030963343,0.00692800572142005,0.0007550062146037817,0.674318253993988,0.0,-0.0,0.0,0.0,0.0,0.0
1782665143,59555738,-1.6562464872943323,0.1295766830444336,-1.5218694845782679,0.00692800572142005,0.0008512545027770102,0.6744021773338318,0.0,-0.0,0.0,0.0,0.0,0.0
1782665143,67569544,-1.6562464872943323,0.1295766830444336,-1.5218213240252894,0.00686808442696929,0.0008272860432043672,0.6743422150611877,0.0,-0.0,0.0,0.0,0.0,0.0
1782665143,75564127,-1.6562584082232874,0.12955284118652344,-1.5218694845782679,0.006844115909188986,0.0008392703020945191,0.6743542551994324,0.0,-0.0,0.0,0.0,0.0,0.0
1782665143,83565359,-1.6562584082232874,0.12956476211547852,-1.521893326436178,0.00692800572142005,0.0008392703020945191,0.6743422150611877,0.0,-0.0,0.0,0.0,0.0,0.0
1782665143,91549461,-1.6562464872943323,0.12950468063354492,-1.5218694845782679,0.006916021462529898,0.0007789746159687638,0.6743662357330322,0.0,-0.0,0.0,0.0,0.0,0.0
1782665143,99564063,-1.6562345663653772,0.12955284118652344,-1.5218575636493128,0.006892052944749594,0.0008512545027770102,0.6743302345275879,0.0,-0.0,0.0,0.0,0.0,0.0
1782665143,107567980,-1.6562464872943323,0.12961292266845703,-1.521881405507223,0.006880068685859442,0.0007909588748589158,0.6743302345275879,0.0,-0.0,0.0,0.0,0.0,0.0
1782665143,115569563,-1.6562464872943323,0.12956476211547852,-1.5218213240252894,0.006916021462529898,0.0008033175836317241,0.6743422150611877,0.0,-0.0,0.0,0.0,0.0,0.0
1782665143,123564462,-1.6562464872943323,0.1295766830444336,-1.5218337217914026,0.006904037203639746,0.0008033175836317241,0.6743782162666321,0.0,-0.0,0.0,0.0,0.0,0.0
1782665143,131564027,-1.6562464872943323,0.1295170783996582,-1.5218694845782679,0.006892052944749594,0.0008033175836317241,0.6743422150611877,0.0,-0.0,0.0,0.0,0.0,0.0
1782665143,139602350,-1.6562464872943323,0.12956476211547852,-1.5218456427203577,0.006904037203639746,0.0007909588748589158,0.6743062734603882,0.0,-0.0,0.0,0.0,0.0,0.0
1782665143,147561286,-1.6562345663653772,0.12958860397338867,-1.5218213240252894,0.006892052944749594,0.0008392703020945191,0.6743302345275879,0.0,-0.0,0.0,0.0,0.0,0.0
1782665143,155568685,-1.6562584082232874,0.1295766830444336,-1.5218694845782679,0.006880068685859442,0.0008392703020945191,0.6743422150611877,0.0,-0.0,0.0,0.0,0.0,0.0
1782665143,163562509,-1.6562464872943323,0.12956476211547852,-1.5218337217914026,0.006880068685859442,0.0007789746159687638,0.6743542551994324,0.0,-0.0,0.0,0.0,0.0,0.0
1782665143,171579851,-1.6562584082232874,0.12958860397338867,-1.521881405507223,0.006904037203639746,0.0008033175836317241,0.6743302345275879,0.0,-0.0,0.0,0.0,0.0,0.0
1782665143,179568361,-1.6562226454364222,0.12956476211547852,-1.5218456427203577,0.006904037203639746,0.0008033175836317241,0.6743422150611877,0.0,-0.0,0.0,0.0,0.0,0.0
1782665143,187553630,-1.656210724507467,0.12955284118652344,-1.5218337217914026,0.006892052944749594,0.0008512545027770102,0.6743302345275879,0.0,-0.0,0.0,0.0,0.0,0.0
1782665143,195574380,-1.6562345663653772,0.12952899932861328,-1.5218337217914026,0.006916021462529898,0.0008272860432043672,0.6743662357330322,0.0,-0.0,0.0,0.0,0.0,0.0
1782665143,203580667,-1.6562226454364222,0.1295766830444336,-1.5218575636493128,0.006904037203639746,0.0008632387034595013,0.6743542551994324,0.0,-0.0,0.0,0.0,0.0,0.0
1782665143,211571732,-1.6562345663653772,0.1295766830444336,-1.5218094030963343,0.00686808442696929,0.0007909588748589158,0.6743062734603882,0.0,-0.0,0.0,0.0,0.0,0.0
1782665143,219574427,-1.6562464872943323,0.12960100173950195,-1.5218694845782679,0.006880068685859442,0.0008153018425218761,0.6743302345275879,0.0,-0.0,0.0,0.0,0.0,0.0
1782665143,227561566,-1.6562822500811976,0.12961292266845703,-1.5218337217914026,0.00692800572142005,0.0008153018425218761,0.6743302345275879,0.0,-0.0,0.0,0.0,0.0,0.0
1782665143,235615482,-1.656210724507467,0.12960100173950195,-1.521881405507223,0.00692800572142005,0.0008033175836317241,0.6743302345275879,0.0,-0.0,0.0,0.0,0.0,0.0
1782665143,243624788,-1.6562822500811976,0.12955284118652344,-1.5218337217914026,0.00692800572142005,0.0008033175836317241,0.674318253993988,0.0,-0.0,0.0,0.0,0.0,0.0
1782665143,251552076,-1.6562703291522425,0.12956476211547852,-1.521893326436178,0.006892052944749594,0.0008392703020945191,0.674318253993988,0.0,-0.0,0.0,0.0,0.0,0.0
1782665143,259561715,-1.6562464872943323,0.12958860397338867,-1.5218575636493128,0.006880068685859442,0.0008272860432043672,0.6743542551994324,0.0,-0.0,0.0,0.0,0.0,0.0
1782665143,267752628,-1.656210724507467,0.12958860397338867,-1.521893326436178,0.006892052944749594,0.0008392703020945191,0.6743542551994324,0.0,-0.0,0.0,0.0,0.0,0.0
1782665143,275578826,-1.6562345663653772,0.12956476211547852,-1.5218575636493128,0.006892052944749594,0.0007909588748589158,0.6743422150611877,0.0,-0.0,0.0,0.0,0.0,0.0
1782665143,283553688,-1.6562464872943323,0.12955284118652344,-1.521893326436178,0.006916021462529898,0.0008033175836317241,0.6743542551994324,0.0,-0.0,0.0,0.0,0.0,0.0
1782665143,291571493,-1.6562464872943323,0.1295766830444336,-1.5218694845782679,0.006916021462529898,0.0007789746159687638,0.6743302345275879,0.0,-0.0,0.0,0.0,0.0,0.0
1782665143,299721500,-1.6562345663653772,0.1295170783996582,-1.5218575636493128,0.006904037203639746,0.0008033175836317241,0.6743542551994324,0.0,-0.0,0.0,0.0,0.0,0.0
1782665143,307570383,-1.6562584082232874,0.12956476211547852,-1.5218456427203577,0.006904037203639746,0.0008033175836317241,0.6743901968002319,0.0,-0.0,0.0,0.0,0.0,0.0
1782665143,315555040,-1.6562226454364222,0.12961292266845703,-1.521881405507223,0.006904037203639746,0.0008272860432043672,0.6743062734603882,0.0,-0.0,0.0,0.0,0.0,0.0
1782665143,323579290,-1.6562703291522425,0.12961292266845703,-1.5218575636493128,0.006904037203639746,0.0008512545027770102,0.6743542551994324,0.0,-0.0,0.0,0.0,0.0,0.0
1782665143,331842814,-1.6562226454364222,0.12960100173950195,-1.5218456427203577,0.006856100168079138,0.0008272860432043672,0.6743302345275879,0.0,-0.0,0.0,0.0,0.0,0.0
1782665143,339568143,-1.6562584082232874,0.12958860397338867,-1.5218575636493128,0.006916021462529898,0.0007669904152862728,0.6743542551994324,0.0,-0.0,0.0,0.0,0.0,0.0
1782665143,347560430,-1.6562464872943323,0.12958860397338867,-1.5218575636493128,0.006892052944749594,0.0007789746159687638,0.6744141578674316,0.0,-0.0,0.0,0.0,0.0,0.0
1782665143,355559273,-1.6562464872943323,0.12958860397338867,-1.5218575636493128,0.006880068685859442,0.0008392703020945191,0.6743662357330322,0.0,-0.0,0.0,0.0,0.0,0.0
1782665143,363569060,-1.6562703291522425,0.12958860397338867,-1.5218337217914026,0.006880068685859442,0.0008392703020945191,0.6743302345275879,0.0,-0.0,0.0,0.0,0.0,0.0
1782665143,371577328,-1.6562941710101526,0.1296243667602539,-1.521881405507223,0.006904037203639746,0.0008632387034595013,0.6743782162666321,0.0,-0.0,0.0,0.0,0.0,0.0
1782665143,379558283,-1.6562703291522425,0.12955284118652344,-1.5219176451312464,0.006951974239200354,0.0008033175836317241,0.6743422150611877,0.0,-0.0,0.0,0.0,0.0,0.0
1782665143,387716382,-1.6562226454364222,0.12956476211547852,-1.5218575636493128,0.006916021462529898,0.0007909588748589158,0.6743662357330322,0.0,-0.0,0.0,0.0,0.0,0.0
1782665143,395808316,-1.6562345663653772,0.12955284118652344,-1.521905247365133,0.006916021462529898,0.0008033175836317241,0.6743302345275879,0.0,-0.0,0.0,0.0,0.0,0.0
1782665143,403573422,-1.6562345663653772,0.12954092025756836,-1.5218694845782679,0.006939989980310202,0.0008153018425218761,0.6743422150611877,0.0,-0.0,0.0,0.0,0.0,0.0
1782665143,411561043,-1.6562345663653772,0.1295766830444336,-1.5218575636493128,0.006904037203639746,0.0008632387034595013,0.6743782162666321,0.0,-0.0,0.0,0.0,0.0,0.0
1782665143,419776659,-1.6562226454364222,0.12961292266845703,-1.5218337217914026,0.006916021462529898,0.0008512545027770102,0.6743062734603882,0.0,-0.0,0.0,0.0,0.0,0.0
1782665143,427752817,-1.6562345663653772,0.12958860397338867,-1.5218456427203577,0.00686808442696929,0.0007669904152862728,0.6743422150611877,0.0,-0.0,0.0,0.0,0.0,0.0
1782665143,435703198,-1.656210724507467,0.1295766830444336,-1.5218575636493128,0.006892052944749594,0.0007909588748589158,0.6743782162666321,0.0,-0.0,0.0,0.0,0.0,0.0
1782665143,443560654,-1.6562345663653772,0.12954092025756836,-1.5218575636493128,0.006916021462529898,0.0008272860432043672,0.6743422150611877,0.0,-0.0,0.0,0.0,0.0,0.0
1782665143,451550201,-1.6562584082232874,0.1295766830444336,-1.5218694845782679,0.00686808442696929,0.0007789746159687638,0.674318253993988,0.0,-0.0,0.0,0.0,0.0,0.0
1782665143,459691115,-1.6562345663653772,0.12954092025756836,-1.5218694845782679,0.006904037203639746,0.0008033175836317241,0.674318253993988,0.0,-0.0,0.0,0.0,0.0,0.0
1782665143,467549479,-1.6562345663653772,0.12954092025756836,-1.5218456427203577,0.00692800572142005,0.0007909588748589158,0.674318253993988,0.0,-0.0,0.0,0.0,0.0,0.0
1782665143,475565896,-1.656306568776266,0.12958860397338867,-1.521881405507223,0.006951974239200354,0.0007909588748589158,0.6743662357330322,0.0,-0.0,0.0,0.0,0.0,0.0
1782665143,483539332,-1.6562226454364222,0.12952899932861328,-1.521905247365133,0.006916021462529898,0.0008272860432043672,0.6743302345275879,0.0,-0.0,0.0,0.0,0.0,0.0
1782665143,491559507,-1.6561864058123987,0.12954092025756836,-1.5218456427203577,0.006880068685859442,0.0008033175836317241,0.6743542551994324,0.0,-0.0,0.0,0.0,0.0,0.0
1782665143,499825475,-1.6562345663653772,0.12954092025756836,-1.5218575636493128,0.006880068685859442,0.0007789746159687638,0.6743901968002319,0.0,-0.0,0.0,0.0,0.0,0.0
1782665143,507556008,-1.6562226454364222,0.1295766830444336,-1.5218456427203577,0.006844115909188986,0.0008272860432043672,0.6743062734603882,0.0,-0.0,0.0,0.0,0.0,0.0
1782665143,515553443,-1.6561983267413538,0.12955284118652344,-1.521881405507223,0.006892052944749594,0.0008033175836317241,0.6744021773338318,0.0,-0.0,0.0,0.0,0.0,0.0
1782665143,523668358,-1.6562703291522425,0.12960100173950195,-1.5218575636493128,0.006892052944749594,0.0008512545027770102,0.6743782162666321,0.0,-0.0,0.0,0.0,0.0,0.0
1782665143,531689571,-1.6562226454364222,0.12960100173950195,-1.5218456427203577,0.006904037203639746,0.0007789746159687638,0.6743302345275879,0.0,-0.0,0.0,0.0,0.0,0.0
1782665143,539670284,-1.6562703291522425,0.12956476211547852,-1.5218456427203577,0.00686808442696929,0.0008153018425218761,0.674318253993988,0.0,-0.0,0.0,0.0,0.0,0.0
1782665143,547665349,-1.6562584082232874,0.12956476211547852,-1.5218213240252894,0.00692800572142005,0.0008392703020945191,0.6743302345275879,0.0,-0.0,0.0,0.0,0.0,0.0
1782665143,555562083,-1.6562584082232874,0.12955284118652344,-1.521893326436178,0.006880068685859442,0.0007789746159687638,0.6743662357330322,0.0,-0.0,0.0,0.0,0.0,0.0
1782665143,563565629,-1.6562345663653772,0.12955284118652344,-1.5218575636493128,0.006916021462529898,0.0008272860432043672,0.6743542551994324,0.0,-0.0,0.0,0.0,0.0,0.0
1782665143,571549232,-1.6562464872943323,0.1295766830444336,-1.5218094030963343,0.006904037203639746,0.0008033175836317241,0.6743542551994324,0.0,-0.0,0.0,0.0,0.0,0.0
1782665143,579563333,-1.6562345663653772,0.12958860397338867,-1.5218337217914026,0.006880068685859442,0.0008153018425218761,0.6743662357330322,0.0,-0.0,0.0,0.0,0.0,0.0
1782665143,587548491,-1.656210724507467,0.1295766830444336,-1.5218456427203577,0.00692800572142005,0.0007909588748589158,0.6743302345275879,0.0,-0.0,0.0,0.0,0.0,0.0
1782665143,595566519,-1.6562703291522425,0.12955284118652344,-1.5218575636493128,0.006880068685859442,0.0008153018425218761,0.6743422150611877,0.0,-0.0,0.0,0.0,0.0,0.0
1782665143,603568121,-1.6562464872943323,0.12958860397338867,-1.5218694845782679,0.006892052944749594,0.0007789746159687638,0.6743302345275879,0.0,-0.0,0.0,0.0,0.0,0.0
1782665143,611553779,-1.6561864058123987,0.12956476211547852,-1.521881405507223,0.006892052944749594,0.0008033175836317241,0.674318253993988,0.0,-0.0,0.0,0.0,0.0,0.0
1782665143,619550844,-1.6562464872943323,0.1295766830444336,-1.5218694845782679,0.006904037203639746,0.0008272860432043672,0.6743542551994324,0.0,-0.0,0.0,0.0,0.0,0.0
1782665143,627559094,-1.6562464872943323,0.1295766830444336,-1.5218575636493128,0.006892052944749594,0.0008272860432043672,0.6743782162666321,0.0,-0.0,0.0,0.0,0.0,0.0
1782665143,635561177,-1.6562226454364222,0.12954092025756836,-1.5218575636493128,0.006904037203639746,0.0007789746159687638,0.6743782162666321,0.0,-0.0,0.0,0.0,0.0,0.0
1782665143,643670963,-1.6562584082232874,0.12954092025756836,-1.5218575636493128,0.006880068685859442,0.0008392703020945191,0.674318253993988,0.0,-0.0,0.0,0.0,0.0,0.0
1782665143,651555585,-1.6562703291522425,0.1295766830444336,-1.5218456427203577,0.00686808442696929,0.0008153018425218761,0.6743782162666321,0.0,-0.0,0.0,0.0,0.0,0.0
1782665143,659691963,-1.6562226454364222,0.1295766830444336,-1.5218456427203577,0.00686808442696929,0.0008033175836317241,0.6743422150611877,0.0,-0.0,0.0,0.0,0.0,0.0
1782665143,667558197,-1.6562703291522425,0.12956476211547852,-1.5218337217914026,0.006916021462529898,0.0008392703020945191,0.6743901968002319,0.0,-0.0,0.0,0.0,0.0,0.0
1782665143,675545503,-1.6562345663653772,0.12954092025756836,-1.5218094030963343,0.006892052944749594,0.0007789746159687638,0.6743901968002319,0.0,-0.0,0.0,0.0,0.0,0.0
1782665143,683555049,-1.6562584082232874,0.12960100173950195,-1.5218456427203577,0.006904037203639746,0.0008153018425218761,0.6743542551994324,0.0,-0.0,0.0,0.0,0.0,0.0
1782665143,691546707,-1.6562226454364222,0.12956476211547852,-1.5218694845782679,0.006916021462529898,0.0008153018425218761,0.6743422150611877,0.0,-0.0,0.0,0.0,0.0,0.0
1782665143,699555605,-1.6562226454364222,0.12958860397338867,-1.5218337217914026,0.006856100168079138,0.0007909588748589158,0.674318253993988,0.0,-0.0,0.0,0.0,0.0,0.0
1782665143,707812091,-1.6562345663653772,0.12958860397338867,-1.5218575636493128,0.006856100168079138,0.0008512545027770102,0.674318253993988,0.0,-0.0,0.0,0.0,0.0,0.0
1782665143,715556938,-1.6562345663653772,0.12954092025756836,-1.5218456427203577,0.006939989980310202,0.0008153018425218761,0.6743302345275879,0.0,-0.0,0.0,0.0,0.0,0.0
1782665143,723718353,-1.6562464872943323,0.12958860397338867,-1.521893326436178,0.006916021462529898,0.0008153018425218761,0.6744021773338318,0.0,-0.0,0.0,0.0,0.0,0.0
1782665143,731672381,-1.6562822500811976,0.1295170783996582,-1.5218456427203577,0.006880068685859442,0.0008033175836317241,0.6743422150611877,0.0,-0.0,0.0,0.0,0.0,0.0
1782665143,739664650,-1.6562464872943323,0.12956476211547852,-1.521881405507223,0.006904037203639746,0.0008392703020945191,0.6743542551994324,0.0,-0.0,0.0,0.0,0.0,0.0
1782665143,747708140,-1.6562822500811976,0.12958860397338867,-1.5218575636493128,0.006904037203639746,0.0008272860432043672,0.6743422150611877,0.0,-0.0,0.0,0.0,0.0,0.0
1782665143,755709483,-1.6561983267413538,0.12955284118652344,-1.521881405507223,0.006880068685859442,0.0007909588748589158,0.674318253993988,0.0,-0.0,0.0,0.0,0.0,0.0
1782665143,763558199,-1.6562822500811976,0.12958860397338867,-1.521905247365133,0.00686808442696929,0.0007789746159687638,0.6743302345275879,0.0,-0.0,0.0,0.0,0.0,0.0
1782665143,771733446,-1.6562345663653772,0.1295766830444336,-1.521881405507223,0.00692800572142005,0.0007909588748589158,0.6743302345275879,0.0,-0.0,0.0,0.0,0.0,0.0
1782665143,779552329,-1.6562226454364222,0.12958860397338867,-1.5218213240252894,0.006916021462529898,0.0008033175836317241,0.6743542551994324,0.0,-0.0,0.0,0.0,0.0,0.0
1782665143,787699077,-1.6562584082232874,0.12958860397338867,-1.521893326436178,0.006880068685859442,0.0007909588748589158,0.6742823123931885,0.0,-0.0,0.0,0.0,0.0,0.0
1782665143,795575459,-1.656210724507467,0.12955284118652344,-1.521893326436178,0.006916021462529898,0.0007909588748589158,0.6743542551994324,0.0,-0.0,0.0,0.0,0.0,0.0
1782665143,803552172,-1.6562941710101526,0.12954092025756836,-1.521881405507223,0.006856100168079138,0.0008392703020945191,0.6743062734603882,0.0,-0.0,0.0,0.0,0.0,0.0
1782665143,811572218,-1.6562345663653772,0.12956476211547852,-1.521893326436178,0.006904037203639746,0.0008272860432043672,0.6743542551994324,0.0,-0.0,0.0,0.0,0.0,0.0
1782665143,819568617,-1.6562703291522425,0.12955284118652344,-1.5218575636493128,0.006892052944749594,0.0008153018425218761,0.6743302345275879,0.0,-0.0,0.0,0.0,0.0,0.0
1782665143,827559126,-1.6562703291522425,0.12960100173950195,-1.5218337217914026,0.006916021462529898,0.0008033175836317241,0.6743542551994324,0.0,-0.0,0.0,0.0,0.0,0.0
1782665143,835557450,-1.6562226454364222,0.12956476211547852,-1.5218456427203577,0.00692800572142005,0.0008033175836317241,0.6743542551994324,0.0,-0.0,0.0,0.0,0.0,0.0
1782665143,843562589,-1.6562345663653772,0.1295170783996582,-1.5218337217914026,0.006939989980310202,0.0008272860432043672,0.6743302345275879,0.0,-0.0,0.0,0.0,0.0,0.0
1782665143,851562358,-1.6562464872943323,0.12958860397338867,-1.5218337217914026,0.00686808442696929,0.0008392703020945191,0.6743422150611877,0.0,-0.0,0.0,0.0,0.0,0.0
1782665143,859553109,-1.6561983267413538,0.1296243667602539,-1.5218694845782679,0.006904037203639746,0.0007789746159687638,0.6743782162666321,0.0,-0.0,0.0,0.0,0.0,0.0
1782665143,867575284,-1.6562226454364222,0.12958860397338867,-1.5218575636493128,0.006880068685859442,0.0008033175836317241,0.6743662357330322,0.0,-0.0,0.0,0.0,0.0,0.0
1782665143,875584053,-1.6561983267413538,0.12958860397338867,-1.521905247365133,0.006916021462529898,0.0007789746159687638,0.6743901968002319,0.0,-0.0,0.0,0.0,0.0,0.0
1782665143,883595840,-1.6562464872943323,0.12958860397338867,-1.5218575636493128,0.006916021462529898,0.0008153018425218761,0.6743542551994324,0.0,-0.0,0.0,0.0,0.0,0.0
1782665143,891564091,-1.6562345663653772,0.12955284118652344,-1.521881405507223,0.006939989980310202,0.0008153018425218761,0.6743422150611877,0.0,-0.0,0.0,0.0,0.0,0.0
1782665143,899555267,-1.6562703291522425,0.12958860397338867,-1.521905247365133,0.006916021462529898,0.0007909588748589158,0.674318253993988,0.0,-0.0,0.0,0.0,0.0,0.0
1782665143,907553961,-1.6561983267413538,0.12956476211547852,-1.5218094030963343,0.00692800572142005,0.0008033175836317241,0.6743782162666321,0.0,-0.0,0.0,0.0,0.0,0.0
1782665143,915569378,-1.6562941710101526,0.12955284118652344,-1.521881405507223,0.006916021462529898,0.0008272860432043672,0.6743302345275879,0.0,-0.0,0.0,0.0,0.0,0.0
1782665143,923572887,-1.6562345663653772,0.12954092025756836,-1.521905247365133,0.006880068685859442,0.0007789746159687638,0.6743901968002319,0.0,-0.0,0.0,0.0,0.0,0.0
1782665143,931575804,-1.6562584082232874,0.1295766830444336,-1.5218694845782679,0.006880068685859442,0.0008392703020945191,0.6743302345275879,0.0,-0.0,0.0,0.0,0.0,0.0
1782665143,939580610,-1.6562345663653772,0.12961292266845703,-1.5218213240252894,0.006904037203639746,0.0008033175836317241,0.6743662357330322,0.0,-0.0,0.0,0.0,0.0,0.0
1782665143,947553805,-1.6562584082232874,0.12960100173950195,-1.5218213240252894,0.006880068685859442,0.0007909588748589158,0.6743422150611877,0.0,-0.0,0.0,0.0,0.0,0.0
1782665143,955560925,-1.6562226454364222,0.12956476211547852,-1.5218694845782679,0.00692800572142005,0.0007909588748589158,0.6743542551994324,0.0,-0.0,0.0,0.0,0.0,0.0
1782665143,963588379,-1.6562345663653772,0.12955284118652344,-1.5218337217914026,0.006939989980310202,0.0007789746159687638,0.6743901968002319,0.0,-0.0,0.0,0.0,0.0,0.0
1782665143,971585962,-1.6562226454364222,0.12956476211547852,-1.5218456427203577,0.006880068685859442,0.0008272860432043672,0.674318253993988,0.0,-0.0,0.0,0.0,0.0,0.0
1782665143,979571676,-1.6562584082232874,0.12958860397338867,-1.5218337217914026,0.006880068685859442,0.0007789746159687638,0.6743542551994324,0.0,-0.0,0.0,0.0,0.0,0.0
1782665143,987574796,-1.6562345663653772,0.12958860397338867,-1.5218337217914026,0.006916021462529898,0.0008153018425218761,0.6743302345275879,0.0,-0.0,0.0,0.0,0.0,0.0
1782665143,995559380,-1.6562345663653772,0.12956476211547852,-1.5218337217914026,0.006892052944749594,0.0007909588748589158,0.6743662357330322,0.0,-0.0,0.0,0.0,0.0,0.0
1782665144,3560927,-1.6562703291522425,0.12956476211547852,-1.521881405507223,0.006904037203639746,0.0007669904152862728,0.6743542551994324,0.0,-0.0,0.0,0.0,0.0,0.0
1782665144,11543492,-1.656210724507467,0.12956476211547852,-1.5218575636493128,0.006892052944749594,0.0008153018425218761,0.6743542551994324,0.0,-0.0,0.0,0.0,0.0,0.0
1782665144,19553002,-1.656210724507467,0.12958860397338867,-1.5218694845782679,0.00692800572142005,0.0008033175836317241,0.6743302345275879,0.0,-0.0,0.0,0.0,0.0,0.0
1782665144,27550901,-1.6562464872943323,0.12956476211547852,-1.521881405507223,0.006916021462529898,0.0008512545027770102,0.6743901968002319,0.0,-0.0,0.0,0.0,0.0,0.0
1782665144,35552170,-1.6562941710101526,0.12952899932861328,-1.5218337217914026,0.006916021462529898,0.0008392703020945191,0.6743062734603882,0.0,-0.0,0.0,0.0,0.0,0.0
1782665144,43553513,-1.6562703291522425,0.12956476211547852,-1.5218575636493128,0.006880068685859442,0.0008033175836317241,0.6743662357330322,0.0,-0.0,0.0,0.0,0.0,0.0
1782665144,51547023,-1.6562584082232874,0.12955284118652344,-1.521881405507223,0.006892052944749594,0.0008153018425218761,0.6743782162666321,0.0,-0.0,0.0,0.0,0.0,0.0
1782665144,59545533,-1.656210724507467,0.12958860397338867,-1.5218694845782679,0.00692800572142005,0.0008272860432043672,0.6743422150611877,0.0,-0.0,0.0,0.0,0.0,0.0
1782665144,67547543,-1.6562703291522425,0.12952899932861328,-1.521905247365133,0.00686808442696929,0.0008153018425218761,0.6743422150611877,0.0,-0.0,0.0,0.0,0.0,0.0
1782665144,75542423,-1.6561864058123987,0.12952899932861328,-1.5218337217914026,0.00686808442696929,0.0008512545027770102,0.6744021773338318,0.0,-0.0,0.0,0.0,0.0,0.0
1782665144,83548655,-1.6562584082232874,0.12956476211547852,-1.5218575636493128,0.006904037203639746,0.0008153018425218761,0.6743302345275879,0.0,-0.0,0.0,0.0,0.0,0.0
1782665144,91549109,-1.6562345663653772,0.12958860397338867,-1.5218694845782679,0.006916021462529898,0.0008392703020945191,0.6743302345275879,0.0,-0.0,0.0,0.0,0.0,0.0
1782665144,99546860,-1.6562464872943323,0.1295766830444336,-1.521893326436178,0.006832132115960121,0.0008272860432043672,0.6743302345275879,0.0,-0.0,0.0,0.0,0.0,0.0
1782665144,107545110,-1.6562345663653772,0.12958860397338867,-1.5218575636493128,0.006880068685859442,0.0008512545027770102,0.6743662357330322,0.0,-0.0,0.0,0.0,0.0,0.0
1782665144,115546972,-1.6562464872943323,0.1295766830444336,-1.5218575636493128,0.006939989980310202,0.0007789746159687638,0.6743901968002319,0.0,-0.0,0.0,0.0,0.0,0.0
1782665144,123550241,-1.656210724507467,0.12956476211547852,-1.521881405507223,0.006904037203639746,0.0008153018425218761,0.6743542551994324,0.0,-0.0,0.0,0.0,0.0,0.0
1782665144,131547566,-1.656210724507467,0.1295766830444336,-1.5219176451312464,0.006880068685859442,0.0008272860432043672,0.6743782162666321,0.0,-0.0,0.0,0.0,0.0,0.0
1782665144,139558261,-1.6562464872943323,0.12955284118652344,-1.5218456427203577,0.006844115909188986,0.0008153018425218761,0.6743782162666321,0.0,-0.0,0.0,0.0,0.0,0.0
1782665144,147560956,-1.6562584082232874,0.12958860397338867,-1.521881405507223,0.00692800572142005,0.0008153018425218761,0.6743302345275879,0.0,-0.0,0.0,0.0,0.0,0.0
1782665144,155547892,-1.6562584082232874,0.12956476211547852,-1.5218456427203577,0.006880068685859442,0.0008153018425218761,0.6743422150611877,0.0,-0.0,0.0,0.0,0.0,0.0
1782665144,163589086,-1.6562584082232874,0.1295766830444336,-1.521893326436178,0.006880068685859442,0.0007909588748589158,0.6743901968002319,0.0,-0.0,0.0,0.0,0.0,0.0
1782665144,171546393,-1.6562584082232874,0.12958860397338867,-1.5218337217914026,0.00692800572142005,0.0007909588748589158,0.6743901968002319,0.0,-0.0,0.0,0.0,0.0,0.0
1782665144,179561791,-1.6562226454364222,0.12952899932861328,-1.521881405507223,0.00692800572142005,0.0008392703020945191,0.6743542551994324,0.0,-0.0,0.0,0.0,0.0,0.0
1782665144,187552394,-1.6562345663653772,0.1295766830444336,-1.521881405507223,0.006904037203639746,0.0008392703020945191,0.6744141578674316,0.0,-0.0,0.0,0.0,0.0,0.0
1782665144,195551293,-1.6562584082232874,0.12956476211547852,-1.5218337217914026,0.006939989980310202,0.0008272860432043672,0.6743662357330322,0.0,-0.0,0.0,0.0,0.0,0.0
1782665144,203552080,-1.6562584082232874,0.1295766830444336,-1.5218694845782679,0.006892052944749594,0.0008033175836317241,0.6743542551994324,0.0,-0.0,0.0,0.0,0.0,0.0
1782665144,211543664,-1.6562822500811976,0.12958860397338867,-1.521881405507223,0.006844115909188986,0.0008392703020945191,0.6743662357330322,0.0,-0.0,0.0,0.0,0.0,0.0
1782665144,219547859,-1.6562822500811976,0.12956476211547852,-1.5218456427203577,0.00686808442696929,0.0007789746159687638,0.6743662357330322,0.0,-0.0,0.0,0.0,0.0,0.0
1782665144,227549110,-1.6562584082232874,0.12955284118652344,-1.5218213240252894,0.006856100168079138,0.0008153018425218761,0.6744021773338318,0.0,-0.0,0.0,0.0,0.0,0.0
1782665144,235545472,-1.6562584082232874,0.12952899932861328,-1.5218694845782679,0.006916021462529898,0.0008272860432043672,0.6743422150611877,0.0,-0.0,0.0,0.0,0.0,0.0
1782665144,243546407,-1.6561864058123987,0.1295766830444336,-1.5218337217914026,0.006832132115960121,0.0008272860432043672,0.674318253993988,0.0,-0.0,0.0,0.0,0.0,0.0
1782665144,251618009,-1.6562703291522425,0.12955284118652344,-1.5218694845782679,0.006904037203639746,0.0007550062146037817,0.6743901968002319,0.0,-0.0,0.0,0.0,0.0,0.0
1782665144,259586408,-1.6562703291522425,0.12955284118652344,-1.5218575636493128,0.006880068685859442,0.0007669904152862728,0.6743302345275879,0.0,-0.0,0.0,0.0,0.0,0.0
1782665144,267549585,-1.6562345663653772,0.12956476211547852,-1.5218213240252894,0.006880068685859442,0.0007669904152862728,0.6743542551994324,0.0,-0.0,0.0,0.0,0.0,0.0
1782665144,275552484,-1.6561983267413538,0.1295766830444336,-1.521905247365133,0.006892052944749594,0.0008033175836317241,0.674318253993988,0.0,-0.0,0.0,0.0,0.0,0.0
1782665144,283548049,-1.6561983267413538,0.12960100173950195,-1.5218337217914026,0.006892052944749594,0.0008153018425218761,0.6743422150611877,0.0,-0.0,0.0,0.0,0.0,0.0
1782665144,291577485,-1.6562226454364222,0.12954092025756836,-1.5218575636493128,0.006904037203639746,0.0008033175836317241,0.6743542551994324,0.0,-0.0,0.0,0.0,0.0,0.0
1782665144,299540902,-1.6562584082232874,0.12955284118652344,-1.521881405507223,0.00692800572142005,0.0008153018425218761,0.6743422150611877,0.0,-0.0,0.0,0.0,0.0,0.0
1782665144,307539653,-1.6562226454364222,0.12960100173950195,-1.5218694845782679,0.00686808442696929,0.0008153018425218761,0.6743302345275879,0.0,-0.0,0.0,0.0,0.0,0.0
1782665144,315545681,-1.6562464872943323,0.1295766830444336,-1.521893326436178,0.006904037203639746,0.0008272860432043672,0.6743782162666321,0.0,-0.0,0.0,0.0,0.0,0.0
1782665144,323544284,-1.6562464872943323,0.12954092025756836,-1.521881405507223,0.006892052944749594,0.0007789746159687638,0.674318253993988,0.0,-0.0,0.0,0.0,0.0,0.0
1782665144,331543942,-1.6562464872943323,0.12958860397338867,-1.521881405507223,0.006916021462529898,0.0008512545027770102,0.674318253993988,0.0,-0.0,0.0,0.0,0.0,0.0
1782665144,339552248,-1.6562464872943323,0.12958860397338867,-1.5218694845782679,0.00686808442696929,0.0008272860432043672,0.674318253993988,0.0,-0.0,0.0,0.0,0.0,0.0
1782665144,347552184,-1.6562941710101526,0.1295766830444336,-1.5218337217914026,0.006892052944749594,0.0007909588748589158,0.674318253993988,0.0,-0.0,0.0,0.0,0.0,0.0
1782665144,355525898,-1.656210724507467,0.12956476211547852,-1.5218694845782679,0.006916021462529898,0.0008272860432043672,0.6743422150611877,0.0,-0.0,0.0,0.0,0.0,0.0
1782665144,363570907,-1.6562703291522425,0.12956476211547852,-1.5218456427203577,0.00686808442696929,0.0008392703020945191,0.6743302345275879,0.0,-0.0,0.0,0.0,0.0,0.0
1782665144,371554046,-1.6562703291522425,0.12955284118652344,-1.5218575636493128,0.006856100168079138,0.0008033175836317241,0.6743542551994324,0.0,-0.0,0.0,0.0,0.0,0.0
1782665144,379548408,-1.6562226454364222,0.1295766830444336,-1.5218694845782679,0.006892052944749594,0.0008392703020945191,0.6743062734603882,0.0,-0.0,0.0,0.0,0.0,0.0
1782665144,387552344,-1.6562464872943323,0.12952899932861328,-1.5218575636493128,0.006844115909188986,0.0008512545027770102,0.6743422150611877,0.0,-0.0,0.0,0.0,0.0,0.0
1782665144,395562835,-1.6562464872943323,0.12952899932861328,-1.5218456427203577,0.006892052944749594,0.0007789746159687638,0.6743422150611877,0.0,-0.0,0.0,0.0,0.0,0.0
1782665144,403558308,-1.6562226454364222,0.12954092025756836,-1.5218575636493128,0.006832132115960121,0.0007789746159687638,0.6743782162666321,0.0,-0.0,0.0,0.0,0.0,0.0
1782665144,411554818,-1.656210724507467,0.12958860397338867,-1.5218575636493128,0.00692800572142005,0.0008033175836317241,0.6743422150611877,0.0,-0.0,0.0,0.0,0.0,0.0
1782665144,419552624,-1.656210724507467,0.12955284118652344,-1.5217974821673792,0.006880068685859442,0.0008153018425218761,0.6743062734603882,0.0,-0.0,0.0,0.0,0.0,0.0
1782665144,427575152,-1.656210724507467,0.12952899932861328,-1.5218213240252894,0.006856100168079138,0.0008033175836317241,0.6743422150611877,0.0,-0.0,0.0,0.0,0.0,0.0
1782665144,435557829,-1.6562464872943323,0.12960100173950195,-1.5218456427203577,0.00692800572142005,0.0008272860432043672,0.6743782162666321,0.0,-0.0,0.0,0.0,0.0,0.0
1782665144,443553617,-1.6562584082232874,0.12956476211547852,-1.5218094030963343,0.00686808442696929,0.0008033175836317241,0.6743422150611877,0.0,-0.0,0.0,0.0,0.0,0.0
1782665144,451549571,-1.6561983267413538,0.12954092025756836,-1.5218213240252894,0.006880068685859442,0.0007789746159687638,0.6743782162666321,0.0,-0.0,0.0,0.0,0.0,0.0
1782665144,459571617,-1.6562464872943323,0.12954092025756836,-1.5218337217914026,0.006892052944749594,0.0007430219557136297,0.674318253993988,0.0,-0.0,0.0,0.0,0.0,0.0
1782665144,467560757,-1.6562345663653772,0.12960100173950195,-1.521905247365133,0.006916021462529898,0.0008153018425218761,0.6743302345275879,0.0,-0.0,0.0,0.0,0.0,0.0
1782665144,475564952,-1.6561983267413538,0.12958860397338867,-1.5218213240252894,0.006856100168079138,0.0008033175836317241,0.6743782162666321,0.0,-0.0,0.0,0.0,0.0,0.0
1782665144,483557832,-1.6562584082232874,0.12960100173950195,-1.5218575636493128,0.006892052944749594,0.0007669904152862728,0.6743062734603882,0.0,-0.0,0.0,0.0,0.0,0.0
1782665144,491563435,-1.6562345663653772,0.12956476211547852,-1.5218337217914026,0.006856100168079138,0.0007909588748589158,0.6743302345275879,0.0,-0.0,0.0,0.0,0.0,0.0
1782665144,499573352,-1.6562464872943323,0.12958860397338867,-1.5218575636493128,0.006892052944749594,0.0008033175836317241,0.6743062734603882,0.0,-0.0,0.0,0.0,0.0,0.0
1782665144,507570214,-1.6562345663653772,0.12960100173950195,-1.521905247365133,0.00692800572142005,0.0008153018425218761,0.6743422150611877,0.0,-0.0,0.0,0.0,0.0,0.0
