LukePepin/On-Edge/deceleration_data_1782666887.csv
timestamp_sec,timestamp_nanosec,shoulder_pan_pos,shoulder_lift_pos,elbow_pos,wrist_1_pos,wrist_2_pos,wrist_3_pos,shoulder_pan_vel,shoulder_lift_vel,elbow_vel,wrist_1_vel,wrist_2_vel,wrist_3_vel
1782666889,892482999,-1.6566184202777308,0.12964820861816406,-1.5218456427203577,0.00686808442696929,0.0007669904152862728,0.6743422150611877,0.0,-0.0,0.0,0.0,0.0,0.0
1782666889,903511956,-1.6565702597247522,0.12970829010009766,-1.5218337217914026,0.006832132115960121,0.0007190534961409867,0.6743422150611877,0.0,-0.0,0.0,0.0,0.0,0.0
1782666889,908076529,-1.6565702597247522,0.12970829010009766,-1.5218337217914026,0.006832132115960121,0.0007190534961409867,0.6743422150611877,0.0,-0.0,0.0,0.0,0.0,0.0
1782666889,916022055,-1.656546417866842,0.12966012954711914,-1.5218575636493128,0.006904037203639746,0.0007789746159687638,0.6743662357330322,0.0,-0.0,0.0,0.0,0.0,0.0
1782666889,924028581,-1.6566303412066858,0.12964820861816406,-1.5218456427203577,0.00686808442696929,0.0007190534961409867,0.6743302345275879,0.0,-0.0,0.0,0.0,0.0,0.0
1782666889,940024022,-1.6565702597247522,0.1296844482421875,-1.5218337217914026,0.006916021462529898,0.0007430219557136297,0.6743542551994324,0.0,-0.0,0.0,0.0,0.0,0.0
1782666889,948075178,-1.6566064993487757,0.12969636917114258,-1.521893326436178,0.006844115909188986,0.0007310377550311387,0.6743901968002319,0.0,-0.0,0.0,0.0,0.0,0.0
1782666890,4014008,-1.6565821806537073,0.12967252731323242,-1.5218575636493128,0.006832132115960121,0.0007310377550311387,0.6743302345275879,0.0,-0.0,0.0,0.0,0.0,0.0
1782666890,20016116,-1.6566184202777308,0.12966012954711914,-1.5218456427203577,0.006880068685859442,0.0007430219557136297,0.6743062734603882,0.0,-0.0,0.0,0.0,0.0,0.0
1782666890,44014028,-1.6565702597247522,0.12961292266845703,-1.5218694845782679,0.006832132115960121,0.0007789746159687638,0.674318253993988,0.0,-0.0,0.0,0.0,0.0,0.0
1782666890,52017276,-1.6566303412066858,0.12969636917114258,-1.521893326436178,0.006904037203639746,0.0007190534961409867,0.674318253993988,0.0,-0.0,0.0,0.0,0.0,0.0
1782666890,60020783,-1.6566184202777308,0.1296844482421875,-1.5219176451312464,0.006856100168079138,0.0007310377550311387,0.6743901968002319,0.0,-0.0,0.0,0.0,0.0,0.0
1782666890,68012347,-1.6566064993487757,0.1296844482421875,-1.521893326436178,0.006916021462529898,0.0007190534961409867,0.674318253993988,0.0,-0.0,0.0,0.0,0.0,0.0
1782666890,76052373,-1.6566064993487757,0.12964820861816406,-1.521893326436178,0.006880068685859442,0.0007550062146037817,0.674318253993988,0.0,-0.0,0.0,0.0,0.0,0.0
1782666890,84234919,-1.6566303412066858,0.1296243667602539,-1.5218456427203577,0.006832132115960121,0.0007430219557136297,0.674318253993988,0.0,-0.0,0.0,0.0,0.0,0.0
1782666890,92045536,-1.6565821806537073,0.1296243667602539,-1.521881405507223,0.00686808442696929,0.0007190534961409867,0.674318253993988,0.0,-0.0,0.0,0.0,0.0,0.0
1782666890,100031395,-1.6565945784198206,0.12967252731323242,-1.5218456427203577,0.006880068685859442,0.0007190534961409867,0.6743662357330322,0.0,-0.0,0.0,0.0,0.0,0.0
1782666890,108054125,-1.6566064993487757,0.12964820861816406,-1.5218694845782679,0.006904037203639746,0.0007669904152862728,0.6743302345275879,0.0,-0.0,0.0,0.0,0.0,0.0
1782666890,116077670,-1.6566064993487757,0.12964820861816406,-1.5218575636493128,0.006856100168079138,0.0007669904152862728,0.6743302345275879,0.0,-0.0,0.0,0.0,0.0,0.0
1782666890,124077085,-1.656546417866842,0.12963628768920898,-1.5218337217914026,0.006844115909188986,0.0006831008358858526,0.6743302345275879,0.0,-0.0,0.0,0.0,0.0,0.0
1782666890,132023870,-1.6565821806537073,0.12966012954711914,-1.521881405507223,0.006916021462529898,0.0007310377550311387,0.6743422150611877,0.0,-0.0,0.0,0.0,0.0,0.0
1782666890,140011933,-1.6565821806537073,0.12966012954711914,-1.521893326436178,0.006880068685859442,0.0007669904152862728,0.6743302345275879,0.0,-0.0,0.0,0.0,0.0,0.0
1782666890,148005626,-1.6565945784198206,0.12966012954711914,-1.5218694845782679,0.006844115909188986,0.0007789746159687638,0.6743542551994324,0.0,-0.0,0.0,0.0,0.0,0.0
1782666890,156047745,-1.6565821806537073,0.12970829010009766,-1.5218575636493128,0.006820147857069969,0.0007310377550311387,0.6743542551994324,0.0,-0.0,0.0,0.0,0.0,0.0
1782666890,164040660,-1.6565821806537073,0.12966012954711914,-1.521881405507223,0.00686808442696929,0.0006950850365683436,0.674318253993988,0.0,-0.0,0.0,0.0,0.0,0.0
1782666890,172038464,-1.6565702597247522,0.12966012954711914,-1.521881405507223,0.006892052944749594,0.0007789746159687638,0.6743422150611877,0.0,-0.0,0.0,0.0,0.0,0.0
1782666890,180115194,-1.6566184202777308,0.1296844482421875,-1.5218694845782679,0.00692800572142005,0.0007789746159687638,0.6743542551994324,0.0,-0.0,0.0,0.0,0.0,0.0
1782666890,188051053,-1.6566064993487757,0.1296844482421875,-1.521905247365133,0.006880068685859442,0.0007550062146037817,0.6743782162666321,0.0,-0.0,0.0,0.0,0.0,0.0
1782666890,196027745,-1.6566303412066858,0.12967252731323242,-1.521881405507223,0.006904037203639746,0.0007190534961409867,0.6743422150611877,0.0,-0.0,0.0,0.0,0.0,0.0
1782666890,204037994,-1.6565702597247522,0.12967252731323242,-1.521905247365133,0.006880068685859442,0.0007550062146037817,0.6743901968002319,0.0,-0.0,0.0,0.0,0.0,0.0
1782666890,212112465,-1.6566064993487757,0.12967252731323242,-1.5218694845782679,0.006856100168079138,0.0007789746159687638,0.6743422150611877,0.0,-0.0,0.0,0.0,0.0,0.0
1782666890,220032972,-1.6566184202777308,0.12964820861816406,-1.5218456427203577,0.006832132115960121,0.0007909588748589158,0.6743542551994324,0.0,-0.0,0.0,0.0,0.0,0.0
1782666890,228036628,-1.6565945784198206,0.12967252731323242,-1.521905247365133,0.006880068685859442,0.0007310377550311387,0.6743542551994324,0.0,-0.0,0.0,0.0,0.0,0.0
1782666890,236033746,-1.6565945784198206,0.12966012954711914,-1.521881405507223,0.006844115909188986,0.0007669904152862728,0.6743662357330322,0.0,-0.0,0.0,0.0,0.0,0.0
1782666890,244069680,-1.6565821806537073,0.12964820861816406,-1.5219176451312464,0.00686808442696929,0.0007550062146037817,0.6743542551994324,0.0,-0.0,0.0,0.0,0.0,0.0
1782666890,252038336,-1.6565821806537073,0.12970829010009766,-1.5218337217914026,0.006904037203639746,0.0007310377550311387,0.6743542551994324,0.0,-0.0,0.0,0.0,0.0,0.0
1782666890,260023010,-1.656642262135641,0.12963628768920898,-1.5218575636493128,0.006820147857069969,0.0007550062146037817,0.674318253993988,0.0,-0.0,0.0,0.0,0.0,0.0
1782666890,268042388,-1.656546417866842,0.1296243667602539,-1.521881405507223,0.006904037203639746,0.0007430219557136297,0.6743901968002319,0.0,-0.0,0.0,0.0,0.0,0.0
1782666890,276138007,-1.6565821806537073,0.12969636917114258,-1.521905247365133,0.00686808442696929,0.0007669904152862728,0.6743302345275879,0.0,-0.0,0.0,0.0,0.0,0.0
1782666890,284040162,-1.6565945784198206,0.12964820861816406,-1.5218213240252894,0.006820147857069969,0.0007909588748589158,0.674318253993988,0.0,-0.0,0.0,0.0,0.0,0.0
1782666890,292024133,-1.6566064993487757,0.12970829010009766,-1.5218456427203577,0.00686808442696929,0.0007550062146037817,0.6743422150611877,0.0,-0.0,0.0,0.0,0.0,0.0
1782666890,300046807,-1.6565821806537073,0.12963628768920898,-1.5218337217914026,0.006880068685859442,0.0007070692954584956,0.674318253993988,0.0,-0.0,0.0,0.0,0.0,0.0
1782666890,308129186,-1.6565821806537073,0.12964820861816406,-1.521905247365133,0.006856100168079138,0.0007669904152862728,0.6743422150611877,0.0,-0.0,0.0,0.0,0.0,0.0
1782666890,316035248,-1.6566064993487757,0.12966012954711914,-1.5218694845782679,0.006832132115960121,0.0007550062146037817,0.6743542551994324,0.0,-0.0,0.0,0.0,0.0,0.0
1782666890,324023329,-1.6566184202777308,0.12964820861816406,-1.521881405507223,0.006856100168079138,0.0007669904152862728,0.6743542551994324,0.0,-0.0,0.0,0.0,0.0,0.0
1782666890,332035726,-1.6565945784198206,0.12963628768920898,-1.521893326436178,0.006880068685859442,0.0007190534961409867,0.6743422150611877,0.0,-0.0,0.0,0.0,0.0,0.0
1782666890,340073863,-1.6566184202777308,0.12972021102905273,-1.5218094030963343,0.00686808442696929,0.0007310377550311387,0.6743662357330322,0.0,-0.0,0.0,0.0,0.0,0.0
1782666890,348042093,-1.6565945784198206,0.12966012954711914,-1.5218694845782679,0.006832132115960121,0.0007190534961409867,0.6743542551994324,0.0,-0.0,0.0,0.0,0.0,0.0
1782666890,356026286,-1.6566184202777308,0.12969636917114258,-1.5218213240252894,0.006880068685859442,0.0007550062146037817,0.6743062734603882,0.0,-0.0,0.0,0.0,0.0,0.0
1782666890,364033478,-1.6565945784198206,0.12963628768920898,-1.5218694845782679,0.006856100168079138,0.0007550062146037817,0.674318253993988,0.0,-0.0,0.0,0.0,0.0,0.0
1782666890,372084486,-1.6566303412066858,0.12969636917114258,-1.521893326436178,0.006820147857069969,0.0007669904152862728,0.6743542551994324,0.0,-0.0,0.0,0.0,0.0,0.0
1782666890,380051438,-1.6565945784198206,0.12967252731323242,-1.521905247365133,0.006880068685859442,0.0007310377550311387,0.6743302345275879,0.0,-0.0,0.0,0.0,0.0,0.0
1782666890,388027686,-1.6565945784198206,0.12963628768920898,-1.5218694845782679,0.006892052944749594,0.0007430219557136297,0.6743422150611877,0.0,-0.0,0.0,0.0,0.0,0.0
1782666890,396031509,-1.6565821806537073,0.12966012954711914,-1.5218337217914026,0.00686808442696929,0.0007430219557136297,0.6743422150611877,0.0,-0.0,0.0,0.0,0.0,0.0
1782666890,404045868,-1.6566064993487757,0.12963628768920898,-1.5218456427203577,0.00686808442696929,0.0007550062146037817,0.6743302345275879,0.0,-0.0,0.0,0.0,0.0,0.0
1782666890,412042246,-1.6566303412066858,0.12967252731323242,-1.5218694845782679,0.006844115909188986,0.0007550062146037817,0.6743422150611877,0.0,-0.0,0.0,0.0,0.0,0.0
1782666890,420036161,-1.6566184202777308,0.12967252731323242,-1.5218694845782679,0.006832132115960121,0.0007190534961409867,0.6743302345275879,0.0,-0.0,0.0,0.0,0.0,0.0
1782666890,428036946,-1.6566064993487757,0.12967252731323242,-1.5219176451312464,0.006844115909188986,0.0007190534961409867,0.674318253993988,0.0,-0.0,0.0,0.0,0.0,0.0
1782666890,436066806,-1.6565702597247522,0.12967252731323242,-1.5218575636493128,0.006856100168079138,0.0007310377550311387,0.6743062734603882,0.0,-0.0,0.0,0.0,0.0,0.0
1782666890,444037980,-1.6565945784198206,0.12967252731323242,-1.521905247365133,0.006844115909188986,0.0007430219557136297,0.6743662357330322,0.0,-0.0,0.0,0.0,0.0,0.0
1782666890,452023599,-1.6566184202777308,0.1296844482421875,-1.5218456427203577,0.006856100168079138,0.0007190534961409867,0.6743302345275879,0.0,-0.0,0.0,0.0,0.0,0.0
1782666890,460037829,-1.6565821806537073,0.12963628768920898,-1.5218694845782679,0.006880068685859442,0.0007430219557136297,0.674318253993988,0.0,-0.0,0.0,0.0,0.0,0.0
1782666890,468033373,-1.6565945784198206,0.12963628768920898,-1.521881405507223,0.006880068685859442,0.0007310377550311387,0.6743901968002319,0.0,-0.0,0.0,0.0,0.0,0.0
1782666890,476035214,-1.6565945784198206,0.12963628768920898,-1.5218694845782679,0.006880068685859442,0.0007789746159687638,0.6743422150611877,0.0,-0.0,0.0,0.0,0.0,0.0
1782666890,483986536,-1.6566184202777308,0.1296243667602539,-1.5218694845782679,0.00686808442696929,0.0008033175836317241,0.6743422150611877,0.0,-0.0,0.0,0.0,0.0,0.0
1782666890,492046081,-1.6566184202777308,0.12966012954711914,-1.521893326436178,0.006916021462529898,0.0007669904152862728,0.6742942929267883,0.0,-0.0,0.0,0.0,0.0,0.0
1782666890,500141238,-1.6565821806537073,0.12967252731323242,-1.5218337217914026,0.00686808442696929,0.0007310377550311387,0.674318253993988,0.0,-0.0,0.0,0.0,0.0,0.0
1782666890,508051115,-1.6566064993487757,0.12967252731323242,-1.5218456427203577,0.006856100168079138,0.0007070692954584956,0.6743062734603882,0.0,-0.0,0.0,0.0,0.0,0.0
1782666890,516027567,-1.6565945784198206,0.12972021102905273,-1.5218694845782679,0.00686808442696929,0.0007550062146037817,0.6743302345275879,0.0,-0.0,0.0,0.0,0.0,0.0
1782666890,524041278,-1.6566064993487757,0.12969636917114258,-1.5218575636493128,0.006844115909188986,0.0007789746159687638,0.674318253993988,0.0,-0.0,0.0,0.0,0.0,0.0
1782666890,532046063,-1.6565702597247522,0.12972021102905273,-1.5218575636493128,0.006880068685859442,0.0007430219557136297,0.6743542551994324,0.0,-0.0,0.0,0.0,0.0,0.0
1782666890,540070071,-1.6565702597247522,0.1296243667602539,-1.5218575636493128,0.006916021462529898,0.0007550062146037817,0.674318253993988,0.0,-0.0,0.0,0.0,0.0,0.0
1782666890,548027504,-1.6565821806537073,0.1296844482421875,-1.5218694845782679,0.006844115909188986,0.0007550062146037817,0.6743422150611877,0.0,-0.0,0.0,0.0,0.0,0.0
1782666890,556039753,-1.6565821806537073,0.1296844482421875,-1.5218694845782679,0.006844115909188986,0.0007430219557136297,0.6743542551994324,0.0,-0.0,0.0,0.0,0.0,0.0
1782666890,564135354,-1.6565945784198206,0.1296243667602539,-1.521905247365133,0.006844115909188986,0.0008033175836317241,0.674318253993988,0.0,-0.0,0.0,0.0,0.0,0.0
1782666890,572049861,-1.6565821806537073,0.12967252731323242,-1.521905247365133,0.00686808442696929,0.0007190534961409867,0.6742823123931885,0.0,-0.0,0.0,0.0,0.0,0.0
1782666890,580026720,-1.6566303412066858,0.12967252731323242,-1.5218694845782679,0.006844115909188986,0.0007430219557136297,0.6743542551994324,0.0,-0.0,0.0,0.0,0.0,0.0
1782666890,588049320,-1.6565945784198206,0.12964820861816406,-1.5218575636493128,0.006892052944749594,0.0007669904152862728,0.674318253993988,0.0,-0.0,0.0,0.0,0.0,0.0
1782666890,596141699,-1.6566064993487757,0.12966012954711914,-1.5218456427203577,0.006844115909188986,0.0007669904152862728,0.674318253993988,0.0,-0.0,0.0,0.0,0.0,0.0
1782666890,604049835,-1.6565945784198206,0.12964820861816406,-1.5218337217914026,0.006892052944749594,0.0007430219557136297,0.6742823123931885,0.0,-0.0,0.0,0.0,0.0,0.0
1782666890,612042046,-1.6566064993487757,0.12963628768920898,-1.521893326436178,0.00686808442696929,0.0007430219557136297,0.674318253993988,0.0,-0.0,0.0,0.0,0.0,0.0
1782666890,620049221,-1.6565945784198206,0.12963628768920898,-1.5218213240252894,0.00686808442696929,0.0007550062146037817,0.6743302345275879,0.0,-0.0,0.0,0.0,0.0,0.0
1782666890,628098803,-1.6566064993487757,0.1296243667602539,-1.5219176451312464,0.006844115909188986,0.0007550062146037817,0.6743542551994324,0.0,-0.0,0.0,0.0,0.0,0.0
1782666890,636034365,-1.6566184202777308,0.12967252731323242,-1.521893326436178,0.006880068685859442,0.0007550062146037817,0.6743542551994324,0.0,-0.0,0.0,0.0,0.0,0.0
1782666890,644031854,-1.6566064993487757,0.12967252731323242,-1.5218456427203577,0.006856100168079138,0.0007550062146037817,0.6743302345275879,0.0,-0.0,0.0,0.0,0.0,0.0
1782666890,652045158,-1.6565821806537073,0.12969636917114258,-1.5218575636493128,0.006832132115960121,0.0007310377550311387,0.6743662357330322,0.0,-0.0,0.0,0.0,0.0,0.0
1782666890,660077444,-1.656642262135641,0.1296243667602539,-1.5218694845782679,0.00686808442696929,0.0007310377550311387,0.6743062734603882,0.0,-0.0,0.0,0.0,0.0,0.0
1782666890,668046211,-1.6565583387957972,0.1296844482421875,-1.5218213240252894,0.006904037203639746,0.0007190534961409867,0.674318253993988,0.0,-0.0,0.0,0.0,0.0,0.0
1782666890,676029607,-1.6566184202777308,0.1296844482421875,-1.5218456427203577,0.006892052944749594,0.0007310377550311387,0.6743062734603882,0.0,-0.0,0.0,0.0,0.0,0.0
1782666890,684033374,-1.6565821806537073,0.12967252731323242,-1.5218694845782679,0.006856100168079138,0.0007190534961409867,0.6743302345275879,0.0,-0.0,0.0,0.0,0.0,0.0
1782666890,692040807,-1.656642262135641,0.1296844482421875,-1.5218337217914026,0.006844115909188986,0.0007550062146037817,0.674318253993988,0.0,-0.0,0.0,0.0,0.0,0.0
1782666890,700025000,-1.656546417866842,0.12963628768920898,-1.521893326436178,0.006820147857069969,0.0007310377550311387,0.6744021773338318,0.0,-0.0,0.0,0.0,0.0,0.0
1782666890,708037563,-1.6565945784198206,0.12966012954711914,-1.5218575636493128,0.006832132115960121,0.0007190534961409867,0.6743422150611877,0.0,-0.0,0.0,0.0,0.0,0.0
1782666890,716037256,-1.656546417866842,0.12966012954711914,-1.521881405507223,0.006904037203639746,0.0007550062146037817,0.6742942929267883,0.0,-0.0,0.0,0.0,0.0,0.0
1782666890,724041986,-1.656642262135641,0.12960100173950195,-1.5218456427203577,0.00686808442696929,0.0007310377550311387,0.6743302345275879,0.0,-0.0,0.0,0.0,0.0,0.0
1782666890,732052067,-1.6566064993487757,0.12964820861816406,-1.521881405507223,0.006904037203639746,0.0007310377550311387,0.6743302345275879,0.0,-0.0,0.0,0.0,0.0,0.0
1782666890,740031112,-1.6566064993487757,0.12969636917114258,-1.521893326436178,0.006856100168079138,0.0007430219557136297,0.6743542551994324,0.0,-0.0,0.0,0.0,0.0,0.0
1782666890,748051897,-1.6565945784198206,0.12966012954711914,-1.5218694845782679,0.00692800572142005,0.0007310377550311387,0.6743422150611877,0.0,-0.0,0.0,0.0,0.0,0.0
1782666890,756135202,-1.6566184202777308,0.12967252731323242,-1.5218694845782679,0.00686808442696929,0.0007550062146037817,0.6743901968002319,0.0,-0.0,0.0,0.0,0.0,0.0
1782666890,764044190,-1.6566064993487757,0.12967252731323242,-1.5218575636493128,0.006904037203639746,0.0007669904152862728,0.6742823123931885,0.0,-0.0,0.0,0.0,0.0,0.0
1782666890,772024235,-1.6566064993487757,0.12970829010009766,-1.521893326436178,0.006832132115960121,0.0007550062146037817,0.6743302345275879,0.0,-0.0,0.0,0.0,0.0,0.0
1782666890,780033020,-1.6566184202777308,0.12967252731323242,-1.521881405507223,0.006856100168079138,0.0007909588748589158,0.674318253993988,0.0,-0.0,0.0,0.0,0.0,0.0
1782666890,788071454,-1.6565583387957972,0.12966012954711914,-1.5218575636493128,0.006904037203639746,0.0007190534961409867,0.674318253993988,0.0,-0.0,0.0,0.0,0.0,0.0
1782666890,796042591,-1.6565945784198206,0.12966012954711914,-1.5218337217914026,0.006880068685859442,0.0007430219557136297,0.6743062734603882,0.0,-0.0,0.0,0.0,0.0,0.0
1782666890,804033876,-1.6566064993487757,0.1296243667602539,-1.521881405507223,0.006892052944749594,0.0007190534961409867,0.6743542551994324,0.0,-0.0,0.0,0.0,0.0,0.0
1782666890,812040606,-1.6566303412066858,0.12964820861816406,-1.5218337217914026,0.006880068685859442,0.0008033175836317241,0.6743302345275879,0.0,-0.0,0.0,0.0,0.0,0.0
1782666890,820072151,-1.656654183064596,0.12963628768920898,-1.521881405507223,0.006856100168079138,0.0007430219557136297,0.674318253993988,0.0,-0.0,0.0,0.0,0.0,0.0
1782666890,828054621,-1.6566064993487757,0.12963628768920898,-1.521881405507223,0.006904037203639746,0.0007669904152862728,0.6743422150611877,0.0,-0.0,0.0,0.0,0.0,0.0
1782666890,836039258,-1.6565702597247522,0.12966012954711914,-1.521881405507223,0.006856100168079138,0.0007550062146037817,0.6742823123931885,0.0,-0.0,0.0,0.0,0.0,0.0
1782666890,844038488,-1.6566184202777308,0.12966012954711914,-1.5218337217914026,0.006832132115960121,0.0007070692954584956,0.6743302345275879,0.0,-0.0,0.0,0.0,0.0,0.0
1782666890,852054329,-1.6566303412066858,0.12964820861816406,-1.5218694845782679,0.006892052944749594,0.0007669904152862728,0.674318253993988,0.0,-0.0,0.0,0.0,0.0,0.0
1782666890,860046411,-1.6566184202777308,0.12964820861816406,-1.521881405507223,0.00686808442696929,0.0007789746159687638,0.6743062734603882,0.0,-0.0,0.0,0.0,0.0,0.0
1782666890,868030677,-1.6566064993487757,0.1296243667602539,-1.521881405507223,0.006892052944749594,0.0007669904152862728,0.674318253993988,0.0,-0.0,0.0,0.0,0.0,0.0
1782666890,876042426,-1.656642262135641,0.12966012954711914,-1.521881405507223,0.006856100168079138,0.0007310377550311387,0.674318253993988,0.0,-0.0,0.0,0.0,0.0,0.0
1782666890,884065711,-1.6565583387957972,0.12966012954711914,-1.5218213240252894,0.006856100168079138,0.0007669904152862728,0.674318253993988,0.0,-0.0,0.0,0.0,0.0,0.0
1782666890,892040978,-1.6565945784198206,0.1296844482421875,-1.5218456427203577,0.006844115909188986,0.0007669904152862728,0.6743062734603882,0.0,-0.0,0.0,0.0,0.0,0.0
1782666890,900027948,-1.6566303412066858,0.12966012954711914,-1.521881405507223,0.006916021462529898,0.0007550062146037817,0.6742823123931885,0.0,-0.0,0.0,0.0,0.0,0.0
1782666890,908139179,-1.6565702597247522,0.12966012954711914,-1.5218694845782679,0.006820147857069969,0.0007550062146037817,0.674318253993988,0.0,-0.0,0.0,0.0,0.0,0.0
1782666890,916074019,-1.6566303412066858,0.12967252731323242,-1.521905247365133,0.006880068685859442,0.0007310377550311387,0.6743422150611877,0.0,-0.0,0.0,0.0,0.0,0.0
1782666890,924038119,-1.6566064993487757,0.12963628768920898,-1.5218694845782679,0.006856100168079138,0.0007190534961409867,0.6743662357330322,0.0,-0.0,0.0,0.0,0.0,0.0
1782666890,932034812,-1.6565821806537073,0.12969636917114258,-1.521881405507223,0.006904037203639746,0.0007430219557136297,0.6743302345275879,0.0,-0.0,0.0,0.0,0.0,0.0
1782666890,940036783,-1.6566303412066858,0.12967252731323242,-1.5218694845782679,0.006892052944749594,0.0007789746159687638,0.674318253993988,0.0,-0.0,0.0,0.0,0.0,0.0
1782666890,948068013,-1.6566064993487757,0.12966012954711914,-1.5218575636493128,0.006904037203639746,0.0007669904152862728,0.6743542551994324,0.0,-0.0,0.0,0.0,0.0,0.0
1782666890,956038353,-1.6566303412066858,0.12969636917114258,-1.5218456427203577,0.006916021462529898,0.0007190534961409867,0.6743302345275879,0.0,-0.0,0.0,0.0,0.0,0.0
1782666890,964033953,-1.6566184202777308,0.12964820861816406,-1.5218337217914026,0.006892052944749594,0.0007310377550311387,0.6744141578674316,0.0,-0.0,0.0,0.0,0.0,0.0
1782666890,972037257,-1.6565945784198206,0.1296844482421875,-1.5218694845782679,0.006904037203639746,0.0007669904152862728,0.6743422150611877,0.0,-0.0,0.0,0.0,0.0,0.0
1782666890,980067876,-1.6566064993487757,0.12966012954711914,-1.5218337217914026,0.00692800572142005,0.0007789746159687638,0.6743542551994324,0.0,-0.0,0.0,0.0,0.0,0.0
1782666890,988044624,-1.6565821806537073,0.1296844482421875,-1.5218694845782679,0.006856100168079138,0.0007310377550311387,0.6743422150611877,0.0,-0.0,0.0,0.0,0.0,0.0
1782666890,996022354,-1.6565945784198206,0.12963628768920898,-1.5218456427203577,0.006880068685859442,0.0007669904152862728,0.6743302345275879,0.0,-0.0,0.0,0.0,0.0,0.0
1782666891,4048177,-1.6565583387957972,0.12964820861816406,-1.5218694845782679,0.006844115909188986,0.0007789746159687638,0.6743542551994324,0.0,-0.0,0.0,0.0,0.0,0.0
1782666891,12152074,-1.656666103993551,0.12966012954711914,-1.5218337217914026,0.006892052944749594,0.0007190534961409867,0.6743422150611877,0.0,-0.0,0.0,0.0,0.0,0.0
1782666891,20034729,-1.6565821806537073,0.12969636917114258,-1.521881405507223,0.00686808442696929,0.0007310377550311387,0.6743422150611877,0.0,-0.0,0.0,0.0,0.0,0.0
1782666891,28029847,-1.6565945784198206,0.12966012954711914,-1.5218213240252894,0.006856100168079138,0.0007550062146037817,0.6743782162666321,0.0,-0.0,0.0,0.0,0.0,0.0
1782666891,36054614,-1.6566064993487757,0.1296844482421875,-1.521893326436178,0.006880068685859442,0.0007789746159687638,0.674318253993988,0.0,-0.0,0.0,0.0,0.0,0.0
1782666891,44185401,-1.656654183064596,0.1296844482421875,-1.5218575636493128,0.006880068685859442,0.0007550062146037817,0.674318253993988,0.0,-0.0,0.0,0.0,0.0,0.0
1782666891,52046537,-1.6565821806537073,0.12967252731323242,-1.5218694845782679,0.006916021462529898,0.0007430219557136297,0.6743662357330322,0.0,-0.0,0.0,0.0,0.0,0.0
1782666891,60034007,-1.6566064993487757,0.12967252731323242,-1.521881405507223,0.00686808442696929,0.0007669904152862728,0.6743062734603882,0.0,-0.0,0.0,0.0,0.0,0.0
1782666891,68048533,-1.6566184202777308,0.1296243667602539,-1.521905247365133,0.006880068685859442,0.0007310377550311387,0.6743542551994324,0.0,-0.0,0.0,0.0,0.0,0.0
1782666891,76141375,-1.6566064993487757,0.1296844482421875,-1.5218575636493128,0.00686808442696929,0.0007430219557136297,0.6743662357330322,0.0,-0.0,0.0,0.0,0.0,0.0
1782666891,84045752,-1.6566064993487757,0.12969636917114258,-1.521893326436178,0.006880068685859442,0.0007430219557136297,0.6743662357330322,0.0,-0.0,0.0,0.0,0.0,0.0
1782666891,92026426,-1.656654183064596,0.12963628768920898,-1.5218694845782679,0.006892052944749594,0.0007789746159687638,0.674318253993988,0.0,-0.0,0.0,0.0,0.0,0.0
1782666891,100035879,-1.6565945784198206,0.12967252731323242,-1.5218213240252894,0.006820147857069969,0.0007310377550311387,0.6743062734603882,0.0,-0.0,0.0,0.0,0.0,0.0
1782666891,108037849,-1.6566184202777308,0.12967252731323242,-1.521881405507223,0.00686808442696929,0.0007190534961409867,0.6743062734603882,0.0,-0.0,0.0,0.0,0.0,0.0
1782666891,116048690,-1.6565945784198206,0.1296243667602539,-1.5218575636493128,0.006844115909188986,0.0007669904152862728,0.6743542551994324,0.0,-0.0,0.0,0.0,0.0,0.0
1782666891,124031438,-1.6565702597247522,0.1296844482421875,-1.5218694845782679,0.006844115909188986,0.0007310377550311387,0.6743542551994324,0.0,-0.0,0.0,0.0,0.0,0.0
1782666891,132076817,-1.6565702597247522,0.12966012954711914,-1.521881405507223,0.006808163598179817,0.0007789746159687638,0.6743302345275879,0.0,-0.0,0.0,0.0,0.0,0.0
1782666891,140102343,-1.6566303412066858,0.12963628768920898,-1.5218575636493128,0.006904037203639746,0.0007789746159687638,0.6743662357330322,0.0,-0.0,0.0,0.0,0.0,0.0
1782666891,148038720,-1.6565821806537073,0.12966012954711914,-1.5218575636493128,0.006904037203639746,0.0007190534961409867,0.6744021773338318,0.0,-0.0,0.0,0.0,0.0,0.0
1782666891,156032191,-1.656546417866842,0.12966012954711914,-1.521893326436178,0.006880068685859442,0.0007310377550311387,0.6743422150611877,0.0,-0.0,0.0,0.0,0.0,0.0
1782666891,164034347,-1.6566303412066858,0.12964820861816406,-1.5218694845782679,0.006856100168079138,0.0007430219557136297,0.6743422150611877,0.0,-0.0,0.0,0.0,0.0,0.0
1782666891,172063928,-1.6566064993487757,0.1296844482421875,-1.5218456427203577,0.00686808442696929,0.0007190534961409867,0.674318253993988,0.0,-0.0,0.0,0.0,0.0,0.0
1782666891,180033547,-1.6566303412066858,0.12963628768920898,-1.521881405507223,0.00686808442696929,0.0007190534961409867,0.6742942929267883,0.0,-0.0,0.0,0.0,0.0,0.0
1782666891,188028721,-1.6565945784198206,0.12964820861816406,-1.521881405507223,0.006904037203639746,0.0007430219557136297,0.6743542551994324,0.0,-0.0,0.0,0.0,0.0,0.0
1782666891,196032747,-1.6565821806537073,0.12967252731323242,-1.521905247365133,0.006880068685859442,0.0007070692954584956,0.6743662357330322,0.0,-0.0,0.0,0.0,0.0,0.0
1782666891,204065755,-1.6565702597247522,0.12963628768920898,-1.5218694845782679,0.00686808442696929,0.0007190534961409867,0.674318253993988,0.0,-0.0,0.0,0.0,0.0,0.0
1782666891,212033059,-1.6565821806537073,0.12964820861816406,-1.5218694845782679,0.00692800572142005,0.0007550062146037817,0.6743901968002319,0.0,-0.0,0.0,0.0,0.0,0.0
1782666891,220021714,-1.6565583387957972,0.1296243667602539,-1.5218456427203577,0.006904037203639746,0.0007789746159687638,0.6743542551994324,0.0,-0.0,0.0,0.0,0.0,0.0
1782666891,228046074,-1.6565945784198206,0.12967252731323242,-1.5218575636493128,0.006844115909188986,0.0007430219557136297,0.6743062734603882,0.0,-0.0,0.0,0.0,0.0,0.0
1782666891,236143842,-1.6565945784198206,0.12969636917114258,-1.5218456427203577,0.006880068685859442,0.0007310377550311387,0.6743422150611877,0.0,-0.0,0.0,0.0,0.0,0.0
1782666891,244048293,-1.6566064993487757,0.12966012954711914,-1.5219176451312464,0.00692800572142005,0.0007310377550311387,0.6743901968002319,0.0,-0.0,0.0,0.0,0.0,0.0
1782666891,252025559,-1.656654183064596,0.12966012954711914,-1.5218456427203577,0.006880068685859442,0.0007190534961409867,0.6743422150611877,0.0,-0.0,0.0,0.0,0.0,0.0
1782666891,260033734,-1.6565945784198206,0.12964820861816406,-1.5218575636493128,0.00686808442696929,0.0007430219557136297,0.6743302345275879,0.0,-0.0,0.0,0.0,0.0,0.0
1782666891,268081631,-1.6566184202777308,0.12967252731323242,-1.521881405507223,0.006880068685859442,0.0007789746159687638,0.6743302345275879,0.0,-0.0,0.0,0.0,0.0,0.0
1782666891,276039971,-1.6566064993487757,0.12966012954711914,-1.521881405507223,0.006844115909188986,0.0007909588748589158,0.6743542551994324,0.0,-0.0,0.0,0.0,0.0,0.0
1782666891,284042164,-1.6565945784198206,0.12967252731323242,-1.521893326436178,0.006880068685859442,0.0007669904152862728,0.6743422150611877,0.0,-0.0,0.0,0.0,0.0,0.0
1782666891,292041301,-1.6566184202777308,0.12969636917114258,-1.521893326436178,0.006844115909188986,0.0007669904152862728,0.674318253993988,0.0,-0.0,0.0,0.0,0.0,0.0
1782666891,300043438,-1.6565821806537073,0.12964820861816406,-1.5218337217914026,0.006880068685859442,0.0007430219557136297,0.674318253993988,0.0,-0.0,0.0,0.0,0.0,0.0
1782666891,308029927,-1.6565945784198206,0.12964820861816406,-1.521893326436178,0.006892052944749594,0.0007789746159687638,0.6742942929267883,0.0,-0.0,0.0,0.0,0.0,0.0
1782666891,316019898,-1.6565945784198206,0.12966012954711914,-1.5218575636493128,0.006856100168079138,0.0007550062146037817,0.6743901968002319,0.0,-0.0,0.0,0.0,0.0,0.0
1782666891,324042257,-1.6565945784198206,0.12969636917114258,-1.5218213240252894,0.006832132115960121,0.0007909588748589158,0.6743422150611877,0.0,-0.0,0.0,0.0,0.0,0.0
1782666891,332077413,-1.656546417866842,0.1296844482421875,-1.5218694845782679,0.006808163598179817,0.0007909588748589158,0.6743542551994324,0.0,-0.0,0.0,0.0,0.0,0.0
1782666891,340041199,-1.6566184202777308,0.12966012954711914,-1.521893326436178,0.006832132115960121,0.0007789746159687638,0.6743302345275879,0.0,-0.0,0.0,0.0,0.0,0.0
1782666891,348024484,-1.6566184202777308,0.12963628768920898,-1.521905247365133,0.006856100168079138,0.0007789746159687638,0.6743422150611877,0.0,-0.0,0.0,0.0,0.0,0.0
1782666891,356129363,-1.6566303412066858,0.12963628768920898,-1.5218575636493128,0.006832132115960121,0.0007909588748589158,0.6742942929267883,0.0,-0.0,0.0,0.0,0.0,0.0
1782666891,364035981,-1.6566303412066858,0.12964820861816406,-1.5218575636493128,0.006880068685859442,0.0007430219557136297,0.6743662357330322,0.0,-0.0,0.0,0.0,0.0,0.0
1782666891,372041192,-1.6565945784198206,0.1296844482421875,-1.521881405507223,0.006856100168079138,0.0007190534961409867,0.6743542551994324,0.0,-0.0,0.0,0.0,0.0,0.0
1782666891,380025347,-1.6566303412066858,0.12970829010009766,-1.5218694845782679,0.00686808442696929,0.0007789746159687638,0.6743901968002319,0.0,-0.0,0.0,0.0,0.0,0.0
1782666891,388044448,-1.656642262135641,0.12964820861816406,-1.521881405507223,0.006880068685859442,0.0007789746159687638,0.674318253993988,0.0,-0.0,0.0,0.0,0.0,0.0
1782666891,396129437,-1.6566064993487757,0.12966012954711914,-1.5218456427203577,0.006892052944749594,0.0007310377550311387,0.6743782162666321,0.0,-0.0,0.0,0.0,0.0,0.0
1782666891,404028185,-1.6566303412066858,0.12967252731323242,-1.5218337217914026,0.00692800572142005,0.0007550062146037817,0.6743422150611877,0.0,-0.0,0.0,0.0,0.0,0.0
1782666891,412024933,-1.6565945784198206,0.12967252731323242,-1.5218694845782679,0.006856100168079138,0.0007190534961409867,0.6743782162666321,0.0,-0.0,0.0,0.0,0.0,0.0
1782666891,420064200,-1.6566303412066858,0.12966012954711914,-1.5218456427203577,0.006844115909188986,0.0007550062146037817,0.6743782162666321,0.0,-0.0,0.0,0.0,0.0,0.0
1782666891,428062338,-1.6565702597247522,0.1296844482421875,-1.5218694845782679,0.006880068685859442,0.0007190534961409867,0.674318253993988,0.0,-0.0,0.0,0.0,0.0,0.0
1782666891,436034956,-1.656654183064596,0.1296844482421875,-1.5218213240252894,0.006892052944749594,0.0007190534961409867,0.6743542551994324,0.0,-0.0,0.0,0.0,0.0,0.0
1782666891,444030482,-1.6565945784198206,0.12964820861816406,-1.5218213240252894,0.006892052944749594,0.0007310377550311387,0.674318253993988,0.0,-0.0,0.0,0.0,0.0,0.0
1782666891,452046694,-1.6565583387957972,0.12966012954711914,-1.521893326436178,0.006880068685859442,0.0007669904152862728,0.6743662357330322,0.0,-0.0,0.0,0.0,0.0,0.0
1782666891,460081146,-1.6566064993487757,0.12969636917114258,-1.5218694845782679,0.006856100168079138,0.0007070692954584956,0.6743062734603882,0.0,-0.0,0.0,0.0,0.0,0.0
1782666891,468043116,-1.6565945784198206,0.12966012954711914,-1.5218575636493128,0.006844115909188986,0.0007550062146037817,0.6743302345275879,0.0,-0.0,0.0,0.0,0.0,0.0
1782666891,476026272,-1.6565945784198206,0.12967252731323242,-1.5218337217914026,0.006880068685859442,0.0007669904152862728,0.6743782162666321,0.0,-0.0,0.0,0.0,0.0,0.0
1782666891,484038761,-1.6566064993487757,0.1296844482421875,-1.5218694845782679,0.006904037203639746,0.0007550062146037817,0.6743062734603882,0.0,-0.0,0.0,0.0,0.0,0.0
1782666891,492080102,-1.6566064993487757,0.12964820861816406,-1.5218694845782679,0.006916021462529898,0.0007430219557136297,0.6743782162666321,0.0,-0.0,0.0,0.0,0.0,0.0
1782666891,500046572,-1.6566303412066858,0.12966012954711914,-1.5218456427203577,0.006844115909188986,0.0007669904152862728,0.6743302345275879,0.0,-0.0,0.0,0.0,0.0,0.0
1782666891,508033839,-1.6565945784198206,0.12963628768920898,-1.521881405507223,0.006856100168079138,0.0007789746159687638,0.6743901968002319,0.0,-0.0,0.0,0.0,0.0,0.0
1782666891,516037328,-1.6565821806537073,0.12964820861816406,-1.5218694845782679,0.006832132115960121,0.0007430219557136297,0.6743542551994324,0.0,-0.0,0.0,0.0,0.0,0.0
1782666891,524115744,-1.6566303412066858,0.12966012954711914,-1.5218575636493128,0.006880068685859442,0.0007430219557136297,0.6742942929267883,0.0,-0.0,0.0,0.0,0.0,0.0
1782666891,532038862,-1.6566064993487757,0.1296844482421875,-1.521881405507223,0.006832132115960121,0.0007430219557136297,0.6743782162666321,0.0,-0.0,0.0,0.0,0.0,0.0
1782666891,540025481,-1.656642262135641,0.12967252731323242,-1.521893326436178,0.006880068685859442,0.0007310377550311387,0.6743422150611877,0.0,-0.0,0.0,0.0,0.0,0.0
1782666891,548074007,-1.6565945784198206,0.12967252731323242,-1.5218456427203577,0.00686808442696929,0.0007190534961409867,0.674318253993988,0.0,-0.0,0.0,0.0,0.0,0.0
1782666891,556041125,-1.6565821806537073,0.12963628768920898,-1.5218575636493128,0.006880068685859442,0.0007070692954584956,0.6743302345275879,0.0,-0.0,0.0,0.0,0.0,0.0
1782666891,564040633,-1.6565945784198206,0.12967252731323242,-1.5218694845782679,0.006856100168079138,0.0007789746159687638,0.6743901968002319,0.0,-0.0,0.0,0.0,0.0,0.0
1782666891,572029678,-1.6565945784198206,0.12967252731323242,-1.5218213240252894,0.00686808442696929,0.0007550062146037817,0.674318253993988,0.0,-0.0,0.0,0.0,0.0,0.0
1782666891,580039167,-1.6565945784198206,0.12963628768920898,-1.521881405507223,0.006880068685859442,0.0007310377550311387,0.6743302345275879,0.0,-0.0,0.0,0.0,0.0,0.0
1782666891,588063786,-1.6566184202777308,0.12969636917114258,-1.5218456427203577,0.006844115909188986,0.0007310377550311387,0.674318253993988,0.0,-0.0,0.0,0.0,0.0,0.0
1782666891,596036015,-1.656642262135641,0.1296844482421875,-1.521893326436178,0.00686808442696929,0.0007430219557136297,0.6743422150611877,0.0,-0.0,0.0,0.0,0.0,0.0
1782666891,604046282,-1.6565821806537073,0.12969636917114258,-1.5218213240252894,0.00686808442696929,0.0007669904152862728,0.6743542551994324,0.0,-0.0,0.0,0.0,0.0,0.0
1782666891,612046864,-1.6566303412066858,0.1296844482421875,-1.521881405507223,0.006904037203639746,0.0007190534961409867,0.6743782162666321,0.0,-0.0,0.0,0.0,0.0,0.0
1782666891,620038705,-1.6566303412066858,0.12969636917114258,-1.521905247365133,0.006832132115960121,0.0008033175836317241,0.6743542551994324,0.0,-0.0,0.0,0.0,0.0,0.0
1782666891,628041768,-1.6566303412066858,0.12967252731323242,-1.5219176451312464,0.00686808442696929,0.0007190534961409867,0.674318253993988,0.0,-0.0,0.0,0.0,0.0,0.0
1782666891,636036905,-1.6566064993487757,0.12963628768920898,-1.521881405507223,0.006880068685859442,0.0007430219557136297,0.6743302345275879,0.0,-0.0,0.0,0.0,0.0,0.0
1782666891,644022172,-1.6565821806537073,0.12964820861816406,-1.5218694845782679,0.006832132115960121,0.0007669904152862728,0.6743542551994324,0.0,-0.0,0.0,0.0,0.0,0.0
1782666891,652099606,-1.6566303412066858,0.12967252731323242,-1.5219176451312464,0.00692800572142005,0.0007789746159687638,0.6743901968002319,0.0,-0.0,0.0,0.0,0.0,0.0
1782666891,660051576,-1.6565821806537073,0.1296243667602539,-1.5218575636493128,0.006856100168079138,0.0007789746159687638,0.6743062734603882,0.0,-0.0,0.0,0.0,0.0,0.0
1782666891,668031213,-1.6566184202777308,0.12961292266845703,-1.521881405507223,0.006856100168079138,0.0007070692954584956,0.6743422150611877,0.0,-0.0,0.0,0.0,0.0,0.0
1782666891,676030480,-1.6566184202777308,0.12967252731323242,-1.521881405507223,0.006880068685859442,0.0007190534961409867,0.6743542551994324,0.0,-0.0,0.0,0.0,0.0,0.0
1782666891,684026376,-1.6566064993487757,0.12970829010009766,-1.5218575636493128,0.006844115909188986,0.0007190534961409867,0.674318253993988,0.0,-0.0,0.0,0.0,0.0,0.0
1782666891,692042754,-1.6565702597247522,0.12964820861816406,-1.5218694845782679,0.006880068685859442,0.0007669904152862728,0.674318253993988,0.0,-0.0,0.0,0.0,0.0,0.0
1782666891,700024965,-1.6566785017596644,0.1296844482421875,-1.5218213240252894,0.006832132115960121,0.0007669904152862728,0.6743782162666321,0.0,-0.0,0.0,0.0,0.0,0.0
1782666891,708040918,-1.6566064993487757,0.1296844482421875,-1.521881405507223,0.006916021462529898,0.0007550062146037817,0.6743302345275879,0.0,-0.0,0.0,0.0,0.0,0.0
1782666891,716036740,-1.6566303412066858,0.12966012954711914,-1.5218575636493128,0.006916021462529898,0.0007070692954584956,0.6743782162666321,0.0,-0.0,0.0,0.0,0.0,0.0
1782666891,724081600,-1.6565945784198206,0.1296844482421875,-1.5218337217914026,0.006880068685859442,0.0007310377550311387,0.6743062734603882,0.0,-0.0,0.0,0.0,0.0,0.0
1782666891,732025977,-1.6566064993487757,0.12969636917114258,-1.5218694845782679,0.006916021462529898,0.0007669904152862728,0.6743542551994324,0.0,-0.0,0.0,0.0,0.0,0.0
1782666891,740032263,-1.6565945784198206,0.1296844482421875,-1.521881405507223,0.006856100168079138,0.0007550062146037817,0.6743542551994324,0.0,-0.0,0.0,0.0,0.0,0.0
1782666891,748103141,-1.6565821806537073,0.1296844482421875,-1.521893326436178,0.006904037203639746,0.0007310377550311387,0.6743302345275879,0.0,-0.0,0.0,0.0,0.0,0.0
1782666891,756054204,-1.6566064993487757,0.12963628768920898,-1.521881405507223,0.006844115909188986,0.0007310377550311387,0.6743302345275879,0.0,-0.0,0.0,0.0,0.0,0.0
1782666891,764036137,-1.6565821806537073,0.1296844482421875,-1.521893326436178,0.00686808442696929,0.0007190534961409867,0.6742942929267883,0.0,-0.0,0.0,0.0,0.0,0.0
1782666891,772040978,-1.6566064993487757,0.12966012954711914,-1.5218575636493128,0.006880068685859442,0.0007669904152862728,0.6743662357330322,0.0,-0.0,0.0,0.0,0.0,0.0
1782666891,780141616,-1.6565821806537073,0.1296243667602539,-1.5218213240252894,0.00686808442696929,0.0007789746159687638,0.6743422150611877,0.0,-0.0,0.0,0.0,0.0,0.0
1782666891,788056401,-1.6566184202777308,0.12964820861816406,-1.5218337217914026,0.006880068685859442,0.0007430219557136297,0.6743782162666321,0.0,-0.0,0.0,0.0,0.0,0.0
1782666891,796038631,-1.6566303412066858,0.1296243667602539,-1.5218694845782679,0.006856100168079138,0.0007789746159687638,0.6743422150611877,0.0,-0.0,0.0,0.0,0.0,0.0
1782666891,804009490,-1.6565945784198206,0.12967252731323242,-1.521893326436178,0.006820147857069969,0.0007190534961409867,0.6743422150611877,0.0,-0.0,0.0,0.0,0.0,0.0
1782666891,812051146,-1.6566303412066858,0.1296243667602539,-1.5218337217914026,0.00686808442696929,0.0007550062146037817,0.6743302345275879,0.0,-0.0,0.0,0.0,0.0,0.0
1782666891,820035653,-1.656642262135641,0.12966012954711914,-1.5218694845782679,0.00686808442696929,0.0007430219557136297,0.6743302345275879,0.0,-0.0,0.0,0.0,0.0,0.0
1782666891,828030790,-1.6566184202777308,0.12961292266845703,-1.5218694845782679,0.006844115909188986,0.0007669904152862728,0.6743302345275879,0.0,-0.0,0.0,0.0,0.0,0.0
1782666891,836012631,-1.6565583387957972,0.12969636917114258,-1.5218456427203577,0.006916021462529898,0.0007789746159687638,0.6743542551994324,0.0,-0.0,0.0,0.0,0.0,0.0
1782666891,844025935,-1.6565702597247522,0.1296844482421875,-1.5218575636493128,0.00686808442696929,0.0007430219557136297,0.6743062734603882,0.0,-0.0,0.0,0.0,0.0,0.0
1782666891,852026147,-1.6565583387957972,0.12969636917114258,-1.5218694845782679,0.006904037203639746,0.0007070692954584956,0.6743542551994324,0.0,-0.0,0.0,0.0,0.0,0.0
1782666891,860045025,-1.6566303412066858,0.12963628768920898,-1.5218456427203577,0.006892052944749594,0.0007909588748589158,0.6743422150611877,0.0,-0.0,0.0,0.0,0.0,0.0
1782666891,868014439,-1.6566303412066858,0.12969636917114258,-1.521905247365133,0.006880068685859442,0.0007550062146037817,0.6743782162666321,0.0,-0.0,0.0,0.0,0.0,0.0
1782666891,876017428,-1.6565945784198206,0.12967252731323242,-1.521881405507223,0.006880068685859442,0.0007550062146037817,0.6743782162666321,0.0,-0.0,0.0,0.0,0.0,0.0
1782666891,884047973,-1.6566064993487757,0.12967252731323242,-1.5218575636493128,0.006844115909188986,0.0007310377550311387,0.674318253993988,0.0,-0.0,0.0,0.0,0.0,0.0
1782666891,892022870,-1.6566184202777308,0.1296844482421875,-1.521893326436178,0.006832132115960121,0.0007190534961409867,0.6743302345275879,0.0,-0.0,0.0,0.0,0.0,0.0
1782666891,900039192,-1.6566064993487757,0.1296844482421875,-1.5218456427203577,0.006856100168079138,0.0007550062146037817,0.6743542551994324,0.0,-0.0,0.0,0.0,0.0,0.0
1782666891,908027366,-1.6566064993487757,0.1296844482421875,-1.521881405507223,0.006892052944749594,0.0007550062146037817,0.6743302345275879,0.0,-0.0,0.0,0.0,0.0,0.0
1782666891,916072985,-1.6566064993487757,0.12964820861816406,-1.521881405507223,0.00686808442696929,0.0007310377550311387,0.6743062734603882,0.0,-0.0,0.0,0.0,0.0,0.0
1782666891,924020548,-1.6566184202777308,0.12964820861816406,-1.521881405507223,0.006880068685859442,0.0007669904152862728,0.6743062734603882,0.0,-0.0,0.0,0.0,0.0,0.0
1782666891,932035796,-1.6565945784198206,0.1296243667602539,-1.5218337217914026,0.006892052944749594,0.0007430219557136297,0.6742823123931885,0.0,-0.0,0.0,0.0,0.0,0.0
1782666891,940033415,-1.6566303412066858,0.12963628768920898,-1.521881405507223,0.006880068685859442,0.0007669904152862728,0.6743542551994324,0.0,-0.0,0.0,0.0,0.0,0.0
1782666891,948030960,-1.656642262135641,0.1296844482421875,-1.5218337217914026,0.006832132115960121,0.0007430219557136297,0.6743422150611877,0.0,-0.0,0.0,0.0,0.0,0.0
1782666891,956031523,-1.6565945784198206,0.1296844482421875,-1.5218575636493128,0.006832132115960121,0.0007909588748589158,0.674318253993988,0.0,-0.0,0.0,0.0,0.0,0.0
1782666891,964076309,-1.6566184202777308,0.12964820861816406,-1.521893326436178,0.006856100168079138,0.0007550062146037817,0.6743542551994324,0.0,-0.0,0.0,0.0,0.0,0.0
1782666891,972044723,-1.6566184202777308,0.12963628768920898,-1.5218337217914026,0.00692800572142005,0.0007070692954584956,0.6743302345275879,0.0,-0.0,0.0,0.0,0.0,0.0
1782666891,980079472,-1.6565821806537073,0.12969636917114258,-1.5218456427203577,0.006832132115960121,0.0007310377550311387,0.6743302345275879,0.0,-0.0,0.0,0.0,0.0,0.0
1782666891,988029479,-1.6565821806537073,0.12966012954711914,-1.521905247365133,0.006856100168079138,0.0007669904152862728,0.674318253993988,0.0,-0.0,0.0,0.0,0.0,0.0
1782666891,996025672,-1.6566184202777308,0.12969636917114258,-1.5218694845782679,0.00686808442696929,0.0007190534961409867,0.6743422150611877,0.0,-0.0,0.0,0.0,0.0,0.0
1782666892,4030957,-1.6566184202777308,0.12967252731323242,-1.521881405507223,0.006892052944749594,0.0007430219557136297,0.6743422150611877,0.0,-0.0,0.0,0.0,0.0,0.0
1782666892,12066687,-1.6566303412066858,0.12966012954711914,-1.5218213240252894,0.006880068685859442,0.0007310377550311387,0.6743542551994324,0.0,-0.0,0.0,0.0,0.0,0.0
1782666892,20022732,-1.6566064993487757,0.1296844482421875,-1.521893326436178,0.006892052944749594,0.0007669904152862728,0.6743542551994324,0.0,-0.0,0.0,0.0,0.0,0.0
1782666892,28017202,-1.656654183064596,0.1296844482421875,-1.5218213240252894,0.006916021462529898,0.0007430219557136297,0.674318253993988,0.0,-0.0,0.0,0.0,0.0,0.0
1782666892,36045580,-1.6566184202777308,0.12967252731323242,-1.5218456427203577,0.006832132115960121,0.0007430219557136297,0.674318253993988,0.0,-0.0,0.0,0.0,0.0,0.0
1782666892,44059384,-1.656654183064596,0.1296844482421875,-1.5218694845782679,0.006856100168079138,0.0007190534961409867,0.674318253993988,0.0,-0.0,0.0,0.0,0.0,0.0
1782666892,52076022,-1.6566184202777308,0.12967252731323242,-1.5219176451312464,0.00686808442696929,0.0007550062146037817,0.6743422150611877,0.0,-0.0,0.0,0.0,0.0,0.0
1782666892,60036344,-1.6566303412066858,0.1296844482421875,-1.521905247365133,0.006856100168079138,0.0007669904152862728,0.6743062734603882,0.0,-0.0,0.0,0.0,0.0,0.0
1782666892,68029296,-1.6565821806537073,0.12966012954711914,-1.521893326436178,0.006904037203639746,0.0007430219557136297,0.6743302345275879,0.0,-0.0,0.0,0.0,0.0,0.0
1782666892,76057452,-1.6566184202777308,0.12967252731323242,-1.5218694845782679,0.006844115909188986,0.0007550062146037817,0.6743782162666321,0.0,-0.0,0.0,0.0,0.0,0.0
1782666892,84037348,-1.6566303412066858,0.12967252731323242,-1.5218575636493128,0.006880068685859442,0.0007190534961409867,0.6743422150611877,0.0,-0.0,0.0,0.0,0.0,0.0
1782666892,92023337,-1.6565702597247522,0.1297321319580078,-1.5218456427203577,0.006856100168079138,0.0007310377550311387,0.6743422150611877,0.0,-0.0,0.0,0.0,0.0,0.0
1782666892,100021289,-1.6565583387957972,0.12972021102905273,-1.521881405507223,0.006892052944749594,0.0007070692954584956,0.6743062734603882,0.0,-0.0,0.0,0.0,0.0,0.0
1782666892,108095723,-1.6566184202777308,0.12970829010009766,-1.521881405507223,0.006892052944749594,0.0007430219557136297,0.6743782162666321,0.0,-0.0,0.0,0.0,0.0,0.0
1782666892,116026415,-1.6566064993487757,0.12964820861816406,-1.5218575636493128,0.006892052944749594,0.0007669904152862728,0.6743302345275879,0.0,-0.0,0.0,0.0,0.0,0.0
1782666892,124030034,-1.6565945784198206,0.12967252731323242,-1.521881405507223,0.006916021462529898,0.0007310377550311387,0.6743302345275879,0.0,-0.0,0.0,0.0,0.0,0.0
1782666892,132048190,-1.6565821806537073,0.12964820861816406,-1.521881405507223,0.006880068685859442,0.0007310377550311387,0.6743062734603882,0.0,-0.0,0.0,0.0,0.0,0.0
1782666892,140033605,-1.6565702597247522,0.12964820861816406,-1.521893326436178,0.006820147857069969,0.0007310377550311387,0.6743302345275879,0.0,-0.0,0.0,0.0,0.0,0.0
1782666892,148031020,-1.6566064993487757,0.12967252731323242,-1.521893326436178,0.00686808442696929,0.0007190534961409867,0.6743782162666321,0.0,-0.0,0.0,0.0,0.0,0.0
1782666892,156027805,-1.656654183064596,0.12967252731323242,-1.5218575636493128,0.006844115909188986,0.0007430219557136297,0.6743422150611877,0.0,-0.0,0.0,0.0,0.0,0.0
1782666892,164047498,-1.6565821806537073,0.12967252731323242,-1.5218575636493128,0.00686808442696929,0.0007310377550311387,0.6743422150611877,0.0,-0.0,0.0,0.0,0.0,0.0
1782666892,172053321,-1.6566184202777308,0.12966012954711914,-1.5218456427203577,0.006844115909188986,0.0007430219557136297,0.6743662357330322,0.0,-0.0,0.0,0.0,0.0,0.0
1782666892,180027402,-1.6566064993487757,0.12966012954711914,-1.5218575636493128,0.006892052944749594,0.0007190534961409867,0.6743422150611877,0.0,-0.0,0.0,0.0,0.0,0.0
1782666892,188018502,-1.6566064993487757,0.1296243667602539,-1.5218456427203577,0.006832132115960121,0.0007310377550311387,0.6743422150611877,0.0,-0.0,0.0,0.0,0.0,0.0
1782666892,196023676,-1.6565821806537073,0.12963628768920898,-1.521881405507223,0.006880068685859442,0.0007550062146037817,0.6743422150611877,0.0,-0.0,0.0,0.0,0.0,0.0
1782666892,204060277,-1.6566184202777308,0.12967252731323242,-1.521881405507223,0.006856100168079138,0.0007789746159687638,0.6743422150611877,0.0,-0.0,0.0,0.0,0.0,0.0
1782666892,212023932,-1.6565945784198206,0.12964820861816406,-1.521881405507223,0.006856100168079138,0.0007310377550311387,0.6743542551994324,0.0,-0.0,0.0,0.0,0.0,0.0
1782666892,220049903,-1.6565945784198206,0.1296243667602539,-1.5218456427203577,0.006856100168079138,0.0007430219557136297,0.6743062734603882,0.0,-0.0,0.0,0.0,0.0,0.0
1782666892,228027577,-1.6566064993487757,0.12966012954711914,-1.5218337217914026,0.00692800572142005,0.0007310377550311387,0.6743542551994324,0.0,-0.0,0.0,0.0,0.0,0.0
1782666892,236097122,-1.6565821806537073,0.12967252731323242,-1.521893326436178,0.006832132115960121,0.0007310377550311387,0.6743662357330322,0.0,-0.0,0.0,0.0,0.0,0.0
1782666892,244048389,-1.656642262135641,0.12963628768920898,-1.521881405507223,0.00686808442696929,0.0007190534961409867,0.6743901968002319,0.0,-0.0,0.0,0.0,0.0,0.0
1782666892,252029248,-1.6565945784198206,0.12964820861816406,-1.5218213240252894,0.006880068685859442,0.0007550062146037817,0.6743542551994324,0.0,-0.0,0.0,0.0,0.0,0.0
1782666892,260022996,-1.6565945784198206,0.12963628768920898,-1.5218575636493128,0.006880068685859442,0.0007190534961409867,0.6743422150611877,0.0,-0.0,0.0,0.0,0.0,0.0
1782666892,268055689,-1.656654183064596,0.12966012954711914,-1.5218694845782679,0.006892052944749594,0.0007550062146037817,0.6743662357330322,0.0,-0.0,0.0,0.0,0.0,0.0
1782666892,276023215,-1.6565702597247522,0.12969636917114258,-1.5218694845782679,0.006856100168079138,0.0007310377550311387,0.6743302345275879,0.0,-0.0,0.0,0.0,0.0,0.0
1782666892,284033464,-1.6566064993487757,0.1296243667602539,-1.521881405507223,0.006856100168079138,0.0007550062146037817,0.6743662357330322,0.0,-0.0,0.0,0.0,0.0,0.0
1782666892,292043527,-1.6566064993487757,0.12969636917114258,-1.521881405507223,0.006844115909188986,0.0007310377550311387,0.674318253993988,0.0,-0.0,0.0,0.0,0.0,0.0
1782666892,300048775,-1.6565583387957972,0.12964820861816406,-1.5218575636493128,0.006832132115960121,0.0007550062146037817,0.6743062734603882,0.0,-0.0,0.0,0.0,0.0,0.0
1782666892,308024357,-1.6566184202777308,0.12964820861816406,-1.5218094030963343,0.00686808442696929,0.0007909588748589158,0.6743662357330322,0.0,-0.0,0.0,0.0,0.0,0.0
1782666892,316058754,-1.6566064993487757,0.12967252731323242,-1.521905247365133,0.006916021462529898,0.0007669904152862728,0.6743302345275879,0.0,-0.0,0.0,0.0,0.0,0.0
1782666892,324020872,-1.656654183064596,0.12964820861816406,-1.5218337217914026,0.006844115909188986,0.0007430219557136297,0.6743422150611877,0.0,-0.0,0.0,0.0,0.0,0.0
1782666892,332069324,-1.6566303412066858,0.12964820861816406,-1.521881405507223,0.006904037203639746,0.0007070692954584956,0.6742942929267883,0.0,-0.0,0.0,0.0,0.0,0.0
1782666892,340025202,-1.6566303412066858,0.12967252731323242,-1.521881405507223,0.00686808442696929,0.0007669904152862728,0.6743422150611877,0.0,-0.0,0.0,0.0,0.0,0.0
1782666892,348043154,-1.656546417866842,0.12967252731323242,-1.521881405507223,0.006880068685859442,0.0007550062146037817,0.6743062734603882,0.0,-0.0,0.0,0.0,0.0,0.0
1782666892,356021810,-1.6566184202777308,0.12967252731323242,-1.5218694845782679,0.006856100168079138,0.0007789746159687638,0.674318253993988,0.0,-0.0,0.0,0.0,0.0,0.0
1782666892,364051410,-1.6565945784198206,0.12967252731323242,-1.521905247365133,0.00686808442696929,0.0007070692954584956,0.6743422150611877,0.0,-0.0,0.0,0.0,0.0,0.0
1782666892,372036344,-1.656642262135641,0.1296243667602539,-1.521881405507223,0.006892052944749594,0.0007909588748589158,0.6743542551994324,0.0,-0.0,0.0,0.0,0.0,0.0
1782666892,380022703,-1.6566064993487757,0.12964820861816406,-1.5218575636493128,0.006916021462529898,0.0007430219557136297,0.6743422150611877,0.0,-0.0,0.0,0.0,0.0,0.0
1782666892,388013562,-1.656546417866842,0.12964820861816406,-1.5218694845782679,0.006892052944749594,0.0007550062146037817,0.6743302345275879,0.0,-0.0,0.0,0.0,0.0,0.0
1782666892,396049755,-1.6565945784198206,0.12967252731323242,-1.5218694845782679,0.00692800572142005,0.0007550062146037817,0.6743302345275879,0.0,-0.0,0.0,0.0,0.0,0.0
1782666892,404026096,-1.6566184202777308,0.12964820861816406,-1.5218575636493128,0.006856100168079138,0.0007430219557136297,0.6743662357330322,0.0,-0.0,0.0,0.0,0.0,0.0
1782666892,412021863,-1.6566303412066858,0.12967252731323242,-1.521893326436178,0.006832132115960121,0.0007430219557136297,0.6742942929267883,0.0,-0.0,0.0,0.0,0.0,0.0
1782666892,420023352,-1.656642262135641,0.12967252731323242,-1.5218456427203577,0.006880068685859442,0.0007310377550311387,0.6743422150611877,0.0,-0.0,0.0,0.0,0.0,0.0
1782666892,428044693,-1.6566303412066858,0.12969636917114258,-1.5218575636493128,0.00686808442696929,0.0007310377550311387,0.674318253993988,0.0,-0.0,0.0,0.0,0.0,0.0
1782666892,436010182,-1.656666103993551,0.12967252731323242,-1.5218694845782679,0.00686808442696929,0.0007190534961409867,0.6743542551994324,0.0,-0.0,0.0,0.0,0.0,0.0
1782666892,444019560,-1.656642262135641,0.12964820861816406,-1.521905247365133,0.006832132115960121,0.0007070692954584956,0.6743062734603882,0.0,-0.0,0.0,0.0,0.0,0.0
1782666892,452016623,-1.6565945784198206,0.12966012954711914,-1.521893326436178,0.006892052944749594,0.0007310377550311387,0.6743542551994324,0.0,-0.0,0.0,0.0,0.0,0.0
1782666892,460043298,-1.6566303412066858,0.12964820861816406,-1.5218575636493128,0.006832132115960121,0.0007550062146037817,0.6742703318595886,0.0,-0.0,0.0,0.0,0.0,0.0
1782666892,468036898,-1.656666103993551,0.12964820861816406,-1.5218694845782679,0.006880068685859442,0.0007669904152862728,0.6743422150611877,0.0,-0.0,0.0,0.0,0.0,0.0
1782666892,476011794,-1.6566184202777308,0.12966012954711914,-1.5218456427203577,0.006844115909188986,0.0007310377550311387,0.6743422150611877,0.0,-0.0,0.0,0.0,0.0,0.0
1782666892,484019968,-1.6565821806537073,0.12963628768920898,-1.5218694845782679,0.006892052944749594,0.0007070692954584956,0.6743302345275879,0.0,-0.0,0.0,0.0,0.0,0.0
1782666892,492018902,-1.6566064993487757,0.12969636917114258,-1.5218337217914026,0.006904037203639746,0.0007789746159687638,0.6743542551994324,0.0,-0.0,0.0,0.0,0.0,0.0
1782666892,500018502,-1.6565702597247522,0.12964820861816406,-1.521905247365133,0.006880068685859442,0.0007310377550311387,0.6743422150611877,0.0,-0.0,0.0,0.0,0.0,0.0
1782666892,508019676,-1.6566184202777308,0.1296844482421875,-1.5218337217914026,0.006844115909188986,0.0007669904152862728,0.6743662357330322,0.0,-0.0,0.0,0.0,0.0,0.0
1782666892,516022943,-1.6566184202777308,0.12970829010009766,-1.5218694845782679,0.006880068685859442,0.0007550062146037817,0.6743422150611877,0.0,-0.0,0.0,0.0,0.0,0.0
1782666892,524020599,-1.6565945784198206,0.12967252731323242,-1.5218575636493128,0.006844115909188986,0.0007789746159687638,0.6743662357330322,0.0,-0.0,0.0,0.0,0.0,0.0
1782666892,532036162,-1.6566303412066858,0.12966012954711914,-1.5218694845782679,0.006904037203639746,0.0007789746159687638,0.6743302345275879,0.0,-0.0,0.0,0.0,0.0,0.0
1782666892,540017762,-1.6565702597247522,0.12970829010009766,-1.5218694845782679,0.006880068685859442,0.0007190534961409867,0.6743662357330322,0.0,-0.0,0.0,0.0,0.0,0.0
1782666892,548013548,-1.6565945784198206,0.12970829010009766,-1.5218456427203577,0.00686808442696929,0.0007310377550311387,0.674318253993988,0.0,-0.0,0.0,0.0,0.0,0.0
1782666892,556093185,-1.6565945784198206,0.12964820861816406,-1.521881405507223,0.006832132115960121,0.0007430219557136297,0.674318253993988,0.0,-0.0,0.0,0.0,0.0,0.0
1782666892,564036470,-1.6566064993487757,0.12966012954711914,-1.521881405507223,0.006856100168079138,0.0007669904152862728,0.674318253993988,0.0,-0.0,0.0,0.0,0.0,0.0
1782666892,572024533,-1.6566184202777308,0.1296243667602539,-1.5218213240252894,0.006916021462529898,0.0007669904152862728,0.6743062734603882,0.0,-0.0,0.0,0.0,0.0,0.0
1782666892,580026245,-1.6566184202777308,0.1296243667602539,-1.5218575636493128,0.00686808442696929,0.0007669904152862728,0.6743542551994324,0.0,-0.0,0.0,0.0,0.0,0.0
1782666892,588014511,-1.6565821806537073,0.12967252731323242,-1.5218575636493128,0.006856100168079138,0.0007070692954584956,0.6743782162666321,0.0,-0.0,0.0,0.0,0.0,0.0
1782666892,596025778,-1.6565945784198206,0.1296844482421875,-1.5218575636493128,0.006892052944749594,0.0007430219557136297,0.6743422150611877,0.0,-0.0,0.0,0.0,0.0,0.0
1782666892,604019027,-1.6566303412066858,0.1296844482421875,-1.521881405507223,0.006951974239200354,0.0007310377550311387,0.6743662357330322,0.0,-0.0,0.0,0.0,0.0,0.0
1782666892,612022145,-1.6565702597247522,0.12963628768920898,-1.5218694845782679,0.00686808442696929,0.0007550062146037817,0.6743422150611877,0.0,-0.0,0.0,0.0,0.0,0.0
1782666892,620039449,-1.6565821806537073,0.1296243667602539,-1.5218575636493128,0.006832132115960121,0.0007310377550311387,0.6743062734603882,0.0,-0.0,0.0,0.0,0.0,0.0
1782666892,628054439,-1.6565702597247522,0.12967252731323242,-1.521893326436178,0.006892052944749594,0.0007430219557136297,0.6743422150611877,0.0,-0.0,0.0,0.0,0.0,0.0
1782666892,636031946,-1.6565945784198206,0.12969636917114258,-1.5218694845782679,0.006916021462529898,0.0007550062146037817,0.6743062734603882,0.0,-0.0,0.0,0.0,0.0,0.0
1782666892,644023231,-1.656666103993551,0.12967252731323242,-1.5218575636493128,0.006892052944749594,0.0007190534961409867,0.6743662357330322,0.0,-0.0,0.0,0.0,0.0,0.0
1782666892,652021683,-1.6566064993487757,0.12970829010009766,-1.5218694845782679,0.006880068685859442,0.0007430219557136297,0.6743782162666321,0.0,-0.0,0.0,0.0,0.0,0.0
1782666892,660032098,-1.6565945784198206,0.1296844482421875,-1.5218456427203577,0.00692800572142005,0.0007789746159687638,0.6743302345275879,0.0,-0.0,0.0,0.0,0.0,0.0
1782666892,668009865,-1.6566184202777308,0.12967252731323242,-1.521881405507223,0.006892052944749594,0.0007310377550311387,0.6743782162666321,0.0,-0.0,0.0,0.0,0.0,0.0
1782666892,676022002,-1.6565702597247522,0.12966012954711914,-1.5218456427203577,0.006892052944749594,0.0007190534961409867,0.6742823123931885,0.0,-0.0,0.0,0.0,0.0,0.0
1782666892,684039121,-1.6565945784198206,0.12969636917114258,-1.5219176451312464,0.006916021462529898,0.0007550062146037817,0.6743062734603882,0.0,-0.0,0.0,0.0,0.0,0.0
1782666892,692027851,-1.6566303412066858,0.12963628768920898,-1.5218094030963343,0.00686808442696929,0.0007789746159687638,0.6743662357330322,0.0,-0.0,0.0,0.0,0.0,0.0
1782666892,700034044,-1.656642262135641,0.12966012954711914,-1.5218456427203577,0.00692800572142005,0.0007909588748589158,0.6743062734603882,0.0,-0.0,0.0,0.0,0.0,0.0
1782666892,708035088,-1.6566064993487757,0.12967252731323242,-1.5218456427203577,0.006832132115960121,0.0007430219557136297,0.6743422150611877,0.0,-0.0,0.0,0.0,0.0,0.0
1782666892,716049559,-1.6565702597247522,0.12969636917114258,-1.5219176451312464,0.006844115909188986,0.0006950850365683436,0.6743782162666321,0.0,-0.0,0.0,0.0,0.0,0.0
1782666892,724044493,-1.6565945784198206,0.12966012954711914,-1.5218094030963343,0.006856100168079138,0.0007190534961409867,0.6742942929267883,0.0,-0.0,0.0,0.0,0.0,0.0
1782666892,732022056,-1.6566064993487757,0.12967252731323242,-1.521905247365133,0.006856100168079138,0.0007550062146037817,0.6743542551994324,0.0,-0.0,0.0,0.0,0.0,0.0
1782666892,740031360,-1.6566184202777308,0.12966012954711914,-1.521905247365133,0.00686808442696929,0.0007430219557136297,0.6743062734603882,0.0,-0.0,0.0,0.0,0.0,0.0
1782666892,748067608,-1.6566303412066858,0.1296243667602539,-1.521881405507223,0.006856100168079138,0.0007190534961409867,0.6743302345275879,0.0,-0.0,0.0,0.0,0.0,0.0
1782666892,756041171,-1.6565945784198206,0.12967252731323242,-1.5218337217914026,0.00686808442696929,0.0007789746159687638,0.6743662357330322,0.0,-0.0,0.0,0.0,0.0,0.0
1782666892,764040716,-1.6565945784198206,0.12964820861816406,-1.5218575636493128,0.00686808442696929,0.0007310377550311387,0.6743302345275879,0.0,-0.0,0.0,0.0,0.0,0.0
1782666892,772016519,-1.6565821806537073,0.12966012954711914,-1.5218456427203577,0.00686808442696929,0.0007909588748589158,0.6743422150611877,0.0,-0.0,0.0,0.0,0.0,0.0
1782666892,782062617,-1.6566303412066858,0.12963628768920898,-1.5218694845782679,0.00686808442696929,0.0007669904152862728,0.6743662357330322,0.0,-0.0,0.0,0.0,0.0,0.0
1782666892,788134980,-1.656642262135641,0.12967252731323242,-1.5218575636493128,0.006892052944749594,0.0007310377550311387,0.6743062734603882,0.0,-0.0,0.0,0.0,0.0,0.0
1782666892,796029802,-1.6565583387957972,0.12967252731323242,-1.5218575636493128,0.006880068685859442,0.0007310377550311387,0.6743302345275879,0.0,-0.0,0.0,0.0,0.0,0.0
1782666892,804024309,-1.6565702597247522,0.12964820861816406,-1.5218575636493128,0.006880068685859442,0.0007789746159687638,0.6743062734603882,0.0,-0.0,0.0,0.0,0.0,0.0
1782666892,812027743,-1.6565821806537073,0.12969636917114258,-1.5218575636493128,0.006916021462529898,0.0007070692954584956,0.6742942929267883,0.0,-0.0,0.0,0.0,0.0,0.0
1782666892,820039010,-1.6565821806537073,0.1296844482421875,-1.5218575636493128,0.006880068685859442,0.0007310377550311387,0.6743901968002319,0.0,-0.0,0.0,0.0,0.0,0.0
1782666892,828045665,-1.6566184202777308,0.12969636917114258,-1.5218694845782679,0.006880068685859442,0.0007550062146037817,0.6742942929267883,0.0,-0.0,0.0,0.0,0.0,0.0
1782666892,836028340,-1.6565945784198206,0.12964820861816406,-1.5218575636493128,0.006904037203639746,0.0007550062146037817,0.6743782162666321,0.0,-0.0,0.0,0.0,0.0,0.0
1782666892,844061847,-1.6566064993487757,0.12966012954711914,-1.5218213240252894,0.006880068685859442,0.0007789746159687638,0.6743422150611877,0.0,-0.0,0.0,0.0,0.0,0.0
1782666892,852038429,-1.6566184202777308,0.12964820861816406,-1.5218694845782679,0.006844115909188986,0.0007789746159687638,0.6743302345275879,0.0,-0.0,0.0,0.0,0.0,0.0
1782666892,860026973,-1.6566184202777308,0.12963628768920898,-1.5218694845782679,0.006832132115960121,0.0007430219557136297,0.674318253993988,0.0,-0.0,0.0,0.0,0.0,0.0
1782666892,868031740,-1.6566303412066858,0.12966012954711914,-1.5218694845782679,0.00686808442696929,0.0007909588748589158,0.6742823123931885,0.0,-0.0,0.0,0.0,0.0,0.0
1782666892,876057933,-1.6566184202777308,0.1296844482421875,-1.5218213240252894,0.006844115909188986,0.0007310377550311387,0.6743542551994324,0.0,-0.0,0.0,0.0,0.0,0.0
1782666892,884031367,-1.6566064993487757,0.12967252731323242,-1.5218575636493128,0.006904037203639746,0.0008033175836317241,0.6743422150611877,0.0,-0.0,0.0,0.0,0.0,0.0
1782666892,892034559,-1.6566303412066858,0.12964820861816406,-1.521905247365133,0.006856100168079138,0.0007310377550311387,0.6743302345275879,0.0,-0.0,0.0,0.0,0.0,0.0
1782666892,900023308,-1.6566184202777308,0.12961292266845703,-1.5218213240252894,0.006856100168079138,0.0007909588748589158,0.6743422150611877,0.0,-0.0,0.0,0.0,0.0,0.0
1782666892,908072797,-1.6566303412066858,0.12969636917114258,-1.521893326436178,0.006880068685859442,0.0007430219557136297,0.6743422150611877,0.0,-0.0,0.0,0.0,0.0,0.0
1782666892,916028971,-1.6566064993487757,0.12961292266845703,-1.521905247365133,0.006880068685859442,0.0007669904152862728,0.6743062734603882,0.0,-0.0,0.0,0.0,0.0,0.0
1782666892,924034256,-1.6565702597247522,0.12967252731323242,-1.5218094030963343,0.006880068685859442,0.0007190534961409867,0.6743542551994324,0.0,-0.0,0.0,0.0,0.0,0.0
1782666892,932029671,-1.6566064993487757,0.12963628768920898,-1.5218694845782679,0.006904037203639746,0.0007310377550311387,0.6743422150611877,0.0,-0.0,0.0,0.0,0.0,0.0
1782666892,940036531,-1.6566184202777308,0.12967252731323242,-1.5218094030963343,0.006844115909188986,0.0007669904152862728,0.6743062734603882,0.0,-0.0,0.0,0.0,0.0,0.0
1782666892,948029798,-1.6566303412066858,0.12969636917114258,-1.5218456427203577,0.006844115909188986,0.0007430219557136297,0.6743782162666321,0.0,-0.0,0.0,0.0,0.0,0.0
1782666892,956031176,-1.6565821806537073,0.12967252731323242,-1.521893326436178,0.006892052944749594,0.0007190534961409867,0.6743901968002319,0.0,-0.0,0.0,0.0,0.0,0.0
1782666892,964021887,-1.6565945784198206,0.12966012954711914,-1.5218694845782679,0.006844115909188986,0.0007550062146037817,0.6743542551994324,0.0,-0.0,0.0,0.0,0.0,0.0
1782666892,972109006,-1.6565821806537073,0.1296243667602539,-1.5218694845782679,0.006856100168079138,0.0007669904152862728,0.6743302345275879,0.0,-0.0,0.0,0.0,0.0,0.0
1782666892,980034013,-1.6566303412066858,0.12966012954711914,-1.5218575636493128,0.006844115909188986,0.0007550062146037817,0.6743542551994324,0.0,-0.0,0.0,0.0,0.0,0.0
1782666892,988036058,-1.6566064993487757,0.12966012954711914,-1.5218337217914026,0.006844115909188986,0.0007430219557136297,0.6743542551994324,0.0,-0.0,0.0,0.0,0.0,0.0
1782666892,996033862,-1.6566303412066858,0.12966012954711914,-1.521893326436178,0.006880068685859442,0.0007550062146037817,0.6743662357330322,0.0,-0.0,0.0,0.0,0.0,0.0
1782666893,4137370,-1.6565945784198206,0.12970829010009766,-1.5218575636493128,0.006880068685859442,0.0007669904152862728,0.6743422150611877,0.0,-0.0,0.0,0.0,0.0,0.0
1782666893,12033414,-1.6566303412066858,0.12966012954711914,-1.521905247365133,0.006844115909188986,0.0007310377550311387,0.6743901968002319,0.0,-0.0,0.0,0.0,0.0,0.0
1782666893,20035903,-1.6566184202777308,0.12966012954711914,-1.521893326436178,0.006916021462529898,0.0007909588748589158,0.674318253993988,0.0,-0.0,0.0,0.0,0.0,0.0
1782666893,28030948,-1.6566064993487757,0.12964820861816406,-1.5218213240252894,0.006856100168079138,0.0007550062146037817,0.6743662357330322,0.0,-0.0,0.0,0.0,0.0,0.0
1782666893,36035492,-1.656654183064596,0.12967252731323242,-1.521881405507223,0.00686808442696929,0.0007190534961409867,0.6743062734603882,0.0,-0.0,0.0,0.0,0.0,0.0
1782666893,44039370,-1.6565821806537073,0.12967252731323242,-1.5218337217914026,0.006880068685859442,0.0007669904152862728,0.674318253993988,0.0,-0.0,0.0,0.0,0.0,0.0
1782666893,52036378,-1.656642262135641,0.12964820861816406,-1.521881405507223,0.006916021462529898,0.0007550062146037817,0.6743662357330322,0.0,-0.0,0.0,0.0,0.0,0.0
1782666893,60105182,-1.6566303412066858,0.12967252731323242,-1.5218575636493128,0.006844115909188986,0.0007190534961409867,0.6743782162666321,0.0,-0.0,0.0,0.0,0.0,0.0
1782666893,68078597,-1.6566303412066858,0.12967252731323242,-1.5218456427203577,0.006880068685859442,0.0007789746159687638,0.6743662357330322,0.0,-0.0,0.0,0.0,0.0,0.0
1782666893,76040919,-1.6565821806537073,0.12969636917114258,-1.5218213240252894,0.006880068685859442,0.0007669904152862728,0.6743062734603882,0.0,-0.0,0.0,0.0,0.0,0.0
1782666893,84051520,-1.6566184202777308,0.1296844482421875,-1.521881405507223,0.00686808442696929,0.0007550062146037817,0.6743302345275879,0.0,-0.0,0.0,0.0,0.0,0.0
1782666893,92028453,-1.6566064993487757,0.12967252731323242,-1.521881405507223,0.00686808442696929,0.0007669904152862728,0.6742942929267883,0.0,-0.0,0.0,0.0,0.0,0.0
1782666893,100030294,-1.6565821806537073,0.12967252731323242,-1.5218575636493128,0.00686808442696929,0.0007310377550311387,0.6743422150611877,0.0,-0.0,0.0,0.0,0.0,0.0
1782666893,108039042,-1.6565821806537073,0.1296243667602539,-1.5218694845782679,0.006856100168079138,0.0007789746159687638,0.6743062734603882,0.0,-0.0,0.0,0.0,0.0,0.0
1782666893,116042661,-1.6566064993487757,0.1296844482421875,-1.5218337217914026,0.006856100168079138,0.0007669904152862728,0.6742942929267883,0.0,-0.0,0.0,0.0,0.0,0.0
1782666893,124030372,-1.6565702597247522,0.12963628768920898,-1.5219176451312464,0.006892052944749594,0.0007550062146037817,0.6743062734603882,0.0,-0.0,0.0,0.0,0.0,0.0
1782666893,132060695,-1.6565821806537073,0.12970829010009766,-1.5218456427203577,0.006880068685859442,0.0007550062146037817,0.6743662357330322,0.0,-0.0,0.0,0.0,0.0,0.0
1782666893,140037906,-1.6565945784198206,0.12967252731323242,-1.521893326436178,0.006880068685859442,0.0007430219557136297,0.6743782162666321,0.0,-0.0,0.0,0.0,0.0,0.0
1782666893,148032173,-1.6566184202777308,0.12966012954711914,-1.5218456427203577,0.006880068685859442,0.0007310377550311387,0.6743662357330322,0.0,-0.0,0.0,0.0,0.0,0.0
1782666893,156032718,-1.656666103993551,0.12969636917114258,-1.521893326436178,0.006892052944749594,0.0007430219557136297,0.6743542551994324,0.0,-0.0,0.0,0.0,0.0,0.0
1782666893,164144485,-1.6565702597247522,0.12969636917114258,-1.521893326436178,0.00686808442696929,0.0007190534961409867,0.6743302345275879,0.0,-0.0,0.0,0.0,0.0,0.0
1782666893,172036918,-1.656642262135641,0.12963628768920898,-1.5218213240252894,0.006832132115960121,0.0007550062146037817,0.6743302345275879,0.0,-0.0,0.0,0.0,0.0,0.0
1782666893,180055648,-1.6566303412066858,0.12969636917114258,-1.5218337217914026,0.006904037203639746,0.0007070692954584956,0.6743662357330322,0.0,-0.0,0.0,0.0,0.0,0.0
1782666893,188051063,-1.6565821806537073,0.12964820861816406,-1.5218337217914026,0.006892052944749594,0.0007430219557136297,0.6743302345275879,0.0,-0.0,0.0,0.0,0.0,0.0
1782666893,196037719,-1.6566064993487757,0.12969636917114258,-1.5218694845782679,0.006844115909188986,0.0007550062146037817,0.6743782162666321,0.0,-0.0,0.0,0.0,0.0,0.0
1782666893,204017096,-1.6566064993487757,0.12964820861816406,-1.5218575636493128,0.00686808442696929,0.0007190534961409867,0.6743782162666321,0.0,-0.0,0.0,0.0,0.0,0.0
1782666893,212048975,-1.656642262135641,0.12961292266845703,-1.521881405507223,0.00686808442696929,0.0007190534961409867,0.6743302345275879,0.0,-0.0,0.0,0.0,0.0,0.0
1782666893,220042167,-1.6565821806537073,0.12966012954711914,-1.5218213240252894,0.006856100168079138,0.0007669904152862728,0.6743542551994324,0.0,-0.0,0.0,0.0,0.0,0.0
1782666893,228023286,-1.6566064993487757,0.12963628768920898,-1.5218456427203577,0.006892052944749594,0.0007190534961409867,0.6743542551994324,0.0,-0.0,0.0,0.0,0.0,0.0
1782666893,236039312,-1.6566303412066858,0.12967252731323242,-1.5218456427203577,0.006844115909188986,0.0007310377550311387,0.674318253993988,0.0,-0.0,0.0,0.0,0.0,0.0
1782666893,244042061,-1.656642262135641,0.12966012954711914,-1.5218575636493128,0.00686808442696929,0.0007789746159687638,0.674318253993988,0.0,-0.0,0.0,0.0,0.0,0.0
1782666893,252018624,-1.6566064993487757,0.1296844482421875,-1.5218456427203577,0.006856100168079138,0.0007669904152862728,0.6743422150611877,0.0,-0.0,0.0,0.0,0.0,0.0
1782666893,260038798,-1.6565945784198206,0.12970829010009766,-1.521881405507223,0.006916021462529898,0.0007190534961409867,0.6743302345275879,0.0,-0.0,0.0,0.0,0.0,0.0
1782666893,268039213,-1.656642262135641,0.1296844482421875,-1.5218694845782679,0.006844115909188986,0.0007430219557136297,0.6743422150611877,0.0,-0.0,0.0,0.0,0.0,0.0
1782666893,276053647,-1.656642262135641,0.12967252731323242,-1.5218694845782679,0.00686808442696929,0.0007669904152862728,0.6742942929267883,0.0,-0.0,0.0,0.0,0.0,0.0
1782666893,284028802,-1.6566064993487757,0.12967252731323242,-1.5218575636493128,0.00686808442696929,0.0007310377550311387,0.674318253993988,0.0,-0.0,0.0,0.0,0.0,0.0
1782666893,292030254,-1.6565945784198206,0.1296243667602539,-1.521893326436178,0.006904037203639746,0.0007789746159687638,0.6743542551994324,0.0,-0.0,0.0,0.0,0.0,0.0
1782666893,300034503,-1.656642262135641,0.12963628768920898,-1.521893326436178,0.006880068685859442,0.0007789746159687638,0.6743302345275879,0.0,-0.0,0.0,0.0,0.0,0.0
1782666893,308077733,-1.6566184202777308,0.12969636917114258,-1.5218337217914026,0.006892052944749594,0.0007190534961409867,0.6743662357330322,0.0,-0.0,0.0,0.0,0.0,0.0
1782666893,316037055,-1.6565945784198206,0.1296844482421875,-1.5218456427203577,0.006856100168079138,0.0007190534961409867,0.6743782162666321,0.0,-0.0,0.0,0.0,0.0,0.0
1782666893,324034544,-1.6565821806537073,0.1296243667602539,-1.5218337217914026,0.006844115909188986,0.0007669904152862728,0.674318253993988,0.0,-0.0,0.0,0.0,0.0,0.0
1782666893,332017718,-1.6565702597247522,0.12964820861816406,-1.5218575636493128,0.00686808442696929,0.0007430219557136297,0.6743302345275879,0.0,-0.0,0.0,0.0,0.0,0.0
1782666893,340038522,-1.6565821806537073,0.12966012954711914,-1.521881405507223,0.006892052944749594,0.0007310377550311387,0.6743542551994324,0.0,-0.0,0.0,0.0,0.0,0.0
1782666893,348028678,-1.6565821806537073,0.1296844482421875,-1.521881405507223,0.006856100168079138,0.0007669904152862728,0.6743302345275879,0.0,-0.0,0.0,0.0,0.0,0.0
1782666893,356048167,-1.6565702597247522,0.1296844482421875,-1.5218694845782679,0.006820147857069969,0.0007310377550311387,0.6743901968002319,0.0,-0.0,0.0,0.0,0.0,0.0
1782666893,364026249,-1.6565945784198206,0.1296844482421875,-1.5218575636493128,0.006844115909188986,0.0007310377550311387,0.6743782162666321,0.0,-0.0,0.0,0.0,0.0,0.0
1782666893,372028238,-1.6565702597247522,0.12970829010009766,-1.5218456427203577,0.00686808442696929,0.0007430219557136297,0.6743662357330322,0.0,-0.0,0.0,0.0,0.0,0.0
1782666893,380026727,-1.6565583387957972,0.12967252731323242,-1.5218575636493128,0.006880068685859442,0.0007430219557136297,0.6743302345275879,0.0,-0.0,0.0,0.0,0.0,0.0
1782666893,388012290,-1.6566184202777308,0.12967252731323242,-1.5218575636493128,0.00686808442696929,0.0007669904152862728,0.674318253993988,0.0,-0.0,0.0,0.0,0.0,0.0
1782666893,396018353,-1.6565821806537073,0.12966012954711914,-1.5218456427203577,0.006856100168079138,0.0007669904152862728,0.674318253993988,0.0,-0.0,0.0,0.0,0.0,0.0
1782666893,404024564,-1.6566064993487757,0.12970829010009766,-1.5218456427203577,0.00686808442696929,0.0007550062146037817,0.6743782162666321,0.0,-0.0,0.0,0.0,0.0,0.0
1782666893,412024720,-1.6565945784198206,0.12966012954711914,-1.521881405507223,0.006880068685859442,0.0007430219557136297,0.6743901968002319,0.0,-0.0,0.0,0.0,0.0,0.0
1782666893,420023339,-1.6565821806537073,0.12964820861816406,-1.521893326436178,0.006904037203639746,0.0007669904152862728,0.674318253993988,0.0,-0.0,0.0,0.0,0.0,0.0
1782666893,428231848,-1.6566064993487757,0.12966012954711914,-1.521881405507223,0.006844115909188986,0.0007550062146037817,0.674318253993988,0.0,-0.0,0.0,0.0,0.0,0.0
1782666893,436028984,-1.6566303412066858,0.12966012954711914,-1.5218575636493128,0.006880068685859442,0.0007669904152862728,0.6743542551994324,0.0,-0.0,0.0,0.0,0.0,0.0
1782666893,444044510,-1.6565821806537073,0.12966012954711914,-1.5218337217914026,0.006856100168079138,0.0007550062146037817,0.6743662357330322,0.0,-0.0,0.0,0.0,0.0,0.0
1782666893,452044499,-1.6566303412066858,0.1296243667602539,-1.521881405507223,0.006832132115960121,0.0007310377550311387,0.6743302345275879,0.0,-0.0,0.0,0.0,0.0,0.0
1782666893,460039377,-1.6566184202777308,0.12963628768920898,-1.5218575636493128,0.006856100168079138,0.0007789746159687638,0.6742823123931885,0.0,-0.0,0.0,0.0,0.0,0.0
1782666893,468041088,-1.656642262135641,0.12966012954711914,-1.5218456427203577,0.00692800572142005,0.0007669904152862728,0.6743542551994324,0.0,-0.0,0.0,0.0,0.0,0.0
1782666893,476088041,-1.6566064993487757,0.1296844482421875,-1.521893326436178,0.006880068685859442,0.0007789746159687638,0.6743062734603882,0.0,-0.0,0.0,0.0,0.0,0.0
1782666893,484038252,-1.6566303412066858,0.12963628768920898,-1.5218575636493128,0.006856100168079138,0.0008033175836317241,0.674318253993988,0.0,-0.0,0.0,0.0,0.0,0.0
1782666893,492038759,-1.6566064993487757,0.1296844482421875,-1.5218337217914026,0.006856100168079138,0.0007430219557136297,0.6743302345275879,0.0,-0.0,0.0,0.0,0.0,0.0
1782666893,500040415,-1.6565945784198206,0.1296844482421875,-1.5218694845782679,0.006820147857069969,0.0007669904152862728,0.6743901968002319,0.0,-0.0,0.0,0.0,0.0,0.0
1782666893,508036089,-1.6565945784198206,0.12970829010009766,-1.521881405507223,0.006832132115960121,0.0007430219557136297,0.6743302345275879,0.0,-0.0,0.0,0.0,0.0,0.0
1782666893,516042412,-1.6566064993487757,0.12969636917114258,-1.521893326436178,0.006832132115960121,0.0007669904152862728,0.6743542551994324,0.0,-0.0,0.0,0.0,0.0,0.0
1782666893,524031049,-1.6566303412066858,0.1296243667602539,-1.5218575636493128,0.006892052944749594,0.0007550062146037817,0.6743901968002319,0.0,-0.0,0.0,0.0,0.0,0.0
1782666893,532027149,-1.656534496937887,0.12967252731323242,-1.521881405507223,0.00686808442696929,0.0007669904152862728,0.6743542551994324,0.0,-0.0,0.0,0.0,0.0,0.0
1782666893,540020935,-1.6566064993487757,0.12970829010009766,-1.5218694845782679,0.006880068685859442,0.0007310377550311387,0.6743302345275879,0.0,-0.0,0.0,0.0,0.0,0.0
1782666893,548038202,-1.6566064993487757,0.1296844482421875,-1.521893326436178,0.006856100168079138,0.0007550062146037817,0.674318253993988,0.0,-0.0,0.0,0.0,0.0,0.0
1782666893,556024079,-1.6566184202777308,0.1296844482421875,-1.5218575636493128,0.006880068685859442,0.0007789746159687638,0.6743782162666321,0.0,-0.0,0.0,0.0,0.0,0.0
1782666893,564010346,-1.6566184202777308,0.12964820861816406,-1.5218575636493128,0.00686808442696929,0.0007070692954584956,0.6743302345275879,0.0,-0.0,0.0,0.0,0.0,0.0
1782666893,572091095,-1.6565945784198206,0.12963628768920898,-1.521881405507223,0.00686808442696929,0.0007550062146037817,0.6743422150611877,0.0,-0.0,0.0,0.0,0.0,0.0
1782666893,580043954,-1.6565945784198206,0.1296844482421875,-1.5218575636493128,0.006832132115960121,0.0007789746159687638,0.6743782162666321,0.0,-0.0,0.0,0.0,0.0,0.0
1782666893,588050166,-1.6566064993487757,0.12967252731323242,-1.5218575636493128,0.006844115909188986,0.0007190534961409867,0.6743422150611877,0.0,-0.0,0.0,0.0,0.0,0.0
1782666893,596544622,-1.6566064993487757,0.12967252731323242,-1.5218575636493128,0.006844115909188986,0.0007190534961409867,0.6743422150611877,0.0,-0.0,0.0,0.0,0.0,0.0
1782666893,612152282,-1.6565945784198206,0.1296243667602539,-1.5218456427203577,0.006892052944749594,0.0007430219557136297,0.674318253993988,0.0,-0.0,0.0,0.0,0.0,0.0
1782666893,620848425,-1.6566303412066858,0.12966012954711914,-1.5217974821673792,0.00686808442696929,0.0007310377550311387,0.6743542551994324,0.0,-0.0,0.0,0.0,0.0,0.0
1782666893,667168901,-1.6565702597247522,0.12963628768920898,-1.5218694845782679,0.006808163598179817,0.0007909588748589158,0.6743662357330322,0.0,-0.0,0.0,0.0,0.0,0.0
1782666893,702902165,-1.656642262135641,0.12969636917114258,-1.5218694845782679,0.006856100168079138,0.0007310377550311387,0.6743662357330322,0.0,-0.0,0.0,0.0,0.0,0.0
1782666893,706547675,-1.6566064993487757,0.12963628768920898,-1.5218094030963343,0.00686808442696929,0.0007430219557136297,0.6743542551994324,0.0,-0.0,0.0,0.0,0.0,0.0
1782666893,724779708,-1.656654183064596,0.12964820861816406,-1.521905247365133,0.006880068685859442,0.0007669904152862728,0.6742942929267883,0.0,-0.0,0.0,0.0,0.0,0.0
1782666893,780027978,-1.6566064993487757,0.12967252731323242,-1.5218694845782679,0.006844115909188986,0.0007310377550311387,0.6743422150611877,0.0,-0.0,0.0,0.0,0.0,0.0
1782666893,790254355,-1.6565821806537073,0.12963628768920898,-1.5218694845782679,0.006856100168079138,0.0007669904152862728,0.6743782162666321,0.0,-0.0,0.0,0.0,0.0,0.0
1782666893,796319421,-1.6566064993487757,0.1296844482421875,-1.5218337217914026,0.006844115909188986,0.0007430219557136297,0.6743662357330322,0.0,-0.0,0.0,0.0,0.0,0.0
1782666893,804155946,-1.656642262135641,0.12961292266845703,-1.521893326436178,0.006880068685859442,0.0007669904152862728,0.6743782162666321,0.0,-0.0,0.0,0.0,0.0,0.0
1782666893,812023304,-1.6566303412066858,0.12967252731323242,-1.521881405507223,0.006880068685859442,0.0007430219557136297,0.6743422150611877,0.0,-0.0,0.0,0.0,0.0,0.0
1782666893,820042405,-1.656654183064596,0.12964820861816406,-1.521881405507223,0.006820147857069969,0.0007190534961409867,0.6743662357330322,0.0,-0.0,0.0,0.0,0.0,0.0
1782666893,828039338,-1.6566064993487757,0.12966012954711914,-1.5218694845782679,0.006832132115960121,0.0007789746159687638,0.6743422150611877,0.0,-0.0,0.0,0.0,0.0,0.0
1782666893,836195440,-1.6565945784198206,0.12967252731323242,-1.5218694845782679,0.00686808442696929,0.0008033175836317241,0.6743062734603882,0.0,-0.0,0.0,0.0,0.0,0.0
1782666893,844051131,-1.6566064993487757,0.12966012954711914,-1.5218213240252894,0.006892052944749594,0.0007190534961409867,0.6743542551994324,0.0,-0.0,0.0,0.0,0.0,0.0
1782666893,852027565,-1.6566184202777308,0.12970829010009766,-1.5218456427203577,0.006880068685859442,0.0007310377550311387,0.6743422150611877,0.0,-0.0,0.0,0.0,0.0,0.0
1782666893,860031943,-1.6565821806537073,0.1296844482421875,-1.5218456427203577,0.006844115909188986,0.0007550062146037817,0.6743302345275879,0.0,-0.0,0.0,0.0,0.0,0.0
1782666893,868040487,-1.6565821806537073,0.12967252731323242,-1.5218456427203577,0.006880068685859442,0.0007310377550311387,0.6743422150611877,0.0,-0.0,0.0,0.0,0.0,0.0
1782666893,876471295,-1.6566064993487757,0.1296844482421875,-1.5218575636493128,0.006832132115960121,0.0007070692954584956,0.6742942929267883,0.0,-0.0,0.0,0.0,0.0,0.0
1782666893,885523514,-1.6566184202777308,0.12963628768920898,-1.5218337217914026,0.00686808442696929,0.0007430219557136297,0.6743901968002319,0.0,-0.0,0.0,0.0,0.0,0.0
1782666893,892480773,-1.6566303412066858,0.12967252731323242,-1.5218456427203577,0.00686808442696929,0.0007430219557136297,0.6743422150611877,0.0,-0.0,0.0,0.0,0.0,0.0
1782666893,900212352,-1.6566184202777308,0.1296844482421875,-1.521881405507223,0.006892052944749594,0.0007430219557136297,0.6743062734603882,0.0,-0.0,0.0,0.0,0.0,0.0
1782666893,910704528,-1.656642262135641,0.12966012954711914,-1.5218213240252894,0.006880068685859442,0.0007789746159687638,0.6743542551994324,0.0,-0.0,0.0,0.0,0.0,0.0
1782666893,916027348,-1.6565821806537073,0.12969636917114258,-1.5218694845782679,0.006880068685859442,0.0007669904152862728,0.6743422150611877,0.0,-0.0,0.0,0.0,0.0,0.0
1782666893,928528335,-1.656654183064596,0.1296844482421875,-1.5218694845782679,0.00686808442696929,0.0007789746159687638,0.674318253993988,0.0,-0.0,0.0,0.0,0.0,0.0
1782666893,936467824,-1.6566184202777308,0.12964820861816406,-1.521881405507223,0.006880068685859442,0.0007190534961409867,0.6742942929267883,0.0,-0.0,0.0,0.0,0.0,0.0
1782666894,15502596,-1.656642262135641,0.12967252731323242,-1.5217974821673792,0.00686808442696929,0.0007430219557136297,0.6743302345275879,0.0,-0.0,0.0,0.0,0.0,0.0
1782666894,23370991,-1.656642262135641,0.12967252731323242,-1.5217974821673792,0.00686808442696929,0.0007430219557136297,0.6743302345275879,0.0,-0.0,0.0,0.0,0.0,0.0
1782666894,28196789,-1.656654183064596,0.12967252731323242,-1.5218575636493128,0.006832132115960121,0.0007430219557136297,0.6743422150611877,0.0,-0.0,0.0,0.0,0.0,0.0
1782666894,36803079,-1.6565821806537073,0.12966012954711914,-1.5218575636493128,0.006892052944749594,0.0007909588748589158,0.6743422150611877,0.0,-0.0,0.0,0.0,0.0,0.0
1782666894,51114840,-1.6565945784198206,0.12963628768920898,-1.521893326436178,0.006856100168079138,0.0007430219557136297,0.6743542551994324,0.0,-0.0,0.0,0.0,0.0,0.0
1782666894,53112874,-1.6565945784198206,0.12963628768920898,-1.521893326436178,0.006856100168079138,0.0007430219557136297,0.6743542551994324,0.0,-0.0,0.0,0.0,0.0,0.0
1782666894,61630849,-1.6566303412066858,0.12967252731323242,-1.521893326436178,0.00686808442696929,0.0007789746159687638,0.674318253993988,0.0,-0.0,0.0,0.0,0.0,0.0
1782666894,71341037,-1.6566303412066858,0.12969636917114258,-1.5218694845782679,0.006856100168079138,0.0007909588748589158,0.6743302345275879,0.0,-0.0,0.0,0.0,0.0,0.0
1782666894,79664658,-1.6566303412066858,0.12969636917114258,-1.5218694845782679,0.006856100168079138,0.0007909588748589158,0.6743302345275879,0.0,-0.0,0.0,0.0,0.0,0.0
1782666894,86120043,-1.656654183064596,0.12966012954711914,-1.5218694845782679,0.00686808442696929,0.0007310377550311387,0.6743662357330322,0.0,-0.0,0.0,0.0,0.0,0.0
1782666894,95013983,-1.6566184202777308,0.12963628768920898,-1.5218213240252894,0.006844115909188986,0.0007070692954584956,0.6742942929267883,0.0,-0.0,0.0,0.0,0.0,0.0
1782666894,101288533,-1.6565945784198206,0.12967252731323242,-1.5218694845782679,0.006856100168079138,0.0007430219557136297,0.6743062734603882,0.0,-0.0,0.0,0.0,0.0,0.0
1782666894,108015364,-1.6565702597247522,0.12963628768920898,-1.5218694845782679,0.006892052944749594,0.0007550062146037817,0.6743662357330322,0.0,-0.0,0.0,0.0,0.0,0.0
1782666894,116017797,-1.656654183064596,0.12966012954711914,-1.521881405507223,0.00686808442696929,0.0007310377550311387,0.6743422150611877,0.0,-0.0,0.0,0.0,0.0,0.0
1782666894,124162121,-1.656642262135641,0.12967252731323242,-1.5218694845782679,0.00686808442696929,0.0007070692954584956,0.6743302345275879,0.0,-0.0,0.0,0.0,0.0,0.0
1782666894,132033313,-1.6565945784198206,0.12967252731323242,-1.521893326436178,0.006880068685859442,0.0007310377550311387,0.6743062734603882,0.0,-0.0,0.0,0.0,0.0,0.0
1782666894,141866186,-1.656642262135641,0.12967252731323242,-1.521881405507223,0.00686808442696929,0.0007310377550311387,0.6743662357330322,0.0,-0.0,0.0,0.0,0.0,0.0
1782666894,148020476,-1.6566064993487757,0.12967252731323242,-1.521905247365133,0.006880068685859442,0.0007430219557136297,0.6743542551994324,0.0,-0.0,0.0,0.0,0.0,0.0
1782666894,156040447,-1.6565945784198206,0.12963628768920898,-1.5218337217914026,0.006880068685859442,0.0007550062146037817,0.6743302345275879,0.0,-0.0,0.0,0.0,0.0,0.0
1782666894,164396716,-1.6566303412066858,0.12970829010009766,-1.5218213240252894,0.006856100168079138,0.0007310377550311387,0.6743302345275879,0.0,-0.0,0.0,0.0,0.0,0.0
1782666894,174401388,-1.6565702597247522,0.12967252731323242,-1.5218694845782679,0.006880068685859442,0.0007550062146037817,0.674318253993988,0.0,-0.0,0.0,0.0,0.0,0.0
1782666894,188062162,-1.6566064993487757,0.12964820861816406,-1.521881405507223,0.00686808442696929,0.0007669904152862728,0.6743662357330322,0.0,-0.0,0.0,0.0,0.0,0.0
1782666894,211878647,-1.6566064993487757,0.1296243667602539,-1.5218694845782679,0.00686808442696929,0.0007430219557136297,0.6743542551994324,0.0,-0.0,0.0,0.0,0.0,0.0
1782666894,219197093,-1.6566064993487757,0.1296243667602539,-1.5218694845782679,0.00686808442696929,0.0007430219557136297,0.6743542551994324,0.0,-0.0,0.0,0.0,0.0,0.0
1782666894,222894419,-1.6566184202777308,0.12969636917114258,-1.5218575636493128,0.006880068685859442,0.0007669904152862728,0.6743542551994324,0.0,-0.0,0.0,0.0,0.0,0.0
1782666894,224706637,-1.6565821806537073,0.12969636917114258,-1.5218456427203577,0.006808163598179817,0.0007550062146037817,0.6743782162666321,0.0,-0.0,0.0,0.0,0.0,0.0
1782666894,228691650,-1.6565821806537073,0.12969636917114258,-1.5218456427203577,0.006808163598179817,0.0007550062146037817,0.6743782162666321,0.0,-0.0,0.0,0.0,0.0,0.0
1782666894,236327451,-1.6565702597247522,0.12966012954711914,-1.521881405507223,0.006880068685859442,0.0007430219557136297,0.6742942929267883,0.0,-0.0,0.0,0.0,0.0,0.0
1782666894,244177476,-1.6565702597247522,0.12963628768920898,-1.5218456427203577,0.006892052944749594,0.0007669904152862728,0.6743302345275879,0.0,-0.0,0.0,0.0,0.0,0.0
1782666894,252762599,-1.6566303412066858,0.12967252731323242,-1.5218575636493128,0.006832132115960121,0.0007669904152862728,0.6743542551994324,0.0,-0.0,0.0,0.0,0.0,0.0
1782666894,270100884,-1.6565945784198206,0.1296243667602539,-1.5218694845782679,0.006880068685859442,0.0007190534961409867,0.6742942929267883,0.0,-0.0,0.0,0.0,0.0,0.0
1782666894,271810435,-1.6566303412066858,0.12966012954711914,-1.5218575636493128,0.006892052944749594,0.0007310377550311387,0.6743542551994324,0.0,-0.0,0.0,0.0,0.0,0.0
1782666894,276056765,-1.6566303412066858,0.12966012954711914,-1.5218575636493128,0.006892052944749594,0.0007310377550311387,0.6743542551994324,0.0,-0.0,0.0,0.0,0.0,0.0
1782666894,284013865,-1.6565821806537073,0.12966012954711914,-1.521881405507223,0.006939989980310202,0.0007669904152862728,0.6743542551994324,0.0,-0.0,0.0,0.0,0.0,0.0
1782666894,292052169,-1.6566184202777308,0.1296844482421875,-1.5218456427203577,0.00686808442696929,0.0007550062146037817,0.6743422150611877,0.0,-0.0,0.0,0.0,0.0,0.0
1782666894,300016861,-1.6566303412066858,0.12969636917114258,-1.5218337217914026,0.006844115909188986,0.0007909588748589158,0.6743302345275879,0.0,-0.0,0.0,0.0,0.0,0.0
1782666894,308047647,-1.6566064993487757,0.12963628768920898,-1.521881405507223,0.006832132115960121,0.0007669904152862728,0.6743662357330322,0.0,-0.0,0.0,0.0,0.0,0.0
1782666894,316046469,-1.6566064993487757,0.1296844482421875,-1.521893326436178,0.006832132115960121,0.0007550062146037817,0.674318253993988,0.0,-0.0,0.0,0.0,0.0,0.0
1782666894,324047996,-1.6565821806537073,0.12967252731323242,-1.5218213240252894,0.006832132115960121,0.0007669904152862728,0.6743302345275879,0.0,-0.0,0.0,0.0,0.0,0.0
1782666894,332025170,-1.6565821806537073,0.12967252731323242,-1.5218694845782679,0.006904037203639746,0.0007430219557136297,0.6743302345275879,0.0,-0.0,0.0,0.0,0.0,0.0
1782666894,340052640,-1.6565702597247522,0.12961292266845703,-1.5218575636493128,0.00692800572142005,0.0007310377550311387,0.6743302345275879,0.0,-0.0,0.0,0.0,0.0,0.0
1782666894,348141149,-1.6566064993487757,0.1296844482421875,-1.5218337217914026,0.006892052944749594,0.0007789746159687638,0.6743422150611877,0.0,-0.0,0.0,0.0,0.0,0.0
1782666894,356027841,-1.6566303412066858,0.12967252731323242,-1.521881405507223,0.00686808442696929,0.0006950850365683436,0.6743302345275879,0.0,-0.0,0.0,0.0,0.0,0.0
1782666894,364024182,-1.6566303412066858,0.12963628768920898,-1.5218337217914026,0.006844115909188986,0.0007190534961409867,0.674318253993988,0.0,-0.0,0.0,0.0,0.0,0.0
1782666894,372046819,-1.6565945784198206,0.12967252731323242,-1.5218213240252894,0.006856100168079138,0.0007430219557136297,0.6743542551994324,0.0,-0.0,0.0,0.0,0.0,0.0
1782666894,380136142,-1.6565583387957972,0.12966012954711914,-1.5218575636493128,0.006844115909188986,0.0007789746159687638,0.6743662357330322,0.0,-0.0,0.0,0.0,0.0,0.0
1782666894,388044075,-1.6565821806537073,0.12966012954711914,-1.521893326436178,0.006904037203639746,0.0007789746159687638,0.6743422150611877,0.0,-0.0,0.0,0.0,0.0,0.0
1782666894,396040323,-1.6566303412066858,0.12964820861816406,-1.5218575636493128,0.00686808442696929,0.0007550062146037817,0.6743062734603882,0.0,-0.0,0.0,0.0,0.0,0.0
1782666894,404038831,-1.6566303412066858,0.12967252731323242,-1.5219176451312464,0.006880068685859442,0.0008033175836317241,0.674318253993988,0.0,-0.0,0.0,0.0,0.0,0.0
1782666894,412035487,-1.6565821806537073,0.12964820861816406,-1.521893326436178,0.006880068685859442,0.0007310377550311387,0.6743422150611877,0.0,-0.0,0.0,0.0,0.0,0.0
1782666894,420028698,-1.6565821806537073,0.12967252731323242,-1.5218694845782679,0.00686808442696929,0.0007550062146037817,0.6743302345275879,0.0,-0.0,0.0,0.0,0.0,0.0
1782666894,428029002,-1.6566184202777308,0.12963628768920898,-1.521881405507223,0.006892052944749594,0.0007789746159687638,0.6743422150611877,0.0,-0.0,0.0,0.0,0.0,0.0
1782666894,436041843,-1.6566303412066858,0.12964820861816406,-1.5218694845782679,0.006856100168079138,0.0007669904152862728,0.6743422150611877,0.0,-0.0,0.0,0.0,0.0,0.0
1782666894,444064869,-1.6565945784198206,0.12963628768920898,-1.5218694845782679,0.006880068685859442,0.0007550062146037817,0.6743422150611877,0.0,-0.0,0.0,0.0,0.0,0.0
1782666894,452038747,-1.6566184202777308,0.12969636917114258,-1.5218575636493128,0.006880068685859442,0.0007190534961409867,0.6743422150611877,0.0,-0.0,0.0,0.0,0.0,0.0
1782666894,460035662,-1.6566064993487757,0.12964820861816406,-1.521893326436178,0.006880068685859442,0.0007550062146037817,0.6743662357330322,0.0,-0.0,0.0,0.0,0.0,0.0
1782666894,468016873,-1.656642262135641,0.12966012954711914,-1.521881405507223,0.00686808442696929,0.0007789746159687638,0.674318253993988,0.0,-0.0,0.0,0.0,0.0,0.0
1782666894,476012307,-1.6565821806537073,0.1296243667602539,-1.521905247365133,0.006832132115960121,0.0007789746159687638,0.6743662357330322,0.0,-0.0,0.0,0.0,0.0,0.0
1782666894,484092963,-1.6566184202777308,0.12964820861816406,-1.521893326436178,0.006904037203639746,0.0007310377550311387,0.6743062734603882,0.0,-0.0,0.0,0.0,0.0,0.0
1782666894,492034100,-1.656642262135641,0.12967252731323242,-1.521905247365133,0.006856100168079138,0.0007310377550311387,0.6743302345275879,0.0,-0.0,0.0,0.0,0.0,0.0
1782666894,500035626,-1.6565821806537073,0.12967252731323242,-1.5218694845782679,0.006904037203639746,0.0007550062146037817,0.6743302345275879,0.0,-0.0,0.0,0.0,0.0,0.0
1782666894,508046282,-1.6566303412066858,0.1296844482421875,-1.521893326436178,0.006856100168079138,0.0007430219557136297,0.6743422150611877,0.0,-0.0,0.0,0.0,0.0,0.0
1782666894,516061178,-1.6566184202777308,0.12966012954711914,-1.5218456427203577,0.006856100168079138,0.0007789746159687638,0.6743302345275879,0.0,-0.0,0.0,0.0,0.0,0.0
1782666894,524024556,-1.6565945784198206,0.12964820861816406,-1.521893326436178,0.006880068685859442,0.0007789746159687638,0.674318253993988,0.0,-0.0,0.0,0.0,0.0,0.0
1782666894,532046231,-1.6566184202777308,0.12967252731323242,-1.5218213240252894,0.006856100168079138,0.0007550062146037817,0.6743302345275879,0.0,-0.0,0.0,0.0,0.0,0.0
1782666894,540145406,-1.6566303412066858,0.12967252731323242,-1.5218575636493128,0.00686808442696929,0.0007669904152862728,0.6743782162666321,0.0,-0.0,0.0,0.0,0.0,0.0
1782666894,548057950,-1.6565821806537073,0.12970829010009766,-1.521881405507223,0.006892052944749594,0.0007909588748589158,0.6743542551994324,0.0,-0.0,0.0,0.0,0.0,0.0
1782666894,556038642,-1.6566303412066858,0.12966012954711914,-1.5218575636493128,0.006856100168079138,0.0007430219557136297,0.6743542551994324,0.0,-0.0,0.0,0.0,0.0,0.0
1782666894,564051280,-1.6566184202777308,0.12963628768920898,-1.5218575636493128,0.006844115909188986,0.0007550062146037817,0.6743302345275879,0.0,-0.0,0.0,0.0,0.0,0.0
1782666894,572192640,-1.6565945784198206,0.12963628768920898,-1.5218694845782679,0.00686808442696929,0.0007550062146037817,0.6743062734603882,0.0,-0.0,0.0,0.0,0.0,0.0
1782666894,580034480,-1.656654183064596,0.12967252731323242,-1.521905247365133,0.006856100168079138,0.0007190534961409867,0.6743302345275879,0.0,-0.0,0.0,0.0,0.0,0.0
1782666894,588805679,-1.6566064993487757,0.12970829010009766,-1.5218337217914026,0.006880068685859442,0.0007550062146037817,0.6743542551994324,0.0,-0.0,0.0,0.0,0.0,0.0
1782666894,596278090,-1.656666103993551,0.12969636917114258,-1.521881405507223,0.006892052944749594,0.0007070692954584956,0.6743662357330322,0.0,-0.0,0.0,0.0,0.0,0.0
1782666894,612015344,-1.656642262135641,0.12967252731323242,-1.5218337217914026,0.006892052944749594,0.0007430219557136297,0.6743422150611877,0.0,-0.0,0.0,0.0,0.0,0.0
1782666894,620031333,-1.6565945784198206,0.12967252731323242,-1.5218575636493128,0.006832132115960121,0.0007550062146037817,0.6743302345275879,0.0,-0.0,0.0,0.0,0.0,0.0
1782666894,628045211,-1.6566184202777308,0.12969636917114258,-1.5218694845782679,0.006904037203639746,0.0007070692954584956,0.6743662357330322,0.0,-0.0,0.0,0.0,0.0,0.0
1782666894,636019867,-1.6566184202777308,0.12963628768920898,-1.521881405507223,0.006880068685859442,0.0007190534961409867,0.6743782162666321,0.0,-0.0,0.0,0.0,0.0,0.0
1782666894,644065356,-1.6565945784198206,0.12966012954711914,-1.5219176451312464,0.006856100168079138,0.0007430219557136297,0.6743662357330322,0.0,-0.0,0.0,0.0,0.0,0.0
1782666894,652025697,-1.6566303412066858,0.12966012954711914,-1.5218213240252894,0.006832132115960121,0.0008033175836317241,0.674318253993988,0.0,-0.0,0.0,0.0,0.0,0.0
1782666894,660028667,-1.6565945784198206,0.12966012954711914,-1.5218456427203577,0.006844115909188986,0.0007310377550311387,0.6743782162666321,0.0,-0.0,0.0,0.0,0.0,0.0
1782666894,668046731,-1.6566064993487757,0.12967252731323242,-1.5218456427203577,0.006880068685859442,0.0007550062146037817,0.674318253993988,0.0,-0.0,0.0,0.0,0.0,0.0
1782666894,676045053,-1.6566303412066858,0.1296844482421875,-1.5218456427203577,0.006904037203639746,0.0007190534961409867,0.6743302345275879,0.0,-0.0,0.0,0.0,0.0,0.0
1782666894,684056783,-1.6566064993487757,0.12967252731323242,-1.521881405507223,0.006856100168079138,0.0007789746159687638,0.6743302345275879,0.0,-0.0,0.0,0.0,0.0,0.0
1782666894,692014198,-1.6566064993487757,0.12969636917114258,-1.521881405507223,0.006856100168079138,0.0007909588748589158,0.6743782162666321,0.0,-0.0,0.0,0.0,0.0,0.0
1782666894,700033279,-1.656642262135641,0.12964820861816406,-1.5218337217914026,0.006880068685859442,0.0007550062146037817,0.6743062734603882,0.0,-0.0,0.0,0.0,0.0,0.0
1782666894,708111362,-1.6566064993487757,0.12967252731323242,-1.5218694845782679,0.006856100168079138,0.0007310377550311387,0.674318253993988,0.0,-0.0,0.0,0.0,0.0,0.0
1782666894,716032239,-1.6566184202777308,0.1296844482421875,-1.521881405507223,0.006856100168079138,0.0007310377550311387,0.6743062734603882,0.0,-0.0,0.0,0.0,0.0,0.0
1782666894,724039580,-1.6566064993487757,0.12964820861816406,-1.5218456427203577,0.006880068685859442,0.0006950850365683436,0.6743062734603882,0.0,-0.0,0.0,0.0,0.0,0.0
1782666894,732050847,-1.6566184202777308,0.12961292266845703,-1.5218456427203577,0.00686808442696929,0.0007789746159687638,0.6743662357330322,0.0,-0.0,0.0,0.0,0.0,0.0
1782666894,740132966,-1.656642262135641,0.12963628768920898,-1.5218213240252894,0.006880068685859442,0.0007190534961409867,0.674318253993988,0.0,-0.0,0.0,0.0,0.0,0.0
1782666894,748038325,-1.6565945784198206,0.12966012954711914,-1.521905247365133,0.006880068685859442,0.0007909588748589158,0.6743542551994324,0.0,-0.0,0.0,0.0,0.0,0.0
1782666894,756025203,-1.6566184202777308,0.12969636917114258,-1.5218337217914026,0.006844115909188986,0.0007430219557136297,0.6743901968002319,0.0,-0.0,0.0,0.0,0.0,0.0
1782666894,764048748,-1.656642262135641,0.1296243667602539,-1.5218575636493128,0.006820147857069969,0.0007310377550311387,0.674318253993988,0.0,-0.0,0.0,0.0,0.0,0.0
1782666894,772154127,-1.656642262135641,0.1296243667602539,-1.521881405507223,0.006892052944749594,0.0007909588748589158,0.6743542551994324,0.0,-0.0,0.0,0.0,0.0,0.0
1782666894,780044411,-1.656654183064596,0.12966012954711914,-1.521881405507223,0.006856100168079138,0.0007310377550311387,0.6743422150611877,0.0,-0.0,0.0,0.0,0.0,0.0
1782666894,788032826,-1.6566064993487757,0.12964820861816406,-1.5218213240252894,0.006880068685859442,0.0007310377550311387,0.6743422150611877,0.0,-0.0,0.0,0.0,0.0,0.0
1782666894,796043760,-1.6565945784198206,0.12964820861816406,-1.5218694845782679,0.006856100168079138,0.0007190534961409867,0.6743302345275879,0.0,-0.0,0.0,0.0,0.0,0.0
1782666894,804112601,-1.6566064993487757,0.12969636917114258,-1.521905247365133,0.006856100168079138,0.0007310377550311387,0.6743662357330322,0.0,-0.0,0.0,0.0,0.0,0.0
1782666894,812029479,-1.6566064993487757,0.12960100173950195,-1.521905247365133,0.006856100168079138,0.0007310377550311387,0.6743302345275879,0.0,-0.0,0.0,0.0,0.0,0.0
1782666894,820030801,-1.6566064993487757,0.12963628768920898,-1.5218694845782679,0.006844115909188986,0.0007669904152862728,0.674318253993988,0.0,-0.0,0.0,0.0,0.0,0.0
1782666894,828043383,-1.6565945784198206,0.12966012954711914,-1.5218694845782679,0.006856100168079138,0.0007190534961409867,0.6743302345275879,0.0,-0.0,0.0,0.0,0.0,0.0
1782666894,836052113,-1.6565945784198206,0.1296844482421875,-1.521881405507223,0.00686808442696929,0.0007669904152862728,0.6743062734603882,0.0,-0.0,0.0,0.0,0.0,0.0
1782666894,844050861,-1.6565945784198206,0.12970829010009766,-1.5218456427203577,0.006844115909188986,0.0007669904152862728,0.6743302345275879,0.0,-0.0,0.0,0.0,0.0,0.0
1782666894,852058665,-1.6566303412066858,0.1296844482421875,-1.5218337217914026,0.006820147857069969,0.0007669904152862728,0.6742823123931885,0.0,-0.0,0.0,0.0,0.0,0.0
1782666894,860016747,-1.6565821806537073,0.12966012954711914,-1.521881405507223,0.006856100168079138,0.0007310377550311387,0.6743662357330322,0.0,-0.0,0.0,0.0,0.0,0.0
1782666894,868066995,-1.6566184202777308,0.12963628768920898,-1.5218694845782679,0.006904037203639746,0.0007789746159687638,0.6743542551994324,0.0,-0.0,0.0,0.0,0.0,0.0
1782666894,876065892,-1.6566303412066858,0.12969636917114258,-1.5218337217914026,0.006880068685859442,0.0007789746159687638,0.674318253993988,0.0,-0.0,0.0,0.0,0.0,0.0
1782666894,884040788,-1.656642262135641,0.1296243667602539,-1.5218456427203577,0.006880068685859442,0.0007669904152862728,0.6743422150611877,0.0,-0.0,0.0,0.0,0.0,0.0
1782666894,892030518,-1.6566064993487757,0.12970829010009766,-1.521893326436178,0.00686808442696929,0.0007430219557136297,0.6743542551994324,0.0,-0.0,0.0,0.0,0.0,0.0
1782666894,900072192,-1.6566064993487757,0.12960100173950195,-1.521893326436178,0.006844115909188986,0.0007550062146037817,0.6743422150611877,0.0,-0.0,0.0,0.0,0.0,0.0
1782666894,908057978,-1.656642262135641,0.1296243667602539,-1.521893326436178,0.006892052944749594,0.0007550062146037817,0.6743542551994324,0.0,-0.0,0.0,0.0,0.0,0.0
1782666894,916018355,-1.6566064993487757,0.12964820861816406,-1.5218575636493128,0.006892052944749594,0.0007789746159687638,0.6743302345275879,0.0,-0.0,0.0,0.0,0.0,0.0
1782666894,924050604,-1.6566064993487757,0.12967252731323242,-1.5218575636493128,0.00686808442696929,0.0007669904152862728,0.6743782162666321,0.0,-0.0,0.0,0.0,0.0,0.0
1782666894,932143909,-1.6565945784198206,0.12964820861816406,-1.521893326436178,0.006820147857069969,0.0007789746159687638,0.6743302345275879,0.0,-0.0,0.0,0.0,0.0,0.0
