LukePepin/On-Edge/deceleration_data_1782666171.csv
timestamp_sec,timestamp_nanosec,shoulder_pan_pos,shoulder_lift_pos,elbow_pos,wrist_1_pos,wrist_2_pos,wrist_3_pos,shoulder_pan_vel,shoulder_lift_vel,elbow_vel,wrist_1_vel,wrist_2_vel,wrist_3_vel
1782666171,795067861,-1.656426731740133,0.12963628768920898,-1.5218694845782679,0.00686808442696929,0.0008153018425218761,0.6743302345275879,0.0,-0.0,0.0,0.0,0.0,0.0
1782666171,802910791,-1.656426731740133,0.12961292266845703,-1.5218575636493128,0.006856100168079138,0.0008512545027770102,0.6743302345275879,0.0,-0.0,0.0,0.0,0.0,0.0
1782666171,810909407,-1.6563661734210413,0.12960100173950195,-1.5218575636493128,0.00686808442696929,0.0008153018425218761,0.6743662357330322,0.0,-0.0,0.0,0.0,0.0,0.0
1782666171,818975913,-1.6563780943499964,0.12966012954711914,-1.521905247365133,0.006844115909188986,0.0007430219557136297,0.674318253993988,0.0,-0.0,0.0,0.0,0.0,0.0
1782666171,826972510,-1.6564624945269983,0.12960100173950195,-1.521881405507223,0.006844115909188986,0.0007789746159687638,0.6743422150611877,0.0,-0.0,0.0,0.0,0.0,0.0
1782666171,834994626,-1.656414810811178,0.12967252731323242,-1.5218575636493128,0.00686808442696929,0.0008153018425218761,0.6743782162666321,0.0,-0.0,0.0,0.0,0.0,0.0
1782666171,842912483,-1.656414810811178,0.12964820861816406,-1.5218456427203577,0.00692800572142005,0.0008153018425218761,0.674318253993988,0.0,-0.0,0.0,0.0,0.0,0.0
1782666171,909865371,-1.656414810811178,0.12963628768920898,-1.5218456427203577,0.006844115909188986,0.0008392703020945191,0.6743662357330322,0.0,-0.0,0.0,0.0,0.0,0.0
1782666171,921234561,-1.656414810811178,0.12961292266845703,-1.5218456427203577,0.006880068685859442,0.0008153018425218761,0.6743542551994324,0.0,-0.0,0.0,0.0,0.0,0.0
1782666171,931398133,-1.6563904921161097,0.12964820861816406,-1.5218094030963343,0.006904037203639746,0.0007789746159687638,0.6742942929267883,0.0,-0.0,0.0,0.0,0.0,0.0
1782666171,947434272,-1.656426731740133,0.12967252731323242,-1.5218694845782679,0.00686808442696929,0.0008153018425218761,0.6743662357330322,0.0,-0.0,0.0,0.0,0.0,0.0
1782666171,962888928,-1.6563780943499964,0.12966012954711914,-1.521881405507223,0.006880068685859442,0.0008272860432043672,0.6743302345275879,0.0,-0.0,0.0,0.0,0.0,0.0
1782666171,970955137,-1.6564505735980433,0.12966012954711914,-1.5218694845782679,0.00686808442696929,0.0008153018425218761,0.6743662357330322,0.0,-0.0,0.0,0.0,0.0,0.0
1782666171,978906141,-1.6564863363849085,0.1296844482421875,-1.5218694845782679,0.006856100168079138,0.0008153018425218761,0.6744021773338318,0.0,-0.0,0.0,0.0,0.0,0.0
1782666171,986905776,-1.656414810811178,0.12961292266845703,-1.5218213240252894,0.006844115909188986,0.0008153018425218761,0.674318253993988,0.0,-0.0,0.0,0.0,0.0,0.0
1782666171,995175153,-1.656426731740133,0.12966012954711914,-1.521881405507223,0.006856100168079138,0.0008033175836317241,0.6743062734603882,0.0,-0.0,0.0,0.0,0.0,0.0
1782666172,3039657,-1.656414810811178,0.12960100173950195,-1.5218456427203577,0.006892052944749594,0.0008153018425218761,0.6743302345275879,0.0,-0.0,0.0,0.0,0.0,0.0
1782666172,11098107,-1.656426731740133,0.12963628768920898,-1.5218694845782679,0.006856100168079138,0.0007669904152862728,0.6743422150611877,0.0,-0.0,0.0,0.0,0.0,0.0
1782666172,18910852,-1.6564505735980433,0.1296243667602539,-1.5218456427203577,0.006892052944749594,0.0007909588748589158,0.6743302345275879,0.0,-0.0,0.0,0.0,0.0,0.0
1782666172,27028079,-1.6564505735980433,0.1296243667602539,-1.5218456427203577,0.006892052944749594,0.0007909588748589158,0.6743302345275879,0.0,-0.0,0.0,0.0,0.0,0.0
1782666172,34914269,-1.656426731740133,0.12964820861816406,-1.5218694845782679,0.006892052944749594,0.0008153018425218761,0.6743901968002319,0.0,-0.0,0.0,0.0,0.0,0.0
1782666172,42912015,-1.656414810811178,0.1296243667602539,-1.5218575636493128,0.00686808442696929,0.0007909588748589158,0.6743422150611877,0.0,-0.0,0.0,0.0,0.0,0.0
1782666172,51027835,-1.656426731740133,0.1296844482421875,-1.5218575636493128,0.006892052944749594,0.0008512545027770102,0.6743782162666321,0.0,-0.0,0.0,0.0,0.0,0.0
1782666172,58986970,-1.656414810811178,0.12961292266845703,-1.5218094030963343,0.006916021462529898,0.0008272860432043672,0.6743662357330322,0.0,-0.0,0.0,0.0,0.0,0.0
1782666172,66944734,-1.6564386526690882,0.12963628768920898,-1.5218213240252894,0.00686808442696929,0.0008153018425218761,0.6743422150611877,0.0,-0.0,0.0,0.0,0.0,0.0
1782666172,74940128,-1.6564386526690882,0.12966012954711914,-1.521881405507223,0.00686808442696929,0.0007669904152862728,0.6743662357330322,0.0,-0.0,0.0,0.0,0.0,0.0
1782666172,82958651,-1.6564386526690882,0.12966012954711914,-1.521881405507223,0.00686808442696929,0.0007669904152862728,0.6743662357330322,0.0,-0.0,0.0,0.0,0.0,0.0
1782666172,90928286,-1.6563904921161097,0.12964820861816406,-1.5218694845782679,0.006856100168079138,0.0008153018425218761,0.674318253993988,0.0,-0.0,0.0,0.0,0.0,0.0
1782666172,98968291,-1.6564505735980433,0.12964820861816406,-1.521881405507223,0.006892052944749594,0.0008153018425218761,0.6743542551994324,0.0,-0.0,0.0,0.0,0.0,0.0
1782666172,106979833,-1.6564624945269983,0.12964820861816406,-1.5218694845782679,0.006880068685859442,0.0007789746159687638,0.6743422150611877,0.0,-0.0,0.0,0.0,0.0,0.0
1782666172,114918097,-1.6564624945269983,0.12967252731323242,-1.5218694845782679,0.00686808442696929,0.0008272860432043672,0.674318253993988,0.0,-0.0,0.0,0.0,0.0,0.0
1782666172,123028084,-1.6564024130450647,0.12963628768920898,-1.5218456427203577,0.006856100168079138,0.0008153018425218761,0.6743542551994324,0.0,-0.0,0.0,0.0,0.0,0.0
1782666172,131041200,-1.6564024130450647,0.12963628768920898,-1.5218213240252894,0.006880068685859442,0.0008033175836317241,0.6743542551994324,0.0,-0.0,0.0,0.0,0.0,0.0
1782666172,138926946,-1.6564024130450647,0.1296243667602539,-1.521893326436178,0.006844115909188986,0.0007909588748589158,0.674318253993988,0.0,-0.0,0.0,0.0,0.0,0.0
1782666172,147023322,-1.656414810811178,0.12967252731323242,-1.5219176451312464,0.006892052944749594,0.0008033175836317241,0.6743422150611877,0.0,-0.0,0.0,0.0,0.0,0.0
1782666172,154909641,-1.6564024130450647,0.1296844482421875,-1.5218094030963343,0.006904037203639746,0.0008272860432043672,0.6743901968002319,0.0,-0.0,0.0,0.0,0.0,0.0
1782666172,162906590,-1.6564505735980433,0.12958860397338867,-1.521893326436178,0.006904037203639746,0.0007669904152862728,0.674318253993988,0.0,-0.0,0.0,0.0,0.0,0.0
1782666172,170912984,-1.6564744154559534,0.12963628768920898,-1.521893326436178,0.006880068685859442,0.0008153018425218761,0.6743302345275879,0.0,-0.0,0.0,0.0,0.0,0.0
1782666172,179354566,-1.656426731740133,0.12967252731323242,-1.5218694845782679,0.00686808442696929,0.0008272860432043672,0.6743542551994324,0.0,-0.0,0.0,0.0,0.0,0.0
1782666172,186966532,-1.6564624945269983,0.12967252731323242,-1.5218213240252894,0.006856100168079138,0.0008153018425218761,0.6743542551994324,0.0,-0.0,0.0,0.0,0.0,0.0
1782666172,194940314,-1.656414810811178,0.12966012954711914,-1.521881405507223,0.00686808442696929,0.0007550062146037817,0.674318253993988,0.0,-0.0,0.0,0.0,0.0,0.0
1782666172,202930004,-1.656426731740133,0.12963628768920898,-1.5218213240252894,0.00686808442696929,0.0007789746159687638,0.6743782162666321,0.0,-0.0,0.0,0.0,0.0,0.0
1782666172,210977676,-1.656414810811178,0.12966012954711914,-1.5219176451312464,0.00686808442696929,0.0007789746159687638,0.6743782162666321,0.0,-0.0,0.0,0.0,0.0,0.0
1782666172,218918366,-1.656414810811178,0.12967252731323242,-1.5218456427203577,0.006856100168079138,0.0008033175836317241,0.6743062734603882,0.0,-0.0,0.0,0.0,0.0,0.0
1782666172,227069446,-1.656426731740133,0.12963628768920898,-1.5218694845782679,0.006880068685859442,0.0008272860432043672,0.6743422150611877,0.0,-0.0,0.0,0.0,0.0,0.0
1782666172,234970784,-1.6564386526690882,0.12966012954711914,-1.521881405507223,0.006892052944749594,0.0008272860432043672,0.6743302345275879,0.0,-0.0,0.0,0.0,0.0,0.0
1782666172,242911011,-1.6564024130450647,0.12967252731323242,-1.5218213240252894,0.006856100168079138,0.0007789746159687638,0.6743542551994324,0.0,-0.0,0.0,0.0,0.0,0.0
1782666172,251006479,-1.6564386526690882,0.1296243667602539,-1.5218456427203577,0.00686808442696929,0.0008153018425218761,0.6743542551994324,0.0,-0.0,0.0,0.0,0.0,0.0
1782666172,258969984,-1.6564624945269983,0.1296844482421875,-1.5219176451312464,0.00686808442696929,0.0007909588748589158,0.6743422150611877,0.0,-0.0,0.0,0.0,0.0,0.0
1782666172,266899563,-1.6564386526690882,0.12967252731323242,-1.5218456427203577,0.006832132115960121,0.0008033175836317241,0.6743302345275879,0.0,-0.0,0.0,0.0,0.0,0.0
1782666172,275156106,-1.6564505735980433,0.12964820861816406,-1.521881405507223,0.006856100168079138,0.0007789746159687638,0.6743782162666321,0.0,-0.0,0.0,0.0,0.0,0.0
1782666172,283188130,-1.6564505735980433,0.1296243667602539,-1.521905247365133,0.006832132115960121,0.0008153018425218761,0.6743542551994324,0.0,-0.0,0.0,0.0,0.0,0.0
1782666172,290901634,-1.656426731740133,0.12963628768920898,-1.5218213240252894,0.006880068685859442,0.0007909588748589158,0.6743422150611877,0.0,-0.0,0.0,0.0,0.0,0.0
1782666172,298902102,-1.6564624945269983,0.12964820861816406,-1.5218694845782679,0.006880068685859442,0.0008392703020945191,0.6743901968002319,0.0,-0.0,0.0,0.0,0.0,0.0
1782666172,307009348,-1.656426731740133,0.12967252731323242,-1.5218337217914026,0.006856100168079138,0.0007789746159687638,0.6743662357330322,0.0,-0.0,0.0,0.0,0.0,0.0
1782666172,314918390,-1.6563904921161097,0.12960100173950195,-1.521905247365133,0.006880068685859442,0.0008033175836317241,0.6743782162666321,0.0,-0.0,0.0,0.0,0.0,0.0
1782666172,323001247,-1.6564386526690882,0.12967252731323242,-1.5219176451312464,0.006832132115960121,0.0008033175836317241,0.6743302345275879,0.0,-0.0,0.0,0.0,0.0,0.0
1782666172,330903677,-1.6564624945269983,0.12961292266845703,-1.5218575636493128,0.006904037203639746,0.0008272860432043672,0.674318253993988,0.0,-0.0,0.0,0.0,0.0,0.0
1782666172,338989424,-1.6564386526690882,0.1296844482421875,-1.5217974821673792,0.006904037203639746,0.0008153018425218761,0.6743422150611877,0.0,-0.0,0.0,0.0,0.0,0.0
1782666172,346902447,-1.6564987341510218,0.1296844482421875,-1.5218694845782679,0.00686808442696929,0.0007550062146037817,0.6743542551994324,0.0,-0.0,0.0,0.0,0.0,0.0
1782666172,354989267,-1.656414810811178,0.1296243667602539,-1.521881405507223,0.006916021462529898,0.0008272860432043672,0.6743302345275879,0.0,-0.0,0.0,0.0,0.0,0.0
1782666172,362981550,-1.656414810811178,0.12961292266845703,-1.5218456427203577,0.00686808442696929,0.0007909588748589158,0.6743422150611877,0.0,-0.0,0.0,0.0,0.0,0.0
1782666172,371013981,-1.656414810811178,0.12964820861816406,-1.5218575636493128,0.006892052944749594,0.0008392703020945191,0.6743542551994324,0.0,-0.0,0.0,0.0,0.0,0.0
1782666172,378906115,-1.656414810811178,0.1296844482421875,-1.521881405507223,0.006856100168079138,0.0007909588748589158,0.674318253993988,0.0,-0.0,0.0,0.0,0.0,0.0
1782666172,386926398,-1.656426731740133,0.12966012954711914,-1.5218575636493128,0.006892052944749594,0.0008033175836317241,0.6743542551994324,0.0,-0.0,0.0,0.0,0.0,0.0
1782666172,394917570,-1.6564505735980433,0.12960100173950195,-1.5218694845782679,0.006916021462529898,0.0008272860432043672,0.6743422150611877,0.0,-0.0,0.0,0.0,0.0,0.0
1782666172,402941427,-1.656426731740133,0.12967252731323242,-1.5218694845782679,0.00686808442696929,0.0008153018425218761,0.674318253993988,0.0,-0.0,0.0,0.0,0.0,0.0
1782666172,410985024,-1.656426731740133,0.12964820861816406,-1.5218456427203577,0.006892052944749594,0.0008153018425218761,0.6743302345275879,0.0,-0.0,0.0,0.0,0.0,0.0
1782666172,418900529,-1.6564024130450647,0.12966012954711914,-1.5218337217914026,0.006880068685859442,0.0007909588748589158,0.6743542551994324,0.0,-0.0,0.0,0.0,0.0,0.0
1782666172,426962442,-1.6564624945269983,0.12961292266845703,-1.5218694845782679,0.006880068685859442,0.0008153018425218761,0.6743062734603882,0.0,-0.0,0.0,0.0,0.0,0.0
1782666172,434951928,-1.656414810811178,0.12960100173950195,-1.5218337217914026,0.006892052944749594,0.0008153018425218761,0.6742942929267883,0.0,-0.0,0.0,0.0,0.0,0.0
1782666172,442921137,-1.656414810811178,0.12963628768920898,-1.5218694845782679,0.006880068685859442,0.0007909588748589158,0.6743782162666321,0.0,-0.0,0.0,0.0,0.0,0.0
1782666172,450921586,-1.6564386526690882,0.12966012954711914,-1.5218337217914026,0.006844115909188986,0.0007909588748589158,0.6743422150611877,0.0,-0.0,0.0,0.0,0.0,0.0
1782666172,458934758,-1.6564505735980433,0.12964820861816406,-1.5218213240252894,0.006904037203639746,0.0008512545027770102,0.6743542551994324,0.0,-0.0,0.0,0.0,0.0,0.0
1782666172,466931726,-1.6564024130450647,0.12966012954711914,-1.5218575636493128,0.006808163598179817,0.0007789746159687638,0.6743782162666321,0.0,-0.0,0.0,0.0,0.0,0.0
1782666172,474959287,-1.656414810811178,0.1296243667602539,-1.5218575636493128,0.006856100168079138,0.0008272860432043672,0.6743542551994324,0.0,-0.0,0.0,0.0,0.0,0.0
1782666172,482937495,-1.6564624945269983,0.1296243667602539,-1.5218694845782679,0.006856100168079138,0.0007909588748589158,0.6743662357330322,0.0,-0.0,0.0,0.0,0.0,0.0
1782666172,490959575,-1.6564386526690882,0.1296243667602539,-1.521893326436178,0.006880068685859442,0.0008033175836317241,0.6743662357330322,0.0,-0.0,0.0,0.0,0.0,0.0
1782666172,498944765,-1.6564024130450647,0.12966012954711914,-1.521905247365133,0.006856100168079138,0.0008153018425218761,0.6743422150611877,0.0,-0.0,0.0,0.0,0.0,0.0
1782666172,506929121,-1.6564386526690882,0.12964820861816406,-1.5218575636493128,0.006856100168079138,0.0008153018425218761,0.6743542551994324,0.0,-0.0,0.0,0.0,0.0,0.0
1782666172,514932108,-1.6564863363849085,0.12967252731323242,-1.521905247365133,0.006892052944749594,0.0008272860432043672,0.6743542551994324,0.0,-0.0,0.0,0.0,0.0,0.0
1782666172,523024965,-1.656414810811178,0.12963628768920898,-1.5218337217914026,0.006880068685859442,0.0007909588748589158,0.6743542551994324,0.0,-0.0,0.0,0.0,0.0,0.0
1782666172,530913359,-1.656414810811178,0.12961292266845703,-1.521893326436178,0.006892052944749594,0.0008033175836317241,0.6743542551994324,0.0,-0.0,0.0,0.0,0.0,0.0
1782666172,538917956,-1.656426731740133,0.12964820861816406,-1.5218575636493128,0.006916021462529898,0.0008033175836317241,0.6742942929267883,0.0,-0.0,0.0,0.0,0.0,0.0
1782666172,546937406,-1.6564624945269983,0.12963628768920898,-1.521893326436178,0.006832132115960121,0.0008153018425218761,0.6743662357330322,0.0,-0.0,0.0,0.0,0.0,0.0
1782666172,554941152,-1.6563904921161097,0.12966012954711914,-1.5218694845782679,0.006892052944749594,0.0007669904152862728,0.6743422150611877,0.0,-0.0,0.0,0.0,0.0,0.0
1782666172,562930175,-1.6564024130450647,0.12963628768920898,-1.521893326436178,0.006880068685859442,0.0008272860432043672,0.6743662357330322,0.0,-0.0,0.0,0.0,0.0,0.0
1782666172,570922699,-1.6564744154559534,0.12966012954711914,-1.521905247365133,0.00686808442696929,0.0008033175836317241,0.6743062734603882,0.0,-0.0,0.0,0.0,0.0,0.0
1782666172,578943426,-1.6564024130450647,0.12966012954711914,-1.521881405507223,0.006904037203639746,0.0008033175836317241,0.674318253993988,0.0,-0.0,0.0,0.0,0.0,0.0
1782666172,586936468,-1.6564386526690882,0.12967252731323242,-1.5218456427203577,0.006844115909188986,0.0008153018425218761,0.6743542551994324,0.0,-0.0,0.0,0.0,0.0,0.0
1782666172,594911214,-1.656414810811178,0.1296844482421875,-1.521881405507223,0.006856100168079138,0.0007789746159687638,0.674318253993988,0.0,-0.0,0.0,0.0,0.0,0.0
1782666172,602932812,-1.6564505735980433,0.1296243667602539,-1.5218213240252894,0.006832132115960121,0.0007909588748589158,0.6743422150611877,0.0,-0.0,0.0,0.0,0.0,0.0
1782666172,610938520,-1.656426731740133,0.1296243667602539,-1.5218575636493128,0.006880068685859442,0.0007789746159687638,0.6743422150611877,0.0,-0.0,0.0,0.0,0.0,0.0
1782666172,619014526,-1.6564024130450647,0.1296243667602539,-1.5218456427203577,0.006880068685859442,0.0008512545027770102,0.6743062734603882,0.0,-0.0,0.0,0.0,0.0,0.0
1782666172,626926141,-1.6564386526690882,0.12958860397338867,-1.5218694845782679,0.006832132115960121,0.0007909588748589158,0.6743302345275879,0.0,-0.0,0.0,0.0,0.0,0.0
1782666172,634942498,-1.656414810811178,0.12964820861816406,-1.5218456427203577,0.006880068685859442,0.0007909588748589158,0.6743302345275879,0.0,-0.0,0.0,0.0,0.0,0.0
1782666172,642922022,-1.6564386526690882,0.12966012954711914,-1.521893326436178,0.006844115909188986,0.0007789746159687638,0.6743302345275879,0.0,-0.0,0.0,0.0,0.0,0.0
1782666172,650909101,-1.656414810811178,0.1296243667602539,-1.521881405507223,0.006880068685859442,0.0007789746159687638,0.6743901968002319,0.0,-0.0,0.0,0.0,0.0,0.0
1782666172,658941254,-1.6564024130450647,0.12966012954711914,-1.5218575636493128,0.006856100168079138,0.0007909588748589158,0.6743542551994324,0.0,-0.0,0.0,0.0,0.0,0.0
1782666172,666924259,-1.6564624945269983,0.1296243667602539,-1.5218694845782679,0.006832132115960121,0.0008033175836317241,0.674318253993988,0.0,-0.0,0.0,0.0,0.0,0.0
1782666172,674933931,-1.6563780943499964,0.12966012954711914,-1.5218575636493128,0.006904037203639746,0.0007789746159687638,0.6743782162666321,0.0,-0.0,0.0,0.0,0.0,0.0
1782666172,682959862,-1.6564386526690882,0.12961292266845703,-1.5218694845782679,0.006832132115960121,0.0008153018425218761,0.6743302345275879,0.0,-0.0,0.0,0.0,0.0,0.0
1782666172,690944830,-1.6564386526690882,0.12967252731323242,-1.5218694845782679,0.006844115909188986,0.0007909588748589158,0.6743062734603882,0.0,-0.0,0.0,0.0,0.0,0.0
1782666172,698909057,-1.6564024130450647,0.12964820861816406,-1.521881405507223,0.006904037203639746,0.0008272860432043672,0.6743542551994324,0.0,-0.0,0.0,0.0,0.0,0.0
1782666172,706921006,-1.6564386526690882,0.12963628768920898,-1.5218575636493128,0.006904037203639746,0.0007789746159687638,0.6743542551994324,0.0,-0.0,0.0,0.0,0.0,0.0
1782666172,714997660,-1.6564386526690882,0.12964820861816406,-1.521905247365133,0.00686808442696929,0.0007909588748589158,0.6743302345275879,0.0,-0.0,0.0,0.0,0.0,0.0
1782666172,722923350,-1.6564024130450647,0.12963628768920898,-1.521893326436178,0.006832132115960121,0.0008153018425218761,0.6743422150611877,0.0,-0.0,0.0,0.0,0.0,0.0
1782666172,730929633,-1.656414810811178,0.1296243667602539,-1.5218456427203577,0.006856100168079138,0.0007909588748589158,0.6743302345275879,0.0,-0.0,0.0,0.0,0.0,0.0
1782666172,738936175,-1.6564386526690882,0.12963628768920898,-1.5218575636493128,0.00686808442696929,0.0008392703020945191,0.6743422150611877,0.0,-0.0,0.0,0.0,0.0,0.0
1782666172,747026403,-1.6564624945269983,0.12966012954711914,-1.521881405507223,0.006880068685859442,0.0008153018425218761,0.6743542551994324,0.0,-0.0,0.0,0.0,0.0,0.0
1782666172,754914037,-1.656426731740133,0.12967252731323242,-1.5218694845782679,0.00686808442696929,0.0008272860432043672,0.6743542551994324,0.0,-0.0,0.0,0.0,0.0,0.0
1782666172,762915505,-1.656426731740133,0.1296243667602539,-1.5218694845782679,0.006904037203639746,0.0007430219557136297,0.6743422150611877,0.0,-0.0,0.0,0.0,0.0,0.0
1782666172,770933288,-1.6564386526690882,0.12961292266845703,-1.5218456427203577,0.006880068685859442,0.0008392703020945191,0.6743302345275879,0.0,-0.0,0.0,0.0,0.0,0.0
1782666172,778968311,-1.6564386526690882,0.12966012954711914,-1.521893326436178,0.006808163598179817,0.0008512545027770102,0.6742942929267883,0.0,-0.0,0.0,0.0,0.0,0.0
1782666172,786928316,-1.6564386526690882,0.12961292266845703,-1.5218694845782679,0.006856100168079138,0.0007789746159687638,0.6743542551994324,0.0,-0.0,0.0,0.0,0.0,0.0
1782666172,794924617,-1.6564505735980433,0.12964820861816406,-1.5218337217914026,0.00686808442696929,0.0008392703020945191,0.6743422150611877,0.0,-0.0,0.0,0.0,0.0,0.0
1782666172,802915826,-1.6564505735980433,0.12964820861816406,-1.5218337217914026,0.006880068685859442,0.0007909588748589158,0.6743542551994324,0.0,-0.0,0.0,0.0,0.0,0.0
1782666172,810912183,-1.6564505735980433,0.12961292266845703,-1.521905247365133,0.00686808442696929,0.0007430219557136297,0.6743302345275879,0.0,-0.0,0.0,0.0,0.0,0.0
1782666172,818918947,-1.656414810811178,0.1296243667602539,-1.521881405507223,0.006856100168079138,0.0008033175836317241,0.6743542551994324,0.0,-0.0,0.0,0.0,0.0,0.0
1782666172,826962360,-1.656414810811178,0.12963628768920898,-1.5218337217914026,0.006880068685859442,0.0008153018425218761,0.674318253993988,0.0,-0.0,0.0,0.0,0.0,0.0
1782666172,834940791,-1.6564024130450647,0.12967252731323242,-1.5218213240252894,0.00686808442696929,0.0007789746159687638,0.674318253993988,0.0,-0.0,0.0,0.0,0.0,0.0
1782666172,842967296,-1.6564505735980433,0.12961292266845703,-1.521881405507223,0.006844115909188986,0.0008392703020945191,0.674318253993988,0.0,-0.0,0.0,0.0,0.0,0.0
1782666172,850924930,-1.6564505735980433,0.1296844482421875,-1.5218456427203577,0.006880068685859442,0.0008033175836317241,0.6743542551994324,0.0,-0.0,0.0,0.0,0.0,0.0
1782666172,858937250,-1.656414810811178,0.12961292266845703,-1.5218694845782679,0.006916021462529898,0.0007909588748589158,0.6743662357330322,0.0,-0.0,0.0,0.0,0.0,0.0
1782666172,866927866,-1.656414810811178,0.1296243667602539,-1.5218456427203577,0.006892052944749594,0.0007789746159687638,0.6743542551994324,0.0,-0.0,0.0,0.0,0.0,0.0
1782666172,874901649,-1.656426731740133,0.12967252731323242,-1.5218575636493128,0.006856100168079138,0.0007669904152862728,0.6743782162666321,0.0,-0.0,0.0,0.0,0.0,0.0
1782666172,882923691,-1.6564505735980433,0.12966012954711914,-1.521881405507223,0.00686808442696929,0.0007789746159687638,0.6743062734603882,0.0,-0.0,0.0,0.0,0.0,0.0
1782666172,890919418,-1.6563904921161097,0.12961292266845703,-1.521893326436178,0.006844115909188986,0.0007909588748589158,0.6743542551994324,0.0,-0.0,0.0,0.0,0.0,0.0
1782666172,898933146,-1.6564386526690882,0.1296844482421875,-1.521893326436178,0.006880068685859442,0.0007550062146037817,0.6742942929267883,0.0,-0.0,0.0,0.0,0.0,0.0
1782666172,906962558,-1.656426731740133,0.12963628768920898,-1.521893326436178,0.006844115909188986,0.0007669904152862728,0.674318253993988,0.0,-0.0,0.0,0.0,0.0,0.0
1782666172,914988989,-1.656414810811178,0.12958860397338867,-1.5218337217914026,0.006844115909188986,0.0008153018425218761,0.6743062734603882,0.0,-0.0,0.0,0.0,0.0,0.0
1782666172,922910401,-1.656414810811178,0.1296243667602539,-1.5218575636493128,0.006832132115960121,0.0008033175836317241,0.6743062734603882,0.0,-0.0,0.0,0.0,0.0,0.0
1782666172,930924147,-1.656426731740133,0.12964820861816406,-1.5219295660602015,0.006844115909188986,0.0007909588748589158,0.6743422150611877,0.0,-0.0,0.0,0.0,0.0,0.0
1782666172,938928726,-1.656426731740133,0.12967252731323242,-1.5218337217914026,0.006904037203639746,0.0008153018425218761,0.6743422150611877,0.0,-0.0,0.0,0.0,0.0,0.0
1782666172,946928102,-1.6564024130450647,0.12963628768920898,-1.521905247365133,0.006892052944749594,0.0008272860432043672,0.6743302345275879,0.0,-0.0,0.0,0.0,0.0,0.0
1782666172,954937959,-1.6564624945269983,0.12963628768920898,-1.5218456427203577,0.006892052944749594,0.0008033175836317241,0.6743422150611877,0.0,-0.0,0.0,0.0,0.0,0.0
1782666172,962927408,-1.6564024130450647,0.12964820861816406,-1.5218337217914026,0.006892052944749594,0.0008153018425218761,0.6743662357330322,0.0,-0.0,0.0,0.0,0.0,0.0
1782666172,970920802,-1.6564024130450647,0.12961292266845703,-1.5218694845782679,0.006856100168079138,0.0007789746159687638,0.6743542551994324,0.0,-0.0,0.0,0.0,0.0,0.0
1782666172,978923900,-1.6563780943499964,0.12963628768920898,-1.5218694845782679,0.006880068685859442,0.0008033175836317241,0.6743422150611877,0.0,-0.0,0.0,0.0,0.0,0.0
1782666172,986882460,-1.6564024130450647,0.12966012954711914,-1.5218694845782679,0.006844115909188986,0.0008392703020945191,0.6743422150611877,0.0,-0.0,0.0,0.0,0.0,0.0
1782666172,994920706,-1.656414810811178,0.12960100173950195,-1.521893326436178,0.006880068685859442,0.0008033175836317241,0.6743302345275879,0.0,-0.0,0.0,0.0,0.0,0.0
1782666173,2967119,-1.656414810811178,0.12963628768920898,-1.5218456427203577,0.00686808442696929,0.0008392703020945191,0.674318253993988,0.0,-0.0,0.0,0.0,0.0,0.0
1782666173,11035106,-1.6564024130450647,0.12967252731323242,-1.521881405507223,0.006856100168079138,0.0008392703020945191,0.6742942929267883,0.0,-0.0,0.0,0.0,0.0,0.0
1782666173,18938055,-1.656426731740133,0.12966012954711914,-1.5218575636493128,0.006832132115960121,0.0007909588748589158,0.6743542551994324,0.0,-0.0,0.0,0.0,0.0,0.0
1782666173,26962690,-1.656414810811178,0.12966012954711914,-1.5218456427203577,0.00686808442696929,0.0007909588748589158,0.6743422150611877,0.0,-0.0,0.0,0.0,0.0,0.0
1782666173,34901546,-1.656414810811178,0.1296243667602539,-1.5218694845782679,0.006880068685859442,0.0008272860432043672,0.6743422150611877,0.0,-0.0,0.0,0.0,0.0,0.0
1782666173,42955589,-1.6564505735980433,0.12967252731323242,-1.5218694845782679,0.006856100168079138,0.0008033175836317241,0.6743662357330322,0.0,-0.0,0.0,0.0,0.0,0.0
1782666173,50937723,-1.656414810811178,0.12967252731323242,-1.521905247365133,0.00686808442696929,0.0008153018425218761,0.6743422150611877,0.0,-0.0,0.0,0.0,0.0,0.0
1782666173,58916024,-1.656414810811178,0.12967252731323242,-1.521881405507223,0.006796179339289665,0.0008153018425218761,0.6742942929267883,0.0,-0.0,0.0,0.0,0.0,0.0
1782666173,66931363,-1.6563904921161097,0.12963628768920898,-1.5218694845782679,0.006832132115960121,0.0008392703020945191,0.6743542551994324,0.0,-0.0,0.0,0.0,0.0,0.0
1782666173,74965868,-1.656426731740133,0.12964820861816406,-1.521893326436178,0.006844115909188986,0.0007789746159687638,0.6743302345275879,0.0,-0.0,0.0,0.0,0.0,0.0
1782666173,82943595,-1.656426731740133,0.12963628768920898,-1.5218213240252894,0.006856100168079138,0.0008272860432043672,0.6743302345275879,0.0,-0.0,0.0,0.0,0.0,0.0
1782666173,90917471,-1.656414810811178,0.1296243667602539,-1.5218575636493128,0.006880068685859442,0.0008272860432043672,0.6743302345275879,0.0,-0.0,0.0,0.0,0.0,0.0
1782666173,98940402,-1.6563780943499964,0.12963628768920898,-1.521893326436178,0.00686808442696929,0.0007669904152862728,0.6743062734603882,0.0,-0.0,0.0,0.0,0.0,0.0
1782666173,107016018,-1.6564505735980433,0.1296243667602539,-1.5218575636493128,0.006892052944749594,0.0007909588748589158,0.6743422150611877,0.0,-0.0,0.0,0.0,0.0,0.0
1782666173,114924597,-1.656426731740133,0.12963628768920898,-1.5218337217914026,0.006880068685859442,0.0008153018425218761,0.6743302345275879,0.0,-0.0,0.0,0.0,0.0,0.0
1782666173,122922991,-1.6563780943499964,0.12967252731323242,-1.5218456427203577,0.00686808442696929,0.0008033175836317241,0.6743662357330322,0.0,-0.0,0.0,0.0,0.0,0.0
1782666173,130920089,-1.6564505735980433,0.12967252731323242,-1.5218337217914026,0.006856100168079138,0.0008153018425218761,0.6743422150611877,0.0,-0.0,0.0,0.0,0.0,0.0
1782666173,138925112,-1.6564624945269983,0.12964820861816406,-1.5219176451312464,0.006916021462529898,0.0008153018425218761,0.6743782162666321,0.0,-0.0,0.0,0.0,0.0,0.0
1782666173,146918951,-1.656414810811178,0.12966012954711914,-1.5218456427203577,0.006844115909188986,0.0007909588748589158,0.6743302345275879,0.0,-0.0,0.0,0.0,0.0,0.0
1782666173,154912604,-1.656414810811178,0.12966012954711914,-1.5218456427203577,0.006856100168079138,0.0008153018425218761,0.674318253993988,0.0,-0.0,0.0,0.0,0.0,0.0
1782666173,162917739,-1.6564024130450647,0.12964820861816406,-1.5218456427203577,0.006880068685859442,0.0007909588748589158,0.674318253993988,0.0,-0.0,0.0,0.0,0.0,0.0
1782666173,170966985,-1.6564863363849085,0.12963628768920898,-1.521893326436178,0.006856100168079138,0.0008153018425218761,0.6743542551994324,0.0,-0.0,0.0,0.0,0.0,0.0
1782666173,179244195,-1.6564505735980433,0.1296243667602539,-1.521893326436178,0.006880068685859442,0.0007789746159687638,0.6743782162666321,0.0,-0.0,0.0,0.0,0.0,0.0
1782666173,186923495,-1.656414810811178,0.12966012954711914,-1.521881405507223,0.006880068685859442,0.0007909588748589158,0.6743542551994324,0.0,-0.0,0.0,0.0,0.0,0.0
1782666173,194960593,-1.656414810811178,0.12964820861816406,-1.5218694845782679,0.006832132115960121,0.0008153018425218761,0.6743422150611877,0.0,-0.0,0.0,0.0,0.0,0.0
1782666173,203006265,-1.6564024130450647,0.12964820861816406,-1.521893326436178,0.006832132115960121,0.0008153018425218761,0.6743422150611877,0.0,-0.0,0.0,0.0,0.0,0.0
1782666173,210916732,-1.6564386526690882,0.12961292266845703,-1.5218456427203577,0.006832132115960121,0.0008392703020945191,0.6743302345275879,0.0,-0.0,0.0,0.0,0.0,0.0
1782666173,218924330,-1.6564024130450647,0.12964820861816406,-1.521881405507223,0.006844115909188986,0.0007789746159687638,0.6742942929267883,0.0,-0.0,0.0,0.0,0.0,0.0
1782666173,226934650,-1.6564386526690882,0.12961292266845703,-1.521881405507223,0.006844115909188986,0.0008153018425218761,0.6743422150611877,0.0,-0.0,0.0,0.0,0.0,0.0
1782666173,234964007,-1.6564386526690882,0.12963628768920898,-1.5218694845782679,0.00686808442696929,0.0007789746159687638,0.6743062734603882,0.0,-0.0,0.0,0.0,0.0,0.0
1782666173,242931975,-1.6563904921161097,0.12961292266845703,-1.5218337217914026,0.006880068685859442,0.0008272860432043672,0.6743062734603882,0.0,-0.0,0.0,0.0,0.0,0.0
1782666173,250943850,-1.6564505735980433,0.12961292266845703,-1.521881405507223,0.006904037203639746,0.0008272860432043672,0.6743662357330322,0.0,-0.0,0.0,0.0,0.0,0.0
1782666173,258904448,-1.6564863363849085,0.12967252731323242,-1.521881405507223,0.006856100168079138,0.0008033175836317241,0.6743662357330322,0.0,-0.0,0.0,0.0,0.0,0.0
1782666173,266956768,-1.656426731740133,0.12963628768920898,-1.521905247365133,0.006892052944749594,0.0008153018425218761,0.6743062734603882,0.0,-0.0,0.0,0.0,0.0,0.0
1782666173,274937310,-1.6564624945269983,0.1295766830444336,-1.5218575636493128,0.006844115909188986,0.0008153018425218761,0.6743542551994324,0.0,-0.0,0.0,0.0,0.0,0.0
1782666173,282939093,-1.6564505735980433,0.12964820861816406,-1.5218337217914026,0.006832132115960121,0.0008033175836317241,0.6743901968002319,0.0,-0.0,0.0,0.0,0.0,0.0
1782666173,290932765,-1.6564505735980433,0.1296243667602539,-1.521881405507223,0.006832132115960121,0.0008272860432043672,0.6743422150611877,0.0,-0.0,0.0,0.0,0.0,0.0
1782666173,298967325,-1.6564386526690882,0.12963628768920898,-1.5218337217914026,0.006820147857069969,0.0008033175836317241,0.6743422150611877,0.0,-0.0,0.0,0.0,0.0,0.0
1782666173,306939997,-1.6564386526690882,0.12963628768920898,-1.521881405507223,0.006892052944749594,0.0008272860432043672,0.6743302345275879,0.0,-0.0,0.0,0.0,0.0,0.0
1782666173,314935743,-1.656414810811178,0.1296844482421875,-1.5218213240252894,0.00686808442696929,0.0007909588748589158,0.674318253993988,0.0,-0.0,0.0,0.0,0.0,0.0
1782666173,322932452,-1.6564386526690882,0.12960100173950195,-1.5218456427203577,0.00686808442696929,0.0007909588748589158,0.6743062734603882,0.0,-0.0,0.0,0.0,0.0,0.0
1782666173,330999161,-1.656414810811178,0.12960100173950195,-1.5218575636493128,0.006904037203639746,0.0007909588748589158,0.674318253993988,0.0,-0.0,0.0,0.0,0.0,0.0
1782666173,339041648,-1.6564863363849085,0.12966012954711914,-1.5218337217914026,0.006844115909188986,0.0008033175836317241,0.674318253993988,0.0,-0.0,0.0,0.0,0.0,0.0
1782666173,346909985,-1.6564386526690882,0.12966012954711914,-1.521881405507223,0.006856100168079138,0.0007669904152862728,0.6742942929267883,0.0,-0.0,0.0,0.0,0.0,0.0
1782666173,354935787,-1.6564505735980433,0.1296243667602539,-1.521881405507223,0.00686808442696929,0.0007909588748589158,0.6743302345275879,0.0,-0.0,0.0,0.0,0.0,0.0
1782666173,363041496,-1.6564505735980433,0.12963628768920898,-1.5218694845782679,0.006892052944749594,0.0008392703020945191,0.674318253993988,0.0,-0.0,0.0,0.0,0.0,0.0
1782666173,370918982,-1.656414810811178,0.12963628768920898,-1.521881405507223,0.006880068685859442,0.0007789746159687638,0.6743782162666321,0.0,-0.0,0.0,0.0,0.0,0.0
1782666173,378915987,-1.6564386526690882,0.12963628768920898,-1.521893326436178,0.006808163598179817,0.0007669904152862728,0.6743662357330322,0.0,-0.0,0.0,0.0,0.0,0.0
1782666173,386904103,-1.6564024130450647,0.12966012954711914,-1.5218337217914026,0.00686808442696929,0.0008153018425218761,0.674318253993988,0.0,-0.0,0.0,0.0,0.0,0.0
1782666173,395027646,-1.6564624945269983,0.1296243667602539,-1.5218694845782679,0.006892052944749594,0.0007789746159687638,0.6743901968002319,0.0,-0.0,0.0,0.0,0.0,0.0
1782666173,402931002,-1.656414810811178,0.1296243667602539,-1.5219176451312464,0.00686808442696929,0.0008153018425218761,0.6742942929267883,0.0,-0.0,0.0,0.0,0.0,0.0
1782666173,410915915,-1.6564024130450647,0.1296243667602539,-1.5218456427203577,0.006856100168079138,0.0008033175836317241,0.6743422150611877,0.0,-0.0,0.0,0.0,0.0,0.0
1782666173,418987920,-1.656414810811178,0.1296243667602539,-1.5218575636493128,0.006880068685859442,0.0008153018425218761,0.6743662357330322,0.0,-0.0,0.0,0.0,0.0,0.0
1782666173,426990555,-1.6564386526690882,0.12964820861816406,-1.5218694845782679,0.006856100168079138,0.0008033175836317241,0.674318253993988,0.0,-0.0,0.0,0.0,0.0,0.0
1782666173,434915189,-1.6563904921161097,0.1296243667602539,-1.5218575636493128,0.006832132115960121,0.0007789746159687638,0.674318253993988,0.0,-0.0,0.0,0.0,0.0,0.0
1782666173,442933102,-1.656414810811178,0.12958860397338867,-1.5218575636493128,0.00686808442696929,0.0008153018425218761,0.6743422150611877,0.0,-0.0,0.0,0.0,0.0,0.0
1782666173,450927163,-1.6564505735980433,0.12967252731323242,-1.5219176451312464,0.006880068685859442,0.0007909588748589158,0.6743302345275879,0.0,-0.0,0.0,0.0,0.0,0.0
1782666173,458965131,-1.6564624945269983,0.1296243667602539,-1.5218456427203577,0.006892052944749594,0.0007789746159687638,0.6743662357330322,0.0,-0.0,0.0,0.0,0.0,0.0
1782666173,466928895,-1.6564744154559534,0.12967252731323242,-1.521893326436178,0.006856100168079138,0.0007789746159687638,0.6743302345275879,0.0,-0.0,0.0,0.0,0.0,0.0
1782666173,474934363,-1.6564024130450647,0.12967252731323242,-1.5218094030963343,0.006820147857069969,0.0008272860432043672,0.6743062734603882,0.0,-0.0,0.0,0.0,0.0,0.0
1782666173,482905924,-1.6564386526690882,0.12964820861816406,-1.5218575636493128,0.006856100168079138,0.0008033175836317241,0.6743782162666321,0.0,-0.0,0.0,0.0,0.0,0.0
1782666173,490990188,-1.656426731740133,0.12966012954711914,-1.5218213240252894,0.006844115909188986,0.0008392703020945191,0.6743662357330322,0.0,-0.0,0.0,0.0,0.0,0.0
1782666173,498938063,-1.656426731740133,0.1296243667602539,-1.5218694845782679,0.006880068685859442,0.0008153018425218761,0.6743662357330322,0.0,-0.0,0.0,0.0,0.0,0.0
1782666173,506912698,-1.6564386526690882,0.12966012954711914,-1.5218575636493128,0.006880068685859442,0.0008153018425218761,0.674318253993988,0.0,-0.0,0.0,0.0,0.0,0.0
1782666173,514927166,-1.6564505735980433,0.12960100173950195,-1.521881405507223,0.00686808442696929,0.0007909588748589158,0.6743542551994324,0.0,-0.0,0.0,0.0,0.0,0.0
1782666173,522997672,-1.6564987341510218,0.12967252731323242,-1.521893326436178,0.00686808442696929,0.0008153018425218761,0.6743422150611877,0.0,-0.0,0.0,0.0,0.0,0.0
1782666173,530948325,-1.6564505735980433,0.12963628768920898,-1.5218694845782679,0.00686808442696929,0.0007789746159687638,0.6743422150611877,0.0,-0.0,0.0,0.0,0.0,0.0
1782666173,538908163,-1.6564386526690882,0.12963628768920898,-1.5218456427203577,0.006832132115960121,0.0008033175836317241,0.6743782162666321,0.0,-0.0,0.0,0.0,0.0,0.0
1782666173,546959761,-1.6564386526690882,0.1296243667602539,-1.5218575636493128,0.006892052944749594,0.0007789746159687638,0.6743662357330322,0.0,-0.0,0.0,0.0,0.0,0.0
1782666173,554971618,-1.6564386526690882,0.1296844482421875,-1.5218575636493128,0.006820147857069969,0.0008392703020945191,0.6743422150611877,0.0,-0.0,0.0,0.0,0.0,0.0
1782666173,562930197,-1.656414810811178,0.12963628768920898,-1.5218694845782679,0.006892052944749594,0.0008272860432043672,0.6743302345275879,0.0,-0.0,0.0,0.0,0.0,0.0
1782666173,570907979,-1.6564505735980433,0.12963628768920898,-1.5218694845782679,0.006832132115960121,0.0008272860432043672,0.674318253993988,0.0,-0.0,0.0,0.0,0.0,0.0
1782666173,578938651,-1.656426731740133,0.12964820861816406,-1.521893326436178,0.006832132115960121,0.0008153018425218761,0.6743662357330322,0.0,-0.0,0.0,0.0,0.0,0.0
1782666173,586952582,-1.6564744154559534,0.12964820861816406,-1.5218575636493128,0.006856100168079138,0.0007909588748589158,0.6743542551994324,0.0,-0.0,0.0,0.0,0.0,0.0
1782666173,594904161,-1.6564386526690882,0.12961292266845703,-1.5218694845782679,0.006844115909188986,0.0007789746159687638,0.6743782162666321,0.0,-0.0,0.0,0.0,0.0,0.0
1782666173,602916426,-1.6564386526690882,0.12967252731323242,-1.521881405507223,0.006904037203639746,0.0007789746159687638,0.6742942929267883,0.0,-0.0,0.0,0.0,0.0,0.0
1782666173,610940764,-1.6564386526690882,0.12960100173950195,-1.5218694845782679,0.006880068685859442,0.0007909588748589158,0.6743302345275879,0.0,-0.0,0.0,0.0,0.0,0.0
1782666173,619069122,-1.6564024130450647,0.1296243667602539,-1.521881405507223,0.006856100168079138,0.0008153018425218761,0.6743782162666321,0.0,-0.0,0.0,0.0,0.0,0.0
1782666173,626929830,-1.656426731740133,0.12958860397338867,-1.5218213240252894,0.006844115909188986,0.0007789746159687638,0.6743302345275879,0.0,-0.0,0.0,0.0,0.0,0.0
1782666173,634933724,-1.6564744154559534,0.1296243667602539,-1.521893326436178,0.006892052944749594,0.0008153018425218761,0.6743542551994324,0.0,-0.0,0.0,0.0,0.0,0.0
1782666173,642930192,-1.656426731740133,0.12966012954711914,-1.5218456427203577,0.00686808442696929,0.0008033175836317241,0.674318253993988,0.0,-0.0,0.0,0.0,0.0,0.0
1782666173,650927549,-1.6564386526690882,0.12966012954711914,-1.5218694845782679,0.006880068685859442,0.0007909588748589158,0.6743782162666321,0.0,-0.0,0.0,0.0,0.0,0.0
1782666173,658915665,-1.6564505735980433,0.1296243667602539,-1.5218575636493128,0.006880068685859442,0.0008033175836317241,0.6743302345275879,0.0,-0.0,0.0,0.0,0.0,0.0
1782666173,666925226,-1.656426731740133,0.12963628768920898,-1.5218337217914026,0.006904037203639746,0.0008153018425218761,0.6743422150611877,0.0,-0.0,0.0,0.0,0.0,0.0
1782666173,674928212,-1.656426731740133,0.12967252731323242,-1.5218456427203577,0.006856100168079138,0.0008033175836317241,0.6743542551994324,0.0,-0.0,0.0,0.0,0.0,0.0
1782666173,682946199,-1.6564024130450647,0.12961292266845703,-1.521893326436178,0.006856100168079138,0.0008392703020945191,0.6743302345275879,0.0,-0.0,0.0,0.0,0.0,0.0
1782666173,690926667,-1.656414810811178,0.12960100173950195,-1.5218575636493128,0.006856100168079138,0.0008153018425218761,0.6743302345275879,0.0,-0.0,0.0,0.0,0.0,0.0
1782666173,698941191,-1.656414810811178,0.12963628768920898,-1.5218575636493128,0.006844115909188986,0.0008033175836317241,0.6742823123931885,0.0,-0.0,0.0,0.0,0.0,0.0
1782666173,706905158,-1.6564386526690882,0.12966012954711914,-1.521881405507223,0.006916021462529898,0.0008272860432043672,0.6743422150611877,0.0,-0.0,0.0,0.0,0.0,0.0
1782666173,714899108,-1.6563780943499964,0.12960100173950195,-1.5218575636493128,0.00686808442696929,0.0007909588748589158,0.6743422150611877,0.0,-0.0,0.0,0.0,0.0,0.0
1782666173,722933576,-1.6564505735980433,0.1296844482421875,-1.521893326436178,0.006916021462529898,0.0008392703020945191,0.6742942929267883,0.0,-0.0,0.0,0.0,0.0,0.0
1782666173,730936767,-1.656414810811178,0.12964820861816406,-1.5218213240252894,0.00686808442696929,0.0007669904152862728,0.6743662357330322,0.0,-0.0,0.0,0.0,0.0,0.0
1782666173,738920938,-1.6564386526690882,0.1296243667602539,-1.5218694845782679,0.006856100168079138,0.0008272860432043672,0.6743302345275879,0.0,-0.0,0.0,0.0,0.0,0.0
1782666173,746953110,-1.6564505735980433,0.12964820861816406,-1.5218575636493128,0.006832132115960121,0.0008153018425218761,0.6743422150611877,0.0,-0.0,0.0,0.0,0.0,0.0
1782666173,755052708,-1.6564505735980433,0.1296243667602539,-1.521905247365133,0.006916021462529898,0.0007789746159687638,0.6743662357330322,0.0,-0.0,0.0,0.0,0.0,0.0
1782666173,762920546,-1.6564505735980433,0.12966012954711914,-1.5218575636493128,0.006832132115960121,0.0008272860432043672,0.6743662357330322,0.0,-0.0,0.0,0.0,0.0,0.0
1782666173,770910847,-1.6564505735980433,0.1296243667602539,-1.5218575636493128,0.006856100168079138,0.0008392703020945191,0.6743662357330322,0.0,-0.0,0.0,0.0,0.0,0.0
1782666173,778938834,-1.656414810811178,0.12963628768920898,-1.521905247365133,0.006832132115960121,0.0008153018425218761,0.6743422150611877,0.0,-0.0,0.0,0.0,0.0,0.0
1782666173,787046580,-1.6563904921161097,0.12963628768920898,-1.5218094030963343,0.00686808442696929,0.0008632387034595013,0.6743782162666321,0.0,-0.0,0.0,0.0,0.0,0.0
1782666173,794934733,-1.656414810811178,0.1296844482421875,-1.521881405507223,0.006916021462529898,0.0008272860432043672,0.6743422150611877,0.0,-0.0,0.0,0.0,0.0,0.0
1782666173,802919368,-1.656426731740133,0.12964820861816406,-1.521881405507223,0.006844115909188986,0.0008392703020945191,0.6743901968002319,0.0,-0.0,0.0,0.0,0.0,0.0
1782666173,810939280,-1.6563904921161097,0.12964820861816406,-1.5218575636493128,0.006856100168079138,0.0008153018425218761,0.6743302345275879,0.0,-0.0,0.0,0.0,0.0,0.0
1782666173,818999138,-1.656426731740133,0.12958860397338867,-1.5218094030963343,0.006856100168079138,0.0008153018425218761,0.6742942929267883,0.0,-0.0,0.0,0.0,0.0,0.0
1782666173,826921716,-1.6564386526690882,0.1296243667602539,-1.5218575636493128,0.006904037203639746,0.0007669904152862728,0.6743422150611877,0.0,-0.0,0.0,0.0,0.0,0.0
1782666173,834966314,-1.6563780943499964,0.12963628768920898,-1.5218456427203577,0.006856100168079138,0.0008153018425218761,0.6743662357330322,0.0,-0.0,0.0,0.0,0.0,0.0
1782666173,843068246,-1.656426731740133,0.12964820861816406,-1.5218694845782679,0.006880068685859442,0.0007909588748589158,0.6743422150611877,0.0,-0.0,0.0,0.0,0.0,0.0
1782666173,851035028,-1.6564386526690882,0.12963628768920898,-1.5218456427203577,0.006880068685859442,0.0008033175836317241,0.6743422150611877,0.0,-0.0,0.0,0.0,0.0,0.0
1782666173,858923681,-1.6564624945269983,0.1296243667602539,-1.5219176451312464,0.006832132115960121,0.0008392703020945191,0.674318253993988,0.0,-0.0,0.0,0.0,0.0,0.0
1782666173,866931075,-1.6563904921161097,0.1296844482421875,-1.5218213240252894,0.00686808442696929,0.0007789746159687638,0.6743302345275879,0.0,-0.0,0.0,0.0,0.0,0.0
1782666173,874898858,-1.6564024130450647,0.12966012954711914,-1.5218694845782679,0.006892052944749594,0.0007789746159687638,0.6743302345275879,0.0,-0.0,0.0,0.0,0.0,0.0
1782666173,882892122,-1.656414810811178,0.12964820861816406,-1.5219176451312464,0.006832132115960121,0.0007789746159687638,0.6743542551994324,0.0,-0.0,0.0,0.0,0.0,0.0
1782666173,890939183,-1.6564386526690882,0.1295766830444336,-1.521881405507223,0.006880068685859442,0.0008153018425218761,0.6743302345275879,0.0,-0.0,0.0,0.0,0.0,0.0
1782666173,898919077,-1.656414810811178,0.12963628768920898,-1.5218694845782679,0.006892052944749594,0.0008153018425218761,0.6743542551994324,0.0,-0.0,0.0,0.0,0.0,0.0
1782666173,906918563,-1.6564505735980433,0.12970829010009766,-1.5218337217914026,0.00686808442696929,0.0008392703020945191,0.6743422150611877,0.0,-0.0,0.0,0.0,0.0,0.0
1782666173,914928754,-1.6564386526690882,0.12961292266845703,-1.521881405507223,0.006892052944749594,0.0008033175836317241,0.6743782162666321,0.0,-0.0,0.0,0.0,0.0,0.0
1782666173,923069556,-1.656414810811178,0.1296243667602539,-1.5218575636493128,0.006796179339289665,0.0008272860432043672,0.6743542551994324,0.0,-0.0,0.0,0.0,0.0,0.0
1782666173,930915245,-1.6563904921161097,0.12961292266845703,-1.5218575636493128,0.006904037203639746,0.0008033175836317241,0.6743422150611877,0.0,-0.0,0.0,0.0,0.0,0.0
1782666173,938914121,-1.6564386526690882,0.12961292266845703,-1.5218575636493128,0.006856100168079138,0.0008392703020945191,0.6743901968002319,0.0,-0.0,0.0,0.0,0.0,0.0
1782666173,946930145,-1.6564505735980433,0.12964820861816406,-1.5218575636493128,0.006892052944749594,0.0008272860432043672,0.674318253993988,0.0,-0.0,0.0,0.0,0.0,0.0
1782666173,954969076,-1.6564505735980433,0.12964820861816406,-1.521893326436178,0.006856100168079138,0.0007909588748589158,0.6743302345275879,0.0,-0.0,0.0,0.0,0.0,0.0
1782666173,962932155,-1.6564505735980433,0.1296243667602539,-1.5218575636493128,0.00686808442696929,0.0008272860432043672,0.6743302345275879,0.0,-0.0,0.0,0.0,0.0,0.0
1782666173,970919604,-1.656426731740133,0.1296243667602539,-1.5218694845782679,0.00686808442696929,0.0008392703020945191,0.674318253993988,0.0,-0.0,0.0,0.0,0.0,0.0
1782666173,978921350,-1.6564505735980433,0.1296243667602539,-1.521881405507223,0.006844115909188986,0.0007909588748589158,0.6743422150611877,0.0,-0.0,0.0,0.0,0.0,0.0
1782666173,987002633,-1.6564505735980433,0.12964820861816406,-1.5218456427203577,0.006832132115960121,0.0008153018425218761,0.6743422150611877,0.0,-0.0,0.0,0.0,0.0,0.0
1782666173,994916712,-1.656414810811178,0.12958860397338867,-1.521905247365133,0.006820147857069969,0.0007909588748589158,0.6743302345275879,0.0,-0.0,0.0,0.0,0.0,0.0
1782666174,2928736,-1.6564624945269983,0.1296243667602539,-1.521905247365133,0.006892052944749594,0.0007789746159687638,0.6743422150611877,0.0,-0.0,0.0,0.0,0.0,0.0
1782666174,10929667,-1.6564987341510218,0.12961292266845703,-1.521881405507223,0.006856100168079138,0.0007789746159687638,0.6743422150611877,0.0,-0.0,0.0,0.0,0.0,0.0
1782666174,18965228,-1.656414810811178,0.1296243667602539,-1.5218213240252894,0.006892052944749594,0.0008153018425218761,0.674318253993988,0.0,-0.0,0.0,0.0,0.0,0.0
1782666174,26930955,-1.6564386526690882,0.1296243667602539,-1.5218575636493128,0.006880068685859442,0.0007669904152862728,0.6743542551994324,0.0,-0.0,0.0,0.0,0.0,0.0
1782666174,34932590,-1.656414810811178,0.12964820861816406,-1.5218694845782679,0.006880068685859442,0.0008153018425218761,0.6743782162666321,0.0,-0.0,0.0,0.0,0.0,0.0
1782666174,42905317,-1.6564624945269983,0.12964820861816406,-1.521881405507223,0.006892052944749594,0.0007669904152862728,0.6742942929267883,0.0,-0.0,0.0,0.0,0.0,0.0
1782666174,50898155,-1.6564505735980433,0.12963628768920898,-1.5218694845782679,0.00686808442696929,0.0007909588748589158,0.6743901968002319,0.0,-0.0,0.0,0.0,0.0,0.0
1782666174,58929123,-1.6564386526690882,0.12960100173950195,-1.5218456427203577,0.006892052944749594,0.0008392703020945191,0.674318253993988,0.0,-0.0,0.0,0.0,0.0,0.0
1782666174,66933110,-1.6564624945269983,0.1296243667602539,-1.5218694845782679,0.006880068685859442,0.0008392703020945191,0.6743062734603882,0.0,-0.0,0.0,0.0,0.0,0.0
1782666174,74926800,-1.6564624945269983,0.12967252731323242,-1.5218456427203577,0.006904037203639746,0.0007909588748589158,0.6742942929267883,0.0,-0.0,0.0,0.0,0.0,0.0
1782666174,82929157,-1.656414810811178,0.12958860397338867,-1.5218575636493128,0.006844115909188986,0.0008392703020945191,0.6743662357330322,0.0,-0.0,0.0,0.0,0.0,0.0
1782666174,90946977,-1.656426731740133,0.12961292266845703,-1.5218694845782679,0.006856100168079138,0.0007909588748589158,0.6743302345275879,0.0,-0.0,0.0,0.0,0.0,0.0
1782666174,98906464,-1.6563904921161097,0.1295766830444336,-1.5218694845782679,0.006880068685859442,0.0007789746159687638,0.6743422150611877,0.0,-0.0,0.0,0.0,0.0,0.0
1782666174,106942099,-1.6564386526690882,0.12963628768920898,-1.5218094030963343,0.006880068685859442,0.0008272860432043672,0.674318253993988,0.0,-0.0,0.0,0.0,0.0,0.0
1782666174,114969919,-1.6564505735980433,0.12963628768920898,-1.5218337217914026,0.006904037203639746,0.0008153018425218761,0.6743302345275879,0.0,-0.0,0.0,0.0,0.0,0.0
1782666174,122929387,-1.656414810811178,0.12966012954711914,-1.521893326436178,0.006844115909188986,0.0008272860432043672,0.6743782162666321,0.0,-0.0,0.0,0.0,0.0,0.0
1782666174,130926577,-1.6564386526690882,0.12964820861816406,-1.5218694845782679,0.006892052944749594,0.0008153018425218761,0.674318253993988,0.0,-0.0,0.0,0.0,0.0,0.0
1782666174,139032694,-1.6563904921161097,0.12961292266845703,-1.5218694845782679,0.006856100168079138,0.0008272860432043672,0.6742942929267883,0.0,-0.0,0.0,0.0,0.0,0.0
1782666174,147043477,-1.656414810811178,0.12966012954711914,-1.5218337217914026,0.006880068685859442,0.0008033175836317241,0.6743422150611877,0.0,-0.0,0.0,0.0,0.0,0.0
1782666174,154913704,-1.6564386526690882,0.12964820861816406,-1.5218694845782679,0.006832132115960121,0.0008392703020945191,0.6743302345275879,0.0,-0.0,0.0,0.0,0.0,0.0
1782666174,162920875,-1.656414810811178,0.1296243667602539,-1.521893326436178,0.00692800572142005,0.0007909588748589158,0.6743662357330322,0.0,-0.0,0.0,0.0,0.0,0.0
1782666174,170921862,-1.6564505735980433,0.12964820861816406,-1.5218456427203577,0.006832132115960121,0.0008153018425218761,0.6743542551994324,0.0,-0.0,0.0,0.0,0.0,0.0
1782666174,178997849,-1.656414810811178,0.12964820861816406,-1.5218694845782679,0.006856100168079138,0.0008033175836317241,0.6743542551994324,0.0,-0.0,0.0,0.0,0.0,0.0
1782666174,186935502,-1.6564505735980433,0.12960100173950195,-1.521905247365133,0.006892052944749594,0.0007909588748589158,0.6743662357330322,0.0,-0.0,0.0,0.0,0.0,0.0
1782666174,194919877,-1.6564386526690882,0.12969636917114258,-1.5218694845782679,0.006820147857069969,0.0008033175836317241,0.6743302345275879,0.0,-0.0,0.0,0.0,0.0,0.0
1782666174,203814091,-1.656414810811178,0.12963628768920898,-1.5218337217914026,0.006856100168079138,0.0008392703020945191,0.6742942929267883,0.0,-0.0,0.0,0.0,0.0,0.0
1782666174,211019370,-1.6564024130450647,0.12966012954711914,-1.521893326436178,0.006856100168079138,0.0008033175836317241,0.6743662357330322,0.0,-0.0,0.0,0.0,0.0,0.0
1782666174,218917522,-1.6564386526690882,0.12961292266845703,-1.5218213240252894,0.00686808442696929,0.0008392703020945191,0.6743422150611877,0.0,-0.0,0.0,0.0,0.0,0.0
1782666174,226921231,-1.6564386526690882,0.1296243667602539,-1.5218575636493128,0.00692800572142005,0.0007909588748589158,0.6743302345275879,0.0,-0.0,0.0,0.0,0.0,0.0
1782666174,234938200,-1.656414810811178,0.12963628768920898,-1.5218456427203577,0.00686808442696929,0.0008153018425218761,0.6743302345275879,0.0,-0.0,0.0,0.0,0.0,0.0
1782666174,242948445,-1.6564505735980433,0.12964820861816406,-1.521893326436178,0.006880068685859442,0.0007909588748589158,0.6743302345275879,0.0,-0.0,0.0,0.0,0.0,0.0
1782666174,250945747,-1.656426731740133,0.12964820861816406,-1.521881405507223,0.00686808442696929,0.0007789746159687638,0.6743662357330322,0.0,-0.0,0.0,0.0,0.0,0.0
1782666174,258917622,-1.6564505735980433,0.12966012954711914,-1.5218456427203577,0.006844115909188986,0.0008272860432043672,0.6743062734603882,0.0,-0.0,0.0,0.0,0.0,0.0
1782666174,266903738,-1.656426731740133,0.12958860397338867,-1.5218694845782679,0.006880068685859442,0.0007909588748589158,0.6743422150611877,0.0,-0.0,0.0,0.0,0.0,0.0
1782666174,274972688,-1.6564744154559534,0.12961292266845703,-1.521881405507223,0.006856100168079138,0.0008153018425218761,0.6743422150611877,0.0,-0.0,0.0,0.0,0.0,0.0
1782666174,282943027,-1.6564624945269983,0.12963628768920898,-1.521893326436178,0.006844115909188986,0.0007909588748589158,0.674318253993988,0.0,-0.0,0.0,0.0,0.0,0.0
1782666174,290918587,-1.6564386526690882,0.12963628768920898,-1.5218575636493128,0.006892052944749594,0.0008272860432043672,0.6743901968002319,0.0,-0.0,0.0,0.0,0.0,0.0
1782666174,298939333,-1.656426731740133,0.12960100173950195,-1.521893326436178,0.006904037203639746,0.0007909588748589158,0.674318253993988,0.0,-0.0,0.0,0.0,0.0,0.0
1782666174,307029117,-1.6564024130450647,0.12966012954711914,-1.5218456427203577,0.00686808442696929,0.0008153018425218761,0.6743062734603882,0.0,-0.0,0.0,0.0,0.0,0.0
1782666174,314950547,-1.6563904921161097,0.12964820861816406,-1.5218213240252894,0.00686808442696929,0.0007789746159687638,0.6743782162666321,0.0,-0.0,0.0,0.0,0.0,0.0
1782666174,322909534,-1.656414810811178,0.1296243667602539,-1.5219176451312464,0.006904037203639746,0.0008272860432043672,0.674318253993988,0.0,-0.0,0.0,0.0,0.0,0.0
1782666174,330930317,-1.6564024130450647,0.12960100173950195,-1.5218575636493128,0.006880068685859442,0.0007789746159687638,0.6743901968002319,0.0,-0.0,0.0,0.0,0.0,0.0
1782666174,339000415,-1.656414810811178,0.12967252731323242,-1.5218456427203577,0.006832132115960121,0.0008153018425218761,0.6743422150611877,0.0,-0.0,0.0,0.0,0.0,0.0
1782666174,346940586,-1.6564024130450647,0.12964820861816406,-1.5218575636493128,0.006892052944749594,0.0008272860432043672,0.6743542551994324,0.0,-0.0,0.0,0.0,0.0,0.0
1782666174,354901628,-1.656414810811178,0.12960100173950195,-1.521893326436178,0.006892052944749594,0.0008153018425218761,0.6743901968002319,0.0,-0.0,0.0,0.0,0.0,0.0
1782666174,362940023,-1.6563904921161097,0.12963628768920898,-1.5218575636493128,0.006856100168079138,0.0008153018425218761,0.674318253993988,0.0,-0.0,0.0,0.0,0.0,0.0
1782666174,370951157,-1.656426731740133,0.1296844482421875,-1.5218694845782679,0.006880068685859442,0.0007789746159687638,0.6742942929267883,0.0,-0.0,0.0,0.0,0.0,0.0
1782666174,378924496,-1.6564386526690882,0.12963628768920898,-1.5218575636493128,0.00686808442696929,0.0008033175836317241,0.6743422150611877,0.0,-0.0,0.0,0.0,0.0,0.0
1782666174,386904316,-1.6564386526690882,0.12963628768920898,-1.5218575636493128,0.006892052944749594,0.0007789746159687638,0.6743422150611877,0.0,-0.0,0.0,0.0,0.0,0.0
1782666174,394938488,-1.6563904921161097,0.12966012954711914,-1.5218456427203577,0.006916021462529898,0.0007909588748589158,0.6743302345275879,0.0,-0.0,0.0,0.0,0.0,0.0
1782666174,403027252,-1.6564624945269983,0.12969636917114258,-1.5218694845782679,0.006856100168079138,0.0008392703020945191,0.6743062734603882,0.0,-0.0,0.0,0.0,0.0,0.0
1782666174,410934683,-1.6564386526690882,0.12966012954711914,-1.5218694845782679,0.006916021462529898,0.0008033175836317241,0.674318253993988,0.0,-0.0,0.0,0.0,0.0,0.0
1782666174,418929503,-1.6564386526690882,0.12963628768920898,-1.5218575636493128,0.006880068685859442,0.0007909588748589158,0.674318253993988,0.0,-0.0,0.0,0.0,0.0,0.0
1782666174,426947471,-1.6564386526690882,0.12961292266845703,-1.5218456427203577,0.006844115909188986,0.0008153018425218761,0.6743542551994324,0.0,-0.0,0.0,0.0,0.0,0.0
1782666174,434998939,-1.6564386526690882,0.12960100173950195,-1.521881405507223,0.006832132115960121,0.0008153018425218761,0.6743782162666321,0.0,-0.0,0.0,0.0,0.0,0.0
1782666174,442911481,-1.656426731740133,0.1296243667602539,-1.5218456427203577,0.006856100168079138,0.0007789746159687638,0.6743302345275879,0.0,-0.0,0.0,0.0,0.0,0.0
1782666174,450911560,-1.656414810811178,0.12969636917114258,-1.5218575636493128,0.006832132115960121,0.0007909588748589158,0.6743542551994324,0.0,-0.0,0.0,0.0,0.0,0.0
1782666174,458924880,-1.6564024130450647,0.12967252731323242,-1.5218456427203577,0.006880068685859442,0.0008033175836317241,0.6743302345275879,0.0,-0.0,0.0,0.0,0.0,0.0
1782666174,466966589,-1.6564024130450647,0.12969636917114258,-1.521905247365133,0.006904037203639746,0.0008153018425218761,0.6743542551994324,0.0,-0.0,0.0,0.0,0.0,0.0
1782666174,474936187,-1.656414810811178,0.12966012954711914,-1.521881405507223,0.00686808442696929,0.0008153018425218761,0.6743302345275879,0.0,-0.0,0.0,0.0,0.0,0.0
1782666174,482939748,-1.6564744154559534,0.12966012954711914,-1.5218575636493128,0.006892052944749594,0.0007669904152862728,0.6743542551994324,0.0,-0.0,0.0,0.0,0.0,0.0
1782666174,490904642,-1.6564624945269983,0.12966012954711914,-1.5218694845782679,0.006892052944749594,0.0008272860432043672,0.6743302345275879,0.0,-0.0,0.0,0.0,0.0,0.0
1782666174,498960054,-1.6564624945269983,0.12960100173950195,-1.5219176451312464,0.006880068685859442,0.0008153018425218761,0.6743302345275879,0.0,-0.0,0.0,0.0,0.0,0.0
1782666174,506943134,-1.656414810811178,0.1296243667602539,-1.521881405507223,0.006880068685859442,0.0008153018425218761,0.674318253993988,0.0,-0.0,0.0,0.0,0.0,0.0
1782666174,514918046,-1.6564386526690882,0.12964820861816406,-1.5218575636493128,0.006916021462529898,0.0008392703020945191,0.6743901968002319,0.0,-0.0,0.0,0.0,0.0,0.0
1782666174,522930755,-1.656426731740133,0.12964820861816406,-1.521905247365133,0.00692800572142005,0.0008392703020945191,0.6743302345275879,0.0,-0.0,0.0,0.0,0.0,0.0
1782666174,530962575,-1.6564386526690882,0.12964820861816406,-1.5218575636493128,0.006880068685859442,0.0008392703020945191,0.6743302345275879,0.0,-0.0,0.0,0.0,0.0,0.0
1782666174,538946043,-1.6564386526690882,0.12966012954711914,-1.5218575636493128,0.00686808442696929,0.0008272860432043672,0.674318253993988,0.0,-0.0,0.0,0.0,0.0,0.0
1782666174,546905122,-1.656426731740133,0.12963628768920898,-1.5218213240252894,0.006916021462529898,0.0008153018425218761,0.6743542551994324,0.0,-0.0,0.0,0.0,0.0,0.0
1782666174,554914683,-1.6564505735980433,0.1296243667602539,-1.5218456427203577,0.006844115909188986,0.0008033175836317241,0.6743542551994324,0.0,-0.0,0.0,0.0,0.0,0.0
1782666174,562991651,-1.6564505735980433,0.12964820861816406,-1.5218575636493128,0.006856100168079138,0.0007909588748589158,0.6743302345275879,0.0,-0.0,0.0,0.0,0.0,0.0
1782666174,570926878,-1.6563904921161097,0.12964820861816406,-1.5218694845782679,0.00686808442696929,0.0008153018425218761,0.674318253993988,0.0,-0.0,0.0,0.0,0.0,0.0
1782666174,578921365,-1.656414810811178,0.12964820861816406,-1.521881405507223,0.006892052944749594,0.0007789746159687638,0.6743901968002319,0.0,-0.0,0.0,0.0,0.0,0.0
1782666174,586929463,-1.656426731740133,0.12961292266845703,-1.5218694845782679,0.006892052944749594,0.0008272860432043672,0.6743302345275879,0.0,-0.0,0.0,0.0,0.0,0.0
1782666174,595033024,-1.6564624945269983,0.12964820861816406,-1.5218213240252894,0.006844115909188986,0.0008033175836317241,0.6743302345275879,0.0,-0.0,0.0,0.0,0.0,0.0
1782666174,602925454,-1.656426731740133,0.12961292266845703,-1.5218575636493128,0.006880068685859442,0.0007789746159687638,0.674318253993988,0.0,-0.0,0.0,0.0,0.0,0.0
1782666174,610913200,-1.6564024130450647,0.12967252731323242,-1.5218694845782679,0.006904037203639746,0.0007909588748589158,0.6743542551994324,0.0,-0.0,0.0,0.0,0.0,0.0
1782666174,618936946,-1.656426731740133,0.1296243667602539,-1.5218094030963343,0.006880068685859442,0.0008153018425218761,0.6742942929267883,0.0,-0.0,0.0,0.0,0.0,0.0
1782666174,627047637,-1.6564386526690882,0.12966012954711914,-1.521881405507223,0.006856100168079138,0.0007909588748589158,0.674318253993988,0.0,-0.0,0.0,0.0,0.0,0.0
1782666174,634931679,-1.6563904921161097,0.1296844482421875,-1.521893326436178,0.006856100168079138,0.0008153018425218761,0.6743542551994324,0.0,-0.0,0.0,0.0,0.0,0.0
1782666174,642926443,-1.656426731740133,0.1296243667602539,-1.5218575636493128,0.006892052944749594,0.0008153018425218761,0.674318253993988,0.0,-0.0,0.0,0.0,0.0,0.0
1782666174,650934504,-1.656426731740133,0.12966012954711914,-1.521881405507223,0.006832132115960121,0.0007789746159687638,0.6743302345275879,0.0,-0.0,0.0,0.0,0.0,0.0
1782666174,659001454,-1.6564386526690882,0.12961292266845703,-1.5218575636493128,0.006856100168079138,0.0008153018425218761,0.6743062734603882,0.0,-0.0,0.0,0.0,0.0,0.0
1782666174,666929829,-1.6564386526690882,0.12963628768920898,-1.521881405507223,0.006844115909188986,0.0007789746159687638,0.6742942929267883,0.0,-0.0,0.0,0.0,0.0,0.0
1782666174,674919371,-1.656426731740133,0.12964820861816406,-1.5218694845782679,0.006892052944749594,0.0007909588748589158,0.674318253993988,0.0,-0.0,0.0,0.0,0.0,0.0
1782666174,682939061,-1.656426731740133,0.12967252731323242,-1.5218337217914026,0.006808163598179817,0.0008033175836317241,0.6743662357330322,0.0,-0.0,0.0,0.0,0.0,0.0
1782666174,690979548,-1.6563904921161097,0.12963628768920898,-1.5219176451312464,0.006892052944749594,0.0007789746159687638,0.6743302345275879,0.0,-0.0,0.0,0.0,0.0,0.0
1782666174,698931127,-1.6564624945269983,0.12964820861816406,-1.5218456427203577,0.006880068685859442,0.0008392703020945191,0.6743542551994324,0.0,-0.0,0.0,0.0,0.0,0.0
1782666174,706940855,-1.656414810811178,0.1296243667602539,-1.5218456427203577,0.006856100168079138,0.0007789746159687638,0.6743302345275879,0.0,-0.0,0.0,0.0,0.0,0.0
1782666174,714899378,-1.6564386526690882,0.12964820861816406,-1.5219176451312464,0.006880068685859442,0.0008392703020945191,0.6743542551994324,0.0,-0.0,0.0,0.0,0.0,0.0
1782666174,722956717,-1.6564744154559534,0.12963628768920898,-1.521905247365133,0.006856100168079138,0.0008512545027770102,0.674318253993988,0.0,-0.0,0.0,0.0,0.0,0.0
1782666174,730939426,-1.6563904921161097,0.12967252731323242,-1.521893326436178,0.006856100168079138,0.0007909588748589158,0.6743782162666321,0.0,-0.0,0.0,0.0,0.0,0.0
1782666174,738915319,-1.656426731740133,0.1296243667602539,-1.5218456427203577,0.00686808442696929,0.0007669904152862728,0.6743542551994324,0.0,-0.0,0.0,0.0,0.0,0.0
1782666174,746924343,-1.6564024130450647,0.1296243667602539,-1.5218694845782679,0.00686808442696929,0.0008153018425218761,0.6743422150611877,0.0,-0.0,0.0,0.0,0.0,0.0
1782666174,754951034,-1.656426731740133,0.12961292266845703,-1.5218337217914026,0.006880068685859442,0.0007909588748589158,0.6743062734603882,0.0,-0.0,0.0,0.0,0.0,0.0
1782666174,762939465,-1.656426731740133,0.12963628768920898,-1.5218456427203577,0.00686808442696929,0.0007550062146037817,0.6743062734603882,0.0,-0.0,0.0,0.0,0.0,0.0
1782666174,770910229,-1.6564863363849085,0.1296243667602539,-1.5218575636493128,0.00686808442696929,0.0007909588748589158,0.6743782162666321,0.0,-0.0,0.0,0.0,0.0,0.0
1782666174,778922382,-1.656426731740133,0.12964820861816406,-1.5218094030963343,0.006856100168079138,0.0007909588748589158,0.674318253993988,0.0,-0.0,0.0,0.0,0.0,0.0
1782666174,786923943,-1.6564744154559534,0.12963628768920898,-1.5218694845782679,0.00686808442696929,0.0007430219557136297,0.6743782162666321,0.0,-0.0,0.0,0.0,0.0,0.0
1782666174,794920170,-1.6564624945269983,0.12966012954711914,-1.5218694845782679,0.006904037203639746,0.0008153018425218761,0.6743302345275879,0.0,-0.0,0.0,0.0,0.0,0.0
1782666174,802944509,-1.656426731740133,0.1296844482421875,-1.521893326436178,0.00692800572142005,0.0007789746159687638,0.6742942929267883,0.0,-0.0,0.0,0.0,0.0,0.0
1782666174,810954699,-1.656414810811178,0.12958860397338867,-1.521893326436178,0.006892052944749594,0.0008153018425218761,0.6743302345275879,0.0,-0.0,0.0,0.0,0.0,0.0
1782666174,818924315,-1.6563904921161097,0.12961292266845703,-1.521881405507223,0.00686808442696929,0.0008392703020945191,0.6743542551994324,0.0,-0.0,0.0,0.0,0.0,0.0
1782666174,827006765,-1.6564744154559534,0.12964820861816406,-1.521905247365133,0.006892052944749594,0.0007909588748589158,0.6743782162666321,0.0,-0.0,0.0,0.0,0.0,0.0
1782666174,834923103,-1.656426731740133,0.12966012954711914,-1.5218337217914026,0.006892052944749594,0.0007789746159687638,0.6743662357330322,0.0,-0.0,0.0,0.0,0.0,0.0
1782666174,842972238,-1.656414810811178,0.1296243667602539,-1.5219176451312464,0.006880068685859442,0.0008392703020945191,0.6743901968002319,0.0,-0.0,0.0,0.0,0.0,0.0
1782666174,850932873,-1.656414810811178,0.12960100173950195,-1.5218456427203577,0.006856100168079138,0.0008272860432043672,0.6743422150611877,0.0,-0.0,0.0,0.0,0.0,0.0
1782666174,858971434,-1.6564505735980433,0.12958860397338867,-1.521905247365133,0.006856100168079138,0.0008033175836317241,0.6743302345275879,0.0,-0.0,0.0,0.0,0.0,0.0
1782666174,866931791,-1.656414810811178,0.12961292266845703,-1.5218337217914026,0.00686808442696929,0.0008153018425218761,0.6743422150611877,0.0,-0.0,0.0,0.0,0.0,0.0
1782666174,874944259,-1.6564624945269983,0.12966012954711914,-1.5218456427203577,0.006880068685859442,0.0007789746159687638,0.6743542551994324,0.0,-0.0,0.0,0.0,0.0,0.0
1782666174,882903949,-1.6564386526690882,0.1296243667602539,-1.521881405507223,0.006880068685859442,0.0008033175836317241,0.6743422150611877,0.0,-0.0,0.0,0.0,0.0,0.0
1782666174,890959454,-1.656414810811178,0.1296243667602539,-1.5218213240252894,0.00686808442696929,0.0007789746159687638,0.6743062734603882,0.0,-0.0,0.0,0.0,0.0,0.0
1782666174,898932978,-1.6564744154559534,0.12966012954711914,-1.521881405507223,0.006832132115960121,0.0008272860432043672,0.6743901968002319,0.0,-0.0,0.0,0.0,0.0,0.0
1782666174,906922131,-1.6564505735980433,0.12967252731323242,-1.521881405507223,0.00692800572142005,0.0008512545027770102,0.6743062734603882,0.0,-0.0,0.0,0.0,0.0,0.0
1782666174,914924192,-1.6563780943499964,0.12969636917114258,-1.5219176451312464,0.006844115909188986,0.0008033175836317241,0.6743542551994324,0.0,-0.0,0.0,0.0,0.0,0.0
1782666174,922959808,-1.6564024130450647,0.1296844482421875,-1.5218694845782679,0.006844115909188986,0.0007909588748589158,0.6743542551994324,0.0,-0.0,0.0,0.0,0.0,0.0
1782666174,930938073,-1.6564024130450647,0.1296243667602539,-1.5218337217914026,0.006856100168079138,0.0008033175836317241,0.6743662357330322,0.0,-0.0,0.0,0.0,0.0,0.0
1782666174,938913837,-1.656426731740133,0.12967252731323242,-1.5218575636493128,0.006880068685859442,0.0008153018425218761,0.6743422150611877,0.0,-0.0,0.0,0.0,0.0,0.0
1782666174,946913194,-1.6564386526690882,0.12961292266845703,-1.5218575636493128,0.00686808442696929,0.0008033175836317241,0.6742942929267883,0.0,-0.0,0.0,0.0,0.0,0.0
1782666174,954928477,-1.6564505735980433,0.12966012954711914,-1.521893326436178,0.006820147857069969,0.0008512545027770102,0.6743422150611877,0.0,-0.0,0.0,0.0,0.0,0.0
1782666174,962920741,-1.656426731740133,0.12963628768920898,-1.5218575636493128,0.006880068685859442,0.0008153018425218761,0.6743062734603882,0.0,-0.0,0.0,0.0,0.0,0.0
1782666174,970913839,-1.6564386526690882,0.12961292266845703,-1.521893326436178,0.006880068685859442,0.0008512545027770102,0.6743422150611877,0.0,-0.0,0.0,0.0,0.0,0.0
1782666174,978920455,-1.6564024130450647,0.12966012954711914,-1.5218456427203577,0.006856100168079138,0.0008272860432043672,0.674318253993988,0.0,-0.0,0.0,0.0,0.0,0.0
1782666174,987024850,-1.6564505735980433,0.12963628768920898,-1.5218575636493128,0.006892052944749594,0.0008153018425218761,0.6743901968002319,0.0,-0.0,0.0,0.0,0.0,0.0
1782666174,994916484,-1.6564386526690882,0.12960100173950195,-1.521893326436178,0.006856100168079138,0.0008153018425218761,0.6743782162666321,0.0,-0.0,0.0,0.0,0.0,0.0
1782666175,2912693,-1.656414810811178,0.12963628768920898,-1.5218575636493128,0.00686808442696929,0.0008033175836317241,0.674318253993988,0.0,-0.0,0.0,0.0,0.0,0.0
1782666175,10950402,-1.6564624945269983,0.1296243667602539,-1.5218575636493128,0.006832132115960121,0.0008392703020945191,0.674318253993988,0.0,-0.0,0.0,0.0,0.0,0.0
1782666175,18940037,-1.656426731740133,0.12964820861816406,-1.5218213240252894,0.00686808442696929,0.0008153018425218761,0.674318253993988,0.0,-0.0,0.0,0.0,0.0,0.0
1782666175,26926375,-1.6564024130450647,0.1296243667602539,-1.5218456427203577,0.006832132115960121,0.0008153018425218761,0.674318253993988,0.0,-0.0,0.0,0.0,0.0,0.0
1782666175,34916528,-1.6564024130450647,0.12967252731323242,-1.521893326436178,0.006856100168079138,0.0008272860432043672,0.6743782162666321,0.0,-0.0,0.0,0.0,0.0,0.0
1782666175,42931071,-1.6564624945269983,0.12964820861816406,-1.5218575636493128,0.006892052944749594,0.0007909588748589158,0.6743302345275879,0.0,-0.0,0.0,0.0,0.0,0.0
1782666175,51005965,-1.6564624945269983,0.12958860397338867,-1.521881405507223,0.006916021462529898,0.0007669904152862728,0.6742942929267883,0.0,-0.0,0.0,0.0,0.0,0.0
1782666175,58914007,-1.656414810811178,0.1295766830444336,-1.5218694845782679,0.006880068685859442,0.0008392703020945191,0.6743782162666321,0.0,-0.0,0.0,0.0,0.0,0.0
1782666175,66920457,-1.6564624945269983,0.12966012954711914,-1.5218575636493128,0.006904037203639746,0.0008153018425218761,0.6743901968002319,0.0,-0.0,0.0,0.0,0.0,0.0
1782666175,74940999,-1.656414810811178,0.12966012954711914,-1.521881405507223,0.006892052944749594,0.0008153018425218761,0.6743542551994324,0.0,-0.0,0.0,0.0,0.0,0.0
1782666175,83031949,-1.6564386526690882,0.12960100173950195,-1.521881405507223,0.006880068685859442,0.0008033175836317241,0.6743302345275879,0.0,-0.0,0.0,0.0,0.0,0.0
1782666175,90933787,-1.6564624945269983,0.12964820861816406,-1.521881405507223,0.006856100168079138,0.0007789746159687638,0.6743302345275879,0.0,-0.0,0.0,0.0,0.0,0.0
1782666175,98943607,-1.6564744154559534,0.1296844482421875,-1.5218694845782679,0.006856100168079138,0.0007669904152862728,0.6743542551994324,0.0,-0.0,0.0,0.0,0.0,0.0
1782666175,106910686,-1.6564624945269983,0.12966012954711914,-1.521881405507223,0.00686808442696929,0.0007789746159687638,0.6743422150611877,0.0,-0.0,0.0,0.0,0.0,0.0
1782666175,114905451,-1.656414810811178,0.12963628768920898,-1.521893326436178,0.006856100168079138,0.0008153018425218761,0.6742942929267883,0.0,-0.0,0.0,0.0,0.0,0.0
1782666175,122924030,-1.656426731740133,0.12967252731323242,-1.5218694845782679,0.00686808442696929,0.0008272860432043672,0.6743302345275879,0.0,-0.0,0.0,0.0,0.0,0.0
1782666175,130909109,-1.6563904921161097,0.12963628768920898,-1.521881405507223,0.006892052944749594,0.0007789746159687638,0.6743302345275879,0.0,-0.0,0.0,0.0,0.0,0.0
1782666175,138934670,-1.6564386526690882,0.1296243667602539,-1.5218456427203577,0.00686808442696929,0.0008033175836317241,0.6743542551994324,0.0,-0.0,0.0,0.0,0.0,0.0
1782666175,147024787,-1.656414810811178,0.1296243667602539,-1.5218694845782679,0.006844115909188986,0.0008272860432043672,0.674318253993988,0.0,-0.0,0.0,0.0,0.0,0.0
1782666175,154939995,-1.6563780943499964,0.12964820861816406,-1.5218575636493128,0.006904037203639746,0.0007789746159687638,0.6743422150611877,0.0,-0.0,0.0,0.0,0.0,0.0
1782666175,162902908,-1.6564024130450647,0.1296243667602539,-1.5218694845782679,0.00686808442696929,0.0008392703020945191,0.6743662357330322,0.0,-0.0,0.0,0.0,0.0,0.0
1782666175,170917635,-1.6564505735980433,0.12963628768920898,-1.5218456427203577,0.006880068685859442,0.0008272860432043672,0.6743662357330322,0.0,-0.0,0.0,0.0,0.0,0.0
1782666175,178916474,-1.6564386526690882,0.12966012954711914,-1.5218694845782679,0.006856100168079138,0.0008512545027770102,0.6743662357330322,0.0,-0.0,0.0,0.0,0.0,0.0
1782666175,186924664,-1.656426731740133,0.12966012954711914,-1.5218694845782679,0.006880068685859442,0.0008153018425218761,0.6743422150611877,0.0,-0.0,0.0,0.0,0.0,0.0
1782666175,194912077,-1.6564744154559534,0.1296243667602539,-1.521905247365133,0.006892052944749594,0.0007669904152862728,0.6743542551994324,0.0,-0.0,0.0,0.0,0.0,0.0
1782666175,202909156,-1.656426731740133,0.1296844482421875,-1.5218213240252894,0.00686808442696929,0.0008392703020945191,0.6742942929267883,0.0,-0.0,0.0,0.0,0.0,0.0
1782666175,210914772,-1.6563904921161097,0.12961292266845703,-1.5218456427203577,0.00686808442696929,0.0008392703020945191,0.6743542551994324,0.0,-0.0,0.0,0.0,0.0,0.0
1782666175,218917907,-1.6564386526690882,0.1296243667602539,-1.5218213240252894,0.006880068685859442,0.0008153018425218761,0.6743422150611877,0.0,-0.0,0.0,0.0,0.0,0.0
1782666175,226925357,-1.656426731740133,0.1296243667602539,-1.5218456427203577,0.006832132115960121,0.0008392703020945191,0.6743901968002319,0.0,-0.0,0.0,0.0,0.0,0.0
1782666175,234914973,-1.6564024130450647,0.12964820861816406,-1.521905247365133,0.006880068685859442,0.0008272860432043672,0.674318253993988,0.0,-0.0,0.0,0.0,0.0,0.0
1782666175,242932015,-1.656414810811178,0.12964820861816406,-1.5218575636493128,0.006880068685859442,0.0008153018425218761,0.6743542551994324,0.0,-0.0,0.0,0.0,0.0,0.0
1782666175,251030503,-1.6564386526690882,0.12961292266845703,-1.5218456427203577,0.00686808442696929,0.0008392703020945191,0.6743302345275879,0.0,-0.0,0.0,0.0,0.0,0.0
1782666175,258953785,-1.6564386526690882,0.12964820861816406,-1.5218575636493128,0.006856100168079138,0.0008392703020945191,0.6743542551994324,0.0,-0.0,0.0,0.0,0.0,0.0
1782666175,266948994,-1.6564624945269983,0.12961292266845703,-1.5218337217914026,0.006832132115960121,0.0007789746159687638,0.6742942929267883,0.0,-0.0,0.0,0.0,0.0,0.0
1782666175,274929777,-1.656426731740133,0.12961292266845703,-1.521881405507223,0.006892052944749594,0.0007909588748589158,0.6743422150611877,0.0,-0.0,0.0,0.0,0.0,0.0
1782666175,282906523,-1.656426731740133,0.12960100173950195,-1.5218337217914026,0.006880068685859442,0.0007550062146037817,0.6742942929267883,0.0,-0.0,0.0,0.0,0.0,0.0
1782666175,290925509,-1.6564624945269983,0.1296243667602539,-1.5218694845782679,0.006904037203639746,0.0008272860432043672,0.6743542551994324,0.0,-0.0,0.0,0.0,0.0,0.0
1782666175,298918385,-1.656426731740133,0.12960100173950195,-1.5218575636493128,0.006904037203639746,0.0007669904152862728,0.6743782162666321,0.0,-0.0,0.0,0.0,0.0,0.0
1782666175,306926909,-1.6564024130450647,0.1296243667602539,-1.5218456427203577,0.00686808442696929,0.0007789746159687638,0.6742942929267883,0.0,-0.0,0.0,0.0,0.0,0.0
1782666175,314958636,-1.6564386526690882,0.12958860397338867,-1.5218694845782679,0.006832132115960121,0.0007909588748589158,0.6743662357330322,0.0,-0.0,0.0,0.0,0.0,0.0
1782666175,322942123,-1.6564024130450647,0.12958860397338867,-1.5218456427203577,0.00686808442696929,0.0008392703020945191,0.6743662357330322,0.0,-0.0,0.0,0.0,0.0,0.0
1782666175,330903720,-1.6564624945269983,0.12960100173950195,-1.5218694845782679,0.00686808442696929,0.0007909588748589158,0.674318253993988,0.0,-0.0,0.0,0.0,0.0,0.0
1782666175,338892874,-1.656414810811178,0.12966012954711914,-1.521881405507223,0.006820147857069969,0.0008392703020945191,0.6743302345275879,0.0,-0.0,0.0,0.0,0.0,0.0
1782666175,346977565,-1.6564505735980433,0.12966012954711914,-1.521881405507223,0.006856100168079138,0.0008512545027770102,0.6743062734603882,0.0,-0.0,0.0,0.0,0.0,0.0
1782666175,354921403,-1.6564386526690882,0.1296243667602539,-1.5218575636493128,0.00686808442696929,0.0008033175836317241,0.674318253993988,0.0,-0.0,0.0,0.0,0.0,0.0
1782666175,362923278,-1.6564505735980433,0.12958860397338867,-1.521893326436178,0.006892052944749594,0.0008033175836317241,0.6743901968002319,0.0,-0.0,0.0,0.0,0.0,0.0
1782666175,370936413,-1.656414810811178,0.12964820861816406,-1.5218456427203577,0.006856100168079138,0.0007789746159687638,0.6743422150611877,0.0,-0.0,0.0,0.0,0.0,0.0
1782666175,378933418,-1.6564024130450647,0.12960100173950195,-1.5218213240252894,0.006880068685859442,0.0008272860432043672,0.6743782162666321,0.0,-0.0,0.0,0.0,0.0,0.0
1782666175,386986017,-1.656426731740133,0.12961292266845703,-1.5218694845782679,0.006844115909188986,0.0008512545027770102,0.6743542551994324,0.0,-0.0,0.0,0.0,0.0,0.0
1782666175,394938651,-1.6563904921161097,0.12967252731323242,-1.521881405507223,0.006844115909188986,0.0008272860432043672,0.674318253993988,0.0,-0.0,0.0,0.0,0.0,0.0
1782666175,402973397,-1.6563780943499964,0.1296243667602539,-1.5218694845782679,0.006856100168079138,0.0008392703020945191,0.6743062734603882,0.0,-0.0,0.0,0.0,0.0,0.0
1782666175,411040977,-1.6564386526690882,0.12964820861816406,-1.521881405507223,0.006820147857069969,0.0007909588748589158,0.674318253993988,0.0,-0.0,0.0,0.0,0.0,0.0
1782666175,418944278,-1.6564024130450647,0.12961292266845703,-1.5218456427203577,0.006904037203639746,0.0008272860432043672,0.6743542551994324,0.0,-0.0,0.0,0.0,0.0,0.0
1782666175,426917116,-1.6564505735980433,0.12964820861816406,-1.5218575636493128,0.006916021462529898,0.0008153018425218761,0.674318253993988,0.0,-0.0,0.0,0.0,0.0,0.0
1782666175,434944547,-1.656426731740133,0.12958860397338867,-1.521881405507223,0.006844115909188986,0.0007550062146037817,0.6743302345275879,0.0,-0.0,0.0,0.0,0.0,0.0
1782666175,442954756,-1.656414810811178,0.12964820861816406,-1.5218694845782679,0.006844115909188986,0.0007789746159687638,0.674318253993988,0.0,-0.0,0.0,0.0,0.0,0.0
1782666175,450920521,-1.6564863363849085,0.12964820861816406,-1.5218694845782679,0.006832132115960121,0.0007909588748589158,0.6743542551994324,0.0,-0.0,0.0,0.0,0.0,0.0
1782666175,458920396,-1.656426731740133,0.1296243667602539,-1.521893326436178,0.006892052944749594,0.0008153018425218761,0.6743542551994324,0.0,-0.0,0.0,0.0,0.0,0.0
1782666175,467052069,-1.6564386526690882,0.1296844482421875,-1.521893326436178,0.006844115909188986,0.0008272860432043672,0.6744021773338318,0.0,-0.0,0.0,0.0,0.0,0.0
1782666175,475127482,-1.6564386526690882,0.12961292266845703,-1.521881405507223,0.006844115909188986,0.0008272860432043672,0.6743422150611877,0.0,-0.0,0.0,0.0,0.0,0.0
1782666175,482938171,-1.6564386526690882,0.1296243667602539,-1.5218694845782679,0.006844115909188986,0.0008033175836317241,0.6743302345275879,0.0,-0.0,0.0,0.0,0.0,0.0
1782666175,490935510,-1.656414810811178,0.12967252731323242,-1.521881405507223,0.006856100168079138,0.0008392703020945191,0.6742823123931885,0.0,-0.0,0.0,0.0,0.0,0.0
1782666175,498906533,-1.656426731740133,0.12963628768920898,-1.521881405507223,0.006880068685859442,0.0008153018425218761,0.6743782162666321,0.0,-0.0,0.0,0.0,0.0,0.0
1782666175,506967279,-1.6564386526690882,0.12967252731323242,-1.5218337217914026,0.00686808442696929,0.0007789746159687638,0.6743662357330322,0.0,-0.0,0.0,0.0,0.0,0.0
1782666175,514932451,-1.6564024130450647,0.12967252731323242,-1.5218694845782679,0.006856100168079138,0.0007789746159687638,0.6743302345275879,0.0,-0.0,0.0,0.0,0.0,0.0
1782666175,522911049,-1.656414810811178,0.1296243667602539,-1.5218694845782679,0.006832132115960121,0.0007789746159687638,0.6743422150611877,0.0,-0.0,0.0,0.0,0.0,0.0
1782666175,530920906,-1.656426731740133,0.12966012954711914,-1.521905247365133,0.006832132115960121,0.0007909588748589158,0.6743662357330322,0.0,-0.0,0.0,0.0,0.0,0.0
1782666175,538932800,-1.6564024130450647,0.12963628768920898,-1.521881405507223,0.00686808442696929,0.0008033175836317241,0.6743062734603882,0.0,-0.0,0.0,0.0,0.0,0.0
1782666175,546918064,-1.656414810811178,0.1296243667602539,-1.5218337217914026,0.006856100168079138,0.0008153018425218761,0.6743302345275879,0.0,-0.0,0.0,0.0,0.0,0.0
1782666175,554912792,-1.6563904921161097,0.1296243667602539,-1.5218694845782679,0.006856100168079138,0.0008153018425218761,0.6743662357330322,0.0,-0.0,0.0,0.0,0.0,0.0
1782666175,562926742,-1.6564386526690882,0.12963628768920898,-1.5218575636493128,0.006856100168079138,0.0007669904152862728,0.6743782162666321,0.0,-0.0,0.0,0.0,0.0,0.0
1782666175,570965951,-1.6564624945269983,0.12963628768920898,-1.5218337217914026,0.00686808442696929,0.0007909588748589158,0.6743302345275879,0.0,-0.0,0.0,0.0,0.0,0.0
1782666175,578939159,-1.6564505735980433,0.1296243667602539,-1.521905247365133,0.006904037203639746,0.0007909588748589158,0.6743302345275879,0.0,-0.0,0.0,0.0,0.0,0.0
1782666175,586996776,-1.656426731740133,0.12961292266845703,-1.521905247365133,0.006880068685859442,0.0008033175836317241,0.6743662357330322,0.0,-0.0,0.0,0.0,0.0,0.0
1782666175,594934281,-1.6564505735980433,0.1296243667602539,-1.521881405507223,0.006880068685859442,0.0007669904152862728,0.6743542551994324,0.0,-0.0,0.0,0.0,0.0,0.0
1782666175,602951860,-1.6564386526690882,0.1296243667602539,-1.5218337217914026,0.006880068685859442,0.0007909588748589158,0.6743542551994324,0.0,-0.0,0.0,0.0,0.0,0.0
1782666175,610913773,-1.656426731740133,0.12967252731323242,-1.5218694845782679,0.006856100168079138,0.0008153018425218761,0.674318253993988,0.0,-0.0,0.0,0.0,0.0,0.0
1782666175,618926556,-1.656426731740133,0.12966012954711914,-1.5218575636493128,0.006844115909188986,0.0008153018425218761,0.6743542551994324,0.0,-0.0,0.0,0.0,0.0,0.0
1782666175,626928042,-1.656414810811178,0.12966012954711914,-1.5218575636493128,0.006880068685859442,0.0007789746159687638,0.6743302345275879,0.0,-0.0,0.0,0.0,0.0,0.0
1782666175,634934622,-1.6564386526690882,0.12963628768920898,-1.5218094030963343,0.006832132115960121,0.0007909588748589158,0.6743302345275879,0.0,-0.0,0.0,0.0,0.0,0.0
1782666175,642928145,-1.6564386526690882,0.12966012954711914,-1.521881405507223,0.006844115909188986,0.0008392703020945191,0.6743062734603882,0.0,-0.0,0.0,0.0,0.0,0.0
1782666175,650921651,-1.6564024130450647,0.12967252731323242,-1.5218575636493128,0.006892052944749594,0.0008153018425218761,0.674318253993988,0.0,-0.0,0.0,0.0,0.0,0.0
1782666175,658945619,-1.6564624945269983,0.12960100173950195,-1.521881405507223,0.006856100168079138,0.0007909588748589158,0.6743542551994324,0.0,-0.0,0.0,0.0,0.0,0.0
1782666175,667000476,-1.656426731740133,0.12967252731323242,-1.5218575636493128,0.006856100168079138,0.0008392703020945191,0.6743422150611877,0.0,-0.0,0.0,0.0,0.0,0.0
1782666175,674921148,-1.6564624945269983,0.12966012954711914,-1.521893326436178,0.006820147857069969,0.0008033175836317241,0.6743302345275879,0.0,-0.0,0.0,0.0,0.0,0.0
1782666175,682920208,-1.6564744154559534,0.1296243667602539,-1.521893326436178,0.00686808442696929,0.0008033175836317241,0.6743062734603882,0.0,-0.0,0.0,0.0,0.0,0.0
1782666175,690926454,-1.6564024130450647,0.12964820861816406,-1.5218456427203577,0.006844115909188986,0.0007669904152862728,0.674318253993988,0.0,-0.0,0.0,0.0,0.0,0.0
1782666175,698940534,-1.6564624945269983,0.12966012954711914,-1.5218694845782679,0.006844115909188986,0.0008272860432043672,0.6743422150611877,0.0,-0.0,0.0,0.0,0.0,0.0
1782666175,706926094,-1.6564744154559534,0.12963628768920898,-1.5218694845782679,0.006832132115960121,0.0008033175836317241,0.6743302345275879,0.0,-0.0,0.0,0.0,0.0,0.0
1782666175,714945266,-1.656414810811178,0.12964820861816406,-1.5219176451312464,0.006904037203639746,0.0008632387034595013,0.6743542551994324,0.0,-0.0,0.0,0.0,0.0,0.0
1782666175,722908827,-1.6563780943499964,0.12964820861816406,-1.5218337217914026,0.006892052944749594,0.0008033175836317241,0.6743542551994324,0.0,-0.0,0.0,0.0,0.0,0.0
1782666175,730937221,-1.6564624945269983,0.1296243667602539,-1.521905247365133,0.006880068685859442,0.0008392703020945191,0.674318253993988,0.0,-0.0,0.0,0.0,0.0,0.0
1782666175,738978152,-1.656414810811178,0.1296243667602539,-1.5218575636493128,0.006880068685859442,0.0007909588748589158,0.6743422150611877,0.0,-0.0,0.0,0.0,0.0,0.0
1782666175,746938120,-1.6564505735980433,0.1296844482421875,-1.5218213240252894,0.00686808442696929,0.0008033175836317241,0.6743782162666321,0.0,-0.0,0.0,0.0,0.0,0.0
1782666175,754933292,-1.656414810811178,0.12963628768920898,-1.5218575636493128,0.006904037203639746,0.0007909588748589158,0.674318253993988,0.0,-0.0,0.0,0.0,0.0,0.0
1782666175,762972853,-1.6563542524920862,0.1296844482421875,-1.5218456427203577,0.00686808442696929,0.0007909588748589158,0.6742823123931885,0.0,-0.0,0.0,0.0,0.0,0.0
1782666175,771053081,-1.6564024130450647,0.12967252731323242,-1.5219295660602015,0.006892052944749594,0.0008272860432043672,0.6743422150611877,0.0,-0.0,0.0,0.0,0.0,0.0
1782666175,778917956,-1.656426731740133,0.12966012954711914,-1.5218694845782679,0.006844115909188986,0.0008272860432043672,0.6743782162666321,0.0,-0.0,0.0,0.0,0.0,0.0
1782666175,786911609,-1.6564386526690882,0.12967252731323242,-1.5218575636493128,0.00686808442696929,0.0007909588748589158,0.6743782162666321,0.0,-0.0,0.0,0.0,0.0,0.0
1782666175,794941226,-1.656426731740133,0.12964820861816406,-1.521905247365133,0.006880068685859442,0.0007789746159687638,0.6743542551994324,0.0,-0.0,0.0,0.0,0.0,0.0
1782666175,802975527,-1.6564624945269983,0.12958860397338867,-1.5218575636493128,0.006844115909188986,0.0008272860432043672,0.6743422150611877,0.0,-0.0,0.0,0.0,0.0,0.0
1782666175,810949384,-1.6564624945269983,0.12961292266845703,-1.5218337217914026,0.006892052944749594,0.0007909588748589158,0.6743422150611877,0.0,-0.0,0.0,0.0,0.0,0.0
1782666175,818913019,-1.656414810811178,0.12964820861816406,-1.521881405507223,0.006939989980310202,0.0007909588748589158,0.674318253993988,0.0,-0.0,0.0,0.0,0.0,0.0
1782666175,826929098,-1.656426731740133,0.12966012954711914,-1.5218575636493128,0.00686808442696929,0.0008272860432043672,0.6743422150611877,0.0,-0.0,0.0,0.0,0.0,0.0
1782666175,834958418,-1.656426731740133,0.1296243667602539,-1.521881405507223,0.006880068685859442,0.0008272860432043672,0.6743782162666321,0.0,-0.0,0.0,0.0,0.0,0.0
1782666175,842919794,-1.6563904921161097,0.12963628768920898,-1.5218694845782679,0.006904037203639746,0.0007909588748589158,0.674318253993988,0.0,-0.0,0.0,0.0,0.0,0.0
1782666175,850931021,-1.656426731740133,0.1296844482421875,-1.5218694845782679,0.006892052944749594,0.0008033175836317241,0.674318253993988,0.0,-0.0,0.0,0.0,0.0,0.0
1782666175,858932082,-1.6564624945269983,0.1296243667602539,-1.5218575636493128,0.006880068685859442,0.0008153018425218761,0.6743542551994324,0.0,-0.0,0.0,0.0,0.0,0.0
1782666175,867042662,-1.6564624945269983,0.1296243667602539,-1.5218094030963343,0.006916021462529898,0.0007909588748589158,0.6743662357330322,0.0,-0.0,0.0,0.0,0.0,0.0
1782666175,874933426,-1.656414810811178,0.12961292266845703,-1.5218694845782679,0.006844115909188986,0.0007909588748589158,0.674318253993988,0.0,-0.0,0.0,0.0,0.0,0.0
1782666175,882936005,-1.6564505735980433,0.1296243667602539,-1.521881405507223,0.006880068685859442,0.0007909588748589158,0.674318253993988,0.0,-0.0,0.0,0.0,0.0,0.0
1782666175,890899621,-1.6564386526690882,0.1296243667602539,-1.5218575636493128,0.006832132115960121,0.0008153018425218761,0.6743662357330322,0.0,-0.0,0.0,0.0,0.0,0.0
1782666175,898963756,-1.656426731740133,0.12963628768920898,-1.521893326436178,0.00686808442696929,0.0008392703020945191,0.674318253993988,0.0,-0.0,0.0,0.0,0.0,0.0
1782666175,906936946,-1.656414810811178,0.12964820861816406,-1.5218456427203577,0.006856100168079138,0.0008033175836317241,0.6742942929267883,0.0,-0.0,0.0,0.0,0.0,0.0
1782666175,914919044,-1.6564744154559534,0.12964820861816406,-1.5218094030963343,0.006820147857069969,0.0008272860432043672,0.6743302345275879,0.0,-0.0,0.0,0.0,0.0,0.0
1782666175,922935790,-1.6563780943499964,0.12963628768920898,-1.5218694845782679,0.006880068685859442,0.0008392703020945191,0.6743302345275879,0.0,-0.0,0.0,0.0,0.0,0.0
1782666175,931030814,-1.656426731740133,0.12963628768920898,-1.5218456427203577,0.006856100168079138,0.0007550062146037817,0.6743782162666321,0.0,-0.0,0.0,0.0,0.0,0.0
1782666175,938944004,-1.6564505735980433,0.1296243667602539,-1.5218694845782679,0.006856100168079138,0.0007909588748589158,0.6743542551994324,0.0,-0.0,0.0,0.0,0.0,0.0
1782666175,946901583,-1.6564744154559534,0.12964820861816406,-1.521893326436178,0.006844115909188986,0.0007789746159687638,0.6743422150611877,0.0,-0.0,0.0,0.0,0.0,0.0
1782666175,954953996,-1.656426731740133,0.12963628768920898,-1.521893326436178,0.006856100168079138,0.0008153018425218761,0.6743422150611877,0.0,-0.0,0.0,0.0,0.0,0.0
1782666175,962934798,-1.656426731740133,0.12966012954711914,-1.521881405507223,0.00686808442696929,0.0008153018425218761,0.6743422150611877,0.0,-0.0,0.0,0.0,0.0,0.0
1782666175,970938988,-1.656426731740133,0.12963628768920898,-1.5218694845782679,0.00686808442696929,0.0008272860432043672,0.6743422150611877,0.0,-0.0,0.0,0.0,0.0,0.0
1782666175,978931715,-1.6564024130450647,0.1296243667602539,-1.5218213240252894,0.006832132115960121,0.0008392703020945191,0.674318253993988,0.0,-0.0,0.0,0.0,0.0,0.0
1782666175,986939017,-1.6564386526690882,0.12964820861816406,-1.5218575636493128,0.006844115909188986,0.0008153018425218761,0.6743422150611877,0.0,-0.0,0.0,0.0,0.0,0.0
1782666175,994953226,-1.6564744154559534,0.1296243667602539,-1.5218094030963343,0.006820147857069969,0.0008272860432043672,0.6743302345275879,0.0,-0.0,0.0,0.0,0.0,0.0
1782666176,2924212,-1.6564024130450647,0.12969636917114258,-1.521881405507223,0.006844115909188986,0.0008033175836317241,0.6743422150611877,0.0,-0.0,0.0,0.0,0.0,0.0
1782666176,10910699,-1.6564386526690882,0.12960100173950195,-1.521893326436178,0.006892052944749594,0.0008392703020945191,0.674318253993988,0.0,-0.0,0.0,0.0,0.0,0.0
1782666176,18927260,-1.6564024130450647,0.12963628768920898,-1.5218213240252894,0.006916021462529898,0.0008153018425218761,0.6743302345275879,0.0,-0.0,0.0,0.0,0.0,0.0
1782666176,26940969,-1.6564505735980433,0.12964820861816406,-1.5218337217914026,0.006880068685859442,0.0008033175836317241,0.6743422150611877,0.0,-0.0,0.0,0.0,0.0,0.0
1782666176,35011197,-1.6564386526690882,0.12967252731323242,-1.5218575636493128,0.006844115909188986,0.0008272860432043672,0.6743542551994324,0.0,-0.0,0.0,0.0,0.0,0.0
1782666176,42920090,-1.656414810811178,0.12963628768920898,-1.5218694845782679,0.006856100168079138,0.0008033175836317241,0.6743422150611877,0.0,-0.0,0.0,0.0,0.0,0.0
1782666176,50931596,-1.6564386526690882,0.12963628768920898,-1.521881405507223,0.006916021462529898,0.0007669904152862728,0.6743542551994324,0.0,-0.0,0.0,0.0,0.0,0.0
1782666176,58901971,-1.656414810811178,0.1296243667602539,-1.521905247365133,0.006880068685859442,0.0008272860432043672,0.6743302345275879,0.0,-0.0,0.0,0.0,0.0,0.0
1782666176,66959143,-1.656426731740133,0.12961292266845703,-1.5218575636493128,0.006892052944749594,0.0008272860432043672,0.6742942929267883,0.0,-0.0,0.0,0.0,0.0,0.0
1782666176,74936463,-1.6564744154559534,0.12963628768920898,-1.521893326436178,0.006892052944749594,0.0008153018425218761,0.6743782162666321,0.0,-0.0,0.0,0.0,0.0,0.0
1782666176,82909709,-1.6564386526690882,0.12966012954711914,-1.5218575636493128,0.006880068685859442,0.0007909588748589158,0.674318253993988,0.0,-0.0,0.0,0.0,0.0,0.0
1782666176,90937418,-1.6564505735980433,0.12966012954711914,-1.5218694845782679,0.006880068685859442,0.0008153018425218761,0.6743422150611877,0.0,-0.0,0.0,0.0,0.0,0.0
1782666176,99056665,-1.6564024130450647,0.12964820861816406,-1.5219176451312464,0.006844115909188986,0.0008392703020945191,0.6743542551994324,0.0,-0.0,0.0,0.0,0.0,0.0
1782666176,106931725,-1.6564744154559534,0.12964820861816406,-1.521881405507223,0.006844115909188986,0.0008272860432043672,0.6743062734603882,0.0,-0.0,0.0,0.0,0.0,0.0
1782666176,114904119,-1.656414810811178,0.12960100173950195,-1.5218694845782679,0.006856100168079138,0.0007669904152862728,0.6743062734603882,0.0,-0.0,0.0,0.0,0.0,0.0
1782666176,122921439,-1.6563780943499964,0.12967252731323242,-1.5218575636493128,0.006880068685859442,0.0007909588748589158,0.6743542551994324,0.0,-0.0,0.0,0.0,0.0,0.0
1782666176,131007760,-1.6564386526690882,0.12963628768920898,-1.5218694845782679,0.006832132115960121,0.0008272860432043672,0.6743782162666321,0.0,-0.0,0.0,0.0,0.0,0.0
1782666176,138931690,-1.656426731740133,0.1296243667602539,-1.521881405507223,0.006916021462529898,0.0008272860432043672,0.674318253993988,0.0,-0.0,0.0,0.0,0.0,0.0
1782666176,146914270,-1.6564386526690882,0.12963628768920898,-1.5219176451312464,0.006880068685859442,0.0007669904152862728,0.674318253993988,0.0,-0.0,0.0,0.0,0.0,0.0
1782666176,154936886,-1.6564505735980433,0.12966012954711914,-1.5218213240252894,0.006832132115960121,0.0008392703020945191,0.674318253993988,0.0,-0.0,0.0,0.0,0.0,0.0
1782666176,162958336,-1.656414810811178,0.12964820861816406,-1.5218456427203577,0.006844115909188986,0.0008272860432043672,0.6743542551994324,0.0,-0.0,0.0,0.0,0.0,0.0
1782666176,170916934,-1.6564024130450647,0.12963628768920898,-1.5218694845782679,0.006880068685859442,0.0008033175836317241,0.6743782162666321,0.0,-0.0,0.0,0.0,0.0,0.0
1782666176,179186996,-1.656426731740133,0.12966012954711914,-1.521881405507223,0.006904037203639746,0.0007669904152862728,0.6743422150611877,0.0,-0.0,0.0,0.0,0.0,0.0
1782666176,186929592,-1.6564386526690882,0.12966012954711914,-1.5218694845782679,0.006904037203639746,0.0008153018425218761,0.6743302345275879,0.0,-0.0,0.0,0.0,0.0,0.0
1782666176,194995042,-1.6563780943499964,0.12961292266845703,-1.5218575636493128,0.006856100168079138,0.0007909588748589158,0.6743302345275879,0.0,-0.0,0.0,0.0,0.0,0.0
1782666176,202938807,-1.6563904921161097,0.12964820861816406,-1.521893326436178,0.006904037203639746,0.0008033175836317241,0.6743422150611877,0.0,-0.0,0.0,0.0,0.0,0.0
1782666176,210918515,-1.6564505735980433,0.12964820861816406,-1.521881405507223,0.006892052944749594,0.0007909588748589158,0.6743542551994324,0.0,-0.0,0.0,0.0,0.0,0.0
1782666176,218928428,-1.6564024130450647,0.12967252731323242,-1.5218694845782679,0.00686808442696929,0.0008272860432043672,0.6743302345275879,0.0,-0.0,0.0,0.0,0.0,0.0
1782666176,226999767,-1.6564386526690882,0.12964820861816406,-1.521893326436178,0.006892052944749594,0.0008392703020945191,0.6743542551994324,0.0,-0.0,0.0,0.0,0.0,0.0
1782666176,234914161,-1.6564505735980433,0.12961292266845703,-1.521905247365133,0.00692800572142005,0.0008272860432043672,0.674318253993988,0.0,-0.0,0.0,0.0,0.0,0.0
1782666176,242932648,-1.656426731740133,0.1296243667602539,-1.521905247365133,0.006892052944749594,0.0008033175836317241,0.6743422150611877,0.0,-0.0,0.0,0.0,0.0,0.0
1782666176,250927394,-1.6563780943499964,0.12963628768920898,-1.5218456427203577,0.006820147857069969,0.0008033175836317241,0.6743302345275879,0.0,-0.0,0.0,0.0,0.0,0.0
1782666176,259035066,-1.6564024130450647,0.12963628768920898,-1.5219176451312464,0.00686808442696929,0.0007909588748589158,0.6743542551994324,0.0,-0.0,0.0,0.0,0.0,0.0
1782666176,266972367,-1.656414810811178,0.1296844482421875,-1.5218456427203577,0.006880068685859442,0.0008153018425218761,0.6743542551994324,0.0,-0.0,0.0,0.0,0.0,0.0
1782666176,274930483,-1.656414810811178,0.12961292266845703,-1.5218575636493128,0.006880068685859442,0.0007909588748589158,0.6743302345275879,0.0,-0.0,0.0,0.0,0.0,0.0
1782666176,282913655,-1.6564505735980433,0.12961292266845703,-1.5218456427203577,0.006892052944749594,0.0007909588748589158,0.6743542551994324,0.0,-0.0,0.0,0.0,0.0,0.0
1782666176,290972235,-1.6564386526690882,0.1296243667602539,-1.5218456427203577,0.006844115909188986,0.0008272860432043672,0.6743662357330322,0.0,-0.0,0.0,0.0,0.0,0.0
1782666176,298927610,-1.6564987341510218,0.12960100173950195,-1.5219176451312464,0.006892052944749594,0.0008272860432043672,0.6743782162666321,0.0,-0.0,0.0,0.0,0.0,0.0
1782666176,306916838,-1.6564744154559534,0.12961292266845703,-1.5218694845782679,0.006880068685859442,0.0008153018425218761,0.6743062734603882,0.0,-0.0,0.0,0.0,0.0,0.0
1782666176,314962991,-1.6564386526690882,0.12961292266845703,-1.521881405507223,0.006892052944749594,0.0008392703020945191,0.6743542551994324,0.0,-0.0,0.0,0.0,0.0,0.0
1782666176,323039127,-1.6563780943499964,0.12960100173950195,-1.5218575636493128,0.006832132115960121,0.0008033175836317241,0.6743422150611877,0.0,-0.0,0.0,0.0,0.0,0.0
1782666176,330950631,-1.656426731740133,0.12958860397338867,-1.521893326436178,0.006856100168079138,0.0008153018425218761,0.6743542551994324,0.0,-0.0,0.0,0.0,0.0,0.0
1782666176,338984729,-1.6564505735980433,0.1296243667602539,-1.5218694845782679,0.006832132115960121,0.0007909588748589158,0.6743422150611877,0.0,-0.0,0.0,0.0,0.0,0.0
1782666176,346915623,-1.6564386526690882,0.12967252731323242,-1.5218456427203577,0.00686808442696929,0.0008153018425218761,0.6743542551994324,0.0,-0.0,0.0,0.0,0.0,0.0
1782666176,355048592,-1.656414810811178,0.12964820861816406,-1.521881405507223,0.006808163598179817,0.0008153018425218761,0.6743782162666321,0.0,-0.0,0.0,0.0,0.0,0.0
1782666176,362934819,-1.656426731740133,0.12961292266845703,-1.521881405507223,0.006892052944749594,0.0008392703020945191,0.6743542551994324,0.0,-0.0,0.0,0.0,0.0,0.0
1782666176,370915139,-1.6564505735980433,0.12967252731323242,-1.521893326436178,0.00686808442696929,0.0008272860432043672,0.6743422150611877,0.0,-0.0,0.0,0.0,0.0,0.0
1782666176,378945570,-1.656414810811178,0.12963628768920898,-1.521881405507223,0.006880068685859442,0.0008153018425218761,0.6743662357330322,0.0,-0.0,0.0,0.0,0.0,0.0
1782666176,387041113,-1.6564505735980433,0.12964820861816406,-1.5218694845782679,0.006856100168079138,0.0008272860432043672,0.6743422150611877,0.0,-0.0,0.0,0.0,0.0,0.0
1782666176,394934358,-1.656414810811178,0.12967252731323242,-1.5218337217914026,0.006904037203639746,0.0008033175836317241,0.6743422150611877,0.0,-0.0,0.0,0.0,0.0,0.0
1782666176,402911215,-1.6564386526690882,0.12964820861816406,-1.5218575636493128,0.006880068685859442,0.0007909588748589158,0.6743302345275879,0.0,-0.0,0.0,0.0,0.0,0.0
1782666176,410951813,-1.6563904921161097,0.1296243667602539,-1.5218213240252894,0.006892052944749594,0.0008033175836317241,0.6743662357330322,0.0,-0.0,0.0,0.0,0.0,0.0
1782666176,419048190,-1.6564024130450647,0.1296243667602539,-1.5218575636493128,0.006844115909188986,0.0008153018425218761,0.674318253993988,0.0,-0.0,0.0,0.0,0.0,0.0
1782666176,426937009,-1.6564386526690882,0.12966012954711914,-1.5218694845782679,0.006856100168079138,0.0008512545027770102,0.6742823123931885,0.0,-0.0,0.0,0.0,0.0,0.0
1782666176,434925607,-1.656426731740133,0.12966012954711914,-1.5218694845782679,0.006892052944749594,0.0007789746159687638,0.674318253993988,0.0,-0.0,0.0,0.0,0.0,0.0
1782666176,442925538,-1.6564386526690882,0.12960100173950195,-1.521893326436178,0.00686808442696929,0.0008392703020945191,0.6743302345275879,0.0,-0.0,0.0,0.0,0.0,0.0
1782666176,450918191,-1.656414810811178,0.12966012954711914,-1.5218575636493128,0.006904037203639746,0.0008153018425218761,0.6743302345275879,0.0,-0.0,0.0,0.0,0.0,0.0
1782666176,458917400,-1.6564386526690882,0.12966012954711914,-1.521881405507223,0.006832132115960121,0.0008392703020945191,0.6743302345275879,0.0,-0.0,0.0,0.0,0.0,0.0
1782666176,466913387,-1.6564386526690882,0.12966012954711914,-1.521881405507223,0.006856100168079138,0.0007550062146037817,0.6743662357330322,0.0,-0.0,0.0,0.0,0.0,0.0
1782666176,474935115,-1.656426731740133,0.12967252731323242,-1.5218694845782679,0.006892052944749594,0.0007550062146037817,0.6743542551994324,0.0,-0.0,0.0,0.0,0.0,0.0
1782666176,482935620,-1.6564024130450647,0.12963628768920898,-1.5218337217914026,0.00686808442696929,0.0008033175836317241,0.674318253993988,0.0,-0.0,0.0,0.0,0.0,0.0
1782666176,490918144,-1.6564386526690882,0.12958860397338867,-1.5218694845782679,0.006856100168079138,0.0008033175836317241,0.6743782162666321,0.0,-0.0,0.0,0.0,0.0,0.0
1782666176,498928464,-1.6564024130450647,0.12961292266845703,-1.5218694845782679,0.006939989980310202,0.0008632387034595013,0.6743062734603882,0.0,-0.0,0.0,0.0,0.0,0.0
1782666176,506909339,-1.6564624945269983,0.12961292266845703,-1.521905247365133,0.006892052944749594,0.0007789746159687638,0.6743422150611877,0.0,-0.0,0.0,0.0,0.0,0.0
1782666176,514967363,-1.6564624945269983,0.12966012954711914,-1.521893326436178,0.00686808442696929,0.0007789746159687638,0.674318253993988,0.0,-0.0,0.0,0.0,0.0,0.0
1782666176,522931368,-1.656414810811178,0.1296243667602539,-1.521881405507223,0.00686808442696929,0.0008512545027770102,0.6742942929267883,0.0,-0.0,0.0,0.0,0.0,0.0
1782666176,530915410,-1.6564505735980433,0.12961292266845703,-1.5218456427203577,0.006892052944749594,0.0007430219557136297,0.6743422150611877,0.0,-0.0,0.0,0.0,0.0,0.0
1782666176,538930731,-1.6564505735980433,0.12964820861816406,-1.521893326436178,0.006844115909188986,0.0007789746159687638,0.6743542551994324,0.0,-0.0,0.0,0.0,0.0,0.0
1782666176,546957106,-1.656414810811178,0.12966012954711914,-1.5218213240252894,0.006832132115960121,0.0007789746159687638,0.674318253993988,0.0,-0.0,0.0,0.0,0.0,0.0
1782666176,554952908,-1.656426731740133,0.12964820861816406,-1.5218575636493128,0.006880068685859442,0.0008392703020945191,0.6743782162666321,0.0,-0.0,0.0,0.0,0.0,0.0
1782666176,562910894,-1.6564505735980433,0.12958860397338867,-1.521881405507223,0.006880068685859442,0.0007909588748589158,0.6743782162666321,0.0,-0.0,0.0,0.0,0.0,0.0
1782666176,570917918,-1.6564624945269983,0.12963628768920898,-1.521893326436178,0.00686808442696929,0.0007789746159687638,0.6743542551994324,0.0,-0.0,0.0,0.0,0.0,0.0
1782666176,578997442,-1.656426731740133,0.12966012954711914,-1.5218575636493128,0.006892052944749594,0.0008153018425218761,0.6744021773338318,0.0,-0.0,0.0,0.0,0.0,0.0
1782666176,586929836,-1.6564386526690882,0.12964820861816406,-1.5218456427203577,0.00686808442696929,0.0007909588748589158,0.674318253993988,0.0,-0.0,0.0,0.0,0.0,0.0
1782666176,594915434,-1.656426731740133,0.12963628768920898,-1.5218694845782679,0.00686808442696929,0.0008392703020945191,0.6743901968002319,0.0,-0.0,0.0,0.0,0.0,0.0
1782666176,602940532,-1.6564386526690882,0.12960100173950195,-1.5218694845782679,0.006856100168079138,0.0007909588748589158,0.6743542551994324,0.0,-0.0,0.0,0.0,0.0,0.0
1782666176,611038612,-1.6563904921161097,0.12964820861816406,-1.521881405507223,0.006916021462529898,0.0007909588748589158,0.6743422150611877,0.0,-0.0,0.0,0.0,0.0,0.0
1782666176,618914876,-1.6564386526690882,0.12961292266845703,-1.5218694845782679,0.006856100168079138,0.0007909588748589158,0.6743422150611877,0.0,-0.0,0.0,0.0,0.0,0.0
1782666176,626906325,-1.656426731740133,0.12966012954711914,-1.521881405507223,0.006904037203639746,0.0007909588748589158,0.6743302345275879,0.0,-0.0,0.0,0.0,0.0,0.0
