LukePepin/On-Edge/deceleration_data_1782665454.csv
timestamp_sec,timestamp_nanosec,shoulder_pan_pos,shoulder_lift_pos,elbow_pos,wrist_1_pos,wrist_2_pos,wrist_3_pos,shoulder_pan_vel,shoulder_lift_vel,elbow_vel,wrist_1_vel,wrist_2_vel,wrist_3_vel
1782665455,85750801,-1.656330410634176,0.12960100173950195,-1.521881405507223,0.006844115909188986,0.0008153018425218761,0.6743302345275879,0.0,-0.0,0.0,0.0,0.0,0.0
1782665455,93749035,-1.656306568776266,0.12955284118652344,-1.521905247365133,0.006916021462529898,0.0007669904152862728,0.6743662357330322,0.0,-0.0,0.0,0.0,0.0,0.0
1782665455,101744899,-1.6563661734210413,0.12956476211547852,-1.5218456427203577,0.00692800572142005,0.0008392703020945191,0.6744261384010315,0.0,-0.0,0.0,0.0,0.0,0.0
1782665455,109812504,-1.6563542524920862,0.1295766830444336,-1.521881405507223,0.006904037203639746,0.0008512545027770102,0.6743422150611877,0.0,-0.0,0.0,0.0,0.0,0.0
1782665455,117763201,-1.6562941710101526,0.12956476211547852,-1.5218213240252894,0.006916021462529898,0.0007669904152862728,0.674318253993988,0.0,-0.0,0.0,0.0,0.0,0.0
1782665455,125747491,-1.656306568776266,0.12956476211547852,-1.5218575636493128,0.006892052944749594,0.0007909588748589158,0.6743662357330322,0.0,-0.0,0.0,0.0,0.0,0.0
1782665455,133779485,-1.6563423315631312,0.1295766830444336,-1.5218456427203577,0.006880068685859442,0.0008272860432043672,0.6743662357330322,0.0,-0.0,0.0,0.0,0.0,0.0
1782665455,141858589,-1.6563423315631312,0.12956476211547852,-1.5218694845782679,0.006856100168079138,0.0008512545027770102,0.6743542551994324,0.0,-0.0,0.0,0.0,0.0,0.0
1782665455,149755805,-1.656330410634176,0.1295766830444336,-1.521881405507223,0.006880068685859442,0.0008153018425218761,0.6744141578674316,0.0,-0.0,0.0,0.0,0.0,0.0
1782665455,157752910,-1.656330410634176,0.12956476211547852,-1.5218213240252894,0.006951974239200354,0.0007669904152862728,0.6743901968002319,0.0,-0.0,0.0,0.0,0.0,0.0
1782665455,165755404,-1.6563661734210413,0.12958860397338867,-1.521881405507223,0.006892052944749594,0.0007669904152862728,0.6743782162666321,0.0,-0.0,0.0,0.0,0.0,0.0
1782665455,173750620,-1.6562941710101526,0.12955284118652344,-1.5218694845782679,0.006939989980310202,0.0008272860432043672,0.6743542551994324,0.0,-0.0,0.0,0.0,0.0,0.0
1782665455,181807872,-1.656330410634176,0.1295766830444336,-1.5218694845782679,0.006939989980310202,0.0008272860432043672,0.6743422150611877,0.0,-0.0,0.0,0.0,0.0,0.0
1782665455,189747181,-1.656330410634176,0.12956476211547852,-1.5218575636493128,0.006856100168079138,0.0007909588748589158,0.6743662357330322,0.0,-0.0,0.0,0.0,0.0,0.0
1782665455,197783008,-1.6562941710101526,0.12958860397338867,-1.5218575636493128,0.006892052944749594,0.0008272860432043672,0.6743062734603882,0.0,-0.0,0.0,0.0,0.0,0.0
1782665455,205773372,-1.6563661734210413,0.12960100173950195,-1.5218694845782679,0.006892052944749594,0.0007909588748589158,0.6743302345275879,0.0,-0.0,0.0,0.0,0.0,0.0
1782665455,213761088,-1.656318489705221,0.12955284118652344,-1.521881405507223,0.006880068685859442,0.0007909588748589158,0.6743782162666321,0.0,-0.0,0.0,0.0,0.0,0.0
1782665455,221742433,-1.6563423315631312,0.12956476211547852,-1.5218213240252894,0.00686808442696929,0.0008153018425218761,0.6743542551994324,0.0,-0.0,0.0,0.0,0.0,0.0
1782665455,229759131,-1.656318489705221,0.12958860397338867,-1.5218337217914026,0.006904037203639746,0.0007789746159687638,0.6743542551994324,0.0,-0.0,0.0,0.0,0.0,0.0
1782665455,237849364,-1.656306568776266,0.12958860397338867,-1.5219295660602015,0.006904037203639746,0.0008632387034595013,0.6744021773338318,0.0,-0.0,0.0,0.0,0.0,0.0
1782665455,245763359,-1.6563661734210413,0.1295766830444336,-1.5218575636493128,0.006904037203639746,0.0008392703020945191,0.6743662357330322,0.0,-0.0,0.0,0.0,0.0,0.0
1782665455,253743093,-1.6563780943499964,0.12956476211547852,-1.5219176451312464,0.006892052944749594,0.0008153018425218761,0.674318253993988,0.0,-0.0,0.0,0.0,0.0,0.0
1782665455,261766364,-1.6563423315631312,0.12958860397338867,-1.521881405507223,0.006892052944749594,0.0008392703020945191,0.6743302345275879,0.0,-0.0,0.0,0.0,0.0,0.0
1782665455,269852543,-1.6562941710101526,0.12956476211547852,-1.521893326436178,0.00692800572142005,0.0008392703020945191,0.6743542551994324,0.0,-0.0,0.0,0.0,0.0,0.0
1782665455,277765574,-1.6563423315631312,0.1295766830444336,-1.521881405507223,0.006904037203639746,0.0007909588748589158,0.6744021773338318,0.0,-0.0,0.0,0.0,0.0,0.0
1782665455,285850308,-1.6562941710101526,0.12955284118652344,-1.5218694845782679,0.006892052944749594,0.0008272860432043672,0.6743662357330322,0.0,-0.0,0.0,0.0,0.0,0.0
1782665455,293740765,-1.656318489705221,0.12958860397338867,-1.521881405507223,0.006880068685859442,0.0007909588748589158,0.6744141578674316,0.0,-0.0,0.0,0.0,0.0,0.0
1782665455,301731944,-1.6562703291522425,0.1295766830444336,-1.5218694845782679,0.006844115909188986,0.0008153018425218761,0.6743901968002319,0.0,-0.0,0.0,0.0,0.0,0.0
1782665455,309745474,-1.6562941710101526,0.12958860397338867,-1.5218575636493128,0.00692800572142005,0.0008033175836317241,0.6743422150611877,0.0,-0.0,0.0,0.0,0.0,0.0
1782665455,317759042,-1.6563542524920862,0.12960100173950195,-1.5218694845782679,0.006880068685859442,0.0008272860432043672,0.6743782162666321,0.0,-0.0,0.0,0.0,0.0,0.0
1782665455,325756647,-1.6562822500811976,0.1295170783996582,-1.5218456427203577,0.006892052944749594,0.0007789746159687638,0.6743422150611877,0.0,-0.0,0.0,0.0,0.0,0.0
1782665455,333749992,-1.656330410634176,0.12960100173950195,-1.5218337217914026,0.00686808442696929,0.0008033175836317241,0.6743422150611877,0.0,-0.0,0.0,0.0,0.0,0.0
1782665455,341775541,-1.6563542524920862,0.1295766830444336,-1.521881405507223,0.006880068685859442,0.0008272860432043672,0.6743782162666321,0.0,-0.0,0.0,0.0,0.0,0.0
1782665455,349756757,-1.656330410634176,0.1295766830444336,-1.5218575636493128,0.006916021462529898,0.0007669904152862728,0.6743542551994324,0.0,-0.0,0.0,0.0,0.0,0.0
1782665455,357747955,-1.656306568776266,0.1295766830444336,-1.521881405507223,0.006880068685859442,0.0008153018425218761,0.6743782162666321,0.0,-0.0,0.0,0.0,0.0,0.0
1782665455,365740393,-1.6563423315631312,0.12956476211547852,-1.5218694845782679,0.006963958498090506,0.0007909588748589158,0.6743662357330322,0.0,-0.0,0.0,0.0,0.0,0.0
1782665455,373756720,-1.6563542524920862,0.12952899932861328,-1.5218213240252894,0.006916021462529898,0.0008272860432043672,0.6743422150611877,0.0,-0.0,0.0,0.0,0.0,0.0
1782665455,381763806,-1.6563661734210413,0.12956476211547852,-1.5218337217914026,0.006951974239200354,0.0008272860432043672,0.6743901968002319,0.0,-0.0,0.0,0.0,0.0,0.0
1782665455,389750855,-1.6562941710101526,0.12954092025756836,-1.5218575636493128,0.006916021462529898,0.0008153018425218761,0.674318253993988,0.0,-0.0,0.0,0.0,0.0,0.0
1782665455,397761311,-1.6563423315631312,0.12952899932861328,-1.521881405507223,0.006916021462529898,0.0008272860432043672,0.6743901968002319,0.0,-0.0,0.0,0.0,0.0,0.0
1782665455,405746953,-1.656330410634176,0.12952899932861328,-1.5218094030963343,0.006916021462529898,0.0007789746159687638,0.6743901968002319,0.0,-0.0,0.0,0.0,0.0,0.0
1782665455,413746984,-1.656306568776266,0.12961292266845703,-1.5218694845782679,0.006892052944749594,0.0007789746159687638,0.6744141578674316,0.0,-0.0,0.0,0.0,0.0,0.0
1782665455,421781792,-1.6562941710101526,0.12958860397338867,-1.5218456427203577,0.006844115909188986,0.0008033175836317241,0.6743302345275879,0.0,-0.0,0.0,0.0,0.0,0.0
1782665455,429734990,-1.656318489705221,0.12955284118652344,-1.5218456427203577,0.006892052944749594,0.0008033175836317241,0.6743662357330322,0.0,-0.0,0.0,0.0,0.0,0.0
1782665455,437736206,-1.6562941710101526,0.12958860397338867,-1.5218694845782679,0.006880068685859442,0.0007909588748589158,0.6743542551994324,0.0,-0.0,0.0,0.0,0.0,0.0
1782665455,445738866,-1.6563542524920862,0.12954092025756836,-1.5218575636493128,0.006916021462529898,0.0008153018425218761,0.6743782162666321,0.0,-0.0,0.0,0.0,0.0,0.0
1782665455,453748711,-1.6563542524920862,0.12960100173950195,-1.521905247365133,0.006904037203639746,0.0007909588748589158,0.6743302345275879,0.0,-0.0,0.0,0.0,0.0,0.0
1782665455,461768742,-1.656318489705221,0.12956476211547852,-1.5218575636493128,0.006880068685859442,0.0007909588748589158,0.6743302345275879,0.0,-0.0,0.0,0.0,0.0,0.0
1782665455,469748088,-1.656318489705221,0.1295766830444336,-1.5218213240252894,0.006892052944749594,0.0008153018425218761,0.6744261384010315,0.0,-0.0,0.0,0.0,0.0,0.0
1782665455,477747248,-1.656306568776266,0.12955284118652344,-1.521881405507223,0.00692800572142005,0.0008153018425218761,0.674318253993988,0.0,-0.0,0.0,0.0,0.0,0.0
1782665455,485756593,-1.656330410634176,0.1295766830444336,-1.521893326436178,0.006880068685859442,0.0008153018425218761,0.6743302345275879,0.0,-0.0,0.0,0.0,0.0,0.0
1782665455,493748883,-1.6562584082232874,0.12954092025756836,-1.521881405507223,0.006880068685859442,0.0008153018425218761,0.6743901968002319,0.0,-0.0,0.0,0.0,0.0,0.0
1782665455,501749488,-1.6563423315631312,0.12956476211547852,-1.5218213240252894,0.006939989980310202,0.0008153018425218761,0.6743542551994324,0.0,-0.0,0.0,0.0,0.0,0.0
1782665455,509737871,-1.6563423315631312,0.12955284118652344,-1.5218575636493128,0.00692800572142005,0.0007909588748589158,0.6743542551994324,0.0,-0.0,0.0,0.0,0.0,0.0
1782665455,517742420,-1.656318489705221,0.12956476211547852,-1.521893326436178,0.006904037203639746,0.0008153018425218761,0.6743782162666321,0.0,-0.0,0.0,0.0,0.0,0.0
1782665455,525787265,-1.656318489705221,0.12955284118652344,-1.5218575636493128,0.006892052944749594,0.0007909588748589158,0.6743662357330322,0.0,-0.0,0.0,0.0,0.0,0.0
1782665455,533763777,-1.656306568776266,0.12956476211547852,-1.5218456427203577,0.00692800572142005,0.0007669904152862728,0.6743302345275879,0.0,-0.0,0.0,0.0,0.0,0.0
1782665455,541759345,-1.6563423315631312,0.12954092025756836,-1.521881405507223,0.006904037203639746,0.0008033175836317241,0.6743662357330322,0.0,-0.0,0.0,0.0,0.0,0.0
1782665455,549743413,-1.656318489705221,0.12956476211547852,-1.521893326436178,0.006892052944749594,0.0008033175836317241,0.6743782162666321,0.0,-0.0,0.0,0.0,0.0,0.0
1782665455,557742869,-1.6562941710101526,0.12955284118652344,-1.5218575636493128,0.006904037203639746,0.0007669904152862728,0.6743662357330322,0.0,-0.0,0.0,0.0,0.0,0.0
1782665455,565760604,-1.656330410634176,0.12955284118652344,-1.5218694845782679,0.00692800572142005,0.0008153018425218761,0.6743542551994324,0.0,-0.0,0.0,0.0,0.0,0.0
1782665455,573743819,-1.6563661734210413,0.12958860397338867,-1.5218094030963343,0.006904037203639746,0.0008033175836317241,0.6743062734603882,0.0,-0.0,0.0,0.0,0.0,0.0
1782665455,581739498,-1.6562941710101526,0.12956476211547852,-1.5218694845782679,0.006892052944749594,0.0008033175836317241,0.6743302345275879,0.0,-0.0,0.0,0.0,0.0,0.0
1782665455,589737325,-1.656318489705221,0.12955284118652344,-1.521881405507223,0.00692800572142005,0.0007550062146037817,0.6743901968002319,0.0,-0.0,0.0,0.0,0.0,0.0
1782665455,597759911,-1.6562941710101526,0.12956476211547852,-1.521881405507223,0.006844115909188986,0.0008512545027770102,0.6743542551994324,0.0,-0.0,0.0,0.0,0.0,0.0
1782665455,605743701,-1.6563661734210413,0.12955284118652344,-1.5218575636493128,0.006856100168079138,0.0008153018425218761,0.6743422150611877,0.0,-0.0,0.0,0.0,0.0,0.0
1782665455,613752658,-1.656306568776266,0.12955284118652344,-1.5217974821673792,0.006856100168079138,0.0007669904152862728,0.6743302345275879,0.0,-0.0,0.0,0.0,0.0,0.0
1782665455,621755429,-1.656306568776266,0.12955284118652344,-1.5219295660602015,0.006916021462529898,0.0008272860432043672,0.6743782162666321,0.0,-0.0,0.0,0.0,0.0,0.0
1782665455,629746904,-1.656318489705221,0.12954092025756836,-1.521905247365133,0.006904037203639746,0.0008153018425218761,0.6743662357330322,0.0,-0.0,0.0,0.0,0.0,0.0
1782665455,637746268,-1.656318489705221,0.1295766830444336,-1.5218694845782679,0.00692800572142005,0.0008512545027770102,0.6743542551994324,0.0,-0.0,0.0,0.0,0.0,0.0
1782665455,645747318,-1.6563661734210413,0.12955284118652344,-1.521881405507223,0.006880068685859442,0.0008033175836317241,0.6743062734603882,0.0,-0.0,0.0,0.0,0.0,0.0
1782665455,653774996,-1.6563661734210413,0.1295170783996582,-1.521893326436178,0.006904037203639746,0.0008153018425218761,0.6744141578674316,0.0,-0.0,0.0,0.0,0.0,0.0
1782665455,661746472,-1.656306568776266,0.12963628768920898,-1.5217974821673792,0.006904037203639746,0.0008272860432043672,0.6743901968002319,0.0,-0.0,0.0,0.0,0.0,0.0
1782665455,669750669,-1.6563423315631312,0.12955284118652344,-1.521893326436178,0.006904037203639746,0.0007669904152862728,0.6743662357330322,0.0,-0.0,0.0,0.0,0.0,0.0
1782665455,677755329,-1.6562941710101526,0.1295766830444336,-1.5218575636493128,0.006892052944749594,0.0008153018425218761,0.6743901968002319,0.0,-0.0,0.0,0.0,0.0,0.0
1782665455,685793971,-1.6562941710101526,0.12956476211547852,-1.521881405507223,0.006892052944749594,0.0008392703020945191,0.6743662357330322,0.0,-0.0,0.0,0.0,0.0,0.0
1782665455,693749891,-1.6562941710101526,0.12955284118652344,-1.5218456427203577,0.006892052944749594,0.0008033175836317241,0.6743662357330322,0.0,-0.0,0.0,0.0,0.0,0.0
1782665455,701750310,-1.6563661734210413,0.12956476211547852,-1.5218694845782679,0.006880068685859442,0.0007669904152862728,0.6744021773338318,0.0,-0.0,0.0,0.0,0.0,0.0
1782665455,709746619,-1.656330410634176,0.1295766830444336,-1.5218694845782679,0.006916021462529898,0.0008272860432043672,0.6743901968002319,0.0,-0.0,0.0,0.0,0.0,0.0
1782665455,717779649,-1.656306568776266,0.12956476211547852,-1.521881405507223,0.006880068685859442,0.0007789746159687638,0.6743782162666321,0.0,-0.0,0.0,0.0,0.0,0.0
1782665455,725743569,-1.656318489705221,0.12956476211547852,-1.521881405507223,0.006856100168079138,0.0008392703020945191,0.6743782162666321,0.0,-0.0,0.0,0.0,0.0,0.0
1782665455,733746396,-1.656318489705221,0.12956476211547852,-1.5218456427203577,0.00686808442696929,0.0008392703020945191,0.6743542551994324,0.0,-0.0,0.0,0.0,0.0,0.0
1782665455,741742649,-1.6562941710101526,0.1295170783996582,-1.5218575636493128,0.006880068685859442,0.0007789746159687638,0.6743662357330322,0.0,-0.0,0.0,0.0,0.0,0.0
1782665455,749756938,-1.6562941710101526,0.12958860397338867,-1.5218694845782679,0.006904037203639746,0.0008153018425218761,0.6743662357330322,0.0,-0.0,0.0,0.0,0.0,0.0
1782665455,757752451,-1.6562941710101526,0.12955284118652344,-1.5218213240252894,0.006916021462529898,0.0007909588748589158,0.6744021773338318,0.0,-0.0,0.0,0.0,0.0,0.0
1782665455,765739370,-1.6562941710101526,0.12958860397338867,-1.521893326436178,0.006904037203639746,0.0007789746159687638,0.6743422150611877,0.0,-0.0,0.0,0.0,0.0,0.0
1782665455,773739864,-1.6563661734210413,0.12956476211547852,-1.5218337217914026,0.00692800572142005,0.0007909588748589158,0.6744021773338318,0.0,-0.0,0.0,0.0,0.0,0.0
1782665455,781779931,-1.6562822500811976,0.12958860397338867,-1.521881405507223,0.006880068685859442,0.0008392703020945191,0.6743782162666321,0.0,-0.0,0.0,0.0,0.0,0.0
1782665455,789750240,-1.656306568776266,0.12958860397338867,-1.5218456427203577,0.006880068685859442,0.0008272860432043672,0.6743901968002319,0.0,-0.0,0.0,0.0,0.0,0.0
1782665455,797771826,-1.656306568776266,0.12956476211547852,-1.521905247365133,0.006904037203639746,0.0008153018425218761,0.6743302345275879,0.0,-0.0,0.0,0.0,0.0,0.0
1782665455,805759672,-1.656318489705221,0.1295766830444336,-1.521881405507223,0.006892052944749594,0.0008512545027770102,0.6744021773338318,0.0,-0.0,0.0,0.0,0.0,0.0
1782665455,813754147,-1.6563423315631312,0.12961292266845703,-1.5218337217914026,0.00692800572142005,0.0007789746159687638,0.6743302345275879,0.0,-0.0,0.0,0.0,0.0,0.0
1782665455,821744011,-1.656306568776266,0.12958860397338867,-1.5218694845782679,0.006904037203639746,0.0008272860432043672,0.6743662357330322,0.0,-0.0,0.0,0.0,0.0,0.0
1782665455,829749856,-1.656318489705221,0.12956476211547852,-1.5218456427203577,0.006880068685859442,0.0007789746159687638,0.6743542551994324,0.0,-0.0,0.0,0.0,0.0,0.0
1782665455,837742924,-1.656330410634176,0.12956476211547852,-1.5218694845782679,0.006892052944749594,0.0008033175836317241,0.6743662357330322,0.0,-0.0,0.0,0.0,0.0,0.0
1782665455,845768843,-1.6563423315631312,0.12955284118652344,-1.521893326436178,0.006844115909188986,0.0008392703020945191,0.6743662357330322,0.0,-0.0,0.0,0.0,0.0,0.0
1782665455,853790652,-1.6562822500811976,0.12961292266845703,-1.5218456427203577,0.006904037203639746,0.0008392703020945191,0.6743542551994324,0.0,-0.0,0.0,0.0,0.0,0.0
1782665455,861744868,-1.6563423315631312,0.12960100173950195,-1.5219176451312464,0.006892052944749594,0.0008392703020945191,0.6743542551994324,0.0,-0.0,0.0,0.0,0.0,0.0
1782665455,869748491,-1.6563423315631312,0.12958860397338867,-1.5218694845782679,0.006904037203639746,0.0008272860432043672,0.6743782162666321,0.0,-0.0,0.0,0.0,0.0,0.0
1782665455,877749522,-1.6563661734210413,0.12956476211547852,-1.521893326436178,0.006880068685859442,0.0008392703020945191,0.6744021773338318,0.0,-0.0,0.0,0.0,0.0,0.0
1782665455,885746071,-1.656306568776266,0.1295170783996582,-1.5218456427203577,0.006939989980310202,0.0008272860432043672,0.6743901968002319,0.0,-0.0,0.0,0.0,0.0,0.0
1782665455,893755250,-1.656306568776266,0.12956476211547852,-1.5218456427203577,0.006904037203639746,0.0007909588748589158,0.6744261384010315,0.0,-0.0,0.0,0.0,0.0,0.0
1782665455,901752169,-1.6563423315631312,0.1295170783996582,-1.521893326436178,0.00686808442696929,0.0007909588748589158,0.6744261384010315,0.0,-0.0,0.0,0.0,0.0,0.0
1782665455,909769644,-1.656306568776266,0.12958860397338867,-1.521893326436178,0.006892052944749594,0.0008153018425218761,0.6743782162666321,0.0,-0.0,0.0,0.0,0.0,0.0
1782665455,917745286,-1.656318489705221,0.12956476211547852,-1.5218694845782679,0.006892052944749594,0.0008272860432043672,0.6743662357330322,0.0,-0.0,0.0,0.0,0.0,0.0
1782665455,925741076,-1.6562941710101526,0.1295766830444336,-1.5218456427203577,0.00686808442696929,0.0008033175836317241,0.6743782162666321,0.0,-0.0,0.0,0.0,0.0,0.0
1782665455,933744014,-1.656318489705221,0.12961292266845703,-1.521881405507223,0.006904037203639746,0.0007909588748589158,0.6743901968002319,0.0,-0.0,0.0,0.0,0.0,0.0
1782665455,941757360,-1.6563780943499964,0.12958860397338867,-1.5217974821673792,0.006904037203639746,0.0008392703020945191,0.674318253993988,0.0,-0.0,0.0,0.0,0.0,0.0
1782665455,949747983,-1.656318489705221,0.12958860397338867,-1.521881405507223,0.006892052944749594,0.0008272860432043672,0.6743302345275879,0.0,-0.0,0.0,0.0,0.0,0.0
1782665455,957744014,-1.656306568776266,0.12958860397338867,-1.521893326436178,0.006916021462529898,0.0008512545027770102,0.6743542551994324,0.0,-0.0,0.0,0.0,0.0,0.0
1782665455,965750026,-1.656318489705221,0.12956476211547852,-1.5218694845782679,0.00692800572142005,0.0008272860432043672,0.6743782162666321,0.0,-0.0,0.0,0.0,0.0,0.0
1782665455,973763964,-1.6563423315631312,0.12958860397338867,-1.5218456427203577,0.006916021462529898,0.0008153018425218761,0.6743901968002319,0.0,-0.0,0.0,0.0,0.0,0.0
1782665455,981740013,-1.656306568776266,0.12954092025756836,-1.5218456427203577,0.006892052944749594,0.0007909588748589158,0.6743542551994324,0.0,-0.0,0.0,0.0,0.0,0.0
1782665455,989742377,-1.6563542524920862,0.12952899932861328,-1.521881405507223,0.00692800572142005,0.0007909588748589158,0.6743302345275879,0.0,-0.0,0.0,0.0,0.0,0.0
1782665455,997739278,-1.656306568776266,0.12958860397338867,-1.5218456427203577,0.00692800572142005,0.0007789746159687638,0.6743542551994324,0.0,-0.0,0.0,0.0,0.0,0.0
1782665456,5744161,-1.6563542524920862,0.1295766830444336,-1.5218575636493128,0.006916021462529898,0.0007789746159687638,0.6743662357330322,0.0,-0.0,0.0,0.0,0.0,0.0
1782665456,13742525,-1.656330410634176,0.12960100173950195,-1.5218575636493128,0.006892052944749594,0.0008512545027770102,0.6744141578674316,0.0,-0.0,0.0,0.0,0.0,0.0
1782665456,21746500,-1.656306568776266,0.12955284118652344,-1.5218575636493128,0.006939989980310202,0.0008033175836317241,0.6743422150611877,0.0,-0.0,0.0,0.0,0.0,0.0
1782665456,29744068,-1.6563423315631312,0.12955284118652344,-1.5218575636493128,0.006856100168079138,0.0007789746159687638,0.6743662357330322,0.0,-0.0,0.0,0.0,0.0,0.0
1782665456,37738229,-1.656330410634176,0.12954092025756836,-1.521881405507223,0.006856100168079138,0.0008392703020945191,0.6743302345275879,0.0,-0.0,0.0,0.0,0.0,0.0
1782665456,45740852,-1.6563780943499964,0.12960100173950195,-1.5218213240252894,0.006916021462529898,0.0008392703020945191,0.6743901968002319,0.0,-0.0,0.0,0.0,0.0,0.0
1782665456,53740753,-1.656330410634176,0.12955284118652344,-1.5218694845782679,0.00692800572142005,0.0008392703020945191,0.6743662357330322,0.0,-0.0,0.0,0.0,0.0,0.0
1782665456,61745395,-1.6562941710101526,0.1295766830444336,-1.521881405507223,0.006880068685859442,0.0008272860432043672,0.6743901968002319,0.0,-0.0,0.0,0.0,0.0,0.0
1782665456,69744778,-1.6563542524920862,0.1296243667602539,-1.5218337217914026,0.006880068685859442,0.0008033175836317241,0.6743782162666321,0.0,-0.0,0.0,0.0,0.0,0.0
1782665456,77748883,-1.656330410634176,0.12954092025756836,-1.5218456427203577,0.006892052944749594,0.0007909588748589158,0.6743901968002319,0.0,-0.0,0.0,0.0,0.0,0.0
1782665456,85735210,-1.656330410634176,0.12958860397338867,-1.521881405507223,0.006880068685859442,0.0008512545027770102,0.674318253993988,0.0,-0.0,0.0,0.0,0.0,0.0
1782665456,93741037,-1.6563780943499964,0.12956476211547852,-1.5218456427203577,0.00692800572142005,0.0008153018425218761,0.6743782162666321,0.0,-0.0,0.0,0.0,0.0,0.0
1782665456,101768901,-1.656318489705221,0.12956476211547852,-1.521893326436178,0.006892052944749594,0.0007789746159687638,0.6743901968002319,0.0,-0.0,0.0,0.0,0.0,0.0
1782665456,109740821,-1.6563661734210413,0.12956476211547852,-1.5219176451312464,0.006904037203639746,0.0008272860432043672,0.6743422150611877,0.0,-0.0,0.0,0.0,0.0,0.0
1782665456,117743000,-1.656306568776266,0.12958860397338867,-1.521881405507223,0.006904037203639746,0.0008392703020945191,0.6743782162666321,0.0,-0.0,0.0,0.0,0.0,0.0
1782665456,125740976,-1.6563423315631312,0.12956476211547852,-1.5218575636493128,0.006904037203639746,0.0008272860432043672,0.6743542551994324,0.0,-0.0,0.0,0.0,0.0,0.0
1782665456,133732525,-1.656318489705221,0.12954092025756836,-1.521905247365133,0.006904037203639746,0.0008033175836317241,0.6743901968002319,0.0,-0.0,0.0,0.0,0.0,0.0
1782665456,141734889,-1.6563542524920862,0.1295766830444336,-1.5218694845782679,0.006951974239200354,0.0008033175836317241,0.6743422150611877,0.0,-0.0,0.0,0.0,0.0,0.0
1782665456,149738050,-1.656306568776266,0.12958860397338867,-1.521893326436178,0.006880068685859442,0.0008153018425218761,0.6743542551994324,0.0,-0.0,0.0,0.0,0.0,0.0
1782665456,157741414,-1.656330410634176,0.1295766830444336,-1.5218575636493128,0.006844115909188986,0.0007909588748589158,0.6743782162666321,0.0,-0.0,0.0,0.0,0.0,0.0
1782665456,165763797,-1.6563423315631312,0.12954092025756836,-1.5218337217914026,0.006880068685859442,0.0008632387034595013,0.6743662357330322,0.0,-0.0,0.0,0.0,0.0,0.0
1782665456,173748642,-1.656318489705221,0.12956476211547852,-1.5218694845782679,0.006916021462529898,0.0008033175836317241,0.6743422150611877,0.0,-0.0,0.0,0.0,0.0,0.0
1782665456,181745655,-1.656318489705221,0.12952899932861328,-1.521881405507223,0.006892052944749594,0.0007909588748589158,0.6743901968002319,0.0,-0.0,0.0,0.0,0.0,0.0
1782665456,189854555,-1.656306568776266,0.1295766830444336,-1.5219176451312464,0.006880068685859442,0.0008272860432043672,0.6743542551994324,0.0,-0.0,0.0,0.0,0.0,0.0
1782665456,197772402,-1.6563423315631312,0.12954092025756836,-1.521893326436178,0.006904037203639746,0.0007909588748589158,0.6743662357330322,0.0,-0.0,0.0,0.0,0.0,0.0
1782665456,205733266,-1.6562822500811976,0.12956476211547852,-1.5218575636493128,0.006880068685859442,0.0008272860432043672,0.6743662357330322,0.0,-0.0,0.0,0.0,0.0,0.0
1782665456,213736908,-1.656330410634176,0.12958860397338867,-1.5218694845782679,0.006880068685859442,0.0008512545027770102,0.6743542551994324,0.0,-0.0,0.0,0.0,0.0,0.0
1782665456,221738457,-1.656330410634176,0.12956476211547852,-1.5218337217914026,0.006939989980310202,0.0008272860432043672,0.6743302345275879,0.0,-0.0,0.0,0.0,0.0,0.0
1782665456,229765544,-1.656306568776266,0.12961292266845703,-1.5218575636493128,0.006880068685859442,0.0008392703020945191,0.6743662357330322,0.0,-0.0,0.0,0.0,0.0,0.0
1782665456,237742834,-1.656306568776266,0.12956476211547852,-1.5218575636493128,0.006904037203639746,0.0007909588748589158,0.6743422150611877,0.0,-0.0,0.0,0.0,0.0,0.0
1782665456,245736069,-1.656306568776266,0.1295766830444336,-1.5218694845782679,0.006856100168079138,0.0008033175836317241,0.6743782162666321,0.0,-0.0,0.0,0.0,0.0,0.0
1782665456,253741840,-1.6562703291522425,0.12956476211547852,-1.5218456427203577,0.006904037203639746,0.0008153018425218761,0.6743662357330322,0.0,-0.0,0.0,0.0,0.0,0.0
1782665456,261773575,-1.6563423315631312,0.12955284118652344,-1.5217974821673792,0.006892052944749594,0.0007789746159687638,0.6743302345275879,0.0,-0.0,0.0,0.0,0.0,0.0
1782665456,269751476,-1.6563423315631312,0.1295766830444336,-1.5218694845782679,0.006951974239200354,0.0008153018425218761,0.6743422150611877,0.0,-0.0,0.0,0.0,0.0,0.0
1782665456,277748488,-1.656318489705221,0.1295170783996582,-1.5218575636493128,0.006904037203639746,0.0008153018425218761,0.6744021773338318,0.0,-0.0,0.0,0.0,0.0,0.0
1782665456,285747890,-1.656330410634176,0.1295170783996582,-1.5218337217914026,0.006892052944749594,0.0008272860432043672,0.6743422150611877,0.0,-0.0,0.0,0.0,0.0,0.0
1782665456,293741902,-1.656330410634176,0.12958860397338867,-1.5218694845782679,0.006916021462529898,0.0007789746159687638,0.6743302345275879,0.0,-0.0,0.0,0.0,0.0,0.0
1782665456,301740248,-1.6562941710101526,0.12958860397338867,-1.5218575636493128,0.00686808442696929,0.0007909588748589158,0.6743302345275879,0.0,-0.0,0.0,0.0,0.0,0.0
1782665456,309743205,-1.656306568776266,0.12958860397338867,-1.5218337217914026,0.006892052944749594,0.0008153018425218761,0.6743062734603882,0.0,-0.0,0.0,0.0,0.0,0.0
1782665456,317757346,-1.6563423315631312,0.12960100173950195,-1.5218575636493128,0.006844115909188986,0.0008272860432043672,0.6743901968002319,0.0,-0.0,0.0,0.0,0.0,0.0
1782665456,325737563,-1.656330410634176,0.12956476211547852,-1.5219176451312464,0.006880068685859442,0.0007909588748589158,0.6743542551994324,0.0,-0.0,0.0,0.0,0.0,0.0
1782665456,333746797,-1.6562822500811976,0.12958860397338867,-1.521893326436178,0.006904037203639746,0.0008392703020945191,0.6744261384010315,0.0,-0.0,0.0,0.0,0.0,0.0
1782665456,341746902,-1.6562941710101526,0.1295766830444336,-1.5218094030963343,0.006880068685859442,0.0008153018425218761,0.6743542551994324,0.0,-0.0,0.0,0.0,0.0,0.0
1782665456,349750803,-1.6563423315631312,0.12955284118652344,-1.5218337217914026,0.006844115909188986,0.0008033175836317241,0.6743901968002319,0.0,-0.0,0.0,0.0,0.0,0.0
1782665456,357731149,-1.6562941710101526,0.12961292266845703,-1.5218337217914026,0.006916021462529898,0.0007909588748589158,0.6743302345275879,0.0,-0.0,0.0,0.0,0.0,0.0
1782665456,365733069,-1.6562822500811976,0.1295766830444336,-1.5218456427203577,0.00686808442696929,0.0008632387034595013,0.6744021773338318,0.0,-0.0,0.0,0.0,0.0,0.0
1782665456,373747470,-1.656330410634176,0.12960100173950195,-1.5218575636493128,0.006880068685859442,0.0007909588748589158,0.6743662357330322,0.0,-0.0,0.0,0.0,0.0,0.0
1782665456,381755242,-1.6563423315631312,0.12955284118652344,-1.5218213240252894,0.006892052944749594,0.0008153018425218761,0.6743782162666321,0.0,-0.0,0.0,0.0,0.0,0.0
1782665456,389752180,-1.6562703291522425,0.12956476211547852,-1.5218213240252894,0.006892052944749594,0.0008033175836317241,0.6744141578674316,0.0,-0.0,0.0,0.0,0.0,0.0
1782665456,397740415,-1.656330410634176,0.12956476211547852,-1.5218337217914026,0.006939989980310202,0.0008272860432043672,0.6743542551994324,0.0,-0.0,0.0,0.0,0.0,0.0
1782665456,405750649,-1.6563661734210413,0.1295766830444336,-1.521893326436178,0.006904037203639746,0.0008392703020945191,0.6743542551994324,0.0,-0.0,0.0,0.0,0.0,0.0
1782665456,413749939,-1.6563542524920862,0.12956476211547852,-1.5218694845782679,0.00692800572142005,0.0007909588748589158,0.6743782162666321,0.0,-0.0,0.0,0.0,0.0,0.0
1782665456,421744359,-1.6563904921161097,0.12961292266845703,-1.521905247365133,0.006892052944749594,0.0008392703020945191,0.6743422150611877,0.0,-0.0,0.0,0.0,0.0,0.0
1782665456,429752612,-1.6562941710101526,0.12956476211547852,-1.5218456427203577,0.00686808442696929,0.0007550062146037817,0.6743782162666321,0.0,-0.0,0.0,0.0,0.0,0.0
1782665456,437742328,-1.656330410634176,0.12954092025756836,-1.521893326436178,0.00692800572142005,0.0008632387034595013,0.6743901968002319,0.0,-0.0,0.0,0.0,0.0,0.0
1782665456,445744100,-1.6562822500811976,0.1295766830444336,-1.5218575636493128,0.00686808442696929,0.0008153018425218761,0.6744021773338318,0.0,-0.0,0.0,0.0,0.0,0.0
1782665456,453816742,-1.6563542524920862,0.12960100173950195,-1.5218694845782679,0.006939989980310202,0.0007909588748589158,0.6743542551994324,0.0,-0.0,0.0,0.0,0.0,0.0
1782665456,461747402,-1.656306568776266,0.1295766830444336,-1.5218337217914026,0.006880068685859442,0.0008033175836317241,0.6743782162666321,0.0,-0.0,0.0,0.0,0.0,0.0
1782665456,469754007,-1.6563542524920862,0.12952899932861328,-1.5218575636493128,0.00692800572142005,0.0008392703020945191,0.6743662357330322,0.0,-0.0,0.0,0.0,0.0,0.0
1782665456,477740409,-1.656330410634176,0.12952899932861328,-1.521881405507223,0.00692800572142005,0.0007789746159687638,0.6743901968002319,0.0,-0.0,0.0,0.0,0.0,0.0
1782665456,485793810,-1.6563423315631312,0.12954092025756836,-1.5218694845782679,0.00692800572142005,0.0008033175836317241,0.6743901968002319,0.0,-0.0,0.0,0.0,0.0,0.0
1782665456,493775285,-1.656306568776266,0.1295766830444336,-1.521881405507223,0.006880068685859442,0.0008153018425218761,0.6743782162666321,0.0,-0.0,0.0,0.0,0.0,0.0
1782665456,501773520,-1.6562584082232874,0.12950468063354492,-1.5218694845782679,0.006916021462529898,0.0008392703020945191,0.6743542551994324,0.0,-0.0,0.0,0.0,0.0,0.0
1782665456,509745865,-1.656318489705221,0.12956476211547852,-1.521893326436178,0.006856100168079138,0.0008153018425218761,0.6743542551994324,0.0,-0.0,0.0,0.0,0.0,0.0
1782665456,517744341,-1.6563780943499964,0.1295766830444336,-1.5218694845782679,0.006916021462529898,0.0008392703020945191,0.6743542551994324,0.0,-0.0,0.0,0.0,0.0,0.0
1782665456,525749446,-1.6563542524920862,0.12954092025756836,-1.521893326436178,0.006880068685859442,0.0008153018425218761,0.6744021773338318,0.0,-0.0,0.0,0.0,0.0,0.0
1782665456,533759754,-1.6563542524920862,0.1295766830444336,-1.5218213240252894,0.006844115909188986,0.0008033175836317241,0.6743901968002319,0.0,-0.0,0.0,0.0,0.0,0.0
1782665456,541753433,-1.656318489705221,0.12960100173950195,-1.521881405507223,0.006892052944749594,0.0008392703020945191,0.6743901968002319,0.0,-0.0,0.0,0.0,0.0,0.0
1782665456,549746761,-1.656318489705221,0.1295766830444336,-1.5218456427203577,0.00692800572142005,0.0008512545027770102,0.6744021773338318,0.0,-0.0,0.0,0.0,0.0,0.0
1782665456,557763514,-1.656330410634176,0.12952899932861328,-1.5218337217914026,0.006880068685859442,0.0008272860432043672,0.6743901968002319,0.0,-0.0,0.0,0.0,0.0,0.0
1782665456,565742508,-1.656330410634176,0.12955284118652344,-1.521893326436178,0.006916021462529898,0.0007909588748589158,0.6743782162666321,0.0,-0.0,0.0,0.0,0.0,0.0
1782665456,573745742,-1.656306568776266,0.12955284118652344,-1.5218575636493128,0.006880068685859442,0.0008153018425218761,0.6743542551994324,0.0,-0.0,0.0,0.0,0.0,0.0
1782665456,581751829,-1.6563542524920862,0.12952899932861328,-1.521881405507223,0.006892052944749594,0.0008272860432043672,0.6743542551994324,0.0,-0.0,0.0,0.0,0.0,0.0
1782665456,589749304,-1.656306568776266,0.1295766830444336,-1.5218337217914026,0.006880068685859442,0.0008272860432043672,0.6743542551994324,0.0,-0.0,0.0,0.0,0.0,0.0
1782665456,597741483,-1.656330410634176,0.1295766830444336,-1.5218694845782679,0.00692800572142005,0.0008272860432043672,0.6743782162666321,0.0,-0.0,0.0,0.0,0.0,0.0
1782665456,605789884,-1.656306568776266,0.12952899932861328,-1.521893326436178,0.006904037203639746,0.0007789746159687638,0.6743422150611877,0.0,-0.0,0.0,0.0,0.0,0.0
1782665456,613763785,-1.656306568776266,0.12955284118652344,-1.5218337217914026,0.006904037203639746,0.0008033175836317241,0.6743901968002319,0.0,-0.0,0.0,0.0,0.0,0.0
1782665456,621776335,-1.6563542524920862,0.12956476211547852,-1.5218337217914026,0.006916021462529898,0.0008033175836317241,0.6743542551994324,0.0,-0.0,0.0,0.0,0.0,0.0
1782665456,629750458,-1.6562822500811976,0.1295766830444336,-1.5218575636493128,0.006892052944749594,0.0008512545027770102,0.6743901968002319,0.0,-0.0,0.0,0.0,0.0,0.0
1782665456,637754248,-1.656330410634176,0.12958860397338867,-1.521893326436178,0.00686808442696929,0.0008392703020945191,0.6743302345275879,0.0,-0.0,0.0,0.0,0.0,0.0
1782665456,645747002,-1.6563661734210413,0.12955284118652344,-1.5218456427203577,0.006904037203639746,0.0008033175836317241,0.6743422150611877,0.0,-0.0,0.0,0.0,0.0,0.0
1782665456,653740273,-1.656330410634176,0.12955284118652344,-1.5218456427203577,0.006963958498090506,0.0008392703020945191,0.6743542551994324,0.0,-0.0,0.0,0.0,0.0,0.0
1782665456,661887600,-1.656318489705221,0.1295766830444336,-1.5218575636493128,0.006892052944749594,0.0008272860432043672,0.6743782162666321,0.0,-0.0,0.0,0.0,0.0,0.0
1782665456,669744446,-1.6563542524920862,0.12955284118652344,-1.5218213240252894,0.00686808442696929,0.0008033175836317241,0.6743542551994324,0.0,-0.0,0.0,0.0,0.0,0.0
1782665456,677745440,-1.6563661734210413,0.12958860397338867,-1.5218694845782679,0.006880068685859442,0.0008033175836317241,0.6743782162666321,0.0,-0.0,0.0,0.0,0.0,0.0
1782665456,685766341,-1.656306568776266,0.12956476211547852,-1.5218575636493128,0.006892052944749594,0.0007909588748589158,0.6743782162666321,0.0,-0.0,0.0,0.0,0.0,0.0
1782665456,693813316,-1.6563661734210413,0.12958860397338867,-1.5218456427203577,0.00686808442696929,0.0008153018425218761,0.6744261384010315,0.0,-0.0,0.0,0.0,0.0,0.0
1782665456,701762773,-1.6563542524920862,0.12955284118652344,-1.5218213240252894,0.00692800572142005,0.0008153018425218761,0.6743542551994324,0.0,-0.0,0.0,0.0,0.0,0.0
1782665456,709760563,-1.656306568776266,0.12955284118652344,-1.521881405507223,0.006880068685859442,0.0008033175836317241,0.6743901968002319,0.0,-0.0,0.0,0.0,0.0,0.0
1782665456,717775909,-1.6562822500811976,0.1295766830444336,-1.5218694845782679,0.006916021462529898,0.0008272860432043672,0.6743542551994324,0.0,-0.0,0.0,0.0,0.0,0.0
1782665456,725788921,-1.6562941710101526,0.1295766830444336,-1.5218337217914026,0.006892052944749594,0.0007669904152862728,0.6743782162666321,0.0,-0.0,0.0,0.0,0.0,0.0
1782665456,733752564,-1.656318489705221,0.12952899932861328,-1.5218456427203577,0.006892052944749594,0.0007909588748589158,0.6743542551994324,0.0,-0.0,0.0,0.0,0.0,0.0
1782665456,741760576,-1.6563423315631312,0.1296243667602539,-1.521881405507223,0.006880068685859442,0.0008153018425218761,0.6744141578674316,0.0,-0.0,0.0,0.0,0.0,0.0
1782665456,749752755,-1.656330410634176,0.1295766830444336,-1.5218337217914026,0.006892052944749594,0.0007789746159687638,0.6743782162666321,0.0,-0.0,0.0,0.0,0.0,0.0
1782665456,757763156,-1.656318489705221,0.1295766830444336,-1.5218456427203577,0.006904037203639746,0.0008153018425218761,0.6743542551994324,0.0,-0.0,0.0,0.0,0.0,0.0
1782665456,765757761,-1.656318489705221,0.12958860397338867,-1.5218213240252894,0.006904037203639746,0.0008033175836317241,0.6743901968002319,0.0,-0.0,0.0,0.0,0.0,0.0
1782665456,773767829,-1.6563423315631312,0.12958860397338867,-1.5218575636493128,0.006880068685859442,0.0008033175836317241,0.6743542551994324,0.0,-0.0,0.0,0.0,0.0,0.0
1782665456,781794749,-1.656306568776266,0.1295766830444336,-1.521881405507223,0.006892052944749594,0.0008153018425218761,0.6743422150611877,0.0,-0.0,0.0,0.0,0.0,0.0
1782665456,789786483,-1.656318489705221,0.12956476211547852,-1.521893326436178,0.006880068685859442,0.0008272860432043672,0.6743662357330322,0.0,-0.0,0.0,0.0,0.0,0.0
1782665456,797748366,-1.6563542524920862,0.12955284118652344,-1.5218337217914026,0.006856100168079138,0.0008272860432043672,0.6743062734603882,0.0,-0.0,0.0,0.0,0.0,0.0
1782665456,805745842,-1.6563423315631312,0.1295766830444336,-1.5218337217914026,0.00692800572142005,0.0008153018425218761,0.6743542551994324,0.0,-0.0,0.0,0.0,0.0,0.0
1782665456,813807539,-1.6563542524920862,0.12960100173950195,-1.5218694845782679,0.00692800572142005,0.0008033175836317241,0.6743542551994324,0.0,-0.0,0.0,0.0,0.0,0.0
1782665456,821747237,-1.656318489705221,0.12958860397338867,-1.5218575636493128,0.006916021462529898,0.0007669904152862728,0.6743901968002319,0.0,-0.0,0.0,0.0,0.0,0.0
1782665456,829744508,-1.656306568776266,0.1295766830444336,-1.521881405507223,0.006892052944749594,0.0007909588748589158,0.6743422150611877,0.0,-0.0,0.0,0.0,0.0,0.0
1782665456,837802039,-1.6563542524920862,0.12952899932861328,-1.521893326436178,0.006880068685859442,0.0008033175836317241,0.6744141578674316,0.0,-0.0,0.0,0.0,0.0,0.0
1782665456,845782644,-1.6562941710101526,0.1295170783996582,-1.5218575636493128,0.006904037203639746,0.0008272860432043672,0.6743542551994324,0.0,-0.0,0.0,0.0,0.0,0.0
1782665456,853751656,-1.656306568776266,0.12955284118652344,-1.5218337217914026,0.006939989980310202,0.0008153018425218761,0.6743662357330322,0.0,-0.0,0.0,0.0,0.0,0.0
1782665456,861749873,-1.656330410634176,0.1295766830444336,-1.5218575636493128,0.00686808442696929,0.0008272860432043672,0.6743782162666321,0.0,-0.0,0.0,0.0,0.0,0.0
1782665456,869745218,-1.656306568776266,0.12956476211547852,-1.521881405507223,0.00686808442696929,0.0007909588748589158,0.6743662357330322,0.0,-0.0,0.0,0.0,0.0,0.0
1782665456,877744527,-1.6563423315631312,0.12956476211547852,-1.5218694845782679,0.006916021462529898,0.0008153018425218761,0.6744141578674316,0.0,-0.0,0.0,0.0,0.0,0.0
1782665456,885743836,-1.656306568776266,0.12960100173950195,-1.5218694845782679,0.006892052944749594,0.0008392703020945191,0.6743422150611877,0.0,-0.0,0.0,0.0,0.0,0.0
1782665456,893781977,-1.6563423315631312,0.12956476211547852,-1.5218575636493128,0.00692800572142005,0.0008153018425218761,0.6743542551994324,0.0,-0.0,0.0,0.0,0.0,0.0
1782665456,901755731,-1.6563542524920862,0.12960100173950195,-1.5218094030963343,0.00686808442696929,0.0008392703020945191,0.6743662357330322,0.0,-0.0,0.0,0.0,0.0,0.0
1782665456,909740428,-1.6563780943499964,0.12955284118652344,-1.5218694845782679,0.006892052944749594,0.0008033175836317241,0.6743662357330322,0.0,-0.0,0.0,0.0,0.0,0.0
1782665456,917748070,-1.6563542524920862,0.1295766830444336,-1.5219176451312464,0.00692800572142005,0.0008033175836317241,0.6743542551994324,0.0,-0.0,0.0,0.0,0.0,0.0
1782665456,925752008,-1.656318489705221,0.12958860397338867,-1.5218575636493128,0.006916021462529898,0.0008153018425218761,0.6743542551994324,0.0,-0.0,0.0,0.0,0.0,0.0
1782665456,933748743,-1.6563423315631312,0.12956476211547852,-1.521893326436178,0.006844115909188986,0.0007789746159687638,0.6743662357330322,0.0,-0.0,0.0,0.0,0.0,0.0
1782665456,941775163,-1.6563423315631312,0.12956476211547852,-1.5219176451312464,0.006916021462529898,0.0007789746159687638,0.6743422150611877,0.0,-0.0,0.0,0.0,0.0,0.0
1782665456,949748305,-1.6563542524920862,0.12960100173950195,-1.5218213240252894,0.00686808442696929,0.0008272860432043672,0.6744141578674316,0.0,-0.0,0.0,0.0,0.0,0.0
1782665456,957753984,-1.656330410634176,0.1295766830444336,-1.5218213240252894,0.00692800572142005,0.0008153018425218761,0.6743422150611877,0.0,-0.0,0.0,0.0,0.0,0.0
1782665456,965751385,-1.6562941710101526,0.1295766830444336,-1.5218456427203577,0.006880068685859442,0.0008392703020945191,0.6743662357330322,0.0,-0.0,0.0,0.0,0.0,0.0
1782665456,973783638,-1.656330410634176,0.12955284118652344,-1.5218456427203577,0.006904037203639746,0.0008033175836317241,0.6743542551994324,0.0,-0.0,0.0,0.0,0.0,0.0
1782665456,981753632,-1.6563780943499964,0.12955284118652344,-1.5218575636493128,0.006916021462529898,0.0007909588748589158,0.6743901968002319,0.0,-0.0,0.0,0.0,0.0,0.0
1782665456,989749404,-1.6563423315631312,0.12961292266845703,-1.5218213240252894,0.00686808442696929,0.0008272860432043672,0.6743782162666321,0.0,-0.0,0.0,0.0,0.0,0.0
1782665456,997749175,-1.656318489705221,0.12955284118652344,-1.521881405507223,0.006916021462529898,0.0007909588748589158,0.6743901968002319,0.0,-0.0,0.0,0.0,0.0,0.0
1782665457,5784280,-1.6563780943499964,0.12955284118652344,-1.5218456427203577,0.006916021462529898,0.0008153018425218761,0.6743782162666321,0.0,-0.0,0.0,0.0,0.0,0.0
1782665457,13751126,-1.6563423315631312,0.12958860397338867,-1.5218575636493128,0.006880068685859442,0.0008033175836317241,0.6743901968002319,0.0,-0.0,0.0,0.0,0.0,0.0
1782665457,21747176,-1.6562941710101526,0.12954092025756836,-1.5218456427203577,0.006880068685859442,0.0008153018425218761,0.674318253993988,0.0,-0.0,0.0,0.0,0.0,0.0
1782665457,29740244,-1.6563542524920862,0.12956476211547852,-1.5218575636493128,0.006916021462529898,0.0007789746159687638,0.6744141578674316,0.0,-0.0,0.0,0.0,0.0,0.0
1782665457,37769219,-1.6563423315631312,0.12960100173950195,-1.5218694845782679,0.00692800572142005,0.0007909588748589158,0.6743422150611877,0.0,-0.0,0.0,0.0,0.0,0.0
1782665457,45742473,-1.6562941710101526,0.12958860397338867,-1.5218337217914026,0.00686808442696929,0.0008153018425218761,0.6743662357330322,0.0,-0.0,0.0,0.0,0.0,0.0
1782665457,53741152,-1.6562941710101526,0.12955284118652344,-1.5218337217914026,0.006880068685859442,0.0007789746159687638,0.6743901968002319,0.0,-0.0,0.0,0.0,0.0,0.0
1782665457,61744813,-1.656306568776266,0.12954092025756836,-1.5218575636493128,0.006880068685859442,0.0007909588748589158,0.6743782162666321,0.0,-0.0,0.0,0.0,0.0,0.0
1782665457,69740881,-1.656306568776266,0.1296243667602539,-1.5218575636493128,0.006892052944749594,0.0008512545027770102,0.6743662357330322,0.0,-0.0,0.0,0.0,0.0,0.0
1782665457,77746357,-1.6562941710101526,0.12952899932861328,-1.5218337217914026,0.006904037203639746,0.0008392703020945191,0.674318253993988,0.0,-0.0,0.0,0.0,0.0,0.0
1782665457,85748166,-1.6563423315631312,0.12956476211547852,-1.5218694845782679,0.006856100168079138,0.0007789746159687638,0.6743782162666321,0.0,-0.0,0.0,0.0,0.0,0.0
1782665457,93746308,-1.6562941710101526,0.12960100173950195,-1.5218337217914026,0.006880068685859442,0.0008272860432043672,0.6743901968002319,0.0,-0.0,0.0,0.0,0.0,0.0
1782665457,101744857,-1.6563661734210413,0.1296243667602539,-1.5218456427203577,0.006880068685859442,0.0007909588748589158,0.6743542551994324,0.0,-0.0,0.0,0.0,0.0,0.0
1782665457,109802592,-1.656318489705221,0.12956476211547852,-1.5218456427203577,0.006892052944749594,0.0007909588748589158,0.6743901968002319,0.0,-0.0,0.0,0.0,0.0,0.0
1782665457,117750234,-1.656330410634176,0.1295766830444336,-1.521893326436178,0.006904037203639746,0.0008033175836317241,0.6743782162666321,0.0,-0.0,0.0,0.0,0.0,0.0
1782665457,125736321,-1.656306568776266,0.12960100173950195,-1.5218694845782679,0.00686808442696929,0.0007909588748589158,0.6744021773338318,0.0,-0.0,0.0,0.0,0.0,0.0
1782665457,133772759,-1.6563780943499964,0.12958860397338867,-1.521881405507223,0.00692800572142005,0.0007789746159687638,0.6743662357330322,0.0,-0.0,0.0,0.0,0.0,0.0
1782665457,144111871,-1.656306568776266,0.12952899932861328,-1.5218694845782679,0.006892052944749594,0.0008153018425218761,0.6743662357330322,0.0,-0.0,0.0,0.0,0.0,0.0
1782665457,149756359,-1.6563542524920862,0.12956476211547852,-1.5218575636493128,0.006892052944749594,0.0008272860432043672,0.6744021773338318,0.0,-0.0,0.0,0.0,0.0,0.0
1782665457,157753945,-1.6563542524920862,0.12952899932861328,-1.5218575636493128,0.00692800572142005,0.0008153018425218761,0.6744021773338318,0.0,-0.0,0.0,0.0,0.0,0.0
1782665457,195602501,-1.6562822500811976,0.12956476211547852,-1.5218213240252894,0.006892052944749594,0.0007909588748589158,0.6743901968002319,0.0,-0.0,0.0,0.0,0.0,0.0
1782665457,253786115,-1.6563423315631312,0.1295766830444336,-1.5218694845782679,0.006892052944749594,0.0008272860432043672,0.6743662357330322,0.0,-0.0,0.0,0.0,0.0,0.0
1782665457,254695388,-1.6563423315631312,0.1295766830444336,-1.5218694845782679,0.006892052944749594,0.0008272860432043672,0.6743662357330322,0.0,-0.0,0.0,0.0,0.0,0.0
1782665457,259444103,-1.6563423315631312,0.1295766830444336,-1.5218694845782679,0.006892052944749594,0.0008272860432043672,0.6743662357330322,0.0,-0.0,0.0,0.0,0.0,0.0
1782665457,272810383,-1.6563661734210413,0.12956476211547852,-1.5218094030963343,0.006892052944749594,0.0008033175836317241,0.6743901968002319,0.0,-0.0,0.0,0.0,0.0,0.0
1782665457,308034120,-1.6562703291522425,0.12958860397338867,-1.521881405507223,0.006892052944749594,0.0008392703020945191,0.6743901968002319,0.0,-0.0,0.0,0.0,0.0,0.0
1782665457,309077670,-1.6562703291522425,0.12958860397338867,-1.521881405507223,0.006892052944749594,0.0008392703020945191,0.6743901968002319,0.0,-0.0,0.0,0.0,0.0,0.0
1782665457,309963702,-1.6563423315631312,0.1295170783996582,-1.5218337217914026,0.006892052944749594,0.0008392703020945191,0.6743422150611877,0.0,-0.0,0.0,0.0,0.0,0.0
1782665457,310900475,-1.6563423315631312,0.1295170783996582,-1.5218337217914026,0.006892052944749594,0.0008392703020945191,0.6743422150611877,0.0,-0.0,0.0,0.0,0.0,0.0
1782665457,321158401,-1.6563423315631312,0.12952899932861328,-1.521905247365133,0.006904037203639746,0.0008272860432043672,0.6743901968002319,0.0,-0.0,0.0,0.0,0.0,0.0
1782665457,325755358,-1.656318489705221,0.12956476211547852,-1.5219176451312464,0.006892052944749594,0.0008033175836317241,0.6744021773338318,0.0,-0.0,0.0,0.0,0.0,0.0
1782665457,341756994,-1.656318489705221,0.1295766830444336,-1.5218694845782679,0.006904037203639746,0.0008153018425218761,0.6743422150611877,0.0,-0.0,0.0,0.0,0.0,0.0
1782665457,349777118,-1.6563780943499964,0.1295766830444336,-1.5218337217914026,0.006880068685859442,0.0008033175836317241,0.6743542551994324,0.0,-0.0,0.0,0.0,0.0,0.0
1782665457,357745464,-1.6562941710101526,0.12956476211547852,-1.5218337217914026,0.006880068685859442,0.0007789746159687638,0.6743542551994324,0.0,-0.0,0.0,0.0,0.0,0.0
1782665457,365737865,-1.6563661734210413,0.12955284118652344,-1.5218694845782679,0.00686808442696929,0.0007669904152862728,0.6743542551994324,0.0,-0.0,0.0,0.0,0.0,0.0
1782665457,373741063,-1.6563661734210413,0.1295766830444336,-1.521881405507223,0.006892052944749594,0.0007909588748589158,0.6743422150611877,0.0,-0.0,0.0,0.0,0.0,0.0
1782665457,382036056,-1.656318489705221,0.1295766830444336,-1.5218694845782679,0.006880068685859442,0.0008512545027770102,0.6743662357330322,0.0,-0.0,0.0,0.0,0.0,0.0
1782665457,389754829,-1.6562941710101526,0.12956476211547852,-1.5218575636493128,0.006904037203639746,0.0008153018425218761,0.6743062734603882,0.0,-0.0,0.0,0.0,0.0,0.0
1782665457,398331950,-1.6562941710101526,0.12956476211547852,-1.5218575636493128,0.006904037203639746,0.0008153018425218761,0.6743062734603882,0.0,-0.0,0.0,0.0,0.0,0.0
1782665457,421759787,-1.6563423315631312,0.12954092025756836,-1.5219176451312464,0.006904037203639746,0.0008153018425218761,0.6744021773338318,0.0,-0.0,0.0,0.0,0.0,0.0
1782665457,434506089,-1.6563661734210413,0.12954092025756836,-1.521881405507223,0.006892052944749594,0.0008153018425218761,0.6743662357330322,0.0,-0.0,0.0,0.0,0.0,0.0
1782665457,439926041,-1.656330410634176,0.12956476211547852,-1.5218456427203577,0.006880068685859442,0.0007789746159687638,0.674318253993988,0.0,-0.0,0.0,0.0,0.0,0.0
1782665457,445809769,-1.656330410634176,0.12956476211547852,-1.5218456427203577,0.006880068685859442,0.0007789746159687638,0.674318253993988,0.0,-0.0,0.0,0.0,0.0,0.0
1782665457,455734845,-1.6563904921161097,0.12958860397338867,-1.5218575636493128,0.006892052944749594,0.0007789746159687638,0.6743422150611877,0.0,-0.0,0.0,0.0,0.0,0.0
1782665457,463784783,-1.656318489705221,0.12958860397338867,-1.521881405507223,0.006904037203639746,0.0007789746159687638,0.6743901968002319,0.0,-0.0,0.0,0.0,0.0,0.0
1782665457,469932750,-1.6562822500811976,0.12954092025756836,-1.5218456427203577,0.006892052944749594,0.0007909588748589158,0.674318253993988,0.0,-0.0,0.0,0.0,0.0,0.0
1782665457,479439921,-1.6563780943499964,0.12955284118652344,-1.5218575636493128,0.006880068685859442,0.0008272860432043672,0.674318253993988,0.0,-0.0,0.0,0.0,0.0,0.0
1782665457,486116108,-1.6563780943499964,0.12955284118652344,-1.5218575636493128,0.006880068685859442,0.0008272860432043672,0.674318253993988,0.0,-0.0,0.0,0.0,0.0,0.0
1782665457,493750511,-1.656306568776266,0.1295766830444336,-1.521893326436178,0.006892052944749594,0.0008392703020945191,0.6743901968002319,0.0,-0.0,0.0,0.0,0.0,0.0
1782665457,501800709,-1.6562941710101526,0.1295766830444336,-1.5218575636493128,0.006951974239200354,0.0008033175836317241,0.6743901968002319,0.0,-0.0,0.0,0.0,0.0,0.0
1782665457,509740777,-1.656306568776266,0.12952899932861328,-1.5218456427203577,0.006939989980310202,0.0008033175836317241,0.6744141578674316,0.0,-0.0,0.0,0.0,0.0,0.0
1782665457,517736327,-1.656318489705221,0.12956476211547852,-1.5218456427203577,0.006892052944749594,0.0007789746159687638,0.6743542551994324,0.0,-0.0,0.0,0.0,0.0,0.0
1782665457,525745173,-1.656306568776266,0.12956476211547852,-1.521881405507223,0.006916021462529898,0.0008272860432043672,0.6743782162666321,0.0,-0.0,0.0,0.0,0.0,0.0
1782665457,533889184,-1.656330410634176,0.12958860397338867,-1.5218456427203577,0.00692800572142005,0.0008153018425218761,0.6743782162666321,0.0,-0.0,0.0,0.0,0.0,0.0
1782665457,541751457,-1.6562822500811976,0.12956476211547852,-1.5218456427203577,0.00686808442696929,0.0008272860432043672,0.6743422150611877,0.0,-0.0,0.0,0.0,0.0,0.0
1782665457,549761840,-1.656318489705221,0.12958860397338867,-1.5218694845782679,0.006892052944749594,0.0008033175836317241,0.6743422150611877,0.0,-0.0,0.0,0.0,0.0,0.0
1782665457,557860296,-1.656318489705221,0.12958860397338867,-1.5218694845782679,0.006892052944749594,0.0008033175836317241,0.6743422150611877,0.0,-0.0,0.0,0.0,0.0,0.0
1782665457,565788532,-1.656330410634176,0.12954092025756836,-1.5218213240252894,0.006880068685859442,0.0008272860432043672,0.6743422150611877,0.0,-0.0,0.0,0.0,0.0,0.0
1782665457,573809877,-1.656306568776266,0.12954092025756836,-1.5218456427203577,0.006939989980310202,0.0008033175836317241,0.6743782162666321,0.0,-0.0,0.0,0.0,0.0,0.0
1782665457,581837205,-1.656306568776266,0.12954092025756836,-1.5218456427203577,0.006939989980310202,0.0008033175836317241,0.6743782162666321,0.0,-0.0,0.0,0.0,0.0,0.0
1782665457,589870754,-1.6563423315631312,0.12956476211547852,-1.5218694845782679,0.006892052944749594,0.0008153018425218761,0.6743662357330322,0.0,-0.0,0.0,0.0,0.0,0.0
1782665457,597769915,-1.6563423315631312,0.12956476211547852,-1.5218694845782679,0.006892052944749594,0.0008153018425218761,0.6743662357330322,0.0,-0.0,0.0,0.0,0.0,0.0
1782665457,605765187,-1.6562584082232874,0.12955284118652344,-1.521881405507223,0.006916021462529898,0.0008033175836317241,0.6743901968002319,0.0,-0.0,0.0,0.0,0.0,0.0
1782665457,613781589,-1.6563423315631312,0.12958860397338867,-1.5218694845782679,0.006939989980310202,0.0007669904152862728,0.6743901968002319,0.0,-0.0,0.0,0.0,0.0,0.0
1782665457,621740046,-1.656330410634176,0.12955284118652344,-1.5218575636493128,0.006892052944749594,0.0007789746159687638,0.6743782162666321,0.0,-0.0,0.0,0.0,0.0,0.0
1782665457,629787503,-1.6563542524920862,0.1295766830444336,-1.5218694845782679,0.00686808442696929,0.0008272860432043672,0.6744021773338318,0.0,-0.0,0.0,0.0,0.0,0.0
1782665457,637737090,-1.656318489705221,0.12961292266845703,-1.5218575636493128,0.006892052944749594,0.0007669904152862728,0.6744141578674316,0.0,-0.0,0.0,0.0,0.0,0.0
1782665457,645740232,-1.6562941710101526,0.12954092025756836,-1.521881405507223,0.006892052944749594,0.0007909588748589158,0.6743782162666321,0.0,-0.0,0.0,0.0,0.0,0.0
1782665457,653764022,-1.6563542524920862,0.1295766830444336,-1.5218694845782679,0.006892052944749594,0.0007909588748589158,0.6743302345275879,0.0,-0.0,0.0,0.0,0.0,0.0
1782665457,661736498,-1.6563542524920862,0.12958860397338867,-1.521881405507223,0.006939989980310202,0.0007789746159687638,0.6743782162666321,0.0,-0.0,0.0,0.0,0.0,0.0
1782665457,669739899,-1.6563780943499964,0.12961292266845703,-1.5218456427203577,0.006892052944749594,0.0007909588748589158,0.6743782162666321,0.0,-0.0,0.0,0.0,0.0,0.0
1782665457,677783541,-1.6563780943499964,0.12961292266845703,-1.5218456427203577,0.006892052944749594,0.0007909588748589158,0.6743782162666321,0.0,-0.0,0.0,0.0,0.0,0.0
1782665457,685741573,-1.656318489705221,0.12956476211547852,-1.5218456427203577,0.006892052944749594,0.0007789746159687638,0.6743782162666321,0.0,-0.0,0.0,0.0,0.0,0.0
1782665457,694208971,-1.656318489705221,0.12958860397338867,-1.5218456427203577,0.006856100168079138,0.0008392703020945191,0.6743302345275879,0.0,-0.0,0.0,0.0,0.0,0.0
1782665457,701745894,-1.656330410634176,0.12956476211547852,-1.5218575636493128,0.006892052944749594,0.0007789746159687638,0.6744021773338318,0.0,-0.0,0.0,0.0,0.0,0.0
1782665457,709955868,-1.6563542524920862,0.12955284118652344,-1.5218575636493128,0.006856100168079138,0.0008033175836317241,0.6744141578674316,0.0,-0.0,0.0,0.0,0.0,0.0
1782665457,718341175,-1.6563423315631312,0.12955284118652344,-1.5218694845782679,0.00692800572142005,0.0008153018425218761,0.6743302345275879,0.0,-0.0,0.0,0.0,0.0,0.0
1782665457,725742839,-1.656318489705221,0.1295766830444336,-1.5218094030963343,0.006880068685859442,0.0008272860432043672,0.6743542551994324,0.0,-0.0,0.0,0.0,0.0,0.0
1782665457,733936906,-1.6562941710101526,0.12956476211547852,-1.521881405507223,0.006844115909188986,0.0008033175836317241,0.6744021773338318,0.0,-0.0,0.0,0.0,0.0,0.0
1782665457,741737401,-1.6562941710101526,0.12954092025756836,-1.5218337217914026,0.006892052944749594,0.0008153018425218761,0.6743422150611877,0.0,-0.0,0.0,0.0,0.0,0.0
1782665457,749752766,-1.656330410634176,0.12955284118652344,-1.521881405507223,0.006904037203639746,0.0008153018425218761,0.6743901968002319,0.0,-0.0,0.0,0.0,0.0,0.0
1782665457,757743945,-1.656306568776266,0.12956476211547852,-1.5218213240252894,0.006892052944749594,0.0007669904152862728,0.6744021773338318,0.0,-0.0,0.0,0.0,0.0,0.0
1782665457,765912216,-1.6562822500811976,0.12955284118652344,-1.5218337217914026,0.006904037203639746,0.0008392703020945191,0.6744021773338318,0.0,-0.0,0.0,0.0,0.0,0.0
1782665457,774336356,-1.6562941710101526,0.12952899932861328,-1.5218213240252894,0.006916021462529898,0.0007789746159687638,0.6743422150611877,0.0,-0.0,0.0,0.0,0.0,0.0
1782665457,781779223,-1.6562941710101526,0.12956476211547852,-1.521881405507223,0.00692800572142005,0.0008153018425218761,0.674318253993988,0.0,-0.0,0.0,0.0,0.0,0.0
1782665457,789909698,-1.656330410634176,0.12960100173950195,-1.5218694845782679,0.00692800572142005,0.0008392703020945191,0.6743422150611877,0.0,-0.0,0.0,0.0,0.0,0.0
1782665457,797890396,-1.6562941710101526,0.12958860397338867,-1.5218694845782679,0.006892052944749594,0.0008033175836317241,0.6743782162666321,0.0,-0.0,0.0,0.0,0.0,0.0
1782665457,805757206,-1.6562822500811976,0.12955284118652344,-1.521893326436178,0.00686808442696929,0.0007909588748589158,0.674318253993988,0.0,-0.0,0.0,0.0,0.0,0.0
1782665457,814107457,-1.656330410634176,0.12958860397338867,-1.5218575636493128,0.006916021462529898,0.0008033175836317241,0.6743782162666321,0.0,-0.0,0.0,0.0,0.0,0.0
1782665457,821784379,-1.6563780943499964,0.12961292266845703,-1.521893326436178,0.006892052944749594,0.0008153018425218761,0.6743302345275879,0.0,-0.0,0.0,0.0,0.0,0.0
1782665457,829782762,-1.656330410634176,0.1295766830444336,-1.5218694845782679,0.006880068685859442,0.0008272860432043672,0.6743662357330322,0.0,-0.0,0.0,0.0,0.0,0.0
1782665457,837746571,-1.6563542524920862,0.12955284118652344,-1.5218694845782679,0.006916021462529898,0.0008033175836317241,0.6743542551994324,0.0,-0.0,0.0,0.0,0.0,0.0
1782665457,845873731,-1.656330410634176,0.1295766830444336,-1.5218694845782679,0.00686808442696929,0.0008153018425218761,0.6743662357330322,0.0,-0.0,0.0,0.0,0.0,0.0
1782665457,853768226,-1.656318489705221,0.12960100173950195,-1.521893326436178,0.006892052944749594,0.0008512545027770102,0.6743662357330322,0.0,-0.0,0.0,0.0,0.0,0.0
1782665457,861832497,-1.6563780943499964,0.12955284118652344,-1.521893326436178,0.006892052944749594,0.0008033175836317241,0.6744021773338318,0.0,-0.0,0.0,0.0,0.0,0.0
1782665457,869985583,-1.656318489705221,0.12955284118652344,-1.521893326436178,0.00692800572142005,0.0008392703020945191,0.6743422150611877,0.0,-0.0,0.0,0.0,0.0,0.0
1782665457,877751152,-1.6563423315631312,0.12956476211547852,-1.5218456427203577,0.006904037203639746,0.0007550062146037817,0.6743662357330322,0.0,-0.0,0.0,0.0,0.0,0.0
1782665457,885737906,-1.656318489705221,0.12955284118652344,-1.5218094030963343,0.00686808442696929,0.0008033175836317241,0.6743422150611877,0.0,-0.0,0.0,0.0,0.0,0.0
1782665457,893739622,-1.656318489705221,0.12955284118652344,-1.5218456427203577,0.006892052944749594,0.0008272860432043672,0.6743901968002319,0.0,-0.0,0.0,0.0,0.0,0.0
1782665457,901797894,-1.6563542524920862,0.1295766830444336,-1.5218456427203577,0.006880068685859442,0.0007789746159687638,0.6743542551994324,0.0,-0.0,0.0,0.0,0.0,0.0
1782665457,909728610,-1.6562941710101526,0.12955284118652344,-1.5218575636493128,0.006951974239200354,0.0008392703020945191,0.6743542551994324,0.0,-0.0,0.0,0.0,0.0,0.0
1782665457,917757308,-1.656330410634176,0.12952899932861328,-1.521881405507223,0.006904037203639746,0.0007669904152862728,0.6743422150611877,0.0,-0.0,0.0,0.0,0.0,0.0
1782665457,925791265,-1.656318489705221,0.12961292266845703,-1.5218575636493128,0.00692800572142005,0.0007909588748589158,0.6743422150611877,0.0,-0.0,0.0,0.0,0.0,0.0
1782665457,933770814,-1.6562941710101526,0.12952899932861328,-1.5218694845782679,0.006892052944749594,0.0008392703020945191,0.6743901968002319,0.0,-0.0,0.0,0.0,0.0,0.0
1782665457,941747401,-1.656318489705221,0.1295766830444336,-1.5218694845782679,0.006916021462529898,0.0008033175836317241,0.6743422150611877,0.0,-0.0,0.0,0.0,0.0,0.0
1782665457,949764728,-1.6563780943499964,0.12954092025756836,-1.521905247365133,0.006904037203639746,0.0007909588748589158,0.6743901968002319,0.0,-0.0,0.0,0.0,0.0,0.0
1782665457,957851778,-1.6562941710101526,0.12956476211547852,-1.5218213240252894,0.006951974239200354,0.0008153018425218761,0.6743542551994324,0.0,-0.0,0.0,0.0,0.0,0.0
1782665457,965756587,-1.656306568776266,0.12958860397338867,-1.5218094030963343,0.00686808442696929,0.0008392703020945191,0.6743901968002319,0.0,-0.0,0.0,0.0,0.0,0.0
1782665457,973746377,-1.656330410634176,0.12954092025756836,-1.5218694845782679,0.006916021462529898,0.0008392703020945191,0.6744021773338318,0.0,-0.0,0.0,0.0,0.0,0.0
1782665457,981768557,-1.656318489705221,0.1295170783996582,-1.521881405507223,0.006904037203639746,0.0008153018425218761,0.6743542551994324,0.0,-0.0,0.0,0.0,0.0,0.0
1782665457,989776254,-1.656306568776266,0.12958860397338867,-1.5218337217914026,0.00692800572142005,0.0008153018425218761,0.6744021773338318,0.0,-0.0,0.0,0.0,0.0,0.0
1782665457,997754730,-1.6563661734210413,0.12961292266845703,-1.521893326436178,0.006892052944749594,0.0008153018425218761,0.6743782162666321,0.0,-0.0,0.0,0.0,0.0,0.0
1782665458,5761391,-1.6562941710101526,0.12954092025756836,-1.521893326436178,0.006856100168079138,0.0008033175836317241,0.6743782162666321,0.0,-0.0,0.0,0.0,0.0,0.0
1782665458,13761737,-1.6562822500811976,0.12955284118652344,-1.5218456427203577,0.006904037203639746,0.0008153018425218761,0.6743782162666321,0.0,-0.0,0.0,0.0,0.0,0.0
1782665458,21786250,-1.656318489705221,0.1295766830444336,-1.5218694845782679,0.006939989980310202,0.0008033175836317241,0.6743901968002319,0.0,-0.0,0.0,0.0,0.0,0.0
1782665458,29754003,-1.6562941710101526,0.12955284118652344,-1.5218456427203577,0.00686808442696929,0.0008632387034595013,0.6743782162666321,0.0,-0.0,0.0,0.0,0.0,0.0
1782665458,37740090,-1.6563542524920862,0.1295170783996582,-1.5218694845782679,0.006916021462529898,0.0008033175836317241,0.6744141578674316,0.0,-0.0,0.0,0.0,0.0,0.0
1782665458,45765770,-1.656318489705221,0.12955284118652344,-1.5218456427203577,0.006904037203639746,0.0007669904152862728,0.6744021773338318,0.0,-0.0,0.0,0.0,0.0,0.0
1782665458,53799004,-1.656318489705221,0.1295766830444336,-1.5218456427203577,0.006904037203639746,0.0008272860432043672,0.6743662357330322,0.0,-0.0,0.0,0.0,0.0,0.0
1782665458,61765073,-1.656318489705221,0.12955284118652344,-1.521905247365133,0.006892052944749594,0.0008153018425218761,0.6743542551994324,0.0,-0.0,0.0,0.0,0.0,0.0
1782665458,69750827,-1.6562941710101526,0.12958860397338867,-1.5218213240252894,0.00686808442696929,0.0008272860432043672,0.6743422150611877,0.0,-0.0,0.0,0.0,0.0,0.0
1782665458,77764358,-1.656306568776266,0.12954092025756836,-1.521905247365133,0.00692800572142005,0.0008512545027770102,0.6743662357330322,0.0,-0.0,0.0,0.0,0.0,0.0
1782665458,85763223,-1.6563423315631312,0.12956476211547852,-1.5218575636493128,0.006904037203639746,0.0007909588748589158,0.6743662357330322,0.0,-0.0,0.0,0.0,0.0,0.0
1782665458,93756902,-1.656318489705221,0.12961292266845703,-1.5218575636493128,0.006904037203639746,0.0008033175836317241,0.6744021773338318,0.0,-0.0,0.0,0.0,0.0,0.0
1782665458,101742822,-1.656306568776266,0.12961292266845703,-1.521881405507223,0.00692800572142005,0.0008272860432043672,0.6743542551994324,0.0,-0.0,0.0,0.0,0.0,0.0
1782665458,109743909,-1.6563542524920862,0.12956476211547852,-1.5218575636493128,0.006880068685859442,0.0007909588748589158,0.6743422150611877,0.0,-0.0,0.0,0.0,0.0,0.0
1782665458,117805070,-1.6562822500811976,0.12956476211547852,-1.5218694845782679,0.006892052944749594,0.0008392703020945191,0.6743782162666321,0.0,-0.0,0.0,0.0,0.0,0.0
1782665458,125763583,-1.6563661734210413,0.12958860397338867,-1.521881405507223,0.006892052944749594,0.0007909588748589158,0.6743542551994324,0.0,-0.0,0.0,0.0,0.0,0.0
1782665458,133746651,-1.6563542524920862,0.12956476211547852,-1.5218213240252894,0.006880068685859442,0.0008033175836317241,0.6743542551994324,0.0,-0.0,0.0,0.0,0.0,0.0
1782665458,141755479,-1.656318489705221,0.12958860397338867,-1.5218456427203577,0.006916021462529898,0.0008153018425218761,0.6743542551994324,0.0,-0.0,0.0,0.0,0.0,0.0
1782665458,149789880,-1.656306568776266,0.12958860397338867,-1.5218213240252894,0.006844115909188986,0.0008033175836317241,0.6743901968002319,0.0,-0.0,0.0,0.0,0.0,0.0
1782665458,157766430,-1.656318489705221,0.12956476211547852,-1.5218694845782679,0.006939989980310202,0.0007789746159687638,0.6743422150611877,0.0,-0.0,0.0,0.0,0.0,0.0
1782665458,165747999,-1.6563661734210413,0.12952899932861328,-1.521881405507223,0.006880068685859442,0.0008153018425218761,0.6743662357330322,0.0,-0.0,0.0,0.0,0.0,0.0
1782665458,173775049,-1.6562941710101526,0.12956476211547852,-1.5218337217914026,0.006916021462529898,0.0008033175836317241,0.6743542551994324,0.0,-0.0,0.0,0.0,0.0,0.0
1782665458,181863468,-1.656330410634176,0.12952899932861328,-1.5218575636493128,0.006880068685859442,0.0008153018425218761,0.6743542551994324,0.0,-0.0,0.0,0.0,0.0,0.0
1782665458,189761315,-1.6563661734210413,0.12954092025756836,-1.5218575636493128,0.006892052944749594,0.0007789746159687638,0.6743901968002319,0.0,-0.0,0.0,0.0,0.0,0.0
1782665458,197751791,-1.6563423315631312,0.12956476211547852,-1.5218213240252894,0.006880068685859442,0.0008033175836317241,0.6743782162666321,0.0,-0.0,0.0,0.0,0.0,0.0
1782665458,205763526,-1.6563423315631312,0.1295766830444336,-1.521893326436178,0.00686808442696929,0.0008033175836317241,0.6743901968002319,0.0,-0.0,0.0,0.0,0.0,0.0
1782665458,213803890,-1.6562941710101526,0.12956476211547852,-1.5218456427203577,0.006892052944749594,0.0008033175836317241,0.6743901968002319,0.0,-0.0,0.0,0.0,0.0,0.0
1782665458,221767977,-1.6563423315631312,0.1295170783996582,-1.5218094030963343,0.006892052944749594,0.0008392703020945191,0.6743662357330322,0.0,-0.0,0.0,0.0,0.0,0.0
1782665458,229749286,-1.656306568776266,0.12958860397338867,-1.5218575636493128,0.006916021462529898,0.0008033175836317241,0.6743542551994324,0.0,-0.0,0.0,0.0,0.0,0.0
1782665458,237838002,-1.6563542524920862,0.1295170783996582,-1.5218456427203577,0.00692800572142005,0.0008272860432043672,0.6743901968002319,0.0,-0.0,0.0,0.0,0.0,0.0
1782665458,245859274,-1.656318489705221,0.1295766830444336,-1.5218575636493128,0.006892052944749594,0.0008272860432043672,0.6743422150611877,0.0,-0.0,0.0,0.0,0.0,0.0
1782665458,253765862,-1.6562941710101526,0.1295766830444336,-1.5218213240252894,0.00686808442696929,0.0008033175836317241,0.6743422150611877,0.0,-0.0,0.0,0.0,0.0,0.0
1782665458,261761560,-1.656306568776266,0.1295766830444336,-1.521893326436178,0.006904037203639746,0.0008033175836317241,0.674318253993988,0.0,-0.0,0.0,0.0,0.0,0.0
1782665458,269739332,-1.6563423315631312,0.12955284118652344,-1.5218694845782679,0.006904037203639746,0.0008153018425218761,0.6743542551994324,0.0,-0.0,0.0,0.0,0.0,0.0
1782665458,277797604,-1.656318489705221,0.12956476211547852,-1.521893326436178,0.006880068685859442,0.0008033175836317241,0.6744021773338318,0.0,-0.0,0.0,0.0,0.0,0.0
1782665458,285763228,-1.6563423315631312,0.1295766830444336,-1.5218213240252894,0.006916021462529898,0.0008153018425218761,0.6743662357330322,0.0,-0.0,0.0,0.0,0.0,0.0
1782665458,293752148,-1.656330410634176,0.1295170783996582,-1.5218213240252894,0.00686808442696929,0.0007669904152862728,0.6743662357330322,0.0,-0.0,0.0,0.0,0.0,0.0
1782665458,301758994,-1.6562941710101526,0.12958860397338867,-1.5218694845782679,0.006904037203639746,0.0007669904152862728,0.6743782162666321,0.0,-0.0,0.0,0.0,0.0,0.0
1782665458,309871118,-1.656318489705221,0.12958860397338867,-1.5218456427203577,0.006892052944749594,0.0008033175836317241,0.6744021773338318,0.0,-0.0,0.0,0.0,0.0,0.0
1782665458,317765612,-1.656330410634176,0.12956476211547852,-1.521905247365133,0.006856100168079138,0.0007789746159687638,0.6743422150611877,0.0,-0.0,0.0,0.0,0.0,0.0
1782665458,325763903,-1.6563423315631312,0.12955284118652344,-1.5218694845782679,0.00686808442696929,0.0008392703020945191,0.674318253993988,0.0,-0.0,0.0,0.0,0.0,0.0
1782665458,333770897,-1.6563661734210413,0.1295766830444336,-1.5218694845782679,0.006880068685859442,0.0008392703020945191,0.6743542551994324,0.0,-0.0,0.0,0.0,0.0,0.0
1782665458,341801780,-1.6563780943499964,0.12958860397338867,-1.521881405507223,0.006916021462529898,0.0008153018425218761,0.6743542551994324,0.0,-0.0,0.0,0.0,0.0,0.0
1782665458,349766571,-1.656330410634176,0.12952899932861328,-1.5218094030963343,0.006904037203639746,0.0008392703020945191,0.6744021773338318,0.0,-0.0,0.0,0.0,0.0,0.0
1782665458,357764454,-1.6563780943499964,0.12954092025756836,-1.5218337217914026,0.006916021462529898,0.0008392703020945191,0.6744021773338318,0.0,-0.0,0.0,0.0,0.0,0.0
1782665458,365773208,-1.656306568776266,0.12958860397338867,-1.521881405507223,0.00686808442696929,0.0008153018425218761,0.6743542551994324,0.0,-0.0,0.0,0.0,0.0,0.0
1782665458,373810220,-1.656330410634176,0.12956476211547852,-1.5218213240252894,0.006916021462529898,0.0007909588748589158,0.6743422150611877,0.0,-0.0,0.0,0.0,0.0,0.0
1782665458,381777622,-1.6563542524920862,0.12961292266845703,-1.5218694845782679,0.006880068685859442,0.0008153018425218761,0.6744021773338318,0.0,-0.0,0.0,0.0,0.0,0.0
1782665458,389758617,-1.656330410634176,0.12961292266845703,-1.5218694845782679,0.00692800572142005,0.0008153018425218761,0.6743422150611877,0.0,-0.0,0.0,0.0,0.0,0.0
1782665458,397768389,-1.656318489705221,0.12960100173950195,-1.521893326436178,0.006904037203639746,0.0008392703020945191,0.6743662357330322,0.0,-0.0,0.0,0.0,0.0,0.0
1782665458,405795957,-1.656306568776266,0.1295766830444336,-1.5218456427203577,0.006916021462529898,0.0008272860432043672,0.6744021773338318,0.0,-0.0,0.0,0.0,0.0,0.0
1782665458,413758377,-1.656330410634176,0.12961292266845703,-1.521881405507223,0.006892052944749594,0.0008272860432043672,0.6743782162666321,0.0,-0.0,0.0,0.0,0.0,0.0
1782665458,421739520,-1.6563542524920862,0.1295766830444336,-1.5218337217914026,0.006916021462529898,0.0008153018425218761,0.6743422150611877,0.0,-0.0,0.0,0.0,0.0,0.0
1782665458,429752866,-1.6562941710101526,0.12958860397338867,-1.5218456427203577,0.00692800572142005,0.0008033175836317241,0.6743662357330322,0.0,-0.0,0.0,0.0,0.0,0.0
1782665458,437796693,-1.656306568776266,0.12958860397338867,-1.5218213240252894,0.006892052944749594,0.0008272860432043672,0.6743901968002319,0.0,-0.0,0.0,0.0,0.0,0.0
1782665458,445758984,-1.656318489705221,0.1295170783996582,-1.521893326436178,0.006892052944749594,0.0008153018425218761,0.6744141578674316,0.0,-0.0,0.0,0.0,0.0,0.0
1782665458,453755219,-1.6563780943499964,0.12955284118652344,-1.5218213240252894,0.006880068685859442,0.0008153018425218761,0.6743782162666321,0.0,-0.0,0.0,0.0,0.0,0.0
1782665458,461769232,-1.6562822500811976,0.12958860397338867,-1.521893326436178,0.006904037203639746,0.0008033175836317241,0.674318253993988,0.0,-0.0,0.0,0.0,0.0,0.0
1782665458,469799207,-1.656318489705221,0.12958860397338867,-1.5218575636493128,0.006856100168079138,0.0007550062146037817,0.6743542551994324,0.0,-0.0,0.0,0.0,0.0,0.0
1782665458,477759943,-1.6563423315631312,0.1295766830444336,-1.5218575636493128,0.006892052944749594,0.0008153018425218761,0.6743422150611877,0.0,-0.0,0.0,0.0,0.0,0.0
1782665458,485762641,-1.6563661734210413,0.12955284118652344,-1.5218337217914026,0.006904037203639746,0.0007669904152862728,0.674318253993988,0.0,-0.0,0.0,0.0,0.0,0.0
1782665458,493757209,-1.656318489705221,0.12958860397338867,-1.5218456427203577,0.006856100168079138,0.0008033175836317241,0.6743422150611877,0.0,-0.0,0.0,0.0,0.0,0.0
1782665458,501751889,-1.6563423315631312,0.12958860397338867,-1.521893326436178,0.00692800572142005,0.0008392703020945191,0.6743542551994324,0.0,-0.0,0.0,0.0,0.0,0.0
1782665458,509770438,-1.6563423315631312,0.12955284118652344,-1.5219176451312464,0.006904037203639746,0.0008153018425218761,0.6743542551994324,0.0,-0.0,0.0,0.0,0.0,0.0
1782665458,517760507,-1.6563423315631312,0.12955284118652344,-1.5218694845782679,0.006880068685859442,0.0008392703020945191,0.6744021773338318,0.0,-0.0,0.0,0.0,0.0,0.0
1782665458,525761464,-1.6563542524920862,0.12956476211547852,-1.521881405507223,0.006856100168079138,0.0007909588748589158,0.6743901968002319,0.0,-0.0,0.0,0.0,0.0,0.0
1782665458,533799051,-1.6562584082232874,0.12956476211547852,-1.5218456427203577,0.006856100168079138,0.0008272860432043672,0.6743901968002319,0.0,-0.0,0.0,0.0,0.0,0.0
1782665458,541755990,-1.6563423315631312,0.12961292266845703,-1.5218213240252894,0.006963958498090506,0.0007789746159687638,0.674318253993988,0.0,-0.0,0.0,0.0,0.0,0.0
1782665458,549758410,-1.656318489705221,0.12955284118652344,-1.521881405507223,0.00686808442696929,0.0008033175836317241,0.6743542551994324,0.0,-0.0,0.0,0.0,0.0,0.0
1782665458,557758441,-1.6563542524920862,0.12956476211547852,-1.5218575636493128,0.006880068685859442,0.0007909588748589158,0.6743302345275879,0.0,-0.0,0.0,0.0,0.0,0.0
1782665458,565787509,-1.656330410634176,0.12954092025756836,-1.5218575636493128,0.006880068685859442,0.0008512545027770102,0.6743302345275879,0.0,-0.0,0.0,0.0,0.0,0.0
1782665458,573760115,-1.656306568776266,0.12960100173950195,-1.521905247365133,0.006939989980310202,0.0007909588748589158,0.6743422150611877,0.0,-0.0,0.0,0.0,0.0,0.0
1782665458,581741757,-1.656306568776266,0.12958860397338867,-1.5218575636493128,0.006916021462529898,0.0008153018425218761,0.6744021773338318,0.0,-0.0,0.0,0.0,0.0,0.0
1782665458,589761029,-1.6562941710101526,0.1295766830444336,-1.521893326436178,0.006880068685859442,0.0008392703020945191,0.6743542551994324,0.0,-0.0,0.0,0.0,0.0,0.0
1782665458,597794986,-1.6563423315631312,0.12955284118652344,-1.5218337217914026,0.00692800572142005,0.0008033175836317241,0.6743302345275879,0.0,-0.0,0.0,0.0,0.0,0.0
1782665458,605763036,-1.656330410634176,0.12958860397338867,-1.521881405507223,0.006892052944749594,0.0008512545027770102,0.6743782162666321,0.0,-0.0,0.0,0.0,0.0,0.0
1782665458,613747901,-1.6563661734210413,0.12955284118652344,-1.5218694845782679,0.006856100168079138,0.0008033175836317241,0.6743782162666321,0.0,-0.0,0.0,0.0,0.0,0.0
1782665458,621808284,-1.6562941710101526,0.12952899932861328,-1.5218694845782679,0.006904037203639746,0.0008033175836317241,0.6744141578674316,0.0,-0.0,0.0,0.0,0.0,0.0
1782665458,629858186,-1.656318489705221,0.12955284118652344,-1.5218213240252894,0.00686808442696929,0.0007909588748589158,0.6743782162666321,0.0,-0.0,0.0,0.0,0.0,0.0
1782665458,637772440,-1.6562941710101526,0.12954092025756836,-1.5218213240252894,0.006892052944749594,0.0007909588748589158,0.6743662357330322,0.0,-0.0,0.0,0.0,0.0,0.0
1782665458,645752156,-1.6563542524920862,0.12952899932861328,-1.5218575636493128,0.00692800572142005,0.0008033175836317241,0.6743782162666321,0.0,-0.0,0.0,0.0,0.0,0.0
1782665458,653771113,-1.6563661734210413,0.12960100173950195,-1.5218575636493128,0.006892052944749594,0.0008153018425218761,0.6744021773338318,0.0,-0.0,0.0,0.0,0.0,0.0
1782665458,661860255,-1.656318489705221,0.1295766830444336,-1.5218213240252894,0.00692800572142005,0.0008033175836317241,0.6743422150611877,0.0,-0.0,0.0,0.0,0.0,0.0
1782665458,669768028,-1.6563423315631312,0.12955284118652344,-1.521905247365133,0.00692800572142005,0.0007909588748589158,0.6743662357330322,0.0,-0.0,0.0,0.0,0.0,0.0
1782665458,677750318,-1.6563780943499964,0.12958860397338867,-1.521893326436178,0.006904037203639746,0.0008033175836317241,0.6743901968002319,0.0,-0.0,0.0,0.0,0.0,0.0
1782665458,685772516,-1.6562941710101526,0.12958860397338867,-1.521893326436178,0.006844115909188986,0.0007669904152862728,0.6743782162666321,0.0,-0.0,0.0,0.0,0.0,0.0
1782665458,693861455,-1.656330410634176,0.12954092025756836,-1.5218213240252894,0.00692800572142005,0.0007909588748589158,0.6743901968002319,0.0,-0.0,0.0,0.0,0.0,0.0
1782665458,701767246,-1.6562941710101526,0.12956476211547852,-1.521881405507223,0.006916021462529898,0.0008153018425218761,0.6744021773338318,0.0,-0.0,0.0,0.0,0.0,0.0
1782665458,709749888,-1.6563423315631312,0.12954092025756836,-1.5218694845782679,0.006939989980310202,0.0007789746159687638,0.6743662357330322,0.0,-0.0,0.0,0.0,0.0,0.0
1782665458,717772549,-1.6564024130450647,0.12952899932861328,-1.521881405507223,0.006856100168079138,0.0008512545027770102,0.6743662357330322,0.0,-0.0,0.0,0.0,0.0,0.0
1782665458,725862450,-1.656330410634176,0.12956476211547852,-1.5218456427203577,0.006904037203639746,0.0008153018425218761,0.6743782162666321,0.0,-0.0,0.0,0.0,0.0,0.0
1782665458,733771556,-1.656306568776266,0.12954092025756836,-1.5218213240252894,0.006880068685859442,0.0008392703020945191,0.6743542551994324,0.0,-0.0,0.0,0.0,0.0,0.0
1782665458,741760143,-1.6563661734210413,0.12954092025756836,-1.5218213240252894,0.00692800572142005,0.0008153018425218761,0.674318253993988,0.0,-0.0,0.0,0.0,0.0,0.0
1782665458,749754211,-1.656306568776266,0.12960100173950195,-1.5218213240252894,0.006939989980310202,0.0008033175836317241,0.6743422150611877,0.0,-0.0,0.0,0.0,0.0,0.0
1782665458,757760224,-1.656330410634176,0.12960100173950195,-1.5218213240252894,0.00686808442696929,0.0008392703020945191,0.6744021773338318,0.0,-0.0,0.0,0.0,0.0,0.0
1782665458,765775496,-1.656306568776266,0.12956476211547852,-1.5218694845782679,0.00686808442696929,0.0008153018425218761,0.6743422150611877,0.0,-0.0,0.0,0.0,0.0,0.0
1782665458,773770176,-1.656306568776266,0.12956476211547852,-1.5218213240252894,0.006904037203639746,0.0008632387034595013,0.6744381189346313,0.0,-0.0,0.0,0.0,0.0,0.0
1782665458,781767244,-1.6562941710101526,0.12956476211547852,-1.5218337217914026,0.00692800572142005,0.0008153018425218761,0.6743302345275879,0.0,-0.0,0.0,0.0,0.0,0.0
1782665458,789841071,-1.656306568776266,0.12960100173950195,-1.5218213240252894,0.006916021462529898,0.0008512545027770102,0.6744021773338318,0.0,-0.0,0.0,0.0,0.0,0.0
1782665458,797766325,-1.656318489705221,0.12950468063354492,-1.521893326436178,0.006892052944749594,0.0008153018425218761,0.6743782162666321,0.0,-0.0,0.0,0.0,0.0,0.0
1782665458,805767764,-1.656306568776266,0.12956476211547852,-1.5218337217914026,0.006904037203639746,0.0007909588748589158,0.6743542551994324,0.0,-0.0,0.0,0.0,0.0,0.0
1782665458,813762369,-1.6562941710101526,0.12956476211547852,-1.5218694845782679,0.006856100168079138,0.0008153018425218761,0.6743302345275879,0.0,-0.0,0.0,0.0,0.0,0.0
1782665458,821793956,-1.6563542524920862,0.12955284118652344,-1.5218456427203577,0.00686808442696929,0.0007789746159687638,0.6743302345275879,0.0,-0.0,0.0,0.0,0.0,0.0
1782665458,829761006,-1.6563661734210413,0.12958860397338867,-1.521881405507223,0.006856100168079138,0.0008272860432043672,0.6743422150611877,0.0,-0.0,0.0,0.0,0.0,0.0
1782665458,837745797,-1.6562822500811976,0.12952899932861328,-1.521893326436178,0.006916021462529898,0.0008033175836317241,0.6743901968002319,0.0,-0.0,0.0,0.0,0.0,0.0
1782665458,845767698,-1.6563423315631312,0.1295766830444336,-1.521881405507223,0.006939989980310202,0.0007669904152862728,0.6743302345275879,0.0,-0.0,0.0,0.0,0.0,0.0
1782665458,853858452,-1.656330410634176,0.1295766830444336,-1.5218694845782679,0.006904037203639746,0.0008272860432043672,0.6743901968002319,0.0,-0.0,0.0,0.0,0.0,0.0
1782665458,861767557,-1.6562941710101526,0.1295766830444336,-1.521893326436178,0.006880068685859442,0.0008033175836317241,0.6743302345275879,0.0,-0.0,0.0,0.0,0.0,0.0
1782665458,869754478,-1.6563780943499964,0.12955284118652344,-1.5218337217914026,0.006939989980310202,0.0008153018425218761,0.6744021773338318,0.0,-0.0,0.0,0.0,0.0,0.0
1782665458,877777620,-1.656330410634176,0.12956476211547852,-1.521893326436178,0.006880068685859442,0.0007669904152862728,0.6743901968002319,0.0,-0.0,0.0,0.0,0.0,0.0
1782665458,885868021,-1.6563661734210413,0.12958860397338867,-1.5218694845782679,0.006892052944749594,0.0007909588748589158,0.6744021773338318,0.0,-0.0,0.0,0.0,0.0,0.0
1782665458,893745535,-1.6563780943499964,0.12954092025756836,-1.5219176451312464,0.00692800572142005,0.0008153018425218761,0.6743422150611877,0.0,-0.0,0.0,0.0,0.0,0.0
1782665458,901730881,-1.6563542524920862,0.12956476211547852,-1.521881405507223,0.006904037203639746,0.0008392703020945191,0.6743542551994324,0.0,-0.0,0.0,0.0,0.0,0.0
1782665458,909768819,-1.6563661734210413,0.12956476211547852,-1.5218213240252894,0.00692800572142005,0.0008153018425218761,0.6743422150611877,0.0,-0.0,0.0,0.0,0.0,0.0
1782665458,917776888,-1.656330410634176,0.12956476211547852,-1.5218337217914026,0.00692800572142005,0.0008033175836317241,0.6743901968002319,0.0,-0.0,0.0,0.0,0.0,0.0
1782665458,926665674,-1.6562822500811976,0.1295766830444336,-1.521905247365133,0.006951974239200354,0.0008153018425218761,0.6743782162666321,0.0,-0.0,0.0,0.0,0.0,0.0
1782665458,933764580,-1.656330410634176,0.12954092025756836,-1.5218456427203577,0.006892052944749594,0.0007909588748589158,0.674318253993988,0.0,-0.0,0.0,0.0,0.0,0.0
1782665458,941759741,-1.6563542524920862,0.1295170783996582,-1.5218213240252894,0.006892052944749594,0.0008392703020945191,0.6743662357330322,0.0,-0.0,0.0,0.0,0.0,0.0
1782665458,949836494,-1.6562941710101526,0.12956476211547852,-1.5218456427203577,0.006904037203639746,0.0008512545027770102,0.6744021773338318,0.0,-0.0,0.0,0.0,0.0,0.0
1782665458,957777618,-1.6563661734210413,0.12958860397338867,-1.5218456427203577,0.006904037203639746,0.0008033175836317241,0.6743662357330322,0.0,-0.0,0.0,0.0,0.0,0.0
1782665458,965757928,-1.656306568776266,0.12955284118652344,-1.5218575636493128,0.006916021462529898,0.0007909588748589158,0.6744021773338318,0.0,-0.0,0.0,0.0,0.0,0.0
1782665458,973776181,-1.6563423315631312,0.1295170783996582,-1.5218094030963343,0.006880068685859442,0.0008632387034595013,0.6743542551994324,0.0,-0.0,0.0,0.0,0.0,0.0
1782665458,981866027,-1.6562941710101526,0.12958860397338867,-1.5218694845782679,0.006880068685859442,0.0008392703020945191,0.6743782162666321,0.0,-0.0,0.0,0.0,0.0,0.0
1782665458,989770336,-1.6563542524920862,0.1295766830444336,-1.5218694845782679,0.00686808442696929,0.0008033175836317241,0.6743542551994324,0.0,-0.0,0.0,0.0,0.0,0.0
1782665458,997765275,-1.656330410634176,0.12956476211547852,-1.521881405507223,0.006880068685859442,0.0008153018425218761,0.6743782162666321,0.0,-0.0,0.0,0.0,0.0,0.0
1782665459,5768344,-1.6563542524920862,0.12956476211547852,-1.521881405507223,0.00692800572142005,0.0008512545027770102,0.6743422150611877,0.0,-0.0,0.0,0.0,0.0,0.0
1782665459,13804227,-1.656306568776266,0.12956476211547852,-1.5218456427203577,0.006916021462529898,0.0008153018425218761,0.6743422150611877,0.0,-0.0,0.0,0.0,0.0,0.0
1782665459,21772092,-1.6563423315631312,0.12961292266845703,-1.521905247365133,0.006904037203639746,0.0008033175836317241,0.6743422150611877,0.0,-0.0,0.0,0.0,0.0,0.0
1782665459,29763364,-1.656318489705221,0.12956476211547852,-1.5218337217914026,0.006892052944749594,0.0008512545027770102,0.6743422150611877,0.0,-0.0,0.0,0.0,0.0,0.0
1782665459,37785173,-1.656330410634176,0.12954092025756836,-1.5218575636493128,0.006939989980310202,0.0008153018425218761,0.6743901968002319,0.0,-0.0,0.0,0.0,0.0,0.0
1782665459,45849038,-1.6563423315631312,0.1295766830444336,-1.5218337217914026,0.00692800572142005,0.0008392703020945191,0.6743542551994324,0.0,-0.0,0.0,0.0,0.0,0.0
1782665459,53755200,-1.6562822500811976,0.12954092025756836,-1.5219176451312464,0.006904037203639746,0.0008392703020945191,0.6743302345275879,0.0,-0.0,0.0,0.0,0.0,0.0
1782665459,61752194,-1.656306568776266,0.1295766830444336,-1.5218337217914026,0.006916021462529898,0.0007789746159687638,0.6743422150611877,0.0,-0.0,0.0,0.0,0.0,0.0
1782665459,69777263,-1.656330410634176,0.1295766830444336,-1.521881405507223,0.006844115909188986,0.0008153018425218761,0.6743901968002319,0.0,-0.0,0.0,0.0,0.0,0.0
1782665459,77862942,-1.6563423315631312,0.1296243667602539,-1.5218575636493128,0.006892052944749594,0.0008153018425218761,0.6743542551994324,0.0,-0.0,0.0,0.0,0.0,0.0
1782665459,85763233,-1.656306568776266,0.12956476211547852,-1.521881405507223,0.006880068685859442,0.0008153018425218761,0.674318253993988,0.0,-0.0,0.0,0.0,0.0,0.0
1782665459,93751468,-1.656318489705221,0.1295766830444336,-1.5218694845782679,0.006916021462529898,0.0008272860432043672,0.6743662357330322,0.0,-0.0,0.0,0.0,0.0,0.0
1782665459,101774648,-1.6563423315631312,0.12956476211547852,-1.5218575636493128,0.006904037203639746,0.0008512545027770102,0.6743901968002319,0.0,-0.0,0.0,0.0,0.0,0.0
1782665459,109863661,-1.6562703291522425,0.12960100173950195,-1.5218213240252894,0.006880068685859442,0.0008153018425218761,0.6744021773338318,0.0,-0.0,0.0,0.0,0.0,0.0
1782665459,117770730,-1.656318489705221,0.12958860397338867,-1.5218694845782679,0.006892052944749594,0.0007789746159687638,0.6744021773338318,0.0,-0.0,0.0,0.0,0.0,0.0
1782665459,125792502,-1.656306568776266,0.12955284118652344,-1.5219176451312464,0.006904037203639746,0.0008392703020945191,0.6743782162666321,0.0,-0.0,0.0,0.0,0.0,0.0
1782665459,133778441,-1.6563423315631312,0.12958860397338867,-1.521881405507223,0.006904037203639746,0.0008153018425218761,0.6743782162666321,0.0,-0.0,0.0,0.0,0.0,0.0
1782665459,141856990,-1.6563423315631312,0.12958860397338867,-1.521893326436178,0.00686808442696929,0.0008153018425218761,0.6743782162666321,0.0,-0.0,0.0,0.0,0.0,0.0
1782665459,149767578,-1.6563542524920862,0.12960100173950195,-1.521881405507223,0.006880068685859442,0.0008033175836317241,0.6743542551994324,0.0,-0.0,0.0,0.0,0.0,0.0
1782665459,157754147,-1.656318489705221,0.12958860397338867,-1.5218337217914026,0.006916021462529898,0.0007909588748589158,0.6743542551994324,0.0,-0.0,0.0,0.0,0.0,0.0
1782665459,165757067,-1.6563423315631312,0.12961292266845703,-1.521893326436178,0.00692800572142005,0.0007789746159687638,0.6743302345275879,0.0,-0.0,0.0,0.0,0.0,0.0
1782665459,173794636,-1.656330410634176,0.12956476211547852,-1.521893326436178,0.006904037203639746,0.0008153018425218761,0.6743782162666321,0.0,-0.0,0.0,0.0,0.0,0.0
1782665459,181766963,-1.6563661734210413,0.12955284118652344,-1.521893326436178,0.006904037203639746,0.0008033175836317241,0.6743542551994324,0.0,-0.0,0.0,0.0,0.0,0.0
1782665459,189764680,-1.656318489705221,0.12954092025756836,-1.521893326436178,0.006892052944749594,0.0008392703020945191,0.6743662357330322,0.0,-0.0,0.0,0.0,0.0,0.0
1782665459,197760249,-1.6562941710101526,0.1295170783996582,-1.5218337217914026,0.006880068685859442,0.0007909588748589158,0.6743662357330322,0.0,-0.0,0.0,0.0,0.0,0.0
1782665459,205839187,-1.656330410634176,0.12956476211547852,-1.5218213240252894,0.006892052944749594,0.0008392703020945191,0.6743782162666321,0.0,-0.0,0.0,0.0,0.0,0.0
1782665459,213770497,-1.6563423315631312,0.12952899932861328,-1.5218694845782679,0.00692800572142005,0.0008392703020945191,0.6743542551994324,0.0,-0.0,0.0,0.0,0.0,0.0
1782665459,221751973,-1.6563423315631312,0.12955284118652344,-1.521893326436178,0.006892052944749594,0.0008272860432043672,0.6743422150611877,0.0,-0.0,0.0,0.0,0.0,0.0
1782665459,229778319,-1.656318489705221,0.12955284118652344,-1.5218337217914026,0.006939989980310202,0.0008033175836317241,0.6743542551994324,0.0,-0.0,0.0,0.0,0.0,0.0
1782665459,237779073,-1.6563542524920862,0.12958860397338867,-1.5218694845782679,0.006856100168079138,0.0007789746159687638,0.6743901968002319,0.0,-0.0,0.0,0.0,0.0,0.0
1782665459,245767994,-1.656330410634176,0.12958860397338867,-1.521893326436178,0.006844115909188986,0.0008033175836317241,0.6743662357330322,0.0,-0.0,0.0,0.0,0.0,0.0
1782665459,253766007,-1.656306568776266,0.12960100173950195,-1.5218694845782679,0.006844115909188986,0.0007789746159687638,0.6743662357330322,0.0,-0.0,0.0,0.0,0.0,0.0
1782665459,261765168,-1.656330410634176,0.12955284118652344,-1.5218575636493128,0.006880068685859442,0.0008392703020945191,0.6743542551994324,0.0,-0.0,0.0,0.0,0.0,0.0
1782665459,269800421,-1.6563542524920862,0.12956476211547852,-1.5218575636493128,0.006880068685859442,0.0008033175836317241,0.6743542551994324,0.0,-0.0,0.0,0.0,0.0,0.0
1782665459,277761990,-1.656330410634176,0.12956476211547852,-1.5219295660602015,0.00686808442696929,0.0008033175836317241,0.6743302345275879,0.0,-0.0,0.0,0.0,0.0,0.0
1782665459,285742392,-1.656306568776266,0.12954092025756836,-1.521905247365133,0.00686808442696929,0.0008153018425218761,0.6743662357330322,0.0,-0.0,0.0,0.0,0.0,0.0
1782665459,293766776,-1.6563423315631312,0.12955284118652344,-1.5218575636493128,0.006856100168079138,0.0007550062146037817,0.6743782162666321,0.0,-0.0,0.0,0.0,0.0,0.0
1782665459,301853381,-1.656318489705221,0.12954092025756836,-1.5218694845782679,0.00686808442696929,0.0008033175836317241,0.6743901968002319,0.0,-0.0,0.0,0.0,0.0,0.0
1782665459,309757450,-1.656306568776266,0.12961292266845703,-1.5218337217914026,0.006904037203639746,0.0008153018425218761,0.6743542551994324,0.0,-0.0,0.0,0.0,0.0,0.0
1782665459,317764185,-1.6563661734210413,0.12955284118652344,-1.5218694845782679,0.006892052944749594,0.0007909588748589158,0.6743302345275879,0.0,-0.0,0.0,0.0,0.0,0.0
1782665459,325759531,-1.6563423315631312,0.12960100173950195,-1.521881405507223,0.006916021462529898,0.0007789746159687638,0.6743062734603882,0.0,-0.0,0.0,0.0,0.0,0.0
1782665459,333796970,-1.656318489705221,0.12956476211547852,-1.5218694845782679,0.006916021462529898,0.0008272860432043672,0.6744021773338318,0.0,-0.0,0.0,0.0,0.0,0.0
1782665459,341769335,-1.6563542524920862,0.1295766830444336,-1.521881405507223,0.006904037203639746,0.0008033175836317241,0.6743782162666321,0.0,-0.0,0.0,0.0,0.0,0.0
1782665459,349765515,-1.656318489705221,0.12955284118652344,-1.5218694845782679,0.00686808442696929,0.0007669904152862728,0.6743782162666321,0.0,-0.0,0.0,0.0,0.0,0.0
1782665459,357761213,-1.656318489705221,0.12955284118652344,-1.521905247365133,0.00692800572142005,0.0008272860432043672,0.6744021773338318,0.0,-0.0,0.0,0.0,0.0,0.0
1782665459,365840503,-1.6562941710101526,0.12958860397338867,-1.5218456427203577,0.006904037203639746,0.0008033175836317241,0.6743662357330322,0.0,-0.0,0.0,0.0,0.0,0.0
1782665459,373772276,-1.656330410634176,0.12956476211547852,-1.521893326436178,0.006916021462529898,0.0008153018425218761,0.6743302345275879,0.0,-0.0,0.0,0.0,0.0,0.0
1782665459,381751826,-1.656330410634176,0.1295766830444336,-1.521881405507223,0.006916021462529898,0.0007789746159687638,0.6743662357330322,0.0,-0.0,0.0,0.0,0.0,0.0
1782665459,389764950,-1.6562941710101526,0.1295766830444336,-1.5218456427203577,0.006916021462529898,0.0007789746159687638,0.6743901968002319,0.0,-0.0,0.0,0.0,0.0,0.0
1782665459,397809222,-1.656306568776266,0.12958860397338867,-1.521881405507223,0.006880068685859442,0.0007789746159687638,0.6743422150611877,0.0,-0.0,0.0,0.0,0.0,0.0
1782665459,405759921,-1.6563423315631312,0.12958860397338867,-1.521881405507223,0.006904037203639746,0.0007909588748589158,0.6743542551994324,0.0,-0.0,0.0,0.0,0.0,0.0
1782665459,413749934,-1.656330410634176,0.12956476211547852,-1.5218575636493128,0.006880068685859442,0.0008033175836317241,0.6744021773338318,0.0,-0.0,0.0,0.0,0.0,0.0
1782665459,421762891,-1.656318489705221,0.12952899932861328,-1.5218575636493128,0.00686808442696929,0.0008512545027770102,0.6743542551994324,0.0,-0.0,0.0,0.0,0.0,0.0
1782665459,429761886,-1.656306568776266,0.12954092025756836,-1.521893326436178,0.006963958498090506,0.0007789746159687638,0.6743422150611877,0.0,-0.0,0.0,0.0,0.0,0.0
1782665459,437763177,-1.656330410634176,0.12956476211547852,-1.5218694845782679,0.00692800572142005,0.0007669904152862728,0.6744021773338318,0.0,-0.0,0.0,0.0,0.0,0.0
1782665459,445762282,-1.6562822500811976,0.12952899932861328,-1.5218213240252894,0.00692800572142005,0.0008392703020945191,0.6743901968002319,0.0,-0.0,0.0,0.0,0.0,0.0
1782665459,453763332,-1.6563423315631312,0.12956476211547852,-1.5218575636493128,0.006904037203639746,0.0008153018425218761,0.6744141578674316,0.0,-0.0,0.0,0.0,0.0,0.0
1782665459,461796512,-1.656318489705221,0.1295766830444336,-1.5218213240252894,0.006844115909188986,0.0008272860432043672,0.6743782162666321,0.0,-0.0,0.0,0.0,0.0,0.0
1782665459,469767210,-1.656330410634176,0.12960100173950195,-1.521881405507223,0.006904037203639746,0.0007789746159687638,0.6743901968002319,0.0,-0.0,0.0,0.0,0.0,0.0
1782665459,477749557,-1.656306568776266,0.12952899932861328,-1.5218575636493128,0.006856100168079138,0.0007909588748589158,0.6743542551994324,0.0,-0.0,0.0,0.0,0.0,0.0
1782665459,485772755,-1.656306568776266,0.12955284118652344,-1.5219295660602015,0.006892052944749594,0.0008392703020945191,0.6743662357330322,0.0,-0.0,0.0,0.0,0.0,0.0
1782665459,493806082,-1.656306568776266,0.12956476211547852,-1.5218575636493128,0.00692800572142005,0.0008033175836317241,0.674318253993988,0.0,-0.0,0.0,0.0,0.0,0.0
1782665459,501781503,-1.6562822500811976,0.12961292266845703,-1.521881405507223,0.006916021462529898,0.0008153018425218761,0.674318253993988,0.0,-0.0,0.0,0.0,0.0,0.0
1782665459,509747090,-1.6563423315631312,0.12958860397338867,-1.5218456427203577,0.006844115909188986,0.0008392703020945191,0.6743901968002319,0.0,-0.0,0.0,0.0,0.0,0.0
1782665459,517755714,-1.6563423315631312,0.12956476211547852,-1.5218456427203577,0.006880068685859442,0.0008272860432043672,0.6743901968002319,0.0,-0.0,0.0,0.0,0.0,0.0
1782665459,525836708,-1.656306568776266,0.12958860397338867,-1.5218213240252894,0.006892052944749594,0.0007550062146037817,0.6743662357330322,0.0,-0.0,0.0,0.0,0.0,0.0
1782665459,533760852,-1.6563423315631312,0.12956476211547852,-1.5218213240252894,0.006916021462529898,0.0007789746159687638,0.6744021773338318,0.0,-0.0,0.0,0.0,0.0,0.0
1782665459,541785920,-1.656306568776266,0.1296243667602539,-1.5218575636493128,0.00686808442696929,0.0008392703020945191,0.6743662357330322,0.0,-0.0,0.0,0.0,0.0,0.0
1782665459,549774600,-1.6562822500811976,0.12954092025756836,-1.5218694845782679,0.006904037203639746,0.0008153018425218761,0.6743422150611877,0.0,-0.0,0.0,0.0,0.0,0.0
1782665459,557865501,-1.6563661734210413,0.12960100173950195,-1.5218575636493128,0.006892052944749594,0.0008272860432043672,0.6743901968002319,0.0,-0.0,0.0,0.0,0.0,0.0
1782665459,565769070,-1.656318489705221,0.1295766830444336,-1.5218575636493128,0.006892052944749594,0.0008153018425218761,0.6744021773338318,0.0,-0.0,0.0,0.0,0.0,0.0
1782665459,573752102,-1.656330410634176,0.12955284118652344,-1.521905247365133,0.006904037203639746,0.0008153018425218761,0.674318253993988,0.0,-0.0,0.0,0.0,0.0,0.0
1782665459,581774096,-1.656306568776266,0.12956476211547852,-1.5218694845782679,0.006904037203639746,0.0007909588748589158,0.6744021773338318,0.0,-0.0,0.0,0.0,0.0,0.0
1782665459,589864164,-1.656330410634176,0.1295766830444336,-1.5218694845782679,0.006951974239200354,0.0008033175836317241,0.6743782162666321,0.0,-0.0,0.0,0.0,0.0,0.0
1782665459,597767604,-1.6563542524920862,0.1295170783996582,-1.521893326436178,0.006880068685859442,0.0008153018425218761,0.6743422150611877,0.0,-0.0,0.0,0.0,0.0,0.0
1782665459,605750136,-1.6563780943499964,0.12956476211547852,-1.521881405507223,0.006916021462529898,0.0007789746159687638,0.6743901968002319,0.0,-0.0,0.0,0.0,0.0,0.0
1782665459,613768760,-1.6563661734210413,0.12955284118652344,-1.521881405507223,0.006892052944749594,0.0008033175836317241,0.6743901968002319,0.0,-0.0,0.0,0.0,0.0,0.0
1782665459,621803309,-1.6563661734210413,0.1295766830444336,-1.5218694845782679,0.006880068685859442,0.0008153018425218761,0.6743662357330322,0.0,-0.0,0.0,0.0,0.0,0.0
1782665459,629811526,-1.656330410634176,0.12956476211547852,-1.5218575636493128,0.006892052944749594,0.0008153018425218761,0.6743422150611877,0.0,-0.0,0.0,0.0,0.0,0.0
1782665459,637768706,-1.6563542524920862,0.12952899932861328,-1.5218694845782679,0.006892052944749594,0.0008272860432043672,0.6743422150611877,0.0,-0.0,0.0,0.0,0.0,0.0
1782665459,645768997,-1.6562941710101526,0.12954092025756836,-1.5218456427203577,0.00686808442696929,0.0008033175836317241,0.6743901968002319,0.0,-0.0,0.0,0.0,0.0,0.0
1782665459,653801454,-1.656318489705221,0.12958860397338867,-1.5218694845782679,0.00692800572142005,0.0007909588748589158,0.6744021773338318,0.0,-0.0,0.0,0.0,0.0,0.0
1782665459,661974133,-1.6562941710101526,0.12954092025756836,-1.5218575636493128,0.006892052944749594,0.0008153018425218761,0.6743662357330322,0.0,-0.0,0.0,0.0,0.0,0.0
1782665459,669754518,-1.656318489705221,0.12956476211547852,-1.5218694845782679,0.006892052944749594,0.0008512545027770102,0.6743422150611877,0.0,-0.0,0.0,0.0,0.0,0.0
1782665459,677754493,-1.6563423315631312,0.12956476211547852,-1.5218575636493128,0.006892052944749594,0.0008512545027770102,0.6743782162666321,0.0,-0.0,0.0,0.0,0.0,0.0
1782665459,685829691,-1.656306568776266,0.12958860397338867,-1.521881405507223,0.006904037203639746,0.0008153018425218761,0.6743542551994324,0.0,-0.0,0.0,0.0,0.0,0.0
1782665459,693775445,-1.656330410634176,0.12956476211547852,-1.521881405507223,0.00686808442696929,0.0008153018425218761,0.6743901968002319,0.0,-0.0,0.0,0.0,0.0,0.0
1782665459,701759551,-1.6563780943499964,0.1295766830444336,-1.521893326436178,0.006892052944749594,0.0008033175836317241,0.6743542551994324,0.0,-0.0,0.0,0.0,0.0,0.0
1782665459,709761453,-1.6563780943499964,0.12955284118652344,-1.5218456427203577,0.006916021462529898,0.0007430219557136297,0.6743662357330322,0.0,-0.0,0.0,0.0,0.0,0.0
1782665459,717768022,-1.656330410634176,0.1295766830444336,-1.521893326436178,0.006880068685859442,0.0007909588748589158,0.6743662357330322,0.0,-0.0,0.0,0.0,0.0,0.0
1782665459,725761831,-1.6562941710101526,0.12958860397338867,-1.5219176451312464,0.00692800572142005,0.0008033175836317241,0.6743542551994324,0.0,-0.0,0.0,0.0,0.0,0.0
1782665459,733767862,-1.656306568776266,0.12956476211547852,-1.5218694845782679,0.00686808442696929,0.0007909588748589158,0.6743901968002319,0.0,-0.0,0.0,0.0,0.0,0.0
1782665459,741755190,-1.656306568776266,0.12960100173950195,-1.521893326436178,0.00692800572142005,0.0008153018425218761,0.6744021773338318,0.0,-0.0,0.0,0.0,0.0,0.0
1782665459,749783870,-1.6563423315631312,0.12954092025756836,-1.5218694845782679,0.006892052944749594,0.0008033175836317241,0.6744021773338318,0.0,-0.0,0.0,0.0,0.0,0.0
1782665459,757876068,-1.6563542524920862,0.12960100173950195,-1.5218694845782679,0.006880068685859442,0.0008272860432043672,0.6743542551994324,0.0,-0.0,0.0,0.0,0.0,0.0
1782665459,765767229,-1.656330410634176,0.12954092025756836,-1.5218694845782679,0.006880068685859442,0.0007909588748589158,0.6743422150611877,0.0,-0.0,0.0,0.0,0.0,0.0
1782665459,773754854,-1.6563542524920862,0.12956476211547852,-1.521893326436178,0.006916021462529898,0.0007669904152862728,0.6743542551994324,0.0,-0.0,0.0,0.0,0.0,0.0
1782665459,781768144,-1.656330410634176,0.12955284118652344,-1.5218694845782679,0.006892052944749594,0.0008272860432043672,0.6744021773338318,0.0,-0.0,0.0,0.0,0.0,0.0
1782665459,789794528,-1.656318489705221,0.12952899932861328,-1.521881405507223,0.006856100168079138,0.0008272860432043672,0.6743422150611877,0.0,-0.0,0.0,0.0,0.0,0.0
1782665459,797762411,-1.656318489705221,0.12952899932861328,-1.5218456427203577,0.006892052944749594,0.0008153018425218761,0.6743422150611877,0.0,-0.0,0.0,0.0,0.0,0.0
1782665459,805752702,-1.6562941710101526,0.12958860397338867,-1.5218337217914026,0.006904037203639746,0.0008392703020945191,0.6743062734603882,0.0,-0.0,0.0,0.0,0.0,0.0
1782665459,813769937,-1.6563542524920862,0.1295766830444336,-1.521893326436178,0.00686808442696929,0.0008272860432043672,0.6743901968002319,0.0,-0.0,0.0,0.0,0.0,0.0
1782665459,821868746,-1.6563661734210413,0.12952899932861328,-1.5218337217914026,0.006892052944749594,0.0008153018425218761,0.6743782162666321,0.0,-0.0,0.0,0.0,0.0,0.0
1782665459,829754074,-1.6563423315631312,0.1295766830444336,-1.5218337217914026,0.006844115909188986,0.0008392703020945191,0.6743662357330322,0.0,-0.0,0.0,0.0,0.0,0.0
1782665459,837758106,-1.656318489705221,0.12958860397338867,-1.5218694845782679,0.006880068685859442,0.0008512545027770102,0.6743302345275879,0.0,-0.0,0.0,0.0,0.0,0.0
1782665459,845764193,-1.656306568776266,0.1295766830444336,-1.5219176451312464,0.00686808442696929,0.0008512545027770102,0.6744021773338318,0.0,-0.0,0.0,0.0,0.0,0.0
1782665459,853797039,-1.656330410634176,0.12956476211547852,-1.5218575636493128,0.00692800572142005,0.0008392703020945191,0.6743302345275879,0.0,-0.0,0.0,0.0,0.0,0.0
1782665459,861760367,-1.6563423315631312,0.12960100173950195,-1.5218694845782679,0.00686808442696929,0.0008033175836317241,0.6743422150611877,0.0,-0.0,0.0,0.0,0.0,0.0
1782665459,869745084,-1.6563423315631312,0.12956476211547852,-1.5218337217914026,0.006951974239200354,0.0008153018425218761,0.6743422150611877,0.0,-0.0,0.0,0.0,0.0,0.0
1782665459,877760023,-1.6563423315631312,0.12954092025756836,-1.521905247365133,0.006892052944749594,0.0008272860432043672,0.6743542551994324,0.0,-0.0,0.0,0.0,0.0,0.0
1782665459,885794610,-1.656306568776266,0.12954092025756836,-1.5218694845782679,0.006916021462529898,0.0008033175836317241,0.6744141578674316,0.0,-0.0,0.0,0.0,0.0,0.0
1782665459,893788364,-1.656306568776266,0.1295766830444336,-1.521893326436178,0.006892052944749594,0.0007909588748589158,0.6743422150611877,0.0,-0.0,0.0,0.0,0.0,0.0
1782665459,901767284,-1.6562941710101526,0.12960100173950195,-1.5219176451312464,0.006904037203639746,0.0007669904152862728,0.6743662357330322,0.0,-0.0,0.0,0.0,0.0,0.0
1782665459,909769538,-1.656318489705221,0.12954092025756836,-1.5218575636493128,0.006916021462529898,0.0008512545027770102,0.6743542551994324,0.0,-0.0,0.0,0.0,0.0,0.0
1782665459,917802829,-1.656318489705221,0.12956476211547852,-1.5218694845782679,0.006880068685859442,0.0007909588748589158,0.6743422150611877,0.0,-0.0,0.0,0.0,0.0,0.0
1782665459,925769342,-1.656306568776266,0.12958860397338867,-1.5218213240252894,0.006916021462529898,0.0008153018425218761,0.6743662357330322,0.0,-0.0,0.0,0.0,0.0,0.0
1782665459,933753725,-1.6563661734210413,0.1295170783996582,-1.5218456427203577,0.00692800572142005,0.0007789746159687638,0.6744261384010315,0.0,-0.0,0.0,0.0,0.0,0.0
1782665459,941764720,-1.656318489705221,0.12955284118652344,-1.521881405507223,0.00692800572142005,0.0007789746159687638,0.6744261384010315,0.0,-0.0,0.0,0.0,0.0,0.0
