LukePepin/On-Edge/deceleration_data_1782664491.csv
timestamp_sec,timestamp_nanosec,shoulder_pan_pos,shoulder_lift_pos,elbow_pos,wrist_1_pos,wrist_2_pos,wrist_3_pos,shoulder_pan_vel,shoulder_lift_vel,elbow_vel,wrist_1_vel,wrist_2_vel,wrist_3_vel
1782664492,117818257,-1.6560905615436,0.12925338745117188,-1.5218337217914026,0.007119379006326199,0.0008512545027770102,0.674462080001831,0.0,-0.0,0.0,0.0,0.0,0.0
1782664492,125815330,-1.656102482472555,0.12926530838012695,-1.5218213240252894,0.007155331317335367,0.0007669904152862728,0.6744141578674316,0.0,-0.0,0.0,0.0,0.0,0.0
1782664492,133766994,-1.6561268011676233,0.1292414665222168,-1.5218337217914026,0.007119379006326199,0.0007909588748589158,0.674462080001831,0.0,-0.0,0.0,0.0,0.0,0.0
1782664492,141764233,-1.65611440340151,0.1292891502380371,-1.5218094030963343,0.007167315576225519,0.0008153018425218761,0.6744500994682312,0.0,-0.0,0.0,0.0,0.0,0.0
1782664492,149814862,-1.6561387220965784,0.1292891502380371,-1.5218575636493128,0.007167315576225519,0.0008153018425218761,0.6744141578674316,0.0,-0.0,0.0,0.0,0.0,0.0
1782664492,157822601,-1.6561625639544886,0.1292891502380371,-1.5218575636493128,0.007119379006326199,0.0008512545027770102,0.6744500994682312,0.0,-0.0,0.0,0.0,0.0,0.0
1782664492,165863099,-1.65611440340151,0.12931299209594727,-1.5218337217914026,0.007107394747436047,0.0008033175836317241,0.6744261384010315,0.0,-0.0,0.0,0.0,0.0,0.0
1782664492,173767634,-1.6561625639544886,0.12927722930908203,-1.5218337217914026,0.007095410488545895,0.0008272860432043672,0.6744261384010315,0.0,-0.0,0.0,0.0,0.0,0.0
1782664492,181820410,-1.6561387220965784,0.12931299209594727,-1.5218337217914026,0.007131362799555063,0.0008392703020945191,0.6744740605354309,0.0,-0.0,0.0,0.0,0.0,0.0
1782664492,189811835,-1.65611440340151,0.1292891502380371,-1.5218337217914026,0.007131362799555063,0.0007909588748589158,0.6744500994682312,0.0,-0.0,0.0,0.0,0.0,0.0
1782664492,198112687,-1.6560905615436,0.1292891502380371,-1.521881405507223,0.007131362799555063,0.0008512545027770102,0.6744500994682312,0.0,-0.0,0.0,0.0,0.0,0.0
1782664492,206615985,-1.6561506430255335,0.12927722930908203,-1.5217855612384241,0.007155331317335367,0.0008512545027770102,0.6744261384010315,0.0,-0.0,0.0,0.0,0.0,0.0
1782664492,214112535,-1.656102482472555,0.12932491302490234,-1.5218456427203577,0.007179299835115671,0.0008392703020945191,0.6744141578674316,0.0,-0.0,0.0,0.0,0.0,0.0
1782664492,222411998,-1.6560905615436,0.12931299209594727,-1.5218337217914026,0.007107394747436047,0.0008392703020945191,0.6744261384010315,0.0,-0.0,0.0,0.0,0.0,0.0
1782664492,230452071,-1.6561506430255335,0.12927722930908203,-1.5218694845782679,0.007143347058445215,0.0008033175836317241,0.674462080001831,0.0,-0.0,0.0,0.0,0.0,0.0
1782664492,237811750,-1.6561506430255335,0.12931299209594727,-1.5218575636493128,0.007155331317335367,0.0008153018425218761,0.6744261384010315,0.0,-0.0,0.0,0.0,0.0,0.0
1782664492,246092102,-1.6560905615436,0.12926530838012695,-1.5218094030963343,0.007119379006326199,0.0008272860432043672,0.6744381189346313,0.0,-0.0,0.0,0.0,0.0,0.0
1782664492,254010396,-1.65611440340151,0.1292891502380371,-1.5218456427203577,0.007143347058445215,0.0008153018425218761,0.6744381189346313,0.0,-0.0,0.0,0.0,0.0,0.0
1782664492,261819560,-1.6561268011676233,0.1292414665222168,-1.5218575636493128,0.007131362799555063,0.0007789746159687638,0.6744740605354309,0.0,-0.0,0.0,0.0,0.0,0.0
1782664492,269806799,-1.65611440340151,0.12927722930908203,-1.5218575636493128,0.007143347058445215,0.0008272860432043672,0.6744500994682312,0.0,-0.0,0.0,0.0,0.0,0.0
1782664492,277991761,-1.6561268011676233,0.1292891502380371,-1.5218575636493128,0.007179299835115671,0.0008392703020945191,0.6744500994682312,0.0,-0.0,0.0,0.0,0.0,0.0
1782664492,285810684,-1.65611440340151,0.1293010711669922,-1.5218337217914026,0.007167315576225519,0.0008153018425218761,0.6744021773338318,0.0,-0.0,0.0,0.0,0.0,0.0
1782664492,293821460,-1.65611440340151,0.1293010711669922,-1.5218456427203577,0.007167315576225519,0.0008153018425218761,0.6744021773338318,0.0,-0.0,0.0,0.0,0.0,0.0
1782664492,301823699,-1.6560786406146448,0.12925338745117188,-1.5218456427203577,0.007083426229655743,0.0008153018425218761,0.6744381189346313,0.0,-0.0,0.0,0.0,0.0,0.0
1782664492,309812698,-1.65611440340151,0.12926530838012695,-1.5218337217914026,0.007131362799555063,0.0008153018425218761,0.6744141578674316,0.0,-0.0,0.0,0.0,0.0,0.0
1782664492,317808585,-1.65611440340151,0.12926530838012695,-1.5218456427203577,0.007167315576225519,0.0007909588748589158,0.6744381189346313,0.0,-0.0,0.0,0.0,0.0,0.0
1782664492,325801176,-1.6561625639544886,0.1293010711669922,-1.5218337217914026,0.007143347058445215,0.0008153018425218761,0.674462080001831,0.0,-0.0,0.0,0.0,0.0,0.0
1782664492,333862545,-1.6561268011676233,0.1292891502380371,-1.5218213240252894,0.007119379006326199,0.0007669904152862728,0.6744381189346313,0.0,-0.0,0.0,0.0,0.0,0.0
1782664492,341844172,-1.6561506430255335,0.1292414665222168,-1.5218575636493128,0.007107394747436047,0.0008153018425218761,0.6744021773338318,0.0,-0.0,0.0,0.0,0.0,0.0
1782664492,349818745,-1.6561268011676233,0.12925338745117188,-1.5218694845782679,0.007131362799555063,0.0007909588748589158,0.6744381189346313,0.0,-0.0,0.0,0.0,0.0,0.0
1782664492,357825798,-1.656102482472555,0.12926530838012695,-1.5218337217914026,0.007119379006326199,0.0007789746159687638,0.6744381189346313,0.0,-0.0,0.0,0.0,0.0,0.0
1782664492,365869186,-1.6560786406146448,0.1293010711669922,-1.5218575636493128,0.007131362799555063,0.0007909588748589158,0.6744261384010315,0.0,-0.0,0.0,0.0,0.0,0.0
1782664492,373829462,-1.65611440340151,0.12926530838012695,-1.5218213240252894,0.007179299835115671,0.0008392703020945191,0.6744500994682312,0.0,-0.0,0.0,0.0,0.0,0.0
1782664492,381815089,-1.6561387220965784,0.12927722930908203,-1.5218337217914026,0.007155331317335367,0.0008153018425218761,0.6744261384010315,0.0,-0.0,0.0,0.0,0.0,0.0
1782664492,389821754,-1.6560786406146448,0.1292891502380371,-1.521881405507223,0.007155331317335367,0.0008272860432043672,0.6744500994682312,0.0,-0.0,0.0,0.0,0.0,0.0
1782664492,397856160,-1.656102482472555,0.1292891502380371,-1.5218575636493128,0.007143347058445215,0.0008392703020945191,0.6744381189346313,0.0,-0.0,0.0,0.0,0.0,0.0
1782664492,405828196,-1.6561268011676233,0.1292414665222168,-1.5218456427203577,0.007131362799555063,0.0008392703020945191,0.6744381189346313,0.0,-0.0,0.0,0.0,0.0,0.0
1782664492,413820009,-1.6561506430255335,0.12920522689819336,-1.5218337217914026,0.007095410488545895,0.0008272860432043672,0.6744381189346313,0.0,-0.0,0.0,0.0,0.0,0.0
1782664492,421812192,-1.656102482472555,0.12927722930908203,-1.5218213240252894,0.007179299835115671,0.0008153018425218761,0.6744261384010315,0.0,-0.0,0.0,0.0,0.0,0.0
1782664492,429887080,-1.6560667196856897,0.12927722930908203,-1.5218575636493128,0.007143347058445215,0.0008272860432043672,0.6744261384010315,0.0,-0.0,0.0,0.0,0.0,0.0
1782664492,437821781,-1.6561506430255335,0.12932491302490234,-1.5218456427203577,0.007107394747436047,0.0008272860432043672,0.6744261384010315,0.0,-0.0,0.0,0.0,0.0,0.0
1782664492,445811261,-1.6561268011676233,0.12931299209594727,-1.5218694845782679,0.007131362799555063,0.0007909588748589158,0.6744021773338318,0.0,-0.0,0.0,0.0,0.0,0.0
1782664492,453814648,-1.65611440340151,0.12926530838012695,-1.5218094030963343,0.007167315576225519,0.0008153018425218761,0.6744500994682312,0.0,-0.0,0.0,0.0,0.0,0.0
1782664492,461857813,-1.6561268011676233,0.12926530838012695,-1.5218575636493128,0.007155331317335367,0.0008153018425218761,0.6744500994682312,0.0,-0.0,0.0,0.0,0.0,0.0
1782664492,469816163,-1.656102482472555,0.12926530838012695,-1.5217974821673792,0.007155331317335367,0.0008632387034595013,0.6744500994682312,0.0,-0.0,0.0,0.0,0.0,0.0
1782664492,477805309,-1.65611440340151,0.12926530838012695,-1.5218337217914026,0.007155331317335367,0.0008512545027770102,0.6744500994682312,0.0,-0.0,0.0,0.0,0.0,0.0
1782664492,485830493,-1.6560905615436,0.1293010711669922,-1.521773640309469,0.007179299835115671,0.0008033175836317241,0.6744500994682312,0.0,-0.0,0.0,0.0,0.0,0.0
1782664492,493852714,-1.6561268011676233,0.12926530838012695,-1.521881405507223,0.007143347058445215,0.0008512545027770102,0.6743901968002319,0.0,-0.0,0.0,0.0,0.0,0.0
1782664492,501826916,-1.656102482472555,0.1292414665222168,-1.5218337217914026,0.007167315576225519,0.0008033175836317241,0.6744261384010315,0.0,-0.0,0.0,0.0,0.0,0.0
1782664492,509818173,-1.6560905615436,0.12925338745117188,-1.5218456427203577,0.007179299835115671,0.0007669904152862728,0.6744021773338318,0.0,-0.0,0.0,0.0,0.0,0.0
1782664492,517821357,-1.65611440340151,0.1293010711669922,-1.5218337217914026,0.007155331317335367,0.0008153018425218761,0.6744021773338318,0.0,-0.0,0.0,0.0,0.0,0.0
1782664492,525894226,-1.65611440340151,0.12926530838012695,-1.5218337217914026,0.007131362799555063,0.0008632387034595013,0.6744261384010315,0.0,-0.0,0.0,0.0,0.0,0.0
1782664492,533821909,-1.6561268011676233,0.12926530838012695,-1.5218337217914026,0.007167315576225519,0.0008392703020945191,0.6744261384010315,0.0,-0.0,0.0,0.0,0.0,0.0
1782664492,541822407,-1.6560786406146448,0.12931299209594727,-1.5218213240252894,0.007167315576225519,0.0008392703020945191,0.6744500994682312,0.0,-0.0,0.0,0.0,0.0,0.0
1782664492,550128778,-1.6561506430255335,0.12925338745117188,-1.5218094030963343,0.007143347058445215,0.0008033175836317241,0.6743782162666321,0.0,-0.0,0.0,0.0,0.0,0.0
1782664492,557855607,-1.6561268011676233,0.1292891502380371,-1.5218694845782679,0.007119379006326199,0.0008392703020945191,0.6744261384010315,0.0,-0.0,0.0,0.0,0.0,0.0
1782664492,566128033,-1.656102482472555,0.12927722930908203,-1.5218575636493128,0.007119379006326199,0.0008512545027770102,0.6744261384010315,0.0,-0.0,0.0,0.0,0.0,0.0
1782664492,573821400,-1.656102482472555,0.12926530838012695,-1.5218094030963343,0.007155331317335367,0.0008392703020945191,0.6744381189346313,0.0,-0.0,0.0,0.0,0.0,0.0
1782664492,581860287,-1.65611440340151,0.12927722930908203,-1.5218456427203577,0.007143347058445215,0.0008392703020945191,0.6744141578674316,0.0,-0.0,0.0,0.0,0.0,0.0
1782664492,589865156,-1.6561387220965784,0.12927722930908203,-1.5218575636493128,0.007167315576225519,0.0008272860432043672,0.6744261384010315,0.0,-0.0,0.0,0.0,0.0,0.0
1782664492,597821691,-1.6561268011676233,0.12926530838012695,-1.5218337217914026,0.007131362799555063,0.0008512545027770102,0.6744381189346313,0.0,-0.0,0.0,0.0,0.0,0.0
1782664492,605809245,-1.6561268011676233,0.12926530838012695,-1.5217855612384241,0.007131362799555063,0.0007789746159687638,0.6744261384010315,0.0,-0.0,0.0,0.0,0.0,0.0
1782664492,613830058,-1.6561506430255335,0.12931299209594727,-1.5218456427203577,0.007179299835115671,0.0007909588748589158,0.6744381189346313,0.0,-0.0,0.0,0.0,0.0,0.0
1782664492,621843353,-1.6561268011676233,0.12931299209594727,-1.5218575636493128,0.007119379006326199,0.0008033175836317241,0.6744381189346313,0.0,-0.0,0.0,0.0,0.0,0.0
1782664492,629819925,-1.6561268011676233,0.12927722930908203,-1.521893326436178,0.007119379006326199,0.0008153018425218761,0.6744500994682312,0.0,-0.0,0.0,0.0,0.0,0.0
1782664492,637824460,-1.65611440340151,0.12925338745117188,-1.5218213240252894,0.007131362799555063,0.0008153018425218761,0.6744021773338318,0.0,-0.0,0.0,0.0,0.0,0.0
1782664492,645825551,-1.656102482472555,0.1293010711669922,-1.5218213240252894,0.007155331317335367,0.0008272860432043672,0.6744381189346313,0.0,-0.0,0.0,0.0,0.0,0.0
1782664492,653862679,-1.6561268011676233,0.1292891502380371,-1.5218456427203577,0.007143347058445215,0.0008153018425218761,0.6744261384010315,0.0,-0.0,0.0,0.0,0.0,0.0
1782664492,661820844,-1.6560667196856897,0.1292414665222168,-1.5218213240252894,0.007107394747436047,0.0007789746159687638,0.6744500994682312,0.0,-0.0,0.0,0.0,0.0,0.0
1782664492,669821231,-1.6561268011676233,0.12926530838012695,-1.5218213240252894,0.007155331317335367,0.0008392703020945191,0.6744261384010315,0.0,-0.0,0.0,0.0,0.0,0.0
1782664492,677828248,-1.6560786406146448,0.1292891502380371,-1.5218456427203577,0.007167315576225519,0.0007909588748589158,0.6744500994682312,0.0,-0.0,0.0,0.0,0.0,0.0
1782664492,685891673,-1.656102482472555,0.12926530838012695,-1.5218575636493128,0.007119379006326199,0.0008272860432043672,0.6744261384010315,0.0,-0.0,0.0,0.0,0.0,0.0
1782664492,693836689,-1.65611440340151,0.12925338745117188,-1.5218094030963343,0.007095410488545895,0.0008153018425218761,0.6744141578674316,0.0,-0.0,0.0,0.0,0.0,0.0
1782664492,701819224,-1.656102482472555,0.1293010711669922,-1.5218337217914026,0.007131362799555063,0.0008272860432043672,0.6744261384010315,0.0,-0.0,0.0,0.0,0.0,0.0
1782664492,709825000,-1.6561387220965784,0.1293010711669922,-1.5218337217914026,0.007155331317335367,0.0008153018425218761,0.6744261384010315,0.0,-0.0,0.0,0.0,0.0,0.0
1782664492,717858610,-1.65611440340151,0.12925338745117188,-1.5218213240252894,0.007203268352895975,0.0008153018425218761,0.6744261384010315,0.0,-0.0,0.0,0.0,0.0,0.0
1782664492,725825664,-1.6561387220965784,0.1293010711669922,-1.5218456427203577,0.007119379006326199,0.0008153018425218761,0.6744261384010315,0.0,-0.0,0.0,0.0,0.0,0.0
1782664492,733812328,-1.6561744848834437,0.12932491302490234,-1.5218575636493128,0.007131362799555063,0.0007909588748589158,0.6744141578674316,0.0,-0.0,0.0,0.0,0.0,0.0
1782664492,741826660,-1.656102482472555,0.12925338745117188,-1.521881405507223,0.007143347058445215,0.0008033175836317241,0.674462080001831,0.0,-0.0,0.0,0.0,0.0,0.0
1782664492,749863251,-1.656102482472555,0.12932491302490234,-1.5218213240252894,0.007191284094005823,0.0008153018425218761,0.6744381189346313,0.0,-0.0,0.0,0.0,0.0,0.0
1782664492,757822231,-1.65611440340151,0.1292891502380371,-1.5218094030963343,0.007107394747436047,0.0007789746159687638,0.6744261384010315,0.0,-0.0,0.0,0.0,0.0,0.0
1782664492,765813692,-1.656102482472555,0.12925338745117188,-1.5218694845782679,0.007143347058445215,0.0008512545027770102,0.6744500994682312,0.0,-0.0,0.0,0.0,0.0,0.0
1782664492,773822061,-1.6561268011676233,0.12927722930908203,-1.5218337217914026,0.007143347058445215,0.0007909588748589158,0.674462080001831,0.0,-0.0,0.0,0.0,0.0,0.0
1782664492,781854004,-1.656102482472555,0.12927722930908203,-1.5218694845782679,0.007107394747436047,0.0008153018425218761,0.6744261384010315,0.0,-0.0,0.0,0.0,0.0,0.0
1782664492,789831502,-1.656102482472555,0.12926530838012695,-1.5218094030963343,0.007167315576225519,0.0008033175836317241,0.674462080001831,0.0,-0.0,0.0,0.0,0.0,0.0
1782664492,797802037,-1.6561625639544886,0.1292414665222168,-1.5218456427203577,0.007179299835115671,0.0008272860432043672,0.6743901968002319,0.0,-0.0,0.0,0.0,0.0,0.0
1782664492,805828146,-1.6561268011676233,0.12926530838012695,-1.5218575636493128,0.007155331317335367,0.0007789746159687638,0.6744141578674316,0.0,-0.0,0.0,0.0,0.0,0.0
1782664492,813863700,-1.656102482472555,0.12926530838012695,-1.5217974821673792,0.007107394747436047,0.0008153018425218761,0.6744980216026306,0.0,-0.0,0.0,0.0,0.0,0.0
1782664492,821832402,-1.6560786406146448,0.12925338745117188,-1.5218575636493128,0.007179299835115671,0.0008272860432043672,0.674462080001831,0.0,-0.0,0.0,0.0,0.0,0.0
1782664492,830093162,-1.656102482472555,0.12926530838012695,-1.5217974821673792,0.007119379006326199,0.0008392703020945191,0.6744261384010315,0.0,-0.0,0.0,0.0,0.0,0.0
1782664492,837814732,-1.6561268011676233,0.12926530838012695,-1.5218694845782679,0.007155331317335367,0.0008512545027770102,0.6744261384010315,0.0,-0.0,0.0,0.0,0.0,0.0
1782664492,845859027,-1.6561387220965784,0.1293010711669922,-1.5217974821673792,0.007143347058445215,0.0008272860432043672,0.6744860410690308,0.0,-0.0,0.0,0.0,0.0,0.0
1782664492,853830932,-1.65611440340151,0.12926530838012695,-1.5218456427203577,0.007167315576225519,0.0008392703020945191,0.6744141578674316,0.0,-0.0,0.0,0.0,0.0,0.0
1782664492,862079692,-1.6560667196856897,0.1292414665222168,-1.521761719380514,0.007155331317335367,0.0008512545027770102,0.6744141578674316,0.0,-0.0,0.0,0.0,0.0,0.0
1782664492,869823059,-1.6560786406146448,0.12925338745117188,-1.5218575636493128,0.007143347058445215,0.0007789746159687638,0.6744740605354309,0.0,-0.0,0.0,0.0,0.0,0.0
1782664492,877855131,-1.6561268011676233,0.1293010711669922,-1.5218575636493128,0.007143347058445215,0.0008512545027770102,0.6743782162666321,0.0,-0.0,0.0,0.0,0.0,0.0
1782664492,885818999,-1.6561387220965784,0.1292891502380371,-1.5218575636493128,0.007119379006326199,0.0008632387034595013,0.6744381189346313,0.0,-0.0,0.0,0.0,0.0,0.0
1782664492,893810257,-1.656102482472555,0.12927722930908203,-1.5218213240252894,0.007131362799555063,0.0008153018425218761,0.6744261384010315,0.0,-0.0,0.0,0.0,0.0,0.0
1782664492,901816533,-1.6560905615436,0.12931299209594727,-1.5218456427203577,0.007131362799555063,0.0008153018425218761,0.6744261384010315,0.0,-0.0,0.0,0.0,0.0,0.0
1782664492,909859846,-1.6560786406146448,0.12931299209594727,-1.5218094030963343,0.007095410488545895,0.0008153018425218761,0.6744261384010315,0.0,-0.0,0.0,0.0,0.0,0.0
1782664492,917821622,-1.65611440340151,0.1292891502380371,-1.5218337217914026,0.007155331317335367,0.0008392703020945191,0.6744261384010315,0.0,-0.0,0.0,0.0,0.0,0.0
1782664492,925819546,-1.6561506430255335,0.1293010711669922,-1.5218337217914026,0.007215252611786127,0.0007909588748589158,0.6744141578674316,0.0,-0.0,0.0,0.0,0.0,0.0
1782664492,933817452,-1.6560786406146448,0.12926530838012695,-1.5218456427203577,0.007155331317335367,0.0007909588748589158,0.6744740605354309,0.0,-0.0,0.0,0.0,0.0,0.0
1782664492,941910155,-1.6560786406146448,0.12926530838012695,-1.5218094030963343,0.007095410488545895,0.0008512545027770102,0.6744141578674316,0.0,-0.0,0.0,0.0,0.0,0.0
1782664492,949813671,-1.6561268011676233,0.12926530838012695,-1.5218456427203577,0.007179299835115671,0.0008033175836317241,0.6744021773338318,0.0,-0.0,0.0,0.0,0.0,0.0
1782664492,958042300,-1.6561268011676233,0.12927722930908203,-1.5218337217914026,0.007107394747436047,0.0007789746159687638,0.6744261384010315,0.0,-0.0,0.0,0.0,0.0,0.0
1782664492,965836631,-1.6560547987567347,0.1292891502380371,-1.5218213240252894,0.007143347058445215,0.0008392703020945191,0.6744381189346313,0.0,-0.0,0.0,0.0,0.0,0.0
1782664492,973924333,-1.6561268011676233,0.1292891502380371,-1.5217855612384241,0.007167315576225519,0.0008392703020945191,0.6744980216026306,0.0,-0.0,0.0,0.0,0.0,0.0
1782664492,982130166,-1.65611440340151,0.1292891502380371,-1.521773640309469,0.007119379006326199,0.0008272860432043672,0.6743901968002319,0.0,-0.0,0.0,0.0,0.0,0.0
1782664492,989832496,-1.6560905615436,0.1292414665222168,-1.5218213240252894,0.007119379006326199,0.0008033175836317241,0.6744261384010315,0.0,-0.0,0.0,0.0,0.0,0.0
1782664492,997822957,-1.65611440340151,0.12927722930908203,-1.5218575636493128,0.007095410488545895,0.0008153018425218761,0.6744261384010315,0.0,-0.0,0.0,0.0,0.0,0.0
1782664493,5822659,-1.656102482472555,0.12931299209594727,-1.5218337217914026,0.007071441970765591,0.0008153018425218761,0.6744021773338318,0.0,-0.0,0.0,0.0,0.0,0.0
1782664493,13823454,-1.6561625639544886,0.1293010711669922,-1.5218456427203577,0.007119379006326199,0.0008392703020945191,0.6743901968002319,0.0,-0.0,0.0,0.0,0.0,0.0
1782664493,21811452,-1.65611440340151,0.1293010711669922,-1.5218337217914026,0.007095410488545895,0.0008033175836317241,0.6744141578674316,0.0,-0.0,0.0,0.0,0.0,0.0
1782664493,29816043,-1.6561506430255335,0.1293010711669922,-1.5218575636493128,0.007167315576225519,0.0008153018425218761,0.6744500994682312,0.0,-0.0,0.0,0.0,0.0,0.0
1782664493,38120729,-1.6561268011676233,0.12926530838012695,-1.5217974821673792,0.007131362799555063,0.0008153018425218761,0.6744500994682312,0.0,-0.0,0.0,0.0,0.0,0.0
1782664493,45794262,-1.65611440340151,0.12926530838012695,-1.5218213240252894,0.007143347058445215,0.0008272860432043672,0.6743782162666321,0.0,-0.0,0.0,0.0,0.0,0.0
1782664493,53833965,-1.6561387220965784,0.1292891502380371,-1.5218456427203577,0.007143347058445215,0.0007909588748589158,0.6744500994682312,0.0,-0.0,0.0,0.0,0.0,0.0
1782664493,61835167,-1.6561387220965784,0.1292891502380371,-1.5218213240252894,0.007119379006326199,0.0008033175836317241,0.674462080001831,0.0,-0.0,0.0,0.0,0.0,0.0
1782664493,69859499,-1.656102482472555,0.12932491302490234,-1.521881405507223,0.007119379006326199,0.0008153018425218761,0.6744500994682312,0.0,-0.0,0.0,0.0,0.0,0.0
1782664493,77823645,-1.6560786406146448,0.1292414665222168,-1.5218337217914026,0.007131362799555063,0.0008392703020945191,0.6744381189346313,0.0,-0.0,0.0,0.0,0.0,0.0
1782664493,85857366,-1.6561506430255335,0.12927722930908203,-1.5218575636493128,0.007107394747436047,0.0008153018425218761,0.6743901968002319,0.0,-0.0,0.0,0.0,0.0,0.0
1782664493,93832661,-1.6560905615436,0.12925338745117188,-1.5218694845782679,0.007143347058445215,0.0008153018425218761,0.6744381189346313,0.0,-0.0,0.0,0.0,0.0,0.0
1782664493,101858363,-1.656102482472555,0.12926530838012695,-1.5218456427203577,0.007107394747436047,0.0008512545027770102,0.6744500994682312,0.0,-0.0,0.0,0.0,0.0,0.0
1782664493,109821676,-1.656102482472555,0.12925338745117188,-1.5218213240252894,0.007179299835115671,0.0008153018425218761,0.6744500994682312,0.0,-0.0,0.0,0.0,0.0,0.0
1782664493,117813378,-1.6561387220965784,0.1293010711669922,-1.5218575636493128,0.007131362799555063,0.0007789746159687638,0.674462080001831,0.0,-0.0,0.0,0.0,0.0,0.0
1782664493,125819655,-1.6561268011676233,0.1293010711669922,-1.5218337217914026,0.007143347058445215,0.0007909588748589158,0.6744500994682312,0.0,-0.0,0.0,0.0,0.0,0.0
1782664493,133861190,-1.6561268011676233,0.12927722930908203,-1.5218337217914026,0.007155331317335367,0.0008512545027770102,0.674462080001831,0.0,-0.0,0.0,0.0,0.0,0.0
1782664493,141823522,-1.6560667196856897,0.12925338745117188,-1.5218213240252894,0.007131362799555063,0.0007909588748589158,0.6744500994682312,0.0,-0.0,0.0,0.0,0.0,0.0
1782664493,149812576,-1.6560905615436,0.1293010711669922,-1.5218337217914026,0.007167315576225519,0.0008033175836317241,0.6744381189346313,0.0,-0.0,0.0,0.0,0.0,0.0
1782664493,157820241,-1.6560786406146448,0.1292891502380371,-1.5218337217914026,0.007107394747436047,0.0007909588748589158,0.6744381189346313,0.0,-0.0,0.0,0.0,0.0,0.0
1782664493,165856758,-1.6561387220965784,0.12926530838012695,-1.5218575636493128,0.007191284094005823,0.0008033175836317241,0.6744860410690308,0.0,-0.0,0.0,0.0,0.0,0.0
1782664493,173819645,-1.65611440340151,0.12926530838012695,-1.5218456427203577,0.007131362799555063,0.0008033175836317241,0.674462080001831,0.0,-0.0,0.0,0.0,0.0,0.0
1782664493,181830736,-1.6561387220965784,0.12925338745117188,-1.5218694845782679,0.007131362799555063,0.0008033175836317241,0.674462080001831,0.0,-0.0,0.0,0.0,0.0,0.0
1782664493,189973754,-1.6560905615436,0.12927722930908203,-1.5218337217914026,0.007167315576225519,0.0008512545027770102,0.6744261384010315,0.0,-0.0,0.0,0.0,0.0,0.0
1782664493,197801715,-1.6560905615436,0.1292891502380371,-1.5217855612384241,0.007131362799555063,0.0007909588748589158,0.6744381189346313,0.0,-0.0,0.0,0.0,0.0,0.0
1782664493,205807047,-1.6561387220965784,0.12925338745117188,-1.5218337217914026,0.007155331317335367,0.0008272860432043672,0.6744740605354309,0.0,-0.0,0.0,0.0,0.0,0.0
1782664493,213827953,-1.656102482472555,0.12932491302490234,-1.5218337217914026,0.007119379006326199,0.0008392703020945191,0.6744021773338318,0.0,-0.0,0.0,0.0,0.0,0.0
1782664493,221821710,-1.6561387220965784,0.1292414665222168,-1.5218337217914026,0.007131362799555063,0.0008033175836317241,0.6744381189346313,0.0,-0.0,0.0,0.0,0.0,0.0
1782664493,229791246,-1.656102482472555,0.12922906875610352,-1.5217855612384241,0.007131362799555063,0.0008512545027770102,0.6744021773338318,0.0,-0.0,0.0,0.0,0.0,0.0
1782664493,237818392,-1.65611440340151,0.1293010711669922,-1.5218337217914026,0.007179299835115671,0.0008272860432043672,0.6744740605354309,0.0,-0.0,0.0,0.0,0.0,0.0
1782664493,245828021,-1.6561506430255335,0.1292891502380371,-1.5218337217914026,0.007131362799555063,0.0008033175836317241,0.674462080001831,0.0,-0.0,0.0,0.0,0.0,0.0
1782664493,253819834,-1.6561387220965784,0.1292891502380371,-1.5218213240252894,0.007179299835115671,0.0008033175836317241,0.6744381189346313,0.0,-0.0,0.0,0.0,0.0,0.0
1782664493,261815517,-1.6561387220965784,0.12931299209594727,-1.5218094030963343,0.007083426229655743,0.0008392703020945191,0.6744141578674316,0.0,-0.0,0.0,0.0,0.0,0.0
1782664493,269883998,-1.6561506430255335,0.1292891502380371,-1.5218213240252894,0.007167315576225519,0.0007909588748589158,0.6744141578674316,0.0,-0.0,0.0,0.0,0.0,0.0
1782664493,277827811,-1.6560667196856897,0.1293010711669922,-1.5218094030963343,0.007095410488545895,0.0008153018425218761,0.6744261384010315,0.0,-0.0,0.0,0.0,0.0,0.0
1782664493,285811179,-1.65611440340151,0.12926530838012695,-1.521881405507223,0.007167315576225519,0.0008153018425218761,0.6744500994682312,0.0,-0.0,0.0,0.0,0.0,0.0
1782664493,293824697,-1.6561506430255335,0.12927722930908203,-1.5217974821673792,0.007119379006326199,0.0008512545027770102,0.6744500994682312,0.0,-0.0,0.0,0.0,0.0,0.0
1782664493,301858047,-1.6561387220965784,0.12926530838012695,-1.5218213240252894,0.007131362799555063,0.0008153018425218761,0.6744500994682312,0.0,-0.0,0.0,0.0,0.0,0.0
1782664493,309824564,-1.6560905615436,0.12925338745117188,-1.5218575636493128,0.007119379006326199,0.0008272860432043672,0.6744021773338318,0.0,-0.0,0.0,0.0,0.0,0.0
1782664493,317849340,-1.6561625639544886,0.1292891502380371,-1.5218694845782679,0.007131362799555063,0.0008153018425218761,0.6743901968002319,0.0,-0.0,0.0,0.0,0.0,0.0
1782664493,325820487,-1.6561387220965784,0.12933731079101562,-1.5218337217914026,0.007191284094005823,0.0008392703020945191,0.6744261384010315,0.0,-0.0,0.0,0.0,0.0,0.0
1782664493,333853485,-1.6561506430255335,0.12926530838012695,-1.5218213240252894,0.007119379006326199,0.0008272860432043672,0.6744860410690308,0.0,-0.0,0.0,0.0,0.0,0.0
1782664493,341826336,-1.6560667196856897,0.1293010711669922,-1.5218694845782679,0.007131362799555063,0.0008512545027770102,0.6744141578674316,0.0,-0.0,0.0,0.0,0.0,0.0
1782664493,349811908,-1.656102482472555,0.1292891502380371,-1.5218694845782679,0.007107394747436047,0.0008033175836317241,0.6744381189346313,0.0,-0.0,0.0,0.0,0.0,0.0
1782664493,357807462,-1.6560786406146448,0.12926530838012695,-1.5218213240252894,0.007155331317335367,0.0007789746159687638,0.6744381189346313,0.0,-0.0,0.0,0.0,0.0,0.0
1782664493,365818386,-1.6561387220965784,0.1292414665222168,-1.5218575636493128,0.007143347058445215,0.0008272860432043672,0.6744740605354309,0.0,-0.0,0.0,0.0,0.0,0.0
1782664493,373823496,-1.6560786406146448,0.1292414665222168,-1.5218213240252894,0.007143347058445215,0.0008153018425218761,0.6744021773338318,0.0,-0.0,0.0,0.0,0.0,0.0
1782664493,381809180,-1.6561387220965784,0.1292891502380371,-1.5218575636493128,0.007191284094005823,0.0008153018425218761,0.674462080001831,0.0,-0.0,0.0,0.0,0.0,0.0
1782664493,389820160,-1.6561268011676233,0.12926530838012695,-1.5218456427203577,0.007131362799555063,0.0008512545027770102,0.6743901968002319,0.0,-0.0,0.0,0.0,0.0,0.0
1782664493,397843269,-1.6561268011676233,0.12927722930908203,-1.5218575636493128,0.007119379006326199,0.0008632387034595013,0.6744740605354309,0.0,-0.0,0.0,0.0,0.0,0.0
1782664493,405835212,-1.65611440340151,0.1292414665222168,-1.5218213240252894,0.007095410488545895,0.0008153018425218761,0.6744381189346313,0.0,-0.0,0.0,0.0,0.0,0.0
1782664493,413817248,-1.656102482472555,0.12922906875610352,-1.5218213240252894,0.007131362799555063,0.0007909588748589158,0.6744500994682312,0.0,-0.0,0.0,0.0,0.0,0.0
1782664493,421832117,-1.6561506430255335,0.1293010711669922,-1.5218213240252894,0.007179299835115671,0.0008392703020945191,0.6744500994682312,0.0,-0.0,0.0,0.0,0.0,0.0
1782664493,429847449,-1.656102482472555,0.12931299209594727,-1.5218456427203577,0.007155331317335367,0.0008033175836317241,0.6744141578674316,0.0,-0.0,0.0,0.0,0.0,0.0
1782664493,437829577,-1.6561268011676233,0.12926530838012695,-1.5217974821673792,0.007143347058445215,0.0008033175836317241,0.6744500994682312,0.0,-0.0,0.0,0.0,0.0,0.0
1782664493,445819260,-1.6561387220965784,0.1293010711669922,-1.5218575636493128,0.007119379006326199,0.0008153018425218761,0.6744500994682312,0.0,-0.0,0.0,0.0,0.0,0.0
1782664493,453822907,-1.6561506430255335,0.12932491302490234,-1.5218337217914026,0.007119379006326199,0.0008033175836317241,0.674462080001831,0.0,-0.0,0.0,0.0,0.0,0.0
1782664493,461895239,-1.656102482472555,0.12927722930908203,-1.5218575636493128,0.007167315576225519,0.0008392703020945191,0.6743782162666321,0.0,-0.0,0.0,0.0,0.0,0.0
1782664493,469835848,-1.6561268011676233,0.1293010711669922,-1.5218694845782679,0.007143347058445215,0.0007909588748589158,0.6744261384010315,0.0,-0.0,0.0,0.0,0.0,0.0
1782664493,477817735,-1.6561625639544886,0.12927722930908203,-1.5218694845782679,0.007119379006326199,0.0008272860432043672,0.6744980216026306,0.0,-0.0,0.0,0.0,0.0,0.0
1782664493,485820790,-1.6561387220965784,0.1293010711669922,-1.5218456427203577,0.007107394747436047,0.0007789746159687638,0.6744740605354309,0.0,-0.0,0.0,0.0,0.0,0.0
1782664493,493891011,-1.6561268011676233,0.12927722930908203,-1.5218694845782679,0.007119379006326199,0.0008033175836317241,0.6744261384010315,0.0,-0.0,0.0,0.0,0.0,0.0
1782664493,501840861,-1.6561268011676233,0.12931299209594727,-1.5218575636493128,0.007167315576225519,0.0008392703020945191,0.6744141578674316,0.0,-0.0,0.0,0.0,0.0,0.0
1782664493,509808803,-1.65611440340151,0.12926530838012695,-1.5217974821673792,0.007119379006326199,0.0008272860432043672,0.6744500994682312,0.0,-0.0,0.0,0.0,0.0,0.0
1782664493,517829506,-1.6560905615436,0.12933731079101562,-1.5218337217914026,0.007107394747436047,0.0008392703020945191,0.6743782162666321,0.0,-0.0,0.0,0.0,0.0,0.0
1782664493,525863523,-1.656102482472555,0.12926530838012695,-1.521881405507223,0.007107394747436047,0.0008153018425218761,0.6744500994682312,0.0,-0.0,0.0,0.0,0.0,0.0
1782664493,533830614,-1.6561268011676233,0.1292414665222168,-1.521881405507223,0.007107394747436047,0.0008153018425218761,0.6744740605354309,0.0,-0.0,0.0,0.0,0.0,0.0
1782664493,541819297,-1.6561268011676233,0.1293010711669922,-1.5218337217914026,0.007131362799555063,0.0007789746159687638,0.6744500994682312,0.0,-0.0,0.0,0.0,0.0,0.0
1782664493,549877426,-1.65611440340151,0.12926530838012695,-1.521881405507223,0.007083426229655743,0.0008033175836317241,0.6744500994682312,0.0,-0.0,0.0,0.0,0.0,0.0
1782664493,557860424,-1.65611440340151,0.12922906875610352,-1.5217855612384241,0.007143347058445215,0.0008272860432043672,0.6744381189346313,0.0,-0.0,0.0,0.0,0.0,0.0
1782664493,565830330,-1.65611440340151,0.12926530838012695,-1.5218213240252894,0.007143347058445215,0.0008392703020945191,0.6744021773338318,0.0,-0.0,0.0,0.0,0.0,0.0
1782664493,573810643,-1.6561387220965784,0.12926530838012695,-1.521881405507223,0.007143347058445215,0.0007789746159687638,0.6744740605354309,0.0,-0.0,0.0,0.0,0.0,0.0
1782664493,581804512,-1.65611440340151,0.1292891502380371,-1.5218213240252894,0.007119379006326199,0.0008392703020945191,0.6744141578674316,0.0,-0.0,0.0,0.0,0.0,0.0
1782664493,589893159,-1.656102482472555,0.12925338745117188,-1.5218575636493128,0.007143347058445215,0.0007909588748589158,0.6743901968002319,0.0,-0.0,0.0,0.0,0.0,0.0
1782664493,597834768,-1.6561268011676233,0.1292891502380371,-1.5218694845782679,0.007155331317335367,0.0008272860432043672,0.674462080001831,0.0,-0.0,0.0,0.0,0.0,0.0
1782664493,605817452,-1.6560786406146448,0.1293010711669922,-1.5218337217914026,0.007107394747436047,0.0008153018425218761,0.6744141578674316,0.0,-0.0,0.0,0.0,0.0,0.0
1782664493,613820710,-1.656102482472555,0.12932491302490234,-1.5218694845782679,0.007167315576225519,0.0008272860432043672,0.6744021773338318,0.0,-0.0,0.0,0.0,0.0,0.0
1782664493,621886301,-1.6561387220965784,0.12921714782714844,-1.521893326436178,0.007095410488545895,0.0008632387034595013,0.6744381189346313,0.0,-0.0,0.0,0.0,0.0,0.0
1782664493,629827799,-1.65611440340151,0.1293010711669922,-1.5218337217914026,0.007143347058445215,0.0008033175836317241,0.6744500994682312,0.0,-0.0,0.0,0.0,0.0,0.0
1782664493,637820057,-1.656102482472555,0.1292891502380371,-1.5218337217914026,0.007131362799555063,0.0007789746159687638,0.6744021773338318,0.0,-0.0,0.0,0.0,0.0,0.0
1782664493,645819333,-1.6561864058123987,0.12926530838012695,-1.5218575636493128,0.007167315576225519,0.0007669904152862728,0.6744261384010315,0.0,-0.0,0.0,0.0,0.0,0.0
1782664493,653823609,-1.65611440340151,0.12925338745117188,-1.5218213240252894,0.007131362799555063,0.0008512545027770102,0.6744500994682312,0.0,-0.0,0.0,0.0,0.0,0.0
1782664493,661814811,-1.656102482472555,0.1292414665222168,-1.5218213240252894,0.007083426229655743,0.0008512545027770102,0.6744860410690308,0.0,-0.0,0.0,0.0,0.0,0.0
1782664493,669814106,-1.656102482472555,0.12931299209594727,-1.5218094030963343,0.007107394747436047,0.0008153018425218761,0.6744261384010315,0.0,-0.0,0.0,0.0,0.0,0.0
1782664493,678006625,-1.65611440340151,0.1292414665222168,-1.5217974821673792,0.007155331317335367,0.0008272860432043672,0.674462080001831,0.0,-0.0,0.0,0.0,0.0,0.0
1782664493,686036753,-1.6561387220965784,0.12927722930908203,-1.521881405507223,0.007155331317335367,0.0008752229623496532,0.6744740605354309,0.0,-0.0,0.0,0.0,0.0,0.0
1782664493,694083937,-1.6561744848834437,0.12926530838012695,-1.521881405507223,0.007179299835115671,0.0008272860432043672,0.6744381189346313,0.0,-0.0,0.0,0.0,0.0,0.0
1782664493,701813045,-1.65611440340151,0.12932491302490234,-1.5218575636493128,0.007143347058445215,0.0008153018425218761,0.6743901968002319,0.0,-0.0,0.0,0.0,0.0,0.0
1782664493,709816691,-1.6561506430255335,0.12926530838012695,-1.5218094030963343,0.007167315576225519,0.0007789746159687638,0.6744500994682312,0.0,-0.0,0.0,0.0,0.0,0.0
1782664493,717899079,-1.6560905615436,0.12926530838012695,-1.5217974821673792,0.007119379006326199,0.0008392703020945191,0.6744141578674316,0.0,-0.0,0.0,0.0,0.0,0.0
1782664493,725824910,-1.6560786406146448,0.12927722930908203,-1.5218337217914026,0.007167315576225519,0.0008153018425218761,0.6744500994682312,0.0,-0.0,0.0,0.0,0.0,0.0
1782664493,733809927,-1.65611440340151,0.12926530838012695,-1.5218213240252894,0.007119379006326199,0.0008033175836317241,0.6744381189346313,0.0,-0.0,0.0,0.0,0.0,0.0
1782664493,741817926,-1.65611440340151,0.12925338745117188,-1.5218575636493128,0.007143347058445215,0.0008153018425218761,0.674462080001831,0.0,-0.0,0.0,0.0,0.0,0.0
1782664493,749865221,-1.6560905615436,0.1292414665222168,-1.5218575636493128,0.007143347058445215,0.0007909588748589158,0.6744021773338318,0.0,-0.0,0.0,0.0,0.0,0.0
1782664493,757830886,-1.656102482472555,0.12931299209594727,-1.5218456427203577,0.007131362799555063,0.0008272860432043672,0.6744381189346313,0.0,-0.0,0.0,0.0,0.0,0.0
1782664493,765809347,-1.656102482472555,0.12922906875610352,-1.5218694845782679,0.007143347058445215,0.0008033175836317241,0.6744141578674316,0.0,-0.0,0.0,0.0,0.0,0.0
1782664493,773919532,-1.6560786406146448,0.12926530838012695,-1.5217855612384241,0.007155331317335367,0.0008392703020945191,0.6743901968002319,0.0,-0.0,0.0,0.0,0.0,0.0
1782664493,781827752,-1.6561387220965784,0.1293010711669922,-1.521773640309469,0.007107394747436047,0.0008153018425218761,0.6744261384010315,0.0,-0.0,0.0,0.0,0.0,0.0
1782664493,789826713,-1.65611440340151,0.1293010711669922,-1.5218456427203577,0.007107394747436047,0.0007909588748589158,0.6744261384010315,0.0,-0.0,0.0,0.0,0.0,0.0
1782664493,797811415,-1.6561625639544886,0.12927722930908203,-1.5218456427203577,0.007119379006326199,0.0008392703020945191,0.6744261384010315,0.0,-0.0,0.0,0.0,0.0,0.0
1782664493,805831803,-1.656102482472555,0.12931299209594727,-1.521773640309469,0.007095410488545895,0.0007789746159687638,0.6744261384010315,0.0,-0.0,0.0,0.0,0.0,0.0
1782664493,813917468,-1.6561268011676233,0.12926530838012695,-1.5218337217914026,0.007131362799555063,0.0008392703020945191,0.6744500994682312,0.0,-0.0,0.0,0.0,0.0,0.0
1782664493,821819170,-1.65611440340151,0.12932491302490234,-1.5218575636493128,0.007131362799555063,0.0008153018425218761,0.6744381189346313,0.0,-0.0,0.0,0.0,0.0,0.0
1782664493,829822798,-1.65611440340151,0.12922906875610352,-1.5218575636493128,0.007119379006326199,0.0008033175836317241,0.6744381189346313,0.0,-0.0,0.0,0.0,0.0,0.0
1782664493,837848704,-1.6561506430255335,0.12927722930908203,-1.5218694845782679,0.007131362799555063,0.0008153018425218761,0.6744740605354309,0.0,-0.0,0.0,0.0,0.0,0.0
1782664493,845859258,-1.6561387220965784,0.12926530838012695,-1.5218456427203577,0.007107394747436047,0.0008272860432043672,0.674462080001831,0.0,-0.0,0.0,0.0,0.0,0.0
1782664493,853828608,-1.6560786406146448,0.1292891502380371,-1.5218094030963343,0.007167315576225519,0.0008033175836317241,0.674462080001831,0.0,-0.0,0.0,0.0,0.0,0.0
1782664493,861812773,-1.656102482472555,0.12926530838012695,-1.5218694845782679,0.007095410488545895,0.0008512545027770102,0.674462080001831,0.0,-0.0,0.0,0.0,0.0,0.0
1782664493,869830050,-1.6561387220965784,0.1293010711669922,-1.5218694845782679,0.007143347058445215,0.0007789746159687638,0.6744500994682312,0.0,-0.0,0.0,0.0,0.0,0.0
1782664493,877847567,-1.65611440340151,0.1293010711669922,-1.5218213240252894,0.007119379006326199,0.0007669904152862728,0.6744500994682312,0.0,-0.0,0.0,0.0,0.0,0.0
1782664493,885832639,-1.656102482472555,0.1293010711669922,-1.5218337217914026,0.007155331317335367,0.0008272860432043672,0.6744381189346313,0.0,-0.0,0.0,0.0,0.0,0.0
1782664493,893814415,-1.656102482472555,0.12932491302490234,-1.5218456427203577,0.007155331317335367,0.0008153018425218761,0.6744141578674316,0.0,-0.0,0.0,0.0,0.0,0.0
1782664493,901830581,-1.6561268011676233,0.12927722930908203,-1.5218213240252894,0.007143347058445215,0.0008272860432043672,0.6743901968002319,0.0,-0.0,0.0,0.0,0.0,0.0
1782664493,909856894,-1.65611440340151,0.1292891502380371,-1.5218337217914026,0.007095410488545895,0.0008153018425218761,0.6744740605354309,0.0,-0.0,0.0,0.0,0.0,0.0
1782664493,917831152,-1.6560905615436,0.12927722930908203,-1.5218575636493128,0.007107394747436047,0.0008512545027770102,0.6744021773338318,0.0,-0.0,0.0,0.0,0.0,0.0
1782664493,925821669,-1.6561268011676233,0.12925338745117188,-1.5218456427203577,0.007167315576225519,0.0008153018425218761,0.6743901968002319,0.0,-0.0,0.0,0.0,0.0,0.0
1782664493,933834575,-1.6561625639544886,0.1292891502380371,-1.5218094030963343,0.007131362799555063,0.0008512545027770102,0.6744381189346313,0.0,-0.0,0.0,0.0,0.0,0.0
1782664493,941843295,-1.6561268011676233,0.1292891502380371,-1.5218094030963343,0.007155331317335367,0.0008153018425218761,0.6744261384010315,0.0,-0.0,0.0,0.0,0.0,0.0
1782664493,949837627,-1.6561268011676233,0.1292891502380371,-1.5218694845782679,0.007155331317335367,0.0008033175836317241,0.6744261384010315,0.0,-0.0,0.0,0.0,0.0,0.0
1782664493,957825792,-1.656102482472555,0.1292891502380371,-1.5218575636493128,0.007107394747436047,0.0008153018425218761,0.6744261384010315,0.0,-0.0,0.0,0.0,0.0,0.0
1782664493,965827050,-1.6560786406146448,0.1292891502380371,-1.5218094030963343,0.007143347058445215,0.0008392703020945191,0.6744141578674316,0.0,-0.0,0.0,0.0,0.0,0.0
1782664493,973863567,-1.656102482472555,0.12925338745117188,-1.5218094030963343,0.007179299835115671,0.0008033175836317241,0.6744500994682312,0.0,-0.0,0.0,0.0,0.0,0.0
1782664493,981841139,-1.6560905615436,0.12933731079101562,-1.5218213240252894,0.007155331317335367,0.0008512545027770102,0.6744261384010315,0.0,-0.0,0.0,0.0,0.0,0.0
1782664493,989818379,-1.656102482472555,0.12925338745117188,-1.5218094030963343,0.007167315576225519,0.0007789746159687638,0.6744141578674316,0.0,-0.0,0.0,0.0,0.0,0.0
1782664493,997832025,-1.65611440340151,0.1292414665222168,-1.5218456427203577,0.007107394747436047,0.0008392703020945191,0.6744021773338318,0.0,-0.0,0.0,0.0,0.0,0.0
1782664494,5894432,-1.656102482472555,0.12926530838012695,-1.5218337217914026,0.007155331317335367,0.0007789746159687638,0.6744500994682312,0.0,-0.0,0.0,0.0,0.0,0.0
1782664494,13835763,-1.656102482472555,0.1293010711669922,-1.5218694845782679,0.007131362799555063,0.0008153018425218761,0.6744141578674316,0.0,-0.0,0.0,0.0,0.0,0.0
1782664494,21814077,-1.6561268011676233,0.1292891502380371,-1.5218094030963343,0.007155331317335367,0.0008272860432043672,0.674462080001831,0.0,-0.0,0.0,0.0,0.0,0.0
1782664494,29818760,-1.6560905615436,0.1292891502380371,-1.5218337217914026,0.007143347058445215,0.0007789746159687638,0.674462080001831,0.0,-0.0,0.0,0.0,0.0,0.0
1782664494,37844667,-1.6560786406146448,0.12926530838012695,-1.521881405507223,0.007107394747436047,0.0008153018425218761,0.6744021773338318,0.0,-0.0,0.0,0.0,0.0,0.0
1782664494,45828721,-1.6561268011676233,0.1293010711669922,-1.5218575636493128,0.007131362799555063,0.0008392703020945191,0.6744141578674316,0.0,-0.0,0.0,0.0,0.0,0.0
1782664494,53833442,-1.6561506430255335,0.1293010711669922,-1.5218337217914026,0.007179299835115671,0.0008033175836317241,0.6744740605354309,0.0,-0.0,0.0,0.0,0.0,0.0
1782664494,61832755,-1.6560905615436,0.12931299209594727,-1.5218337217914026,0.007131362799555063,0.0008033175836317241,0.6744740605354309,0.0,-0.0,0.0,0.0,0.0,0.0
1782664494,69821476,-1.6561268011676233,0.12926530838012695,-1.5218213240252894,0.007155331317335367,0.0007909588748589158,0.6744261384010315,0.0,-0.0,0.0,0.0,0.0,0.0
1782664494,77819512,-1.65611440340151,0.12925338745117188,-1.5218575636493128,0.007143347058445215,0.0008272860432043672,0.6744500994682312,0.0,-0.0,0.0,0.0,0.0,0.0
1782664494,85812325,-1.6560786406146448,0.1292891502380371,-1.5218456427203577,0.007119379006326199,0.0008392703020945191,0.6743901968002319,0.0,-0.0,0.0,0.0,0.0,0.0
1782664494,93871269,-1.65611440340151,0.12931299209594727,-1.5218337217914026,0.007143347058445215,0.0008272860432043672,0.6744261384010315,0.0,-0.0,0.0,0.0,0.0,0.0
1782664494,101911860,-1.65611440340151,0.12927722930908203,-1.5217855612384241,0.007143347058445215,0.0007909588748589158,0.6744500994682312,0.0,-0.0,0.0,0.0,0.0,0.0
1782664494,109817432,-1.6560667196856897,0.12927722930908203,-1.5218337217914026,0.007083426229655743,0.0008392703020945191,0.6743782162666321,0.0,-0.0,0.0,0.0,0.0,0.0
1782664494,117815320,-1.656102482472555,0.12925338745117188,-1.5217974821673792,0.007191284094005823,0.0008153018425218761,0.6744740605354309,0.0,-0.0,0.0,0.0,0.0,0.0
1782664494,125827596,-1.656102482472555,0.12925338745117188,-1.5218456427203577,0.007143347058445215,0.0007789746159687638,0.6744381189346313,0.0,-0.0,0.0,0.0,0.0,0.0
1782664494,133827521,-1.6561387220965784,0.12927722930908203,-1.5218094030963343,0.007167315576225519,0.0008512545027770102,0.6744740605354309,0.0,-0.0,0.0,0.0,0.0,0.0
1782664494,141829668,-1.6561268011676233,0.12931299209594727,-1.5218213240252894,0.007119379006326199,0.0008033175836317241,0.6744500994682312,0.0,-0.0,0.0,0.0,0.0,0.0
1782664494,149815018,-1.6561506430255335,0.1292891502380371,-1.5218337217914026,0.007143347058445215,0.0008392703020945191,0.6744141578674316,0.0,-0.0,0.0,0.0,0.0,0.0
1782664494,157839313,-1.656102482472555,0.1292891502380371,-1.5218694845782679,0.007155331317335367,0.0008153018425218761,0.674462080001831,0.0,-0.0,0.0,0.0,0.0,0.0
1782664494,165813571,-1.6561387220965784,0.1293010711669922,-1.5218094030963343,0.007143347058445215,0.0008033175836317241,0.6744021773338318,0.0,-0.0,0.0,0.0,0.0,0.0
1782664494,173900978,-1.6560905615436,0.1293010711669922,-1.521881405507223,0.007143347058445215,0.0008272860432043672,0.6744261384010315,0.0,-0.0,0.0,0.0,0.0,0.0
1782664494,181845865,-1.6561268011676233,0.12926530838012695,-1.5218213240252894,0.007119379006326199,0.0008392703020945191,0.6744860410690308,0.0,-0.0,0.0,0.0,0.0,0.0
1782664494,189871345,-1.65611440340151,0.1292414665222168,-1.5218456427203577,0.007167315576225519,0.0008153018425218761,0.6744740605354309,0.0,-0.0,0.0,0.0,0.0,0.0
1782664494,197819844,-1.6560905615436,0.12927722930908203,-1.5218456427203577,0.007167315576225519,0.0008153018425218761,0.6744261384010315,0.0,-0.0,0.0,0.0,0.0,0.0
1782664494,205880658,-1.65611440340151,0.1292891502380371,-1.5218337217914026,0.007107394747436047,0.0008153018425218761,0.6744740605354309,0.0,-0.0,0.0,0.0,0.0,0.0
1782664494,213827174,-1.6561387220965784,0.12926530838012695,-1.5218575636493128,0.007143347058445215,0.0008153018425218761,0.6743901968002319,0.0,-0.0,0.0,0.0,0.0,0.0
1782664494,221820117,-1.6560905615436,0.12927722930908203,-1.5218337217914026,0.007083426229655743,0.0008153018425218761,0.6744740605354309,0.0,-0.0,0.0,0.0,0.0,0.0
1782664494,229824246,-1.656102482472555,0.12927722930908203,-1.5218456427203577,0.007179299835115671,0.0007909588748589158,0.6744021773338318,0.0,-0.0,0.0,0.0,0.0,0.0
1782664494,237865337,-1.6561268011676233,0.12926530838012695,-1.521881405507223,0.007167315576225519,0.0008153018425218761,0.6744381189346313,0.0,-0.0,0.0,0.0,0.0,0.0
1782664494,245828188,-1.656102482472555,0.1292891502380371,-1.5218456427203577,0.007179299835115671,0.0008272860432043672,0.6744141578674316,0.0,-0.0,0.0,0.0,0.0,0.0
1782664494,253835723,-1.65611440340151,0.1292891502380371,-1.5218213240252894,0.007143347058445215,0.0008033175836317241,0.6744381189346313,0.0,-0.0,0.0,0.0,0.0,0.0
1782664494,261830444,-1.6561268011676233,0.12926530838012695,-1.5218094030963343,0.007095410488545895,0.0007789746159687638,0.6744141578674316,0.0,-0.0,0.0,0.0,0.0,0.0
1782664494,269841147,-1.6560667196856897,0.12926530838012695,-1.5218694845782679,0.007131362799555063,0.0008272860432043672,0.6744141578674316,0.0,-0.0,0.0,0.0,0.0,0.0
1782664494,277833979,-1.656102482472555,0.1292414665222168,-1.5217974821673792,0.007107394747436047,0.0008033175836317241,0.6744261384010315,0.0,-0.0,0.0,0.0,0.0,0.0
1782664494,285821385,-1.65611440340151,0.12931299209594727,-1.5218094030963343,0.007119379006326199,0.0008272860432043672,0.6744141578674316,0.0,-0.0,0.0,0.0,0.0,0.0
1782664494,293830920,-1.6561268011676233,0.12925338745117188,-1.5218456427203577,0.007131362799555063,0.0008033175836317241,0.674462080001831,0.0,-0.0,0.0,0.0,0.0,0.0
1782664494,301833789,-1.6561268011676233,0.12926530838012695,-1.5218575636493128,0.007167315576225519,0.0008272860432043672,0.6744500994682312,0.0,-0.0,0.0,0.0,0.0,0.0
1782664494,309824362,-1.6560547987567347,0.12932491302490234,-1.5218456427203577,0.007143347058445215,0.0007909588748589158,0.6743901968002319,0.0,-0.0,0.0,0.0,0.0,0.0
1782664494,317822250,-1.6560905615436,0.12931299209594727,-1.5218213240252894,0.007131362799555063,0.0008272860432043672,0.6744141578674316,0.0,-0.0,0.0,0.0,0.0,0.0
1782664494,325828859,-1.65611440340151,0.1293010711669922,-1.5218213240252894,0.007131362799555063,0.0008033175836317241,0.6744381189346313,0.0,-0.0,0.0,0.0,0.0,0.0
1782664494,333918562,-1.656102482472555,0.1292891502380371,-1.5218575636493128,0.007131362799555063,0.0008512545027770102,0.6744261384010315,0.0,-0.0,0.0,0.0,0.0,0.0
1782664494,341822838,-1.6560905615436,0.12926530838012695,-1.5218575636493128,0.007143347058445215,0.0007789746159687638,0.674462080001831,0.0,-0.0,0.0,0.0,0.0,0.0
1782664494,349818485,-1.656102482472555,0.1292891502380371,-1.5218094030963343,0.007143347058445215,0.0008512545027770102,0.6744381189346313,0.0,-0.0,0.0,0.0,0.0,0.0
1782664494,357829817,-1.65611440340151,0.12925338745117188,-1.5218694845782679,0.007143347058445215,0.0008272860432043672,0.6744261384010315,0.0,-0.0,0.0,0.0,0.0,0.0
1782664494,365825705,-1.6560667196856897,0.12927722930908203,-1.5218337217914026,0.007179299835115671,0.0008153018425218761,0.6744381189346313,0.0,-0.0,0.0,0.0,0.0,0.0
1782664494,373823518,-1.6560786406146448,0.1292414665222168,-1.5217974821673792,0.007143347058445215,0.0008272860432043672,0.6744261384010315,0.0,-0.0,0.0,0.0,0.0,0.0
1782664494,381813313,-1.656102482472555,0.1293010711669922,-1.5218213240252894,0.007143347058445215,0.0008512545027770102,0.6744381189346313,0.0,-0.0,0.0,0.0,0.0,0.0
1782664494,389820330,-1.6561268011676233,0.1292891502380371,-1.5218456427203577,0.007131362799555063,0.0007789746159687638,0.6744261384010315,0.0,-0.0,0.0,0.0,0.0,0.0
1782664494,397859477,-1.65611440340151,0.1293010711669922,-1.521773640309469,0.007119379006326199,0.0008153018425218761,0.6744141578674316,0.0,-0.0,0.0,0.0,0.0,0.0
1782664494,405822920,-1.656102482472555,0.12927722930908203,-1.5218575636493128,0.007143347058445215,0.0008153018425218761,0.6744261384010315,0.0,-0.0,0.0,0.0,0.0,0.0
1782664494,413830271,-1.656102482472555,0.1293010711669922,-1.5218213240252894,0.007155331317335367,0.0008153018425218761,0.6744740605354309,0.0,-0.0,0.0,0.0,0.0,0.0
1782664494,421823825,-1.6561268011676233,0.12931299209594727,-1.5218337217914026,0.007119379006326199,0.0008153018425218761,0.674462080001831,0.0,-0.0,0.0,0.0,0.0,0.0
1782664494,430136696,-1.65611440340151,0.12925338745117188,-1.5218575636493128,0.007167315576225519,0.0008153018425218761,0.6744381189346313,0.0,-0.0,0.0,0.0,0.0,0.0
1782664494,437891619,-1.65611440340151,0.1293010711669922,-1.5218456427203577,0.007131362799555063,0.0008153018425218761,0.6744141578674316,0.0,-0.0,0.0,0.0,0.0,0.0
1782664494,445805247,-1.6561268011676233,0.1292414665222168,-1.521881405507223,0.007131362799555063,0.0008272860432043672,0.6744381189346313,0.0,-0.0,0.0,0.0,0.0,0.0
1782664494,453820505,-1.6561268011676233,0.12927722930908203,-1.5218337217914026,0.007167315576225519,0.0008512545027770102,0.6744740605354309,0.0,-0.0,0.0,0.0,0.0,0.0
1782664494,461814503,-1.6561268011676233,0.12925338745117188,-1.5218456427203577,0.007143347058445215,0.0008392703020945191,0.674462080001831,0.0,-0.0,0.0,0.0,0.0,0.0
1782664494,469834317,-1.6561268011676233,0.12931299209594727,-1.5218094030963343,0.007155331317335367,0.0008392703020945191,0.6744141578674316,0.0,-0.0,0.0,0.0,0.0,0.0
1782664494,477813741,-1.65611440340151,0.1293010711669922,-1.5218456427203577,0.007191284094005823,0.0008033175836317241,0.6744500994682312,0.0,-0.0,0.0,0.0,0.0,0.0
1782664494,485834777,-1.656102482472555,0.12926530838012695,-1.521881405507223,0.007167315576225519,0.0008632387034595013,0.6744740605354309,0.0,-0.0,0.0,0.0,0.0,0.0
1782664494,493862387,-1.656102482472555,0.12926530838012695,-1.5218337217914026,0.007167315576225519,0.0007909588748589158,0.6744500994682312,0.0,-0.0,0.0,0.0,0.0,0.0
1782664494,501823052,-1.6561864058123987,0.12925338745117188,-1.5218337217914026,0.007155331317335367,0.0008153018425218761,0.6744381189346313,0.0,-0.0,0.0,0.0,0.0,0.0
1782664494,509854366,-1.6560667196856897,0.12927722930908203,-1.5218694845782679,0.007131362799555063,0.0008272860432043672,0.674462080001831,0.0,-0.0,0.0,0.0,0.0,0.0
1782664494,517814402,-1.656102482472555,0.12926530838012695,-1.5218337217914026,0.007131362799555063,0.0008153018425218761,0.6744261384010315,0.0,-0.0,0.0,0.0,0.0,0.0
1782664494,525814826,-1.6560667196856897,0.12927722930908203,-1.5218094030963343,0.007119379006326199,0.0007909588748589158,0.6744740605354309,0.0,-0.0,0.0,0.0,0.0,0.0
1782664494,533827251,-1.65611440340151,0.1293010711669922,-1.5217974821673792,0.007131362799555063,0.0008153018425218761,0.6744740605354309,0.0,-0.0,0.0,0.0,0.0,0.0
1782664494,541817342,-1.6561387220965784,0.12926530838012695,-1.5218094030963343,0.007143347058445215,0.0008272860432043672,0.6744500994682312,0.0,-0.0,0.0,0.0,0.0,0.0
1782664494,549823433,-1.656102482472555,0.12931299209594727,-1.5218337217914026,0.007131362799555063,0.0008153018425218761,0.6744500994682312,0.0,-0.0,0.0,0.0,0.0,0.0
1782664494,557859858,-1.6560905615436,0.12926530838012695,-1.5218337217914026,0.007107394747436047,0.0008153018425218761,0.6744500994682312,0.0,-0.0,0.0,0.0,0.0,0.0
1782664494,565818042,-1.6560786406146448,0.1292891502380371,-1.5218337217914026,0.007059832103550434,0.0008033175836317241,0.6744021773338318,0.0,-0.0,0.0,0.0,0.0,0.0
1782664494,573811837,-1.6560905615436,0.12926530838012695,-1.5218094030963343,0.007131362799555063,0.0007909588748589158,0.6744141578674316,0.0,-0.0,0.0,0.0,0.0,0.0
1782664494,581819706,-1.656102482472555,0.12932491302490234,-1.5218094030963343,0.007167315576225519,0.0007789746159687638,0.6744261384010315,0.0,-0.0,0.0,0.0,0.0,0.0
1782664494,589827853,-1.65611440340151,0.12927722930908203,-1.5218094030963343,0.007119379006326199,0.0008153018425218761,0.6744021773338318,0.0,-0.0,0.0,0.0,0.0,0.0
1782664494,597809629,-1.6560786406146448,0.12926530838012695,-1.5218575636493128,0.007131362799555063,0.0007909588748589158,0.6744141578674316,0.0,-0.0,0.0,0.0,0.0,0.0
1782664494,605823220,-1.6561744848834437,0.12927722930908203,-1.5218094030963343,0.007095410488545895,0.0008153018425218761,0.6744500994682312,0.0,-0.0,0.0,0.0,0.0,0.0
1782664494,613819312,-1.65611440340151,0.12927722930908203,-1.5218094030963343,0.007191284094005823,0.0007909588748589158,0.6744021773338318,0.0,-0.0,0.0,0.0,0.0,0.0
1782664494,621850644,-1.6561268011676233,0.1293010711669922,-1.5218694845782679,0.007131362799555063,0.0008033175836317241,0.6744141578674316,0.0,-0.0,0.0,0.0,0.0,0.0
1782664494,629835679,-1.656102482472555,0.12927722930908203,-1.5218094030963343,0.007143347058445215,0.0008033175836317241,0.674462080001831,0.0,-0.0,0.0,0.0,0.0,0.0
1782664494,637799363,-1.6560905615436,0.12926530838012695,-1.521893326436178,0.007179299835115671,0.0008153018425218761,0.6744381189346313,0.0,-0.0,0.0,0.0,0.0,0.0
1782664494,645827362,-1.6561387220965784,0.12931299209594727,-1.5218337217914026,0.007131362799555063,0.0008272860432043672,0.6743662357330322,0.0,-0.0,0.0,0.0,0.0,0.0
1782664494,654267623,-1.6560905615436,0.1292891502380371,-1.5218213240252894,0.007131362799555063,0.0007909588748589158,0.6744381189346313,0.0,-0.0,0.0,0.0,0.0,0.0
1782664494,661823841,-1.6561506430255335,0.12926530838012695,-1.5218213240252894,0.007131362799555063,0.0008272860432043672,0.674462080001831,0.0,-0.0,0.0,0.0,0.0,0.0
1782664494,669819098,-1.6561268011676233,0.12927722930908203,-1.5218575636493128,0.007119379006326199,0.0008392703020945191,0.6744261384010315,0.0,-0.0,0.0,0.0,0.0,0.0
1782664494,677841412,-1.6561387220965784,0.12931299209594727,-1.5218337217914026,0.007155331317335367,0.0008153018425218761,0.6743901968002319,0.0,-0.0,0.0,0.0,0.0,0.0
1782664494,685846374,-1.6560905615436,0.12925338745117188,-1.5218456427203577,0.007191284094005823,0.0008153018425218761,0.6744381189346313,0.0,-0.0,0.0,0.0,0.0,0.0
1782664494,693801594,-1.6561268011676233,0.12927722930908203,-1.5217855612384241,0.007143347058445215,0.0008512545027770102,0.6744500994682312,0.0,-0.0,0.0,0.0,0.0,0.0
1782664494,805844520,-1.65611440340151,0.1293010711669922,-1.5218694845782679,0.007119379006326199,0.0008392703020945191,0.6744381189346313,0.0,-0.0,0.0,0.0,0.0,0.0
1782664494,813838260,-1.6561268011676233,0.12927722930908203,-1.5217855612384241,0.007107394747436047,0.0008153018425218761,0.6744381189346313,0.0,-0.0,0.0,0.0,0.0,0.0
1782664494,821816018,-1.65611440340151,0.1292891502380371,-1.5218456427203577,0.007143347058445215,0.0007909588748589158,0.674462080001831,0.0,-0.0,0.0,0.0,0.0,0.0
1782664494,829853442,-1.6561506430255335,0.1293010711669922,-1.5217855612384241,0.007167315576225519,0.0007909588748589158,0.6744500994682312,0.0,-0.0,0.0,0.0,0.0,0.0
1782664494,837813700,-1.65611440340151,0.12927722930908203,-1.5218575636493128,0.007119379006326199,0.0008153018425218761,0.6744500994682312,0.0,-0.0,0.0,0.0,0.0,0.0
1782664494,845784236,-1.65611440340151,0.12926530838012695,-1.5218213240252894,0.007143347058445215,0.0007909588748589158,0.6744381189346313,0.0,-0.0,0.0,0.0,0.0,0.0
1782664494,853829864,-1.6560905615436,0.1293010711669922,-1.5218213240252894,0.007131362799555063,0.0008632387034595013,0.6744860410690308,0.0,-0.0,0.0,0.0,0.0,0.0
1782664494,861844567,-1.65611440340151,0.12927722930908203,-1.5218094030963343,0.007143347058445215,0.0008153018425218761,0.6744381189346313,0.0,-0.0,0.0,0.0,0.0,0.0
1782664494,869887825,-1.6561268011676233,0.12926530838012695,-1.5218337217914026,0.007167315576225519,0.0008272860432043672,0.6744500994682312,0.0,-0.0,0.0,0.0,0.0,0.0
1782664494,877863157,-1.6560905615436,0.1293010711669922,-1.5217855612384241,0.007083426229655743,0.0007909588748589158,0.6744381189346313,0.0,-0.0,0.0,0.0,0.0,0.0
1782664494,885800637,-1.6560786406146448,0.12926530838012695,-1.5218575636493128,0.007095410488545895,0.0008153018425218761,0.6744261384010315,0.0,-0.0,0.0,0.0,0.0,0.0
1782664494,998627642,-1.65611440340151,0.12933731079101562,-1.521881405507223,0.007179299835115671,0.0008392703020945191,0.6744500994682312,0.0,-0.0,0.0,0.0,0.0,0.0
1782664495,5966896,-1.65611440340151,0.12927722930908203,-1.5218575636493128,0.007167315576225519,0.0008512545027770102,0.6744500994682312,0.0,-0.0,0.0,0.0,0.0,0.0
1782664495,14071228,-1.6560786406146448,0.1292414665222168,-1.5218456427203577,0.007191284094005823,0.0008392703020945191,0.6744860410690308,0.0,-0.0,0.0,0.0,0.0,0.0
1782664495,21812540,-1.656102482472555,0.1293010711669922,-1.5218337217914026,0.007155331317335367,0.0008033175836317241,0.6744740605354309,0.0,-0.0,0.0,0.0,0.0,0.0
1782664495,29810002,-1.6561387220965784,0.1293010711669922,-1.5218575636493128,0.007107394747436047,0.0008392703020945191,0.6744860410690308,0.0,-0.0,0.0,0.0,0.0,0.0
1782664495,37807945,-1.6561506430255335,0.12927722930908203,-1.5218337217914026,0.007107394747436047,0.0008153018425218761,0.6743901968002319,0.0,-0.0,0.0,0.0,0.0,0.0
1782664495,45941464,-1.6561387220965784,0.12927722930908203,-1.5218456427203577,0.007143347058445215,0.0008632387034595013,0.6744261384010315,0.0,-0.0,0.0,0.0,0.0,0.0
1782664495,53811647,-1.6561506430255335,0.12927722930908203,-1.5218094030963343,0.007155331317335367,0.0008272860432043672,0.6744261384010315,0.0,-0.0,0.0,0.0,0.0,0.0
1782664495,61896128,-1.65611440340151,0.12927722930908203,-1.5218094030963343,0.007167315576225519,0.0008033175836317241,0.6743901968002319,0.0,-0.0,0.0,0.0,0.0,0.0
1782664495,69813737,-1.65611440340151,0.12932491302490234,-1.5217855612384241,0.007119379006326199,0.0008033175836317241,0.6744740605354309,0.0,-0.0,0.0,0.0,0.0,0.0
1782664495,80871498,-1.656102482472555,0.12926530838012695,-1.5218213240252894,0.007131362799555063,0.0007789746159687638,0.6744500994682312,0.0,-0.0,0.0,0.0,0.0,0.0
1782664495,86891835,-1.656102482472555,0.12926530838012695,-1.5218213240252894,0.007131362799555063,0.0007789746159687638,0.6744500994682312,0.0,-0.0,0.0,0.0,0.0,0.0
1782664495,93811993,-1.6561387220965784,0.1292891502380371,-1.5218456427203577,0.007155331317335367,0.0008392703020945191,0.6744381189346313,0.0,-0.0,0.0,0.0,0.0,0.0
1782664495,101803881,-1.6560786406146448,0.12926530838012695,-1.5218213240252894,0.007131362799555063,0.0007909588748589158,0.6744500994682312,0.0,-0.0,0.0,0.0,0.0,0.0
1782664495,109805972,-1.6561268011676233,0.1293010711669922,-1.5218213240252894,0.007167315576225519,0.0008392703020945191,0.6744381189346313,0.0,-0.0,0.0,0.0,0.0,0.0
1782664495,117796953,-1.65611440340151,0.1293010711669922,-1.5218213240252894,0.007167315576225519,0.0008392703020945191,0.6744261384010315,0.0,-0.0,0.0,0.0,0.0,0.0
1782664495,125804692,-1.6561506430255335,0.12925338745117188,-1.5218337217914026,0.007155331317335367,0.0008033175836317241,0.6744021773338318,0.0,-0.0,0.0,0.0,0.0,0.0
1782664495,133809895,-1.65611440340151,0.12932491302490234,-1.5218337217914026,0.007143347058445215,0.0008272860432043672,0.6744261384010315,0.0,-0.0,0.0,0.0,0.0,0.0
1782664495,141841394,-1.6561387220965784,0.12927722930908203,-1.5218575636493128,0.007155331317335367,0.0008153018425218761,0.6744261384010315,0.0,-0.0,0.0,0.0,0.0,0.0
1782664495,149803948,-1.6561387220965784,0.12926530838012695,-1.5218337217914026,0.007167315576225519,0.0008033175836317241,0.6744381189346313,0.0,-0.0,0.0,0.0,0.0,0.0
1782664495,157838003,-1.65611440340151,0.1293010711669922,-1.5218575636493128,0.007191284094005823,0.0008512545027770102,0.6744381189346313,0.0,-0.0,0.0,0.0,0.0,0.0
1782664495,166045336,-1.6561387220965784,0.12926530838012695,-1.5218337217914026,0.007143347058445215,0.0008392703020945191,0.6744261384010315,0.0,-0.0,0.0,0.0,0.0,0.0
1782664495,174230114,-1.6561268011676233,0.1293010711669922,-1.5218213240252894,0.007131362799555063,0.0008512545027770102,0.674462080001831,0.0,-0.0,0.0,0.0,0.0,0.0
1782664495,181802147,-1.6560905615436,0.12921714782714844,-1.5218456427203577,0.007143347058445215,0.0008272860432043672,0.6744141578674316,0.0,-0.0,0.0,0.0,0.0,0.0
1782664495,189803257,-1.6561625639544886,0.12926530838012695,-1.5218213240252894,0.007155331317335367,0.0007909588748589158,0.6743901968002319,0.0,-0.0,0.0,0.0,0.0,0.0
1782664495,210710955,-1.65611440340151,0.1292891502380371,-1.5218337217914026,0.007119379006326199,0.0008153018425218761,0.6744021773338318,0.0,-0.0,0.0,0.0,0.0,0.0
1782664495,223343467,-1.65611440340151,0.1292891502380371,-1.5218337217914026,0.007119379006326199,0.0008153018425218761,0.6744021773338318,0.0,-0.0,0.0,0.0,0.0,0.0
1782664495,226738175,-1.6561506430255335,0.12927722930908203,-1.5218213240252894,0.007119379006326199,0.0008153018425218761,0.674462080001831,0.0,-0.0,0.0,0.0,0.0,0.0
1782664495,236703058,-1.6560905615436,0.12926530838012695,-1.5218456427203577,0.007143347058445215,0.0008153018425218761,0.6744021773338318,0.0,-0.0,0.0,0.0,0.0,0.0
1782664495,246003102,-1.6560786406146448,0.12926530838012695,-1.5218337217914026,0.007167315576225519,0.0008033175836317241,0.6744021773338318,0.0,-0.0,0.0,0.0,0.0,0.0
1782664495,253815026,-1.6560667196856897,0.1292891502380371,-1.521773640309469,0.007131362799555063,0.0008512545027770102,0.6744381189346313,0.0,-0.0,0.0,0.0,0.0,0.0
1782664495,261910581,-1.6560786406146448,0.12927722930908203,-1.5218456427203577,0.007131362799555063,0.0008512545027770102,0.6744261384010315,0.0,-0.0,0.0,0.0,0.0,0.0
1782664495,269976154,-1.6561506430255335,0.12932491302490234,-1.5218456427203577,0.007107394747436047,0.0008392703020945191,0.6744500994682312,0.0,-0.0,0.0,0.0,0.0,0.0
1782664495,277800763,-1.6561268011676233,0.12927722930908203,-1.5218213240252894,0.007143347058445215,0.0008033175836317241,0.674462080001831,0.0,-0.0,0.0,0.0,0.0,0.0
1782664495,285802799,-1.6561268011676233,0.12926530838012695,-1.521893326436178,0.007143347058445215,0.0008272860432043672,0.6744261384010315,0.0,-0.0,0.0,0.0,0.0,0.0
1782664495,294003392,-1.65611440340151,0.1293492317199707,-1.5218337217914026,0.007131362799555063,0.0008392703020945191,0.6744021773338318,0.0,-0.0,0.0,0.0,0.0,0.0
1782664495,303676976,-1.6561387220965784,0.12927722930908203,-1.5218575636493128,0.007155331317335367,0.0008033175836317241,0.6744500994682312,0.0,-0.0,0.0,0.0,0.0,0.0
1782664495,309803611,-1.6561268011676233,0.12926530838012695,-1.5218094030963343,0.007131362799555063,0.0008632387034595013,0.6743901968002319,0.0,-0.0,0.0,0.0,0.0,0.0
1782664495,317827461,-1.6561268011676233,0.12931299209594727,-1.5217974821673792,0.007143347058445215,0.0008153018425218761,0.6744381189346313,0.0,-0.0,0.0,0.0,0.0,0.0
1782664495,325811090,-1.6561268011676233,0.12933731079101562,-1.521881405507223,0.007131362799555063,0.0007669904152862728,0.6744500994682312,0.0,-0.0,0.0,0.0,0.0,0.0
1782664495,333817274,-1.6561506430255335,0.1293010711669922,-1.5217974821673792,0.007107394747436047,0.0007669904152862728,0.6744381189346313,0.0,-0.0,0.0,0.0,0.0,0.0
1782664495,341810291,-1.6561268011676233,0.1292891502380371,-1.5218575636493128,0.007167315576225519,0.0008153018425218761,0.6744261384010315,0.0,-0.0,0.0,0.0,0.0,0.0
1782664495,349807123,-1.6561506430255335,0.12925338745117188,-1.5218213240252894,0.007155331317335367,0.0008033175836317241,0.6744021773338318,0.0,-0.0,0.0,0.0,0.0,0.0
1782664495,357804530,-1.6561506430255335,0.12927722930908203,-1.5218694845782679,0.007095410488545895,0.0007909588748589158,0.6744740605354309,0.0,-0.0,0.0,0.0,0.0,0.0
1782664495,365806399,-1.656102482472555,0.1292891502380371,-1.5218575636493128,0.007107394747436047,0.0008272860432043672,0.6744381189346313,0.0,-0.0,0.0,0.0,0.0,0.0
1782664495,373761342,-1.6561625639544886,0.12925338745117188,-1.5218575636493128,0.007143347058445215,0.0008153018425218761,0.6744021773338318,0.0,-0.0,0.0,0.0,0.0,0.0
1782664495,382576902,-1.656102482472555,0.12925338745117188,-1.5218575636493128,0.007119379006326199,0.0008392703020945191,0.6744381189346313,0.0,-0.0,0.0,0.0,0.0,0.0
1782664495,389804525,-1.6561506430255335,0.1293010711669922,-1.5218456427203577,0.007155331317335367,0.0008272860432043672,0.6744261384010315,0.0,-0.0,0.0,0.0,0.0,0.0
1782664495,397803339,-1.65611440340151,0.12927722930908203,-1.521881405507223,0.007179299835115671,0.0008153018425218761,0.6744261384010315,0.0,-0.0,0.0,0.0,0.0,0.0
1782664495,405799708,-1.656102482472555,0.12927722930908203,-1.5218456427203577,0.007083426229655743,0.0008512545027770102,0.6744500994682312,0.0,-0.0,0.0,0.0,0.0,0.0
1782664495,416307261,-1.656102482472555,0.12926530838012695,-1.5218456427203577,0.007155331317335367,0.0008632387034595013,0.6744860410690308,0.0,-0.0,0.0,0.0,0.0,0.0
1782664495,421809984,-1.6561387220965784,0.1292891502380371,-1.5218337217914026,0.007107394747436047,0.0008392703020945191,0.6744500994682312,0.0,-0.0,0.0,0.0,0.0,0.0
1782664495,429827816,-1.6560905615436,0.1292891502380371,-1.5218456427203577,0.007167315576225519,0.0008272860432043672,0.6744021773338318,0.0,-0.0,0.0,0.0,0.0,0.0
1782664495,437805092,-1.6561506430255335,0.12931299209594727,-1.5218094030963343,0.007191284094005823,0.0008272860432043672,0.6744500994682312,0.0,-0.0,0.0,0.0,0.0,0.0
1782664495,445850369,-1.656102482472555,0.1292414665222168,-1.5218094030963343,0.007143347058445215,0.0008272860432043672,0.6744500994682312,0.0,-0.0,0.0,0.0,0.0,0.0
1782664495,453872887,-1.6560905615436,0.12931299209594727,-1.5218094030963343,0.007143347058445215,0.0008153018425218761,0.6744381189346313,0.0,-0.0,0.0,0.0,0.0,0.0
1782664495,461815589,-1.6561625639544886,0.12925338745117188,-1.5218337217914026,0.007167315576225519,0.0008033175836317241,0.6744980216026306,0.0,-0.0,0.0,0.0,0.0,0.0
1782664495,469804940,-1.6561268011676233,0.12927722930908203,-1.5218094030963343,0.007131362799555063,0.0007909588748589158,0.674462080001831,0.0,-0.0,0.0,0.0,0.0,0.0
1782664495,477845106,-1.6561387220965784,0.12925338745117188,-1.5218213240252894,0.007131362799555063,0.0008512545027770102,0.6744381189346313,0.0,-0.0,0.0,0.0,0.0,0.0
1782664495,485806252,-1.656102482472555,0.1292891502380371,-1.5218575636493128,0.007131362799555063,0.0007909588748589158,0.6744500994682312,0.0,-0.0,0.0,0.0,0.0,0.0
1782664495,493876900,-1.656102482472555,0.1293010711669922,-1.5217855612384241,0.007155331317335367,0.0008392703020945191,0.6744021773338318,0.0,-0.0,0.0,0.0,0.0,0.0
1782664495,501802250,-1.65611440340151,0.1292891502380371,-1.5218337217914026,0.007131362799555063,0.0007909588748589158,0.6744261384010315,0.0,-0.0,0.0,0.0,0.0,0.0
1782664495,509803601,-1.6561625639544886,0.1292891502380371,-1.5217855612384241,0.007131362799555063,0.0008033175836317241,0.674462080001831,0.0,-0.0,0.0,0.0,0.0,0.0
1782664495,517851452,-1.6561387220965784,0.12925338745117188,-1.5218456427203577,0.007119379006326199,0.0007789746159687638,0.6744021773338318,0.0,-0.0,0.0,0.0,0.0,0.0
1782664495,525852636,-1.6561387220965784,0.1292414665222168,-1.5217974821673792,0.007107394747436047,0.0008272860432043672,0.6744381189346313,0.0,-0.0,0.0,0.0,0.0,0.0
1782664495,534904920,-1.656102482472555,0.12926530838012695,-1.5217855612384241,0.007119379006326199,0.0008272860432043672,0.6744261384010315,0.0,-0.0,0.0,0.0,0.0,0.0
1782664495,541799596,-1.6560667196856897,0.1293010711669922,-1.5218213240252894,0.007167315576225519,0.0007909588748589158,0.674462080001831,0.0,-0.0,0.0,0.0,0.0,0.0
1782664495,549967300,-1.6561268011676233,0.12932491302490234,-1.5218575636493128,0.007131362799555063,0.0008153018425218761,0.6744740605354309,0.0,-0.0,0.0,0.0,0.0,0.0
1782664495,557786575,-1.65611440340151,0.12926530838012695,-1.5218694845782679,0.007155331317335367,0.0008272860432043672,0.6744141578674316,0.0,-0.0,0.0,0.0,0.0,0.0
1782664495,565929149,-1.6561506430255335,0.12927722930908203,-1.5218456427203577,0.007131362799555063,0.0008153018425218761,0.6744381189346313,0.0,-0.0,0.0,0.0,0.0,0.0
1782664495,573818536,-1.656102482472555,0.12927722930908203,-1.5218213240252894,0.007203268352895975,0.0008153018425218761,0.6744381189346313,0.0,-0.0,0.0,0.0,0.0,0.0
1782664495,582047259,-1.6560905615436,0.1292891502380371,-1.5218337217914026,0.007155331317335367,0.0008272860432043672,0.6744141578674316,0.0,-0.0,0.0,0.0,0.0,0.0
1782664495,589845367,-1.6561625639544886,0.1293010711669922,-1.5218213240252894,0.007131362799555063,0.0008033175836317241,0.6744261384010315,0.0,-0.0,0.0,0.0,0.0,0.0
1782664495,597833959,-1.656102482472555,0.1292891502380371,-1.5218213240252894,0.007131362799555063,0.0008153018425218761,0.674462080001831,0.0,-0.0,0.0,0.0,0.0,0.0
1782664495,605815013,-1.65611440340151,0.12926530838012695,-1.5218575636493128,0.007143347058445215,0.0007909588748589158,0.6744740605354309,0.0,-0.0,0.0,0.0,0.0,0.0
1782664495,613867512,-1.6561268011676233,0.1292891502380371,-1.5218337217914026,0.007155331317335367,0.0008392703020945191,0.6744141578674316,0.0,-0.0,0.0,0.0,0.0,0.0
1782664495,621812011,-1.6560905615436,0.1292891502380371,-1.5218337217914026,0.007131362799555063,0.0007669904152862728,0.6744500994682312,0.0,-0.0,0.0,0.0,0.0,0.0
1782664495,629801769,-1.6561268011676233,0.12925338745117188,-1.5218337217914026,0.007155331317335367,0.0007789746159687638,0.674462080001831,0.0,-0.0,0.0,0.0,0.0,0.0
1782664495,637846990,-1.6561506430255335,0.1293010711669922,-1.5218694845782679,0.007167315576225519,0.0008153018425218761,0.6744500994682312,0.0,-0.0,0.0,0.0,0.0,0.0
1782664495,645827619,-1.6560905615436,0.1293010711669922,-1.5218456427203577,0.007107394747436047,0.0008033175836317241,0.6744261384010315,0.0,-0.0,0.0,0.0,0.0,0.0
1782664495,653788691,-1.656102482472555,0.1293010711669922,-1.5218094030963343,0.007155331317335367,0.0008033175836317241,0.6744740605354309,0.0,-0.0,0.0,0.0,0.0,0.0
1782664495,661855894,-1.6560786406146448,0.12926530838012695,-1.5218575636493128,0.007143347058445215,0.0008392703020945191,0.6744021773338318,0.0,-0.0,0.0,0.0,0.0,0.0
1782664495,669823097,-1.6561387220965784,0.12926530838012695,-1.5218213240252894,0.007095410488545895,0.0008392703020945191,0.6744740605354309,0.0,-0.0,0.0,0.0,0.0,0.0
1782664495,677822707,-1.6561387220965784,0.1292891502380371,-1.5218575636493128,0.007131362799555063,0.0008392703020945191,0.6744021773338318,0.0,-0.0,0.0,0.0,0.0,0.0
1782664495,685824205,-1.65611440340151,0.12927722930908203,-1.5217974821673792,0.007107394747436047,0.0008272860432043672,0.6744500994682312,0.0,-0.0,0.0,0.0,0.0,0.0
1782664495,693858649,-1.6561387220965784,0.1292891502380371,-1.5218213240252894,0.007119379006326199,0.0008153018425218761,0.6744381189346313,0.0,-0.0,0.0,0.0,0.0,0.0
1782664495,701827740,-1.65611440340151,0.12927722930908203,-1.5218694845782679,0.007143347058445215,0.0008392703020945191,0.6744740605354309,0.0,-0.0,0.0,0.0,0.0,0.0
1782664495,709813054,-1.6561268011676233,0.1293010711669922,-1.521893326436178,0.007119379006326199,0.0008153018425218761,0.6744381189346313,0.0,-0.0,0.0,0.0,0.0,0.0
1782664495,717827719,-1.6560667196856897,0.1293010711669922,-1.5218337217914026,0.007179299835115671,0.0008392703020945191,0.6744381189346313,0.0,-0.0,0.0,0.0,0.0,0.0
1782664495,725908052,-1.65611440340151,0.1292414665222168,-1.5218694845782679,0.007167315576225519,0.0008512545027770102,0.6744261384010315,0.0,-0.0,0.0,0.0,0.0,0.0
1782664495,733819050,-1.6560905615436,0.12926530838012695,-1.5218337217914026,0.007119379006326199,0.0008272860432043672,0.6743782162666321,0.0,-0.0,0.0,0.0,0.0,0.0
1782664495,741827105,-1.6560786406146448,0.12926530838012695,-1.5218337217914026,0.007131362799555063,0.0008033175836317241,0.6744381189346313,0.0,-0.0,0.0,0.0,0.0,0.0
1782664495,749819196,-1.65611440340151,0.1293010711669922,-1.5218337217914026,0.007143347058445215,0.0008153018425218761,0.674462080001831,0.0,-0.0,0.0,0.0,0.0,0.0
1782664495,757819992,-1.65611440340151,0.1292891502380371,-1.5217974821673792,0.007131362799555063,0.0008512545027770102,0.6744500994682312,0.0,-0.0,0.0,0.0,0.0,0.0
1782664495,765823824,-1.6560905615436,0.1292891502380371,-1.5218094030963343,0.007167315576225519,0.0008153018425218761,0.6743901968002319,0.0,-0.0,0.0,0.0,0.0,0.0
1782664495,773825804,-1.656102482472555,0.12925338745117188,-1.5218694845782679,0.007155331317335367,0.0008392703020945191,0.6744381189346313,0.0,-0.0,0.0,0.0,0.0,0.0
1782664495,781829322,-1.6561625639544886,0.12926530838012695,-1.5218456427203577,0.007191284094005823,0.0007909588748589158,0.6744021773338318,0.0,-0.0,0.0,0.0,0.0,0.0
1782664495,789863969,-1.6561387220965784,0.12931299209594727,-1.5218456427203577,0.007107394747436047,0.0008272860432043672,0.6744261384010315,0.0,-0.0,0.0,0.0,0.0,0.0
1782664495,797827079,-1.656102482472555,0.12926530838012695,-1.5218213240252894,0.007095410488545895,0.0008512545027770102,0.6744261384010315,0.0,-0.0,0.0,0.0,0.0,0.0
1782664495,805839466,-1.6561387220965784,0.1292414665222168,-1.5218213240252894,0.007167315576225519,0.0008272860432043672,0.6744021773338318,0.0,-0.0,0.0,0.0,0.0,0.0
1782664495,813822261,-1.656102482472555,0.1292891502380371,-1.5218456427203577,0.007155331317335367,0.0008153018425218761,0.6744261384010315,0.0,-0.0,0.0,0.0,0.0,0.0
1782664495,821819408,-1.6560786406146448,0.12931299209594727,-1.5217974821673792,0.007179299835115671,0.0008153018425218761,0.6744500994682312,0.0,-0.0,0.0,0.0,0.0,0.0
1782664495,829824555,-1.6561506430255335,0.1293010711669922,-1.5218456427203577,0.007143347058445215,0.0008153018425218761,0.6744381189346313,0.0,-0.0,0.0,0.0,0.0,0.0
1782664495,837809665,-1.6561506430255335,0.1293010711669922,-1.5218575636493128,0.007179299835115671,0.0008153018425218761,0.6744500994682312,0.0,-0.0,0.0,0.0,0.0,0.0
1782664495,845822498,-1.6561268011676233,0.12925338745117188,-1.5218213240252894,0.007119379006326199,0.0008512545027770102,0.6744860410690308,0.0,-0.0,0.0,0.0,0.0,0.0
1782664495,853856367,-1.6560667196856897,0.12926530838012695,-1.5218694845782679,0.007155331317335367,0.0008033175836317241,0.6744381189346313,0.0,-0.0,0.0,0.0,0.0,0.0
1782664495,861824532,-1.65611440340151,0.1293010711669922,-1.5218337217914026,0.007107394747436047,0.0007789746159687638,0.6744261384010315,0.0,-0.0,0.0,0.0,0.0,0.0
1782664495,869803161,-1.656102482472555,0.1293010711669922,-1.521881405507223,0.007143347058445215,0.0008392703020945191,0.6744740605354309,0.0,-0.0,0.0,0.0,0.0,0.0
1782664495,877826845,-1.6561387220965784,0.1292891502380371,-1.5218094030963343,0.007143347058445215,0.0008033175836317241,0.6744500994682312,0.0,-0.0,0.0,0.0,0.0,0.0
1782664495,885826751,-1.6560905615436,0.12927722930908203,-1.5218694845782679,0.007167315576225519,0.0008033175836317241,0.674462080001831,0.0,-0.0,0.0,0.0,0.0,0.0
1782664495,893831898,-1.6560905615436,0.12927722930908203,-1.5218456427203577,0.007143347058445215,0.0008512545027770102,0.6744021773338318,0.0,-0.0,0.0,0.0,0.0,0.0
1782664495,901824675,-1.6560547987567347,0.1292891502380371,-1.5217974821673792,0.007203268352895975,0.0007909588748589158,0.6744141578674316,0.0,-0.0,0.0,0.0,0.0,0.0
1782664495,909817970,-1.6561268011676233,0.1293010711669922,-1.5218213240252894,0.007167315576225519,0.0007789746159687638,0.6744740605354309,0.0,-0.0,0.0,0.0,0.0,0.0
1782664495,917825580,-1.6560786406146448,0.12927722930908203,-1.5218456427203577,0.007179299835115671,0.0008272860432043672,0.6744021773338318,0.0,-0.0,0.0,0.0,0.0,0.0
1782664495,925829209,-1.65611440340151,0.12927722930908203,-1.5218575636493128,0.007131362799555063,0.0007909588748589158,0.6743782162666321,0.0,-0.0,0.0,0.0,0.0,0.0
1782664495,933846633,-1.6560905615436,0.1292414665222168,-1.5218575636493128,0.007131362799555063,0.0008272860432043672,0.6744381189346313,0.0,-0.0,0.0,0.0,0.0,0.0
1782664495,941818965,-1.6561387220965784,0.1293010711669922,-1.521881405507223,0.007131362799555063,0.0008153018425218761,0.6744500994682312,0.0,-0.0,0.0,0.0,0.0,0.0
1782664495,949855742,-1.656102482472555,0.12925338745117188,-1.5217974821673792,0.007191284094005823,0.0007789746159687638,0.6744261384010315,0.0,-0.0,0.0,0.0,0.0,0.0
1782664495,957829871,-1.6561387220965784,0.12925338745117188,-1.521881405507223,0.007155331317335367,0.0008752229623496532,0.6744500994682312,0.0,-0.0,0.0,0.0,0.0,0.0
1782664495,965813832,-1.6561387220965784,0.1293010711669922,-1.5218575636493128,0.007119379006326199,0.0008392703020945191,0.6744261384010315,0.0,-0.0,0.0,0.0,0.0,0.0
1782664495,973829146,-1.6560786406146448,0.1293010711669922,-1.5218456427203577,0.007119379006326199,0.0008153018425218761,0.6744740605354309,0.0,-0.0,0.0,0.0,0.0,0.0
1782664495,981858182,-1.65611440340151,0.12926530838012695,-1.5218694845782679,0.007119379006326199,0.0008392703020945191,0.6744500994682312,0.0,-0.0,0.0,0.0,0.0,0.0
1782664495,989825588,-1.6561506430255335,0.12922906875610352,-1.5218094030963343,0.007167315576225519,0.0008153018425218761,0.6744500994682312,0.0,-0.0,0.0,0.0,0.0,0.0
1782664495,997822809,-1.6561387220965784,0.1292414665222168,-1.521881405507223,0.007155331317335367,0.0007909588748589158,0.6744740605354309,0.0,-0.0,0.0,0.0,0.0,0.0
1782664496,5823438,-1.6561506430255335,0.12925338745117188,-1.5218213240252894,0.007143347058445215,0.0008512545027770102,0.6744261384010315,0.0,-0.0,0.0,0.0,0.0,0.0
1782664496,13863771,-1.6561506430255335,0.1293010711669922,-1.521893326436178,0.007107394747436047,0.0008392703020945191,0.6744261384010315,0.0,-0.0,0.0,0.0,0.0,0.0
1782664496,21867381,-1.6561625639544886,0.12926530838012695,-1.5218213240252894,0.007143347058445215,0.0008272860432043672,0.6744261384010315,0.0,-0.0,0.0,0.0,0.0,0.0
1782664496,29814768,-1.6560905615436,0.1293010711669922,-1.5218575636493128,0.007143347058445215,0.0008272860432043672,0.6744141578674316,0.0,-0.0,0.0,0.0,0.0,0.0
1782664496,37824601,-1.6561268011676233,0.1293010711669922,-1.5218694845782679,0.007131362799555063,0.0007669904152862728,0.6744141578674316,0.0,-0.0,0.0,0.0,0.0,0.0
1782664496,45906341,-1.65611440340151,0.1293010711669922,-1.5218575636493128,0.007107394747436047,0.0008033175836317241,0.6744141578674316,0.0,-0.0,0.0,0.0,0.0,0.0
1782664496,53834506,-1.6561387220965784,0.12925338745117188,-1.5218213240252894,0.007191284094005823,0.0007909588748589158,0.6744740605354309,0.0,-0.0,0.0,0.0,0.0,0.0
1782664496,61898673,-1.6561387220965784,0.1292891502380371,-1.5218694845782679,0.007119379006326199,0.0008033175836317241,0.6744381189346313,0.0,-0.0,0.0,0.0,0.0,0.0
1782664496,69826912,-1.6561268011676233,0.1293010711669922,-1.5218694845782679,0.007191284094005823,0.0008153018425218761,0.6744021773338318,0.0,-0.0,0.0,0.0,0.0,0.0
1782664496,77898263,-1.6561387220965784,0.12931299209594727,-1.5218337217914026,0.007131362799555063,0.0008632387034595013,0.6744381189346313,0.0,-0.0,0.0,0.0,0.0,0.0
1782664496,85826706,-1.6560905615436,0.1292414665222168,-1.5218575636493128,0.007143347058445215,0.0007909588748589158,0.6744381189346313,0.0,-0.0,0.0,0.0,0.0,0.0
1782664496,93814631,-1.65611440340151,0.12927722930908203,-1.5218694845782679,0.007131362799555063,0.0007909588748589158,0.674462080001831,0.0,-0.0,0.0,0.0,0.0,0.0
1782664496,101821834,-1.6560667196856897,0.12922906875610352,-1.5218094030963343,0.007131362799555063,0.0008153018425218761,0.6744261384010315,0.0,-0.0,0.0,0.0,0.0,0.0
1782664496,109855444,-1.6560905615436,0.12926530838012695,-1.5218575636493128,0.007179299835115671,0.0008392703020945191,0.6744021773338318,0.0,-0.0,0.0,0.0,0.0,0.0
1782664496,117822832,-1.6561268011676233,0.12933731079101562,-1.5218337217914026,0.007095410488545895,0.0008153018425218761,0.6744740605354309,0.0,-0.0,0.0,0.0,0.0,0.0
1782664496,125815405,-1.6561387220965784,0.12931299209594727,-1.5218094030963343,0.007119379006326199,0.0008153018425218761,0.6744500994682312,0.0,-0.0,0.0,0.0,0.0,0.0
1782664496,133825034,-1.6560667196856897,0.12925338745117188,-1.5217974821673792,0.007131362799555063,0.0008632387034595013,0.6744261384010315,0.0,-0.0,0.0,0.0,0.0,0.0
1782664496,141858200,-1.6561387220965784,0.1293010711669922,-1.5218213240252894,0.007155331317335367,0.0008272860432043672,0.6744261384010315,0.0,-0.0,0.0,0.0,0.0,0.0
1782664496,149825180,-1.6561268011676233,0.1293010711669922,-1.5218094030963343,0.007167315576225519,0.0008033175836317241,0.6744261384010315,0.0,-0.0,0.0,0.0,0.0,0.0
1782664496,157810531,-1.6561268011676233,0.12921714782714844,-1.5218694845782679,0.007143347058445215,0.0007909588748589158,0.674462080001831,0.0,-0.0,0.0,0.0,0.0,0.0
1782664496,165821252,-1.6560667196856897,0.1292891502380371,-1.5217974821673792,0.007119379006326199,0.0008153018425218761,0.6744021773338318,0.0,-0.0,0.0,0.0,0.0,0.0
1782664496,173855178,-1.65611440340151,0.12926530838012695,-1.5218337217914026,0.007119379006326199,0.0008153018425218761,0.6744500994682312,0.0,-0.0,0.0,0.0,0.0,0.0
1782664496,181846973,-1.6561268011676233,0.1293010711669922,-1.5218337217914026,0.007107394747436047,0.0007909588748589158,0.6744381189346313,0.0,-0.0,0.0,0.0,0.0,0.0
1782664496,189812490,-1.656102482472555,0.1293010711669922,-1.5218456427203577,0.007203268352895975,0.0008272860432043672,0.6744261384010315,0.0,-0.0,0.0,0.0,0.0,0.0
1782664496,197819360,-1.6561268011676233,0.12932491302490234,-1.5218337217914026,0.007167315576225519,0.0007789746159687638,0.6744261384010315,0.0,-0.0,0.0,0.0,0.0,0.0
1782664496,205887526,-1.656102482472555,0.1293010711669922,-1.5218213240252894,0.007095410488545895,0.0008272860432043672,0.6744141578674316,0.0,-0.0,0.0,0.0,0.0,0.0
1782664496,213830691,-1.6560786406146448,0.1292891502380371,-1.5218456427203577,0.007095410488545895,0.0008033175836317241,0.6744261384010315,0.0,-0.0,0.0,0.0,0.0,0.0
1782664496,221814116,-1.656102482472555,0.1293010711669922,-1.5218694845782679,0.007107394747436047,0.0008153018425218761,0.6744141578674316,0.0,-0.0,0.0,0.0,0.0,0.0
1782664496,229820041,-1.6560786406146448,0.12926530838012695,-1.521881405507223,0.007131362799555063,0.0008632387034595013,0.6744021773338318,0.0,-0.0,0.0,0.0,0.0,0.0
1782664496,237858226,-1.6560905615436,0.1292891502380371,-1.521905247365133,0.007131362799555063,0.0008153018425218761,0.6744740605354309,0.0,-0.0,0.0,0.0,0.0,0.0
1782664496,245825780,-1.6560905615436,0.12926530838012695,-1.5218575636493128,0.007107394747436047,0.0008752229623496532,0.6744381189346313,0.0,-0.0,0.0,0.0,0.0,0.0
1782664496,253816872,-1.65611440340151,0.1293010711669922,-1.5218213240252894,0.007131362799555063,0.0008153018425218761,0.6743901968002319,0.0,-0.0,0.0,0.0,0.0,0.0
1782664496,261822223,-1.6561268011676233,0.1293010711669922,-1.5218575636493128,0.007143347058445215,0.0007909588748589158,0.6744141578674316,0.0,-0.0,0.0,0.0,0.0,0.0
1782664496,269858092,-1.6560905615436,0.12927722930908203,-1.5218213240252894,0.007131362799555063,0.0008272860432043672,0.6744500994682312,0.0,-0.0,0.0,0.0,0.0,0.0
1782664496,277832462,-1.6561268011676233,0.12926530838012695,-1.5218456427203577,0.007107394747436047,0.0008153018425218761,0.6744381189346313,0.0,-0.0,0.0,0.0,0.0,0.0
1782664496,285817942,-1.6561268011676233,0.1292414665222168,-1.5218337217914026,0.007167315576225519,0.0008272860432043672,0.6744261384010315,0.0,-0.0,0.0,0.0,0.0,0.0
1782664496,293829700,-1.6561387220965784,0.12927722930908203,-1.521881405507223,0.007131362799555063,0.0007789746159687638,0.6744740605354309,0.0,-0.0,0.0,0.0,0.0,0.0
1782664496,301861959,-1.6561268011676233,0.12927722930908203,-1.5218213240252894,0.007155331317335367,0.0008272860432043672,0.6744141578674316,0.0,-0.0,0.0,0.0,0.0,0.0
1782664496,309817421,-1.656102482472555,0.12926530838012695,-1.5218456427203577,0.007167315576225519,0.0007669904152862728,0.674462080001831,0.0,-0.0,0.0,0.0,0.0,0.0
1782664496,317822790,-1.6561268011676233,0.12926530838012695,-1.5218575636493128,0.007119379006326199,0.0007789746159687638,0.6744381189346313,0.0,-0.0,0.0,0.0,0.0,0.0
1782664496,325807067,-1.6561268011676233,0.12931299209594727,-1.5218094030963343,0.007083426229655743,0.0007789746159687638,0.6744500994682312,0.0,-0.0,0.0,0.0,0.0,0.0
1782664496,333897807,-1.6561268011676233,0.1293010711669922,-1.5217974821673792,0.007119379006326199,0.0008153018425218761,0.6744261384010315,0.0,-0.0,0.0,0.0,0.0,0.0
1782664496,341825880,-1.6561268011676233,0.1292414665222168,-1.5218337217914026,0.007155331317335367,0.0007789746159687638,0.6744500994682312,0.0,-0.0,0.0,0.0,0.0,0.0
1782664496,349807194,-1.6561625639544886,0.1293010711669922,-1.5218456427203577,0.007167315576225519,0.0008512545027770102,0.6744740605354309,0.0,-0.0,0.0,0.0,0.0,0.0
1782664496,357824693,-1.6560905615436,0.1292891502380371,-1.5217974821673792,0.007155331317335367,0.0008153018425218761,0.6744141578674316,0.0,-0.0,0.0,0.0,0.0,0.0
1782664496,365821155,-1.6561268011676233,0.12926530838012695,-1.5218094030963343,0.007119379006326199,0.0008153018425218761,0.6744381189346313,0.0,-0.0,0.0,0.0,0.0,0.0
1782664496,373821302,-1.6561268011676233,0.1292891502380371,-1.5218094030963343,0.007131362799555063,0.0008153018425218761,0.6744261384010315,0.0,-0.0,0.0,0.0,0.0,0.0
1782664496,381817616,-1.6561506430255335,0.1293010711669922,-1.5218456427203577,0.007119379006326199,0.0008153018425218761,0.6744141578674316,0.0,-0.0,0.0,0.0,0.0,0.0
1782664496,389820393,-1.6561268011676233,0.12927722930908203,-1.5218213240252894,0.007143347058445215,0.0008033175836317241,0.6744740605354309,0.0,-0.0,0.0,0.0,0.0,0.0
1782664496,397863818,-1.6561387220965784,0.12925338745117188,-1.5218694845782679,0.007131362799555063,0.0007669904152862728,0.6744500994682312,0.0,-0.0,0.0,0.0,0.0,0.0
1782664496,405824928,-1.65611440340151,0.12926530838012695,-1.5218337217914026,0.007143347058445215,0.0008033175836317241,0.6744021773338318,0.0,-0.0,0.0,0.0,0.0,0.0
1782664496,413812945,-1.6561387220965784,0.12927722930908203,-1.521881405507223,0.007119379006326199,0.0008153018425218761,0.674462080001831,0.0,-0.0,0.0,0.0,0.0,0.0
1782664496,421838445,-1.6560905615436,0.12926530838012695,-1.5218694845782679,0.007167315576225519,0.0008392703020945191,0.6744141578674316,0.0,-0.0,0.0,0.0,0.0,0.0
1782664496,429849277,-1.6561506430255335,0.12931299209594727,-1.5218094030963343,0.007119379006326199,0.0008033175836317241,0.6744500994682312,0.0,-0.0,0.0,0.0,0.0,0.0
1782664496,437860739,-1.6561268011676233,0.12927722930908203,-1.5218575636493128,0.007107394747436047,0.0008153018425218761,0.6744021773338318,0.0,-0.0,0.0,0.0,0.0,0.0
1782664496,445822942,-1.65611440340151,0.12927722930908203,-1.5218456427203577,0.007131362799555063,0.0007789746159687638,0.6744381189346313,0.0,-0.0,0.0,0.0,0.0,0.0
1782664496,453838367,-1.6560667196856897,0.1292891502380371,-1.5218094030963343,0.007155331317335367,0.0008392703020945191,0.6744500994682312,0.0,-0.0,0.0,0.0,0.0,0.0
1782664496,461849403,-1.656102482472555,0.1293010711669922,-1.5218575636493128,0.007143347058445215,0.0008392703020945191,0.6744261384010315,0.0,-0.0,0.0,0.0,0.0,0.0
1782664496,469832402,-1.656102482472555,0.12927722930908203,-1.5217855612384241,0.007095410488545895,0.0008153018425218761,0.6744021773338318,0.0,-0.0,0.0,0.0,0.0,0.0
1782664496,477823679,-1.6561268011676233,0.12922906875610352,-1.5218337217914026,0.007143347058445215,0.0008153018425218761,0.6744261384010315,0.0,-0.0,0.0,0.0,0.0,0.0
1782664496,485838919,-1.65611440340151,0.12927722930908203,-1.5218094030963343,0.007131362799555063,0.0008153018425218761,0.6744141578674316,0.0,-0.0,0.0,0.0,0.0,0.0
1782664496,493865603,-1.6561625639544886,0.12926530838012695,-1.5218694845782679,0.007131362799555063,0.0008272860432043672,0.6744021773338318,0.0,-0.0,0.0,0.0,0.0,0.0
1782664496,501835232,-1.65611440340151,0.1293010711669922,-1.5218337217914026,0.007155331317335367,0.0008153018425218761,0.674462080001831,0.0,-0.0,0.0,0.0,0.0,0.0
1782664496,509977917,-1.6561387220965784,0.1292891502380371,-1.5218575636493128,0.007131362799555063,0.0007909588748589158,0.6744381189346313,0.0,-0.0,0.0,0.0,0.0,0.0
1782664496,517823433,-1.6561506430255335,0.12926530838012695,-1.5218094030963343,0.007119379006326199,0.0008392703020945191,0.6744500994682312,0.0,-0.0,0.0,0.0,0.0,0.0
1782664496,525925322,-1.656102482472555,0.12931299209594727,-1.5218337217914026,0.007095410488545895,0.0007909588748589158,0.6744261384010315,0.0,-0.0,0.0,0.0,0.0,0.0
1782664496,533834413,-1.6561268011676233,0.1293010711669922,-1.5218337217914026,0.007131362799555063,0.0008752229623496532,0.6744261384010315,0.0,-0.0,0.0,0.0,0.0,0.0
1782664496,541825671,-1.6561387220965784,0.1293010711669922,-1.5218456427203577,0.007119379006326199,0.0007789746159687638,0.6744381189346313,0.0,-0.0,0.0,0.0,0.0,0.0
1782664496,549815096,-1.6560905615436,0.1292891502380371,-1.5218337217914026,0.007131362799555063,0.0008153018425218761,0.6744021773338318,0.0,-0.0,0.0,0.0,0.0,0.0
1782664496,557896133,-1.6560905615436,0.1292891502380371,-1.5217974821673792,0.007131362799555063,0.0008272860432043672,0.6744141578674316,0.0,-0.0,0.0,0.0,0.0,0.0
1782664496,565827131,-1.6561506430255335,0.12932491302490234,-1.521893326436178,0.007179299835115671,0.0008272860432043672,0.674462080001831,0.0,-0.0,0.0,0.0,0.0,0.0
1782664496,573815501,-1.656102482472555,0.12925338745117188,-1.5218694845782679,0.007131362799555063,0.0008153018425218761,0.6744740605354309,0.0,-0.0,0.0,0.0,0.0,0.0
1782664496,581837667,-1.6561268011676233,0.12933731079101562,-1.5218337217914026,0.007131362799555063,0.0008153018425218761,0.674462080001831,0.0,-0.0,0.0,0.0,0.0,0.0
1782664496,589821184,-1.6561268011676233,0.12931299209594727,-1.5218337217914026,0.007143347058445215,0.0008033175836317241,0.6744261384010315,0.0,-0.0,0.0,0.0,0.0,0.0
1782664496,597822146,-1.656102482472555,0.12925338745117188,-1.5218456427203577,0.007155331317335367,0.0007669904152862728,0.6744381189346313,0.0,-0.0,0.0,0.0,0.0,0.0
1782664496,605817682,-1.6561268011676233,0.12925338745117188,-1.5218456427203577,0.007143347058445215,0.0008272860432043672,0.6744381189346313,0.0,-0.0,0.0,0.0,0.0,0.0
1782664496,613819292,-1.65611440340151,0.12927722930908203,-1.5218337217914026,0.007155331317335367,0.0008512545027770102,0.6744381189346313,0.0,-0.0,0.0,0.0,0.0,0.0
1782664496,621854218,-1.656102482472555,0.1293010711669922,-1.5218337217914026,0.007107394747436047,0.0008033175836317241,0.6744740605354309,0.0,-0.0,0.0,0.0,0.0,0.0
1782664496,629825179,-1.6561625639544886,0.1292891502380371,-1.5218575636493128,0.007155331317335367,0.0008153018425218761,0.6744381189346313,0.0,-0.0,0.0,0.0,0.0,0.0
1782664496,637810475,-1.6561268011676233,0.12926530838012695,-1.5218456427203577,0.007167315576225519,0.0008392703020945191,0.6744261384010315,0.0,-0.0,0.0,0.0,0.0,0.0
1782664496,645823974,-1.65611440340151,0.1293010711669922,-1.5218337217914026,0.007107394747436047,0.0008033175836317241,0.6744141578674316,0.0,-0.0,0.0,0.0,0.0,0.0
1782664496,653903529,-1.656102482472555,0.12932491302490234,-1.5218094030963343,0.007167315576225519,0.0008392703020945191,0.6744500994682312,0.0,-0.0,0.0,0.0,0.0,0.0
1782664496,661819472,-1.6561268011676233,0.12927722930908203,-1.5218456427203577,0.007167315576225519,0.0008153018425218761,0.6744381189346313,0.0,-0.0,0.0,0.0,0.0,0.0
1782664496,669818434,-1.65611440340151,0.12922906875610352,-1.5218575636493128,0.007119379006326199,0.0008153018425218761,0.6744500994682312,0.0,-0.0,0.0,0.0,0.0,0.0
1782664496,677821859,-1.65611440340151,0.12925338745117188,-1.5218456427203577,0.007143347058445215,0.0008392703020945191,0.6744261384010315,0.0,-0.0,0.0,0.0,0.0,0.0
1782664496,685921340,-1.6560786406146448,0.12925338745117188,-1.5218456427203577,0.007191284094005823,0.0008153018425218761,0.6744021773338318,0.0,-0.0,0.0,0.0,0.0,0.0
1782664496,693813838,-1.6561268011676233,0.1293010711669922,-1.5218575636493128,0.007143347058445215,0.0008272860432043672,0.6744021773338318,0.0,-0.0,0.0,0.0,0.0,0.0
1782664496,701810134,-1.65611440340151,0.12931299209594727,-1.5218094030963343,0.007143347058445215,0.0008272860432043672,0.6744261384010315,0.0,-0.0,0.0,0.0,0.0,0.0
1782664496,709824003,-1.6561506430255335,0.12926530838012695,-1.5218575636493128,0.007119379006326199,0.0008033175836317241,0.6744261384010315,0.0,-0.0,0.0,0.0,0.0,0.0
1782664496,717868058,-1.65611440340151,0.12926530838012695,-1.5218213240252894,0.007131362799555063,0.0008512545027770102,0.674462080001831,0.0,-0.0,0.0,0.0,0.0,0.0
1782664496,725832187,-1.656102482472555,0.1293010711669922,-1.5218094030963343,0.007155331317335367,0.0007909588748589158,0.6744500994682312,0.0,-0.0,0.0,0.0,0.0,0.0
1782664496,733806852,-1.65611440340151,0.1292414665222168,-1.5218213240252894,0.007131362799555063,0.0008392703020945191,0.6744021773338318,0.0,-0.0,0.0,0.0,0.0,0.0
1782664496,741828185,-1.6561506430255335,0.12925338745117188,-1.5218213240252894,0.007119379006326199,0.0008153018425218761,0.6744381189346313,0.0,-0.0,0.0,0.0,0.0,0.0
1782664496,749862554,-1.65611440340151,0.1292891502380371,-1.5218575636493128,0.007143347058445215,0.0007789746159687638,0.6744021773338318,0.0,-0.0,0.0,0.0,0.0,0.0
1782664496,757824053,-1.65611440340151,0.12927722930908203,-1.521881405507223,0.007119379006326199,0.0008033175836317241,0.6744740605354309,0.0,-0.0,0.0,0.0,0.0,0.0
1782664496,765829626,-1.6561625639544886,0.1292891502380371,-1.521881405507223,0.007131362799555063,0.0008153018425218761,0.6744261384010315,0.0,-0.0,0.0,0.0,0.0,0.0
1782664496,773816181,-1.656102482472555,0.1293010711669922,-1.5218337217914026,0.007107394747436047,0.0008033175836317241,0.6744381189346313,0.0,-0.0,0.0,0.0,0.0,0.0
1782664496,781896181,-1.65611440340151,0.1293010711669922,-1.5217855612384241,0.007155331317335367,0.0008392703020945191,0.6744381189346313,0.0,-0.0,0.0,0.0,0.0,0.0
1782664496,789817123,-1.65611440340151,0.1292891502380371,-1.5217974821673792,0.007131362799555063,0.0008272860432043672,0.6743782162666321,0.0,-0.0,0.0,0.0,0.0,0.0
1782664496,797808326,-1.656102482472555,0.12927722930908203,-1.5218337217914026,0.007167315576225519,0.0008392703020945191,0.6744261384010315,0.0,-0.0,0.0,0.0,0.0,0.0
1782664496,805817159,-1.6561506430255335,0.12926530838012695,-1.5218694845782679,0.007143347058445215,0.0008153018425218761,0.6744740605354309,0.0,-0.0,0.0,0.0,0.0,0.0
1782664496,813824195,-1.6561268011676233,0.12927722930908203,-1.5218694845782679,0.007155331317335367,0.0008632387034595013,0.6744261384010315,0.0,-0.0,0.0,0.0,0.0,0.0
1782664496,821819509,-1.6561387220965784,0.12927722930908203,-1.5218575636493128,0.007167315576225519,0.0008392703020945191,0.6744261384010315,0.0,-0.0,0.0,0.0,0.0,0.0
1782664496,829815748,-1.656102482472555,0.1292891502380371,-1.521881405507223,0.007119379006326199,0.0008272860432043672,0.6743782162666321,0.0,-0.0,0.0,0.0,0.0,0.0
1782664496,837828525,-1.6561506430255335,0.1293010711669922,-1.5218456427203577,0.007143347058445215,0.0008512545027770102,0.6744141578674316,0.0,-0.0,0.0,0.0,0.0,0.0
1782664496,845863284,-1.656102482472555,0.1292414665222168,-1.5218337217914026,0.007143347058445215,0.0008153018425218761,0.6744141578674316,0.0,-0.0,0.0,0.0,0.0,0.0
1782664496,853827672,-1.6561387220965784,0.1293010711669922,-1.5217974821673792,0.007155331317335367,0.0007909588748589158,0.6744021773338318,0.0,-0.0,0.0,0.0,0.0,0.0
1782664496,861818967,-1.65611440340151,0.12927722930908203,-1.5218575636493128,0.007131362799555063,0.0008153018425218761,0.6744261384010315,0.0,-0.0,0.0,0.0,0.0,0.0
1782664496,869823929,-1.65611440340151,0.12931299209594727,-1.5218337217914026,0.007119379006326199,0.0008392703020945191,0.6743901968002319,0.0,-0.0,0.0,0.0,0.0,0.0
1782664496,877858410,-1.65611440340151,0.12926530838012695,-1.5218456427203577,0.007143347058445215,0.0007909588748589158,0.6744381189346313,0.0,-0.0,0.0,0.0,0.0,0.0
1782664496,885823057,-1.65611440340151,0.1292891502380371,-1.5218575636493128,0.007119379006326199,0.0007909588748589158,0.6744021773338318,0.0,-0.0,0.0,0.0,0.0,0.0
1782664496,893810389,-1.6561387220965784,0.12926530838012695,-1.5218575636493128,0.007143347058445215,0.0008153018425218761,0.6744500994682312,0.0,-0.0,0.0,0.0,0.0,0.0
1782664496,901822499,-1.6561268011676233,0.1292891502380371,-1.5218094030963343,0.007119379006326199,0.0007909588748589158,0.6744740605354309,0.0,-0.0,0.0,0.0,0.0,0.0
1782664496,909856480,-1.6560905615436,0.1292891502380371,-1.5218575636493128,0.007083426229655743,0.0007909588748589158,0.6744261384010315,0.0,-0.0,0.0,0.0,0.0,0.0
1782664496,917832072,-1.65611440340151,0.12926530838012695,-1.5218094030963343,0.007131362799555063,0.0008512545027770102,0.6744381189346313,0.0,-0.0,0.0,0.0,0.0,0.0
1782664496,925813385,-1.6560905615436,0.1293010711669922,-1.5218094030963343,0.007167315576225519,0.0008392703020945191,0.6744740605354309,0.0,-0.0,0.0,0.0,0.0,0.0
1782664496,933905885,-1.6561268011676233,0.1293010711669922,-1.5218456427203577,0.007155331317335367,0.0008153018425218761,0.6743901968002319,0.0,-0.0,0.0,0.0,0.0,0.0
1782664496,941896551,-1.6561506430255335,0.1292891502380371,-1.521773640309469,0.007119379006326199,0.0007909588748589158,0.6744740605354309,0.0,-0.0,0.0,0.0,0.0,0.0
1782664496,949815845,-1.6561506430255335,0.1292891502380371,-1.5218337217914026,0.007143347058445215,0.0008512545027770102,0.6744141578674316,0.0,-0.0,0.0,0.0,0.0,0.0
1782664496,957820863,-1.656102482472555,0.12932491302490234,-1.5218694845782679,0.007155331317335367,0.0008153018425218761,0.6744141578674316,0.0,-0.0,0.0,0.0,0.0,0.0
1782664496,965797992,-1.6561506430255335,0.1292891502380371,-1.5218213240252894,0.007143347058445215,0.0008033175836317241,0.6744740605354309,0.0,-0.0,0.0,0.0,0.0,0.0
1782664496,973828324,-1.6561387220965784,0.12922906875610352,-1.5218694845782679,0.007131362799555063,0.0008272860432043672,0.6744381189346313,0.0,-0.0,0.0,0.0,0.0,0.0
1782664496,981813212,-1.6561268011676233,0.12926530838012695,-1.5218094030963343,0.007131362799555063,0.0008512545027770102,0.6744261384010315,0.0,-0.0,0.0,0.0,0.0,0.0
1782664496,989809933,-1.656102482472555,0.12932491302490234,-1.5218213240252894,0.007107394747436047,0.0007909588748589158,0.6744500994682312,0.0,-0.0,0.0,0.0,0.0,0.0
1782664496,997923766,-1.656102482472555,0.12931299209594727,-1.5218337217914026,0.007143347058445215,0.0008392703020945191,0.6744261384010315,0.0,-0.0,0.0,0.0,0.0,0.0
1782664497,5857154,-1.6561268011676233,0.12927722930908203,-1.5218213240252894,0.007191284094005823,0.0008033175836317241,0.6744261384010315,0.0,-0.0,0.0,0.0,0.0,0.0
1782664497,13822209,-1.656102482472555,0.1292414665222168,-1.5218694845782679,0.007107394747436047,0.0007909588748589158,0.6744021773338318,0.0,-0.0,0.0,0.0,0.0,0.0
1782664497,21820949,-1.6561268011676233,0.12925338745117188,-1.5218575636493128,0.007131362799555063,0.0008272860432043672,0.6744261384010315,0.0,-0.0,0.0,0.0,0.0,0.0
1782664497,29961986,-1.6561387220965784,0.12926530838012695,-1.5218575636493128,0.007071441970765591,0.0008512545027770102,0.6744740605354309,0.0,-0.0,0.0,0.0,0.0,0.0
1782664497,37865484,-1.6560905615436,0.12932491302490234,-1.5218694845782679,0.007143347058445215,0.0007909588748589158,0.6744261384010315,0.0,-0.0,0.0,0.0,0.0,0.0
1782664497,45827372,-1.6560905615436,0.12927722930908203,-1.5218337217914026,0.007179299835115671,0.0008153018425218761,0.6744021773338318,0.0,-0.0,0.0,0.0,0.0,0.0
1782664497,53811575,-1.656102482472555,0.1292414665222168,-1.5218456427203577,0.007119379006326199,0.0007789746159687638,0.6744381189346313,0.0,-0.0,0.0,0.0,0.0,0.0
1782664497,61823167,-1.6561506430255335,0.1292891502380371,-1.5218456427203577,0.007179299835115671,0.0007909588748589158,0.6744141578674316,0.0,-0.0,0.0,0.0,0.0,0.0
1782664497,69863704,-1.6561268011676233,0.12925338745117188,-1.5218213240252894,0.007155331317335367,0.0008392703020945191,0.6744500994682312,0.0,-0.0,0.0,0.0,0.0,0.0
1782664497,77832832,-1.6561268011676233,0.12932491302490234,-1.5218213240252894,0.007191284094005823,0.0008392703020945191,0.674462080001831,0.0,-0.0,0.0,0.0,0.0,0.0
1782664497,85819961,-1.6561268011676233,0.12926530838012695,-1.5218337217914026,0.007167315576225519,0.0008033175836317241,0.6744261384010315,0.0,-0.0,0.0,0.0,0.0,0.0
1782664497,93829275,-1.6561387220965784,0.1293010711669922,-1.5218094030963343,0.007191284094005823,0.0007909588748589158,0.6744381189346313,0.0,-0.0,0.0,0.0,0.0,0.0
