LukePepin/On-Edge/data/deceleration_data_1782779208.csv
timestamp_sec,timestamp_nanosec,shoulder_pan_pos,shoulder_lift_pos,elbow_pos,wrist_1_pos,wrist_2_pos,wrist_3_pos,shoulder_pan_vel,shoulder_lift_vel,elbow_vel,wrist_1_vel,wrist_2_vel,wrist_3_vel
1782779209,928177580,-1.2978289763080042,-0.32034093538393194,-2.2820265928851526,-4.759392563496725,-3.5633748213397425,1.122599482536316,0.0,-0.0,0.0,0.0,0.0,0.0
1782779209,936175338,-1.2978532950030726,-0.32032901445497686,-2.2820027510272425,-4.7593682448016565,-3.5633626619922083,1.1225275993347168,0.0,-0.0,0.0,0.0,0.0,0.0
1782779209,944244929,-1.2977812925921839,-0.320352856312887,-2.2820385138141077,-4.7593682448016565,-3.5633986631976526,1.1225515604019165,0.0,-0.0,0.0,0.0,0.0,0.0
1782779209,952167262,-1.2978890577899378,-0.32037669817079717,-2.281955067311422,-4.759332243596212,-3.563422743474142,1.122599482536316,0.0,-0.0,0.0,0.0,0.0,0.0
1782779209,960155557,-1.2978413740741175,-0.32037669817079717,-2.2820027510272425,-4.759392563496725,-3.563410822545187,1.1225275993347168,0.0,-0.0,0.0,0.0,0.0,0.0
1782779209,968171278,-1.2978532950030726,-0.32038861909975225,-2.2820027510272425,-4.7593682448016565,-3.5633986631976526,1.1225874423980713,0.0,-0.0,0.0,0.0,0.0,0.0
1782779209,976198647,-1.2978175322162073,-0.32032901445497686,-2.2820265928851526,-4.759320322667257,-3.5633986631976526,1.1225395202636719,0.0,-0.0,0.0,0.0,0.0,0.0
1782779209,984159628,-1.297805134450094,-0.32034093538393194,-2.2820146719561976,-4.7593082825290125,-3.5633986631976526,1.1225515604019165,0.0,-0.0,0.0,0.0,0.0,0.0
1782779209,992177627,-1.2978532950030726,-0.32032901445497686,-2.2819908300982874,-4.759320322667257,-3.563410822545187,1.1225395202636719,0.0,-0.0,0.0,0.0,0.0,0.0
1782779210,181367,-1.2978289763080042,-0.32034093538393194,-2.2819908300982874,-4.759380165730612,-3.563410822545187,1.1225395202636719,0.0,-0.0,0.0,0.0,0.0,0.0
1782779210,8193921,-1.2978532950030726,-0.320352856312887,-2.2819908300982874,-4.759356204663412,-3.563410822545187,1.1225634813308716,0.0,-0.0,0.0,0.0,0.0,0.0
1782779210,16160383,-1.2978289763080042,-0.3203647772418421,-2.2820146719561976,-4.7593682448016565,-3.5633507410632532,1.1225395202636719,0.0,-0.0,0.0,0.0,0.0,0.0
1782779210,24162363,-1.297805134450094,-0.320352856312887,-2.2820027510272425,-4.759356204663412,-3.563422743474142,1.1225395202636719,0.0,-0.0,0.0,0.0,0.0,0.0
1782779210,32171047,-1.2978175322162073,-0.3203647772418421,-2.2820146719561976,-4.759356204663412,-3.5633867422686976,1.1225395202636719,0.0,-0.0,0.0,0.0,0.0,0.0
1782779210,40177639,-1.297805134450094,-0.32037669817079717,-2.2819669882403772,-4.7594046036349695,-3.5633626619922083,1.1225515604019165,0.0,-0.0,0.0,0.0,0.0,0.0
1782779210,48169971,-1.2978652159320276,-0.32037669817079717,-2.2820146719561976,-4.759344283734457,-3.563410822545187,1.1225634813308716,0.0,-0.0,0.0,0.0,0.0,0.0
1782779210,56169896,-1.2978652159320276,-0.32037669817079717,-2.2819908300982874,-4.759344283734457,-3.563410822545187,1.1225515604019165,0.0,-0.0,0.0,0.0,0.0,0.0
1782779210,64159136,-1.2978652159320276,-0.32034093538393194,-2.2819908300982874,-4.759380165730612,-3.563410822545187,1.1225515604019165,0.0,-0.0,0.0,0.0,0.0,0.0
1782779210,72160079,-1.297805134450094,-0.3203647772418421,-2.2819908300982874,-4.759320322667257,-3.5633748213397425,1.1225755214691162,0.0,-0.0,0.0,0.0,0.0,0.0
1782779210,80157319,-1.297805134450094,-0.3203647772418421,-2.2820265928851526,-4.759416524563925,-3.5633867422686976,1.1225634813308716,0.0,-0.0,0.0,0.0,0.0,0.0
1782779210,88206095,-1.2978289763080042,-0.320352856312887,-2.2819789091693323,-4.759344283734457,-3.5633507410632532,1.1225275993347168,0.0,-0.0,0.0,0.0,0.0,0.0
1782779210,96159409,-1.2978413740741175,-0.32034093538393194,-2.2820146719561976,-4.759380165730612,-3.563410822545187,1.1225395202636719,0.0,-0.0,0.0,0.0,0.0,0.0
1782779210,104170501,-1.2978175322162073,-0.3203647772418421,-2.2820146719561976,-4.759344283734457,-3.5633867422686976,1.1225634813308716,0.0,-0.0,0.0,0.0,0.0,0.0
1782779210,112163240,-1.2978175322162073,-0.3203647772418421,-2.2820146719561976,-4.759356204663412,-3.563446585332052,1.1225275993347168,0.0,-0.0,0.0,0.0,0.0,0.0
1782779210,120162184,-1.2978413740741175,-0.3203046957599085,-2.2820027510272425,-4.7593082825290125,-3.5633867422686976,1.1225634813308716,0.0,-0.0,0.0,0.0,0.0,0.0
1782779210,128209331,-1.2978289763080042,-0.3203166166888636,-2.2819908300982874,-4.7593682448016565,-3.563410822545187,1.1225515604019165,0.0,-0.0,0.0,0.0,0.0,0.0
1782779210,136169181,-1.2978289763080042,-0.3203647772418421,-2.2820146719561976,-4.759392563496725,-3.5633867422686976,1.1225634813308716,0.0,-0.0,0.0,0.0,0.0,0.0
1782779210,144149254,-1.2978413740741175,-0.32037669817079717,-2.2819669882403772,-4.7593082825290125,-3.5633986631976526,1.1225515604019165,0.0,-0.0,0.0,0.0,0.0,0.0
1782779210,152157735,-1.2978175322162073,-0.32032901445497686,-2.2819908300982874,-4.759356204663412,-3.5633626619922083,1.122599482536316,0.0,-0.0,0.0,0.0,0.0,0.0
1782779210,160158141,-1.2978652159320276,-0.3203046957599085,-2.2820146719561976,-4.759356204663412,-3.5633986631976526,1.1225515604019165,0.0,-0.0,0.0,0.0,0.0,0.0
1782779210,168191936,-1.2978771368609827,-0.32034093538393194,-2.2819669882403772,-4.759392563496725,-3.5633867422686976,1.122599482536316,0.0,-0.0,0.0,0.0,0.0,0.0
1782779210,176163509,-1.2978289763080042,-0.320352856312887,-2.2819789091693323,-4.759392563496725,-3.5633626619922083,1.1225275993347168,0.0,-0.0,0.0,0.0,0.0,0.0
1782779210,184160675,-1.2978175322162073,-0.3203166166888636,-2.2819908300982874,-4.759344283734457,-3.5633986631976526,1.1225755214691162,0.0,-0.0,0.0,0.0,0.0,0.0
1782779210,192172729,-1.2978289763080042,-0.3203647772418421,-2.2819789091693323,-4.7593682448016565,-3.5633986631976526,1.1225755214691162,0.0,-0.0,0.0,0.0,0.0,0.0
1782779210,200162247,-1.2978413740741175,-0.3203647772418421,-2.2820385138141077,-4.7593682448016565,-3.5634587446795862,1.1225395202636719,0.0,-0.0,0.0,0.0,0.0,0.0
1782779210,208185042,-1.297793213521139,-0.3203647772418421,-2.2819908300982874,-4.7594046036349695,-3.563410822545187,1.1225634813308716,0.0,-0.0,0.0,0.0,0.0,0.0
1782779210,216163189,-1.297793213521139,-0.32038861909975225,-2.2819908300982874,-4.759356204663412,-3.5633986631976526,1.1225755214691162,0.0,-0.0,0.0,0.0,0.0,0.0
1782779210,224163725,-1.2978413740741175,-0.320352856312887,-2.2820027510272425,-4.7593682448016565,-3.5633626619922083,1.1225395202636719,0.0,-0.0,0.0,0.0,0.0,0.0
1782779210,232161539,-1.2978413740741175,-0.32034093538393194,-2.2820027510272425,-4.759380165730612,-3.563422743474142,1.1225634813308716,0.0,-0.0,0.0,0.0,0.0,0.0
1782779210,240152130,-1.2978413740741175,-0.320352856312887,-2.2820146719561976,-4.759356204663412,-3.5633986631976526,1.1225755214691162,0.0,-0.0,0.0,0.0,0.0,0.0
1782779210,248163166,-1.2978413740741175,-0.32037669817079717,-2.2820265928851526,-4.759392563496725,-3.563410822545187,1.1225395202636719,0.0,-0.0,0.0,0.0,0.0,0.0
1782779210,256159369,-1.2978652159320276,-0.32037669817079717,-2.2820385138141077,-4.759380165730612,-3.5633986631976526,1.122599482536316,0.0,-0.0,0.0,0.0,0.0,0.0
1782779210,264200127,-1.2978413740741175,-0.3203046957599085,-2.2820146719561976,-4.759356204663412,-3.5633986631976526,1.1225275993347168,0.0,-0.0,0.0,0.0,0.0,0.0
1782779210,272173089,-1.2978652159320276,-0.3203647772418421,-2.2820146719561976,-4.759392563496725,-3.5633986631976526,1.1225874423980713,0.0,-0.0,0.0,0.0,0.0,0.0
1782779210,280158865,-1.2978413740741175,-0.3203647772418421,-2.2820265928851526,-4.759356204663412,-3.5633986631976526,1.1225395202636719,0.0,-0.0,0.0,0.0,0.0,0.0
1782779210,288177235,-1.2978413740741175,-0.32037669817079717,-2.2819908300982874,-4.759332243596212,-3.5633748213397425,1.1225515604019165,0.0,-0.0,0.0,0.0,0.0,0.0
1782779210,296201919,-1.2978413740741175,-0.32038861909975225,-2.2820146719561976,-4.759332243596212,-3.5633626619922083,1.1225515604019165,0.0,-0.0,0.0,0.0,0.0,0.0
1782779210,304174121,-1.2978413740741175,-0.320352856312887,-2.2820265928851526,-4.759392563496725,-3.563434664403097,1.1225755214691162,0.0,-0.0,0.0,0.0,0.0,0.0
1782779210,312172472,-1.297805134450094,-0.3203166166888636,-2.2820146719561976,-4.759356204663412,-3.5633986631976526,1.1225874423980713,0.0,-0.0,0.0,0.0,0.0,0.0
1782779210,320194545,-1.2978652159320276,-0.320352856312887,-2.2819908300982874,-4.759344283734457,-3.5633986631976526,1.122599482536316,0.0,-0.0,0.0,0.0,0.0,0.0
1782779210,328202525,-1.2978289763080042,-0.320352856312887,-2.2820146719561976,-4.759356204663412,-3.5633986631976526,1.1225874423980713,0.0,-0.0,0.0,0.0,0.0,0.0
1782779210,336175636,-1.2978652159320276,-0.320352856312887,-2.2820385138141077,-4.759392563496725,-3.563446585332052,1.1225515604019165,0.0,-0.0,0.0,0.0,0.0,0.0
1782779210,344186986,-1.2978413740741175,-0.3203166166888636,-2.2820146719561976,-4.759344283734457,-3.5633867422686976,1.1225634813308716,0.0,-0.0,0.0,0.0,0.0,0.0
1782779210,352177041,-1.297805134450094,-0.320352856312887,-2.2820146719561976,-4.759392563496725,-3.563410822545187,1.1225634813308716,0.0,-0.0,0.0,0.0,0.0,0.0
1782779210,360221077,-1.2978413740741175,-0.320352856312887,-2.2820385138141077,-4.7593682448016565,-3.5633867422686976,1.1225634813308716,0.0,-0.0,0.0,0.0,0.0,0.0
1782779210,368170353,-1.297805134450094,-0.32034093538393194,-2.2820146719561976,-4.759344283734457,-3.563422743474142,1.1225634813308716,0.0,-0.0,0.0,0.0,0.0,0.0
1782779210,376169982,-1.297805134450094,-0.320352856312887,-2.2820265928851526,-4.759380165730612,-3.5633867422686976,1.1225755214691162,0.0,-0.0,0.0,0.0,0.0,0.0
1782779210,384156333,-1.2978175322162073,-0.3203647772418421,-2.2820146719561976,-4.759392563496725,-3.5633748213397425,1.1225755214691162,0.0,-0.0,0.0,0.0,0.0,0.0
1782779210,392153647,-1.2978652159320276,-0.320352856312887,-2.282050911580221,-4.759356204663412,-3.563410822545187,1.1225275993347168,0.0,-0.0,0.0,0.0,0.0,0.0
1782779210,400171331,-1.2978175322162073,-0.3203647772418421,-2.2820146719561976,-4.759344283734457,-3.563446585332052,1.122623085975647,0.0,-0.0,0.0,0.0,0.0,0.0
1782779210,408191978,-1.2978175322162073,-0.32038861909975225,-2.2820146719561976,-4.759380165730612,-3.5633867422686976,1.1225755214691162,0.0,-0.0,0.0,0.0,0.0,0.0
1782779210,416161810,-1.2977812925921839,-0.32032901445497686,-2.2820027510272425,-4.7594046036349695,-3.5633986631976526,1.1225634813308716,0.0,-0.0,0.0,0.0,0.0,0.0
1782779210,424186012,-1.2978289763080042,-0.32034093538393194,-2.2819908300982874,-4.759356204663412,-3.5633986631976526,1.1225395202636719,0.0,-0.0,0.0,0.0,0.0,0.0
1782779210,432161085,-1.2978289763080042,-0.32032901445497686,-2.2820385138141077,-4.759356204663412,-3.5633867422686976,1.1225755214691162,0.0,-0.0,0.0,0.0,0.0,0.0
1782779210,440157214,-1.2978175322162073,-0.320352856312887,-2.2819908300982874,-4.759320322667257,-3.5633986631976526,1.1225634813308716,0.0,-0.0,0.0,0.0,0.0,0.0
1782779210,448159509,-1.297805134450094,-0.320352856312887,-2.2820027510272425,-4.759344283734457,-3.5633867422686976,1.1225634813308716,0.0,-0.0,0.0,0.0,0.0,0.0
1782779210,456166786,-1.2978175322162073,-0.3204005400287073,-2.2820027510272425,-4.759344283734457,-3.5633748213397425,1.1225155591964722,0.0,-0.0,0.0,0.0,0.0,0.0
1782779210,464173748,-1.297805134450094,-0.3203166166888636,-2.2820027510272425,-4.7593682448016565,-3.5633626619922083,1.1225515604019165,0.0,-0.0,0.0,0.0,0.0,0.0
1782779210,472151191,-1.2978532950030726,-0.3203647772418421,-2.2820265928851526,-4.759344283734457,-3.563410822545187,1.1225755214691162,0.0,-0.0,0.0,0.0,0.0,0.0
1782779210,481547427,-1.297805134450094,-0.32037669817079717,-2.2820146719561976,-4.759356204663412,-3.5633626619922083,1.1225755214691162,0.0,-0.0,0.0,0.0,0.0,0.0
1782779210,488169726,-1.2978289763080042,-0.32037669817079717,-2.2819669882403772,-4.759344283734457,-3.5633626619922083,1.1225755214691162,0.0,-0.0,0.0,0.0,0.0,0.0
1782779210,496313262,-1.2977693716632288,-0.3202927748309534,-2.2820027510272425,-4.759356204663412,-3.5633626619922083,1.1225275993347168,0.0,-0.0,0.0,0.0,0.0,0.0
1782779210,504187335,-1.297793213521139,-0.32032901445497686,-2.2820385138141077,-4.759356204663412,-3.5633626619922083,1.1225874423980713,0.0,-0.0,0.0,0.0,0.0,0.0
1782779210,512378981,-1.297805134450094,-0.3203647772418421,-2.2820027510272425,-4.7593682448016565,-3.563434664403097,1.1225395202636719,0.0,-0.0,0.0,0.0,0.0,0.0
1782779210,520233833,-1.297805134450094,-0.3203647772418421,-2.2820027510272425,-4.7593682448016565,-3.563434664403097,1.1225395202636719,0.0,-0.0,0.0,0.0,0.0,0.0
1782779210,546843878,-1.2978532950030726,-0.32037669817079717,-2.2820385138141077,-4.759344283734457,-3.5633507410632532,1.1225395202636719,0.0,-0.0,0.0,0.0,0.0,0.0
1782779210,553729843,-1.2978652159320276,-0.320352856312887,-2.2820027510272425,-4.759356204663412,-3.563422743474142,1.122611403465271,0.0,-0.0,0.0,0.0,0.0,0.0
1782779210,567608661,-1.2978413740741175,-0.32038861909975225,-2.2820027510272425,-4.759344283734457,-3.5633986631976526,1.1225395202636719,0.0,-0.0,0.0,0.0,0.0,0.0
1782779210,573124925,-1.2978413740741175,-0.32038861909975225,-2.2820027510272425,-4.759344283734457,-3.5633986631976526,1.1225395202636719,0.0,-0.0,0.0,0.0,0.0,0.0
1782779210,578855930,-1.297805134450094,-0.320352856312887,-2.2820027510272425,-4.7593682448016565,-3.563410822545187,1.1225515604019165,0.0,-0.0,0.0,0.0,0.0,0.0
1782779210,586357078,-1.2978532950030726,-0.3203647772418421,-2.2819908300982874,-4.759356204663412,-3.5633748213397425,1.1225874423980713,0.0,-0.0,0.0,0.0,0.0,0.0
1782779210,592301193,-1.2978289763080042,-0.3203166166888636,-2.2820265928851526,-4.759380165730612,-3.5633867422686976,1.1225755214691162,0.0,-0.0,0.0,0.0,0.0,0.0
1782779210,600317377,-1.2978175322162073,-0.32038861909975225,-2.2820265928851526,-4.759356204663412,-3.5633748213397425,1.1225634813308716,0.0,-0.0,0.0,0.0,0.0,0.0
1782779210,608286802,-1.2978289763080042,-0.32038861909975225,-2.2820866743670862,-4.759356204663412,-3.563410822545187,1.1225395202636719,0.0,-0.0,0.0,0.0,0.0,0.0
1782779210,616175857,-1.2978532950030726,-0.32034093538393194,-2.2820385138141077,-4.7594046036349695,-3.563422743474142,1.1225515604019165,0.0,-0.0,0.0,0.0,0.0,0.0
1782779210,625145742,-1.2978413740741175,-0.3203166166888636,-2.2820265928851526,-4.759344283734457,-3.5633626619922083,1.122611403465271,0.0,-0.0,0.0,0.0,0.0,0.0
1782779210,632289780,-1.2977812925921839,-0.32037669817079717,-2.2820027510272425,-4.7593682448016565,-3.563410822545187,1.1225755214691162,0.0,-0.0,0.0,0.0,0.0,0.0
1782779210,640216613,-1.2978175322162073,-0.320352856312887,-2.2820027510272425,-4.759356204663412,-3.563410822545187,1.1225874423980713,0.0,-0.0,0.0,0.0,0.0,0.0
1782779210,656191185,-1.2978771368609827,-0.32037669817079717,-2.2819669882403772,-4.759380165730612,-3.5633626619922083,1.1225395202636719,0.0,-0.0,0.0,0.0,0.0,0.0
1782779210,664155221,-1.2978413740741175,-0.3203647772418421,-2.2820146719561976,-4.7593682448016565,-3.563422743474142,1.1225155591964722,0.0,-0.0,0.0,0.0,0.0,0.0
1782779210,672155682,-1.2978532950030726,-0.3203647772418421,-2.282050911580221,-4.7593682448016565,-3.563434664403097,1.122503638267517,0.0,-0.0,0.0,0.0,0.0,0.0
1782779210,680176959,-1.2977812925921839,-0.3204005400287073,-2.2819908300982874,-4.759332243596212,-3.563422743474142,1.1225395202636719,0.0,-0.0,0.0,0.0,0.0,0.0
1782779210,688203884,-1.2978532950030726,-0.32034093538393194,-2.2820265928851526,-4.759320322667257,-3.563422743474142,1.1225874423980713,0.0,-0.0,0.0,0.0,0.0,0.0
1782779210,696611604,-1.297793213521139,-0.32034093538393194,-2.2819908300982874,-4.759344283734457,-3.5633748213397425,1.1225515604019165,0.0,-0.0,0.0,0.0,0.0,0.0
1782779210,705167398,-1.2978532950030726,-0.3203647772418421,-2.2820146719561976,-4.759356204663412,-3.5633867422686976,1.1225874423980713,0.0,-0.0,0.0,0.0,0.0,0.0
1782779210,712178640,-1.2978413740741175,-0.3203647772418421,-2.2820146719561976,-4.759392563496725,-3.563422743474142,1.1225515604019165,0.0,-0.0,0.0,0.0,0.0,0.0
1782779210,720194954,-1.297793213521139,-0.32032901445497686,-2.2820265928851526,-4.7593082825290125,-3.5633867422686976,1.122611403465271,0.0,-0.0,0.0,0.0,0.0,0.0
1782779210,728236360,-1.2977812925921839,-0.32038861909975225,-2.2819908300982874,-4.759356204663412,-3.5633986631976526,1.1225515604019165,0.0,-0.0,0.0,0.0,0.0,0.0
1782779210,736150433,-1.297805134450094,-0.3203647772418421,-2.2820265928851526,-4.759356204663412,-3.5633748213397425,1.1225634813308716,0.0,-0.0,0.0,0.0,0.0,0.0
1782779210,744165413,-1.2978289763080042,-0.32034093538393194,-2.2819908300982874,-4.759344283734457,-3.5633986631976526,1.1225395202636719,0.0,-0.0,0.0,0.0,0.0,0.0
1782779210,752259097,-1.2978175322162073,-0.32032901445497686,-2.2819669882403772,-4.759380165730612,-3.5633867422686976,1.1225515604019165,0.0,-0.0,0.0,0.0,0.0,0.0
1782779210,760162319,-1.2978175322162073,-0.32037669817079717,-2.282062832509176,-4.759344283734457,-3.5633986631976526,1.122599482536316,0.0,-0.0,0.0,0.0,0.0,0.0
1782779210,768153243,-1.2978289763080042,-0.32034093538393194,-2.2820265928851526,-4.759356204663412,-3.563410822545187,1.1225755214691162,0.0,-0.0,0.0,0.0,0.0,0.0
1782779210,776183761,-1.2978890577899378,-0.3203166166888636,-2.2819669882403772,-4.759356204663412,-3.5633626619922083,1.122599482536316,0.0,-0.0,0.0,0.0,0.0,0.0
1782779210,784192223,-1.2978289763080042,-0.320352856312887,-2.2820146719561976,-4.759356204663412,-3.563422743474142,1.1225515604019165,0.0,-0.0,0.0,0.0,0.0,0.0
1782779210,792178462,-1.2978413740741175,-0.320352856312887,-2.2820265928851526,-4.759344283734457,-3.563422743474142,1.1225395202636719,0.0,-0.0,0.0,0.0,0.0,0.0
1782779210,800853256,-1.2978289763080042,-0.3203647772418421,-2.2820146719561976,-4.759332243596212,-3.563422743474142,1.1225395202636719,0.0,-0.0,0.0,0.0,0.0,0.0
1782779210,808991125,-1.297805134450094,-0.3203647772418421,-2.2819789091693323,-4.759344283734457,-3.563434664403097,1.1225275993347168,0.0,-0.0,0.0,0.0,0.0,0.0
1782779210,816192811,-1.2978289763080042,-0.3203647772418421,-2.2820146719561976,-4.759380165730612,-3.563422743474142,1.1225874423980713,0.0,-0.0,0.0,0.0,0.0,0.0
1782779210,824234421,-1.2977812925921839,-0.320352856312887,-2.2820146719561976,-4.759380165730612,-3.5633748213397425,1.1225634813308716,0.0,-0.0,0.0,0.0,0.0,0.0
1782779210,832212086,-1.2978413740741175,-0.3203166166888636,-2.2820146719561976,-4.7593682448016565,-3.563422743474142,1.1225634813308716,0.0,-0.0,0.0,0.0,0.0,0.0
1782779210,840165697,-1.2978413740741175,-0.32038861909975225,-2.2819789091693323,-4.759344283734457,-3.5633867422686976,1.1225634813308716,0.0,-0.0,0.0,0.0,0.0,0.0
1782779210,848163529,-1.2978532950030726,-0.320352856312887,-2.2820027510272425,-4.759320322667257,-3.5633507410632532,1.1225395202636719,0.0,-0.0,0.0,0.0,0.0,0.0
1782779210,856243953,-1.2978289763080042,-0.3203647772418421,-2.2820027510272425,-4.7594046036349695,-3.5633986631976526,1.1225755214691162,0.0,-0.0,0.0,0.0,0.0,0.0
1782779210,864153545,-1.2978289763080042,-0.3204005400287073,-2.2820385138141077,-4.7593082825290125,-3.5633986631976526,1.1225755214691162,0.0,-0.0,0.0,0.0,0.0,0.0
1782779210,872153655,-1.2978175322162073,-0.3203166166888636,-2.2820146719561976,-4.759344283734457,-3.5633626619922083,1.122503638267517,0.0,-0.0,0.0,0.0,0.0,0.0
1782779210,880167080,-1.2978652159320276,-0.32037669817079717,-2.2819908300982874,-4.7594046036349695,-3.5633986631976526,1.1225395202636719,0.0,-0.0,0.0,0.0,0.0,0.0
1782779210,888241671,-1.297901455556051,-0.3203046957599085,-2.2819789091693323,-4.7593682448016565,-3.563422743474142,1.1225755214691162,0.0,-0.0,0.0,0.0,0.0,0.0
1782779210,896169615,-1.2978413740741175,-0.32034093538393194,-2.2820265928851526,-4.759356204663412,-3.5633867422686976,1.1225515604019165,0.0,-0.0,0.0,0.0,0.0,0.0
1782779210,904477280,-1.2978652159320276,-0.32037669817079717,-2.2820385138141077,-4.759332243596212,-3.5633748213397425,1.1225755214691162,0.0,-0.0,0.0,0.0,0.0,0.0
1782779210,912221464,-1.2978413740741175,-0.3203647772418421,-2.2820146719561976,-4.759344283734457,-3.563410822545187,1.122599482536316,0.0,-0.0,0.0,0.0,0.0,0.0
1782779210,920153112,-1.297805134450094,-0.32034093538393194,-2.2820146719561976,-4.759320322667257,-3.5633748213397425,1.1225874423980713,0.0,-0.0,0.0,0.0,0.0,0.0
1782779210,928149685,-1.2978289763080042,-0.32034093538393194,-2.2820027510272425,-4.7593682448016565,-3.5633507410632532,1.1225634813308716,0.0,-0.0,0.0,0.0,0.0,0.0
1782779210,936221906,-1.2978289763080042,-0.32038861909975225,-2.2819908300982874,-4.759332243596212,-3.5633748213397425,1.1225874423980713,0.0,-0.0,0.0,0.0,0.0,0.0
1782779210,944150942,-1.2978175322162073,-0.32034093538393194,-2.2820027510272425,-4.759356204663412,-3.5633986631976526,1.1225634813308716,0.0,-0.0,0.0,0.0,0.0,0.0
1782779210,952212755,-1.2978175322162073,-0.3203647772418421,-2.2820027510272425,-4.7594046036349695,-3.5633626619922083,1.1225634813308716,0.0,-0.0,0.0,0.0,0.0,0.0
1782779210,960503494,-1.2978289763080042,-0.3203647772418421,-2.2819789091693323,-4.759332243596212,-3.563422743474142,1.1225515604019165,0.0,-0.0,0.0,0.0,0.0,0.0
1782779210,968168938,-1.2978532950030726,-0.32032901445497686,-2.2819669882403772,-4.7593082825290125,-3.5633867422686976,1.1225755214691162,0.0,-0.0,0.0,0.0,0.0,0.0
1782779210,976156011,-1.2978289763080042,-0.32034093538393194,-2.2819908300982874,-4.7593682448016565,-3.5633507410632532,1.1225515604019165,0.0,-0.0,0.0,0.0,0.0,0.0
1782779210,984233140,-1.2978289763080042,-0.320352856312887,-2.2820027510272425,-4.759344283734457,-3.5633867422686976,1.1225634813308716,0.0,-0.0,0.0,0.0,0.0,0.0
1782779210,992145731,-1.2978652159320276,-0.3204005400287073,-2.2820265928851526,-4.759344283734457,-3.563422743474142,1.1225755214691162,0.0,-0.0,0.0,0.0,0.0,0.0
1782779211,168471,-1.2978532950030726,-0.32032901445497686,-2.2820265928851526,-4.759392563496725,-3.563410822545187,1.1225515604019165,0.0,-0.0,0.0,0.0,0.0,0.0
1782779211,8270747,-1.2978532950030726,-0.32032901445497686,-2.2820027510272425,-4.759356204663412,-3.563422743474142,1.1225755214691162,0.0,-0.0,0.0,0.0,0.0,0.0
1782779211,16157469,-1.2978771368609827,-0.320352856312887,-2.2819908300982874,-4.7593682448016565,-3.563446585332052,1.1225275993347168,0.0,-0.0,0.0,0.0,0.0,0.0
1782779211,24210764,-1.2978175322162073,-0.32034093538393194,-2.2819669882403772,-4.759380165730612,-3.563422743474142,1.122611403465271,0.0,-0.0,0.0,0.0,0.0,0.0
1782779211,32165985,-1.2978175322162073,-0.3203166166888636,-2.2820146719561976,-4.7593682448016565,-3.563446585332052,1.1225515604019165,0.0,-0.0,0.0,0.0,0.0,0.0
1782779211,40098206,-1.2978532950030726,-0.3204005400287073,-2.2820146719561976,-4.7593682448016565,-3.563422743474142,1.1225155591964722,0.0,-0.0,0.0,0.0,0.0,0.0
1782779211,48149038,-1.2978289763080042,-0.3203647772418421,-2.2819908300982874,-4.759380165730612,-3.5633867422686976,1.1225515604019165,0.0,-0.0,0.0,0.0,0.0,0.0
1782779211,56147445,-1.2978289763080042,-0.32038861909975225,-2.2820265928851526,-4.759356204663412,-3.563422743474142,1.122611403465271,0.0,-0.0,0.0,0.0,0.0,0.0
1782779211,64157370,-1.2978413740741175,-0.3203647772418421,-2.2820027510272425,-4.7594046036349695,-3.563434664403097,1.1225634813308716,0.0,-0.0,0.0,0.0,0.0,0.0
1782779211,72407183,-1.2978175322162073,-0.32032901445497686,-2.2819908300982874,-4.759344283734457,-3.5633986631976526,1.1225874423980713,0.0,-0.0,0.0,0.0,0.0,0.0
1782779211,80145090,-1.2978175322162073,-0.3203166166888636,-2.2820385138141077,-4.7593682448016565,-3.5633986631976526,1.1225755214691162,0.0,-0.0,0.0,0.0,0.0,0.0
1782779211,88169848,-1.297805134450094,-0.32034093538393194,-2.2820265928851526,-4.759296361600057,-3.5633867422686976,1.1225395202636719,0.0,-0.0,0.0,0.0,0.0,0.0
1782779211,96187791,-1.2978175322162073,-0.32037669817079717,-2.2819789091693323,-4.759344283734457,-3.563410822545187,1.1225634813308716,0.0,-0.0,0.0,0.0,0.0,0.0
1782779211,104151049,-1.2978652159320276,-0.320352856312887,-2.2820146719561976,-4.759380165730612,-3.563434664403097,1.122503638267517,0.0,-0.0,0.0,0.0,0.0,0.0
1782779211,112144122,-1.2978413740741175,-0.32034093538393194,-2.2820265928851526,-4.7593082825290125,-3.5633867422686976,1.1225515604019165,0.0,-0.0,0.0,0.0,0.0,0.0
1782779211,120163102,-1.2978413740741175,-0.3203647772418421,-2.2819908300982874,-4.7593682448016565,-3.563410822545187,1.1225874423980713,0.0,-0.0,0.0,0.0,0.0,0.0
1782779211,128154361,-1.2978890577899378,-0.3203647772418421,-2.2819669882403772,-4.759392563496725,-3.5633986631976526,1.1225874423980713,0.0,-0.0,0.0,0.0,0.0,0.0
1782779211,136142397,-1.2978289763080042,-0.32032901445497686,-2.2819908300982874,-4.759344283734457,-3.5633986631976526,1.122503638267517,0.0,-0.0,0.0,0.0,0.0,0.0
1782779211,144146266,-1.2978289763080042,-0.320352856312887,-2.2820385138141077,-4.759320322667257,-3.5633867422686976,1.1225755214691162,0.0,-0.0,0.0,0.0,0.0,0.0
1782779211,152154857,-1.2978652159320276,-0.32034093538393194,-2.2820146719561976,-4.759344283734457,-3.563422743474142,1.122611403465271,0.0,-0.0,0.0,0.0,0.0,0.0
1782779211,160152615,-1.297793213521139,-0.32032901445497686,-2.2819669882403772,-4.759392563496725,-3.5633867422686976,1.1225634813308716,0.0,-0.0,0.0,0.0,0.0,0.0
1782779211,168187744,-1.2978175322162073,-0.32038861909975225,-2.2819908300982874,-4.759380165730612,-3.5633986631976526,1.1225755214691162,0.0,-0.0,0.0,0.0,0.0,0.0
1782779211,184149575,-1.2978532950030726,-0.32032901445497686,-2.2819789091693323,-4.759344283734457,-3.5633748213397425,1.1225515604019165,0.0,-0.0,0.0,0.0,0.0,0.0
1782779211,192420814,-1.2978413740741175,-0.32038861909975225,-2.2819789091693323,-4.759332243596212,-3.5633986631976526,1.122599482536316,0.0,-0.0,0.0,0.0,0.0,0.0
1782779211,200689664,-1.2978175322162073,-0.32037669817079717,-2.281955067311422,-4.759356204663412,-3.563422743474142,1.1225755214691162,0.0,-0.0,0.0,0.0,0.0,0.0
1782779211,208225368,-1.2978771368609827,-0.32034093538393194,-2.2820146719561976,-4.759380165730612,-3.5633626619922083,1.1225755214691162,0.0,-0.0,0.0,0.0,0.0,0.0
1782779211,216391014,-1.2978289763080042,-0.32032901445497686,-2.2819908300982874,-4.759332243596212,-3.563434664403097,1.1225874423980713,0.0,-0.0,0.0,0.0,0.0,0.0
1782779211,224316699,-1.2978289763080042,-0.3203647772418421,-2.2820027510272425,-4.759332243596212,-3.563410822545187,1.1225515604019165,0.0,-0.0,0.0,0.0,0.0,0.0
1782779211,232231735,-1.2978175322162073,-0.3203647772418421,-2.2820146719561976,-4.759380165730612,-3.563422743474142,1.122599482536316,0.0,-0.0,0.0,0.0,0.0,0.0
1782779211,240277252,-1.2978413740741175,-0.3204129377948206,-2.2819908300982874,-4.759344283734457,-3.5633867422686976,1.1225634813308716,0.0,-0.0,0.0,0.0,0.0,0.0
1782779211,248318473,-1.2978532950030726,-0.3203647772418421,-2.2819908300982874,-4.759344283734457,-3.563422743474142,1.1225755214691162,0.0,-0.0,0.0,0.0,0.0,0.0
1782779211,256148620,-1.2978175322162073,-0.3203166166888636,-2.282050911580221,-4.759332243596212,-3.5633986631976526,1.122503638267517,0.0,-0.0,0.0,0.0,0.0,0.0
1782779211,264138638,-1.2978652159320276,-0.3203647772418421,-2.2820146719561976,-4.759344283734457,-3.563410822545187,1.1225634813308716,0.0,-0.0,0.0,0.0,0.0,0.0
1782779211,272518210,-1.2978413740741175,-0.320352856312887,-2.2820385138141077,-4.759344283734457,-3.563446585332052,1.1225634813308716,0.0,-0.0,0.0,0.0,0.0,0.0
1782779211,288158320,-1.297805134450094,-0.32032901445497686,-2.2819908300982874,-4.759380165730612,-3.563422743474142,1.1225395202636719,0.0,-0.0,0.0,0.0,0.0,0.0
1782779211,296162578,-1.2978890577899378,-0.320352856312887,-2.2819908300982874,-4.7593682448016565,-3.563434664403097,1.1225634813308716,0.0,-0.0,0.0,0.0,0.0,0.0
1782779211,304402484,-1.297793213521139,-0.320352856312887,-2.2820385138141077,-4.759392563496725,-3.563434664403097,1.1225275993347168,0.0,-0.0,0.0,0.0,0.0,0.0
1782779211,312393131,-1.2978413740741175,-0.32038861909975225,-2.2820385138141077,-4.7593682448016565,-3.5633986631976526,1.1225515604019165,0.0,-0.0,0.0,0.0,0.0,0.0
1782779211,320264130,-1.2978175322162073,-0.3203647772418421,-2.2819789091693323,-4.7593082825290125,-3.563446585332052,1.1225634813308716,0.0,-0.0,0.0,0.0,0.0,0.0
1782779211,329179534,-1.2978413740741175,-0.32032901445497686,-2.282062832509176,-4.759356204663412,-3.5633748213397425,1.122611403465271,0.0,-0.0,0.0,0.0,0.0,0.0
1782779211,336202165,-1.2978652159320276,-0.320352856312887,-2.2820385138141077,-4.759344283734457,-3.5633986631976526,1.1225634813308716,0.0,-0.0,0.0,0.0,0.0,0.0
1782779211,344160108,-1.2978289763080042,-0.32034093538393194,-2.2820146719561976,-4.759344283734457,-3.5633626619922083,1.1225515604019165,0.0,-0.0,0.0,0.0,0.0,0.0
1782779211,352155885,-1.297805134450094,-0.320352856312887,-2.2820265928851526,-4.759344283734457,-3.5633986631976526,1.1225515604019165,0.0,-0.0,0.0,0.0,0.0,0.0
1782779211,360225217,-1.297805134450094,-0.320352856312887,-2.2820385138141077,-4.759344283734457,-3.563410822545187,1.122599482536316,0.0,-0.0,0.0,0.0,0.0,0.0
1782779211,368262975,-1.2978175322162073,-0.32034093538393194,-2.2820146719561976,-4.759332243596212,-3.5633748213397425,1.1225395202636719,0.0,-0.0,0.0,0.0,0.0,0.0
1782779211,376158548,-1.2978413740741175,-0.32034093538393194,-2.2819789091693323,-4.759344283734457,-3.5633507410632532,1.1225515604019165,0.0,-0.0,0.0,0.0,0.0,0.0
1782779211,384263417,-1.2978175322162073,-0.320352856312887,-2.2820027510272425,-4.759344283734457,-3.563434664403097,1.1225395202636719,0.0,-0.0,0.0,0.0,0.0,0.0
1782779211,392301453,-1.2978413740741175,-0.32037669817079717,-2.2819789091693323,-4.7593682448016565,-3.5633867422686976,1.1225515604019165,0.0,-0.0,0.0,0.0,0.0,0.0
1782779211,400183008,-1.2978413740741175,-0.32038861909975225,-2.2820146719561976,-4.759344283734457,-3.563422743474142,1.122599482536316,0.0,-0.0,0.0,0.0,0.0,0.0
1782779211,408195025,-1.2978532950030726,-0.3204005400287073,-2.2819908300982874,-4.759344283734457,-3.5633867422686976,1.1225755214691162,0.0,-0.0,0.0,0.0,0.0,0.0
1782779211,416228413,-1.2978652159320276,-0.32032901445497686,-2.2820265928851526,-4.759344283734457,-3.563422743474142,1.122599482536316,0.0,-0.0,0.0,0.0,0.0,0.0
1782779211,424280245,-1.297805134450094,-0.320352856312887,-2.2820146719561976,-4.759344283734457,-3.5633748213397425,1.1225634813308716,0.0,-0.0,0.0,0.0,0.0,0.0
1782779211,432356540,-1.2978289763080042,-0.32032901445497686,-2.2819908300982874,-4.759356204663412,-3.5633748213397425,1.1225755214691162,0.0,-0.0,0.0,0.0,0.0,0.0
1782779211,440151058,-1.2978175322162073,-0.320352856312887,-2.2820027510272425,-4.7594046036349695,-3.5633986631976526,1.1225515604019165,0.0,-0.0,0.0,0.0,0.0,0.0
1782779211,448204556,-1.297805134450094,-0.32034093538393194,-2.2820027510272425,-4.759380165730612,-3.5633867422686976,1.1225395202636719,0.0,-0.0,0.0,0.0,0.0,0.0
1782779211,456169592,-1.2978532950030726,-0.32034093538393194,-2.282050911580221,-4.759344283734457,-3.563410822545187,1.1225395202636719,0.0,-0.0,0.0,0.0,0.0,0.0
1782779211,464172147,-1.2977812925921839,-0.320352856312887,-2.2819908300982874,-4.759344283734457,-3.563410822545187,1.1225634813308716,0.0,-0.0,0.0,0.0,0.0,0.0
1782779211,472169146,-1.2978413740741175,-0.3203647772418421,-2.2819669882403772,-4.759356204663412,-3.5633867422686976,1.1225515604019165,0.0,-0.0,0.0,0.0,0.0,0.0
1782779211,480167348,-1.2978289763080042,-0.32034093538393194,-2.2820027510272425,-4.759344283734457,-3.563410822545187,1.1225755214691162,0.0,-0.0,0.0,0.0,0.0,0.0
1782779211,488167866,-1.2978175322162073,-0.32032901445497686,-2.2820027510272425,-4.759356204663412,-3.563434664403097,1.1225634813308716,0.0,-0.0,0.0,0.0,0.0,0.0
1782779211,496169013,-1.2978890577899378,-0.32037669817079717,-2.2819669882403772,-4.759320322667257,-3.5633986631976526,1.1225275993347168,0.0,-0.0,0.0,0.0,0.0,0.0
1782779211,504167178,-1.2978652159320276,-0.3204005400287073,-2.2820385138141077,-4.7593682448016565,-3.563410822545187,1.1225515604019165,0.0,-0.0,0.0,0.0,0.0,0.0
1782779211,512243029,-1.297793213521139,-0.32034093538393194,-2.2820385138141077,-4.759344283734457,-3.5633986631976526,1.1225275993347168,0.0,-0.0,0.0,0.0,0.0,0.0
1782779211,520144917,-1.2978289763080042,-0.32032901445497686,-2.2819669882403772,-4.759320322667257,-3.5633626619922083,1.1225755214691162,0.0,-0.0,0.0,0.0,0.0,0.0
1782779211,528143953,-1.2978413740741175,-0.3204005400287073,-2.2819908300982874,-4.759392563496725,-3.5633748213397425,1.1225395202636719,0.0,-0.0,0.0,0.0,0.0,0.0
1782779211,536185952,-1.2978771368609827,-0.32037669817079717,-2.2819908300982874,-4.759356204663412,-3.5633986631976526,1.1225755214691162,0.0,-0.0,0.0,0.0,0.0,0.0
1782779211,544163469,-1.2978413740741175,-0.3204005400287073,-2.2819908300982874,-4.759356204663412,-3.5633986631976526,1.1225395202636719,0.0,-0.0,0.0,0.0,0.0,0.0
1782779211,552158968,-1.2978175322162073,-0.3203166166888636,-2.2819789091693323,-4.759356204663412,-3.5633626619922083,1.1225395202636719,0.0,-0.0,0.0,0.0,0.0,0.0
1782779211,560176596,-1.2978175322162073,-0.32034093538393194,-2.2820385138141077,-4.759380165730612,-3.563434664403097,1.1225395202636719,0.0,-0.0,0.0,0.0,0.0,0.0
1782779211,568158984,-1.2978289763080042,-0.3203166166888636,-2.2820385138141077,-4.759356204663412,-3.5633867422686976,1.1225515604019165,0.0,-0.0,0.0,0.0,0.0,0.0
1782779211,576202502,-1.2978413740741175,-0.32034093538393194,-2.2820146719561976,-4.7593682448016565,-3.563410822545187,1.1225634813308716,0.0,-0.0,0.0,0.0,0.0,0.0
1782779211,584251667,-1.2978289763080042,-0.32032901445497686,-2.282050911580221,-4.7593682448016565,-3.5633867422686976,1.1225395202636719,0.0,-0.0,0.0,0.0,0.0,0.0
1782779211,592161148,-1.2978652159320276,-0.32034093538393194,-2.2819908300982874,-4.7593682448016565,-3.5633986631976526,1.1225755214691162,0.0,-0.0,0.0,0.0,0.0,0.0
1782779211,600216461,-1.2978289763080042,-0.3203647772418421,-2.2820027510272425,-4.759344283734457,-3.5633867422686976,1.1225634813308716,0.0,-0.0,0.0,0.0,0.0,0.0
1782779211,608171182,-1.2978413740741175,-0.32038861909975225,-2.2820265928851526,-4.759344283734457,-3.5633986631976526,1.1225515604019165,0.0,-0.0,0.0,0.0,0.0,0.0
1782779211,616332940,-1.2978289763080042,-0.320352856312887,-2.2820027510272425,-4.7594046036349695,-3.563410822545187,1.1225395202636719,0.0,-0.0,0.0,0.0,0.0,0.0
1782779211,624171976,-1.2978289763080042,-0.32038861909975225,-2.2820385138141077,-4.759380165730612,-3.563410822545187,1.1225755214691162,0.0,-0.0,0.0,0.0,0.0,0.0
1782779211,632165420,-1.2978289763080042,-0.3203647772418421,-2.2820146719561976,-4.759344283734457,-3.563410822545187,1.122611403465271,0.0,-0.0,0.0,0.0,0.0,0.0
1782779211,640168307,-1.2978652159320276,-0.32037669817079717,-2.2819908300982874,-4.759380165730612,-3.5633626619922083,1.1225634813308716,0.0,-0.0,0.0,0.0,0.0,0.0
1782779211,648155380,-1.2978771368609827,-0.32032901445497686,-2.2820146719561976,-4.759332243596212,-3.563422743474142,1.1225874423980713,0.0,-0.0,0.0,0.0,0.0,0.0
1782779211,656228916,-1.2978532950030726,-0.32037669817079717,-2.2819908300982874,-4.759392563496725,-3.5633986631976526,1.1225395202636719,0.0,-0.0,0.0,0.0,0.0,0.0
1782779211,664180286,-1.297805134450094,-0.3203046957599085,-2.2820146719561976,-4.759380165730612,-3.563338820134298,1.1225395202636719,0.0,-0.0,0.0,0.0,0.0,0.0
1782779211,672161210,-1.2978652159320276,-0.320352856312887,-2.2820146719561976,-4.759344283734457,-3.563410822545187,1.122599482536316,0.0,-0.0,0.0,0.0,0.0,0.0
1782779211,680171913,-1.2978652159320276,-0.3204129377948206,-2.2820027510272425,-4.759392563496725,-3.5633626619922083,1.1225395202636719,0.0,-0.0,0.0,0.0,0.0,0.0
1782779211,688204912,-1.2978413740741175,-0.3203647772418421,-2.2820146719561976,-4.7593082825290125,-3.5633626619922083,1.1225515604019165,0.0,-0.0,0.0,0.0,0.0,0.0
1782779211,696220059,-1.2978890577899378,-0.32034093538393194,-2.2819789091693323,-4.759344283734457,-3.5633986631976526,1.1225634813308716,0.0,-0.0,0.0,0.0,0.0,0.0
1782779211,704156762,-1.297805134450094,-0.32034093538393194,-2.2820146719561976,-4.7593682448016565,-3.5633748213397425,1.1225275993347168,0.0,-0.0,0.0,0.0,0.0,0.0
1782779211,712165520,-1.2978413740741175,-0.320352856312887,-2.2819669882403772,-4.759320322667257,-3.5633748213397425,1.1225515604019165,0.0,-0.0,0.0,0.0,0.0,0.0
1782779211,720175593,-1.2978532950030726,-0.3203647772418421,-2.2819908300982874,-4.759320322667257,-3.563410822545187,1.1225755214691162,0.0,-0.0,0.0,0.0,0.0,0.0
1782779211,728162647,-1.2978652159320276,-0.320352856312887,-2.2820265928851526,-4.759332243596212,-3.5633986631976526,1.1225634813308716,0.0,-0.0,0.0,0.0,0.0,0.0
1782779211,736168887,-1.297793213521139,-0.32034093538393194,-2.2820385138141077,-4.759356204663412,-3.5633867422686976,1.1225634813308716,0.0,-0.0,0.0,0.0,0.0,0.0
1782779211,744169626,-1.2978771368609827,-0.32034093538393194,-2.2820385138141077,-4.759356204663412,-3.563434664403097,1.1225515604019165,0.0,-0.0,0.0,0.0,0.0,0.0
1782779211,752255329,-1.2978289763080042,-0.32038861909975225,-2.2820027510272425,-4.759380165730612,-3.5633986631976526,1.1225874423980713,0.0,-0.0,0.0,0.0,0.0,0.0
1782779211,760173439,-1.2978771368609827,-0.320352856312887,-2.2820265928851526,-4.759356204663412,-3.563434664403097,1.122599482536316,0.0,-0.0,0.0,0.0,0.0,0.0
1782779211,768173901,-1.297805134450094,-0.32032901445497686,-2.2819669882403772,-4.759380165730612,-3.5633867422686976,1.1225395202636719,0.0,-0.0,0.0,0.0,0.0,0.0
1782779211,776234177,-1.2978413740741175,-0.3203647772418421,-2.2819908300982874,-4.759332243596212,-3.563422743474142,1.1225395202636719,0.0,-0.0,0.0,0.0,0.0,0.0
1782779211,784262509,-1.297793213521139,-0.32032901445497686,-2.2820265928851526,-4.7593682448016565,-3.563434664403097,1.1225634813308716,0.0,-0.0,0.0,0.0,0.0,0.0
1782779211,792157286,-1.2978175322162073,-0.320352856312887,-2.2820265928851526,-4.7593682448016565,-3.563422743474142,1.1225155591964722,0.0,-0.0,0.0,0.0,0.0,0.0
1782779211,800166841,-1.2978413740741175,-0.32032901445497686,-2.2820385138141077,-4.759344283734457,-3.563422743474142,1.1225755214691162,0.0,-0.0,0.0,0.0,0.0,0.0
1782779211,808173303,-1.2978413740741175,-0.32032901445497686,-2.2819789091693323,-4.759344283734457,-3.563422743474142,1.1225874423980713,0.0,-0.0,0.0,0.0,0.0,0.0
1782779211,816187098,-1.2978890577899378,-0.32032901445497686,-2.2820265928851526,-4.759392563496725,-3.563422743474142,1.1225155591964722,0.0,-0.0,0.0,0.0,0.0,0.0
1782779211,824173652,-1.2978289763080042,-0.32032901445497686,-2.2820265928851526,-4.759380165730612,-3.5633748213397425,1.1225275993347168,0.0,-0.0,0.0,0.0,0.0,0.0
1782779211,832165244,-1.2978175322162073,-0.3204005400287073,-2.2819908300982874,-4.7593682448016565,-3.5633867422686976,1.1225755214691162,0.0,-0.0,0.0,0.0,0.0,0.0
1782779211,840167261,-1.2978175322162073,-0.3204005400287073,-2.2820265928851526,-4.7593682448016565,-3.5633626619922083,1.1225755214691162,0.0,-0.0,0.0,0.0,0.0,0.0
1782779211,848166778,-1.2978413740741175,-0.3203647772418421,-2.2819908300982874,-4.759344283734457,-3.5633986631976526,1.1225755214691162,0.0,-0.0,0.0,0.0,0.0,0.0
1782779211,856218499,-1.2978413740741175,-0.32032901445497686,-2.2819908300982874,-4.759356204663412,-3.563410822545187,1.1225874423980713,0.0,-0.0,0.0,0.0,0.0,0.0
1782779211,864161998,-1.2978175322162073,-0.32037669817079717,-2.2819669882403772,-4.759344283734457,-3.5633986631976526,1.1225755214691162,0.0,-0.0,0.0,0.0,0.0,0.0
1782779211,872155812,-1.2978289763080042,-0.3203647772418421,-2.2820385138141077,-4.7593682448016565,-3.563410822545187,1.1225395202636719,0.0,-0.0,0.0,0.0,0.0,0.0
1782779211,880164589,-1.297805134450094,-0.32032901445497686,-2.2819908300982874,-4.759356204663412,-3.5633986631976526,1.1225755214691162,0.0,-0.0,0.0,0.0,0.0,0.0
1782779211,888164162,-1.2978652159320276,-0.3203647772418421,-2.2820146719561976,-4.759320322667257,-3.5633867422686976,1.1225395202636719,0.0,-0.0,0.0,0.0,0.0,0.0
1782779211,896234364,-1.2978413740741175,-0.3203647772418421,-2.2820146719561976,-4.759380165730612,-3.563434664403097,1.122503638267517,0.0,-0.0,0.0,0.0,0.0,0.0
1782779211,904176993,-1.2978652159320276,-0.320352856312887,-2.2820027510272425,-4.759344283734457,-3.5633867422686976,1.1225634813308716,0.0,-0.0,0.0,0.0,0.0,0.0
1782779211,912247732,-1.2978289763080042,-0.32038861909975225,-2.2819669882403772,-4.759344283734457,-3.563410822545187,1.1225395202636719,0.0,-0.0,0.0,0.0,0.0,0.0
1782779211,920194861,-1.297793213521139,-0.3203166166888636,-2.2820385138141077,-4.759356204663412,-3.5633986631976526,1.1225515604019165,0.0,-0.0,0.0,0.0,0.0,0.0
1782779211,928174915,-1.2978413740741175,-0.3203046957599085,-2.2820146719561976,-4.759344283734457,-3.5633748213397425,1.1225515604019165,0.0,-0.0,0.0,0.0,0.0,0.0
1782779211,936212747,-1.2978413740741175,-0.32032901445497686,-2.2820027510272425,-4.759344283734457,-3.563422743474142,1.1225634813308716,0.0,-0.0,0.0,0.0,0.0,0.0
1782779211,944188783,-1.2978652159320276,-0.32034093538393194,-2.2820027510272425,-4.7593682448016565,-3.563410822545187,1.1225755214691162,0.0,-0.0,0.0,0.0,0.0,0.0
1782779211,952167634,-1.297805134450094,-0.3203647772418421,-2.2820146719561976,-4.759344283734457,-3.5633867422686976,1.1225755214691162,0.0,-0.0,0.0,0.0,0.0,0.0
1782779211,960170096,-1.2978289763080042,-0.32032901445497686,-2.2820146719561976,-4.7593082825290125,-3.5633986631976526,1.1225395202636719,0.0,-0.0,0.0,0.0,0.0,0.0
1782779211,968807260,-1.297793213521139,-0.32038861909975225,-2.2820385138141077,-4.759356204663412,-3.563410822545187,1.1225874423980713,0.0,-0.0,0.0,0.0,0.0,0.0
1782779211,976190149,-1.2978532950030726,-0.320352856312887,-2.2820385138141077,-4.759392563496725,-3.5633867422686976,1.122599482536316,0.0,-0.0,0.0,0.0,0.0,0.0
1782779211,984168963,-1.2978289763080042,-0.32034093538393194,-2.2819789091693323,-4.759344283734457,-3.5633986631976526,1.1225395202636719,0.0,-0.0,0.0,0.0,0.0,0.0
1782779211,992170166,-1.2978532950030726,-0.3203166166888636,-2.2820027510272425,-4.759392563496725,-3.5633748213397425,1.122503638267517,0.0,-0.0,0.0,0.0,0.0,0.0
1782779212,175053,-1.2978532950030726,-0.32034093538393194,-2.2820385138141077,-4.759356204663412,-3.5633986631976526,1.1225395202636719,0.0,-0.0,0.0,0.0,0.0,0.0
1782779212,8237441,-1.2978175322162073,-0.320352856312887,-2.2820385138141077,-4.759344283734457,-3.5633626619922083,1.1225634813308716,0.0,-0.0,0.0,0.0,0.0,0.0
1782779212,16256810,-1.297805134450094,-0.32034093538393194,-2.2820027510272425,-4.759296361600057,-3.563410822545187,1.1225874423980713,0.0,-0.0,0.0,0.0,0.0,0.0
1782779212,24158754,-1.2978289763080042,-0.32037669817079717,-2.2819908300982874,-4.759380165730612,-3.563422743474142,1.1225395202636719,0.0,-0.0,0.0,0.0,0.0,0.0
1782779212,32166382,-1.2978413740741175,-0.3203647772418421,-2.2819908300982874,-4.759344283734457,-3.563434664403097,1.1225515604019165,0.0,-0.0,0.0,0.0,0.0,0.0
1782779212,40246011,-1.2978289763080042,-0.32034093538393194,-2.2820385138141077,-4.759380165730612,-3.563422743474142,1.1225755214691162,0.0,-0.0,0.0,0.0,0.0,0.0
1782779212,48166658,-1.297805134450094,-0.320352856312887,-2.2819908300982874,-4.759356204663412,-3.5633748213397425,1.122599482536316,0.0,-0.0,0.0,0.0,0.0,0.0
1782779212,56203490,-1.297793213521139,-0.32037669817079717,-2.2820146719561976,-4.7594046036349695,-3.5633748213397425,1.1225155591964722,0.0,-0.0,0.0,0.0,0.0,0.0
1782779212,64275988,-1.2978175322162073,-0.32034093538393194,-2.2820146719561976,-4.759320322667257,-3.5633986631976526,1.122599482536316,0.0,-0.0,0.0,0.0,0.0,0.0
1782779212,72247987,-1.2978652159320276,-0.32037669817079717,-2.2819669882403772,-4.759392563496725,-3.563410822545187,1.1225634813308716,0.0,-0.0,0.0,0.0,0.0,0.0
1782779212,80195616,-1.2978289763080042,-0.32034093538393194,-2.2820265928851526,-4.759332243596212,-3.563446585332052,1.1225275993347168,0.0,-0.0,0.0,0.0,0.0,0.0
1782779212,88157115,-1.2978532950030726,-0.32037669817079717,-2.2819908300982874,-4.759356204663412,-3.5633867422686976,1.1225275993347168,0.0,-0.0,0.0,0.0,0.0,0.0
1782779212,96205484,-1.2978413740741175,-0.3203647772418421,-2.2819789091693323,-4.7593682448016565,-3.5633986631976526,1.1225755214691162,0.0,-0.0,0.0,0.0,0.0,0.0
1782779212,104216557,-1.2978289763080042,-0.32032901445497686,-2.2820027510272425,-4.759380165730612,-3.5633867422686976,1.1225634813308716,0.0,-0.0,0.0,0.0,0.0,0.0
1782779212,112162741,-1.2978652159320276,-0.32037669817079717,-2.2819908300982874,-4.759392563496725,-3.563422743474142,1.1225395202636719,0.0,-0.0,0.0,0.0,0.0,0.0
1782779212,120170962,-1.297805134450094,-0.320352856312887,-2.2819908300982874,-4.759320322667257,-3.563410822545187,1.1225755214691162,0.0,-0.0,0.0,0.0,0.0,0.0
1782779212,128172035,-1.2978175322162073,-0.32037669817079717,-2.2820385138141077,-4.7593682448016565,-3.563422743474142,1.1225874423980713,0.0,-0.0,0.0,0.0,0.0,0.0
1782779212,136302386,-1.2978289763080042,-0.32037669817079717,-2.2819789091693323,-4.7594046036349695,-3.563422743474142,1.1225755214691162,0.0,-0.0,0.0,0.0,0.0,0.0
1782779212,144169570,-1.297805134450094,-0.3203647772418421,-2.2819789091693323,-4.759392563496725,-3.563422743474142,1.1225874423980713,0.0,-0.0,0.0,0.0,0.0,0.0
1782779212,152158402,-1.2978175322162073,-0.32034093538393194,-2.2819669882403772,-4.759344283734457,-3.5633626619922083,1.1225275993347168,0.0,-0.0,0.0,0.0,0.0,0.0
1782779212,160173512,-1.2978175322162073,-0.3203647772418421,-2.2820265928851526,-4.759320322667257,-3.563434664403097,1.1225155591964722,0.0,-0.0,0.0,0.0,0.0,0.0
1782779212,168204529,-1.297793213521139,-0.3204005400287073,-2.2820146719561976,-4.759344283734457,-3.5633867422686976,1.1225515604019165,0.0,-0.0,0.0,0.0,0.0,0.0
1782779212,176230676,-1.2978413740741175,-0.32032901445497686,-2.2819669882403772,-4.759332243596212,-3.5633626619922083,1.1225515604019165,0.0,-0.0,0.0,0.0,0.0,0.0
1782779212,184160712,-1.2978771368609827,-0.3203046957599085,-2.2820265928851526,-4.759344283734457,-3.563422743474142,1.122599482536316,0.0,-0.0,0.0,0.0,0.0,0.0
1782779212,192163748,-1.2978289763080042,-0.32038861909975225,-2.2819908300982874,-4.759416524563925,-3.5633867422686976,1.1225755214691162,0.0,-0.0,0.0,0.0,0.0,0.0
1782779212,200177006,-1.2978413740741175,-0.320352856312887,-2.2819789091693323,-4.759416524563925,-3.563410822545187,1.1225755214691162,0.0,-0.0,0.0,0.0,0.0,0.0
1782779212,208164968,-1.2978771368609827,-0.32032901445497686,-2.2820146719561976,-4.759380165730612,-3.563434664403097,1.1225634813308716,0.0,-0.0,0.0,0.0,0.0,0.0
1782779212,216204059,-1.2978175322162073,-0.32037669817079717,-2.2820146719561976,-4.759284321461813,-3.5633986631976526,1.1225395202636719,0.0,-0.0,0.0,0.0,0.0,0.0
1782779212,224164003,-1.2978289763080042,-0.320352856312887,-2.2819908300982874,-4.759320322667257,-3.5633986631976526,1.1225275993347168,0.0,-0.0,0.0,0.0,0.0,0.0
1782779212,232242039,-1.2978289763080042,-0.32037669817079717,-2.2820027510272425,-4.759380165730612,-3.5633986631976526,1.1225634813308716,0.0,-0.0,0.0,0.0,0.0,0.0
1782779212,240192463,-1.2978413740741175,-0.3203647772418421,-2.2820027510272425,-4.759344283734457,-3.563422743474142,1.1225874423980713,0.0,-0.0,0.0,0.0,0.0,0.0
1782779212,248155481,-1.2978289763080042,-0.320352856312887,-2.2820385138141077,-4.759344283734457,-3.5633867422686976,1.1225755214691162,0.0,-0.0,0.0,0.0,0.0,0.0
1782779212,256200572,-1.2978532950030726,-0.3203647772418421,-2.2819789091693323,-4.759332243596212,-3.5633986631976526,1.1225874423980713,0.0,-0.0,0.0,0.0,0.0,0.0
1782779212,264237923,-1.2978413740741175,-0.32032901445497686,-2.2820146719561976,-4.7593682448016565,-3.5633626619922083,1.1225275993347168,0.0,-0.0,0.0,0.0,0.0,0.0
1782779212,272168126,-1.2978413740741175,-0.3204005400287073,-2.2819789091693323,-4.759320322667257,-3.563434664403097,1.1225395202636719,0.0,-0.0,0.0,0.0,0.0,0.0
1782779212,280160624,-1.297805134450094,-0.3204005400287073,-2.2819789091693323,-4.7593682448016565,-3.5633626619922083,1.1225634813308716,0.0,-0.0,0.0,0.0,0.0,0.0
1782779212,288161105,-1.2978532950030726,-0.3204005400287073,-2.2820265928851526,-4.759332243596212,-3.563434664403097,1.1225275993347168,0.0,-0.0,0.0,0.0,0.0,0.0
1782779212,296224178,-1.2978413740741175,-0.32037669817079717,-2.2820146719561976,-4.7593682448016565,-3.563410822545187,1.1225515604019165,0.0,-0.0,0.0,0.0,0.0,0.0
1782779212,304165769,-1.2978532950030726,-0.32034093538393194,-2.2820265928851526,-4.7593682448016565,-3.5633867422686976,1.1225275993347168,0.0,-0.0,0.0,0.0,0.0,0.0
1782779212,312169175,-1.2978413740741175,-0.3203647772418421,-2.282050911580221,-4.759380165730612,-3.563410822545187,1.1225155591964722,0.0,-0.0,0.0,0.0,0.0,0.0
1782779212,320179008,-1.2978532950030726,-0.3204005400287073,-2.2819908300982874,-4.759320322667257,-3.5633748213397425,1.1225395202636719,0.0,-0.0,0.0,0.0,0.0,0.0
1782779212,328171043,-1.2978289763080042,-0.32038861909975225,-2.2819908300982874,-4.759344283734457,-3.5633748213397425,1.1225155591964722,0.0,-0.0,0.0,0.0,0.0,0.0
1782779212,336245487,-1.2978289763080042,-0.32034093538393194,-2.2819669882403772,-4.7593682448016565,-3.5633748213397425,1.122611403465271,0.0,-0.0,0.0,0.0,0.0,0.0
1782779212,344168893,-1.2978532950030726,-0.32034093538393194,-2.2819789091693323,-4.759380165730612,-3.563410822545187,1.1225395202636719,0.0,-0.0,0.0,0.0,0.0,0.0
1782779212,352151040,-1.297805134450094,-0.32034093538393194,-2.2820265928851526,-4.759356204663412,-3.5633986631976526,1.1225155591964722,0.0,-0.0,0.0,0.0,0.0,0.0
1782779212,360171465,-1.2978289763080042,-0.320352856312887,-2.2820027510272425,-4.759332243596212,-3.563434664403097,1.1225755214691162,0.0,-0.0,0.0,0.0,0.0,0.0
1782779212,368207575,-1.2978652159320276,-0.3203647772418421,-2.282050911580221,-4.759380165730612,-3.5633748213397425,1.1225755214691162,0.0,-0.0,0.0,0.0,0.0,0.0
1782779212,376228574,-1.2978652159320276,-0.3203647772418421,-2.2819908300982874,-4.759320322667257,-3.563410822545187,1.1225395202636719,0.0,-0.0,0.0,0.0,0.0,0.0
1782779212,384162647,-1.2978532950030726,-0.32034093538393194,-2.2820265928851526,-4.759380165730612,-3.563410822545187,1.1225515604019165,0.0,-0.0,0.0,0.0,0.0,0.0
1782779212,392167368,-1.2978289763080042,-0.32037669817079717,-2.2819789091693323,-4.759332243596212,-3.5633986631976526,1.1225515604019165,0.0,-0.0,0.0,0.0,0.0,0.0
1782779212,400228237,-1.2978532950030726,-0.32034093538393194,-2.2819789091693323,-4.759332243596212,-3.563422743474142,1.1225275993347168,0.0,-0.0,0.0,0.0,0.0,0.0
1782779212,408167995,-1.2978413740741175,-0.3204005400287073,-2.2820146719561976,-4.759356204663412,-3.5633986631976526,1.1225395202636719,0.0,-0.0,0.0,0.0,0.0,0.0
1782779212,416205883,-1.297793213521139,-0.3203647772418421,-2.2819789091693323,-4.759356204663412,-3.5633507410632532,1.1225395202636719,0.0,-0.0,0.0,0.0,0.0,0.0
1782779212,424163863,-1.2978413740741175,-0.3203647772418421,-2.2819908300982874,-4.759320322667257,-3.5633986631976526,1.1225755214691162,0.0,-0.0,0.0,0.0,0.0,0.0
1782779212,432247473,-1.2978175322162073,-0.320352856312887,-2.2819908300982874,-4.759344283734457,-3.563434664403097,1.1225515604019165,0.0,-0.0,0.0,0.0,0.0,0.0
1782779212,440177453,-1.2978532950030726,-0.32038861909975225,-2.2820027510272425,-4.759392563496725,-3.563422743474142,1.1225755214691162,0.0,-0.0,0.0,0.0,0.0,0.0
1782779212,448160452,-1.2978175322162073,-0.3203647772418421,-2.2820265928851526,-4.7594046036349695,-3.563410822545187,1.1225395202636719,0.0,-0.0,0.0,0.0,0.0,0.0
1782779212,456229803,-1.2978413740741175,-0.320352856312887,-2.2819669882403772,-4.7593682448016565,-3.5633986631976526,1.1225874423980713,0.0,-0.0,0.0,0.0,0.0,0.0
1782779212,464264283,-1.2978413740741175,-0.3203166166888636,-2.2820146719561976,-4.759320322667257,-3.5633986631976526,1.1225634813308716,0.0,-0.0,0.0,0.0,0.0,0.0
1782779212,472168004,-1.2978175322162073,-0.3203647772418421,-2.2819789091693323,-4.759356204663412,-3.5633986631976526,1.1225395202636719,0.0,-0.0,0.0,0.0,0.0,0.0
1782779212,480168114,-1.2977693716632288,-0.3203647772418421,-2.2819908300982874,-4.759332243596212,-3.5633867422686976,1.1225395202636719,0.0,-0.0,0.0,0.0,0.0,0.0
1782779212,488171298,-1.2978289763080042,-0.320352856312887,-2.2820146719561976,-4.759332243596212,-3.563422743474142,1.1225155591964722,0.0,-0.0,0.0,0.0,0.0,0.0
1782779212,496238001,-1.2978532950030726,-0.32038861909975225,-2.2820146719561976,-4.7593682448016565,-3.5633986631976526,1.1225395202636719,0.0,-0.0,0.0,0.0,0.0,0.0
1782779212,504177277,-1.2978175322162073,-0.320352856312887,-2.2820146719561976,-4.759344283734457,-3.5633748213397425,1.122611403465271,0.0,-0.0,0.0,0.0,0.0,0.0
1782779212,512162128,-1.2978413740741175,-0.32038861909975225,-2.2820027510272425,-4.759320322667257,-3.5633867422686976,1.1225755214691162,0.0,-0.0,0.0,0.0,0.0,0.0
1782779212,520209275,-1.2978652159320276,-0.32038861909975225,-2.2820146719561976,-4.759332243596212,-3.5633986631976526,1.1225634813308716,0.0,-0.0,0.0,0.0,0.0,0.0
1782779212,528242700,-1.2978289763080042,-0.3203647772418421,-2.2819669882403772,-4.759344283734457,-3.5633986631976526,1.1224915981292725,0.0,-0.0,0.0,0.0,0.0,0.0
1782779212,536209902,-1.2978652159320276,-0.320352856312887,-2.2820146719561976,-4.759320322667257,-3.5633626619922083,1.1225515604019165,0.0,-0.0,0.0,0.0,0.0,0.0
1782779212,544156920,-1.2978532950030726,-0.32037669817079717,-2.2820385138141077,-4.759356204663412,-3.5633986631976526,1.1225395202636719,0.0,-0.0,0.0,0.0,0.0,0.0
1782779212,552167715,-1.297793213521139,-0.320352856312887,-2.2819789091693323,-4.759332243596212,-3.563434664403097,1.1225755214691162,0.0,-0.0,0.0,0.0,0.0,0.0
1782779212,560262380,-1.2978413740741175,-0.32037669817079717,-2.2820146719561976,-4.759380165730612,-3.5633867422686976,1.1225874423980713,0.0,-0.0,0.0,0.0,0.0,0.0
1782779212,568161602,-1.2978532950030726,-0.32034093538393194,-2.2819789091693323,-4.759344283734457,-3.563410822545187,1.1225395202636719,0.0,-0.0,0.0,0.0,0.0,0.0
1782779212,576195934,-1.297793213521139,-0.32037669817079717,-2.2819669882403772,-4.759356204663412,-3.563434664403097,1.122599482536316,0.0,-0.0,0.0,0.0,0.0,0.0
1782779212,584160062,-1.2978652159320276,-0.320352856312887,-2.2820146719561976,-4.7593682448016565,-3.5633748213397425,1.1225395202636719,0.0,-0.0,0.0,0.0,0.0,0.0
1782779212,592227117,-1.2978175322162073,-0.3204005400287073,-2.2819789091693323,-4.759356204663412,-3.5633986631976526,1.1225874423980713,0.0,-0.0,0.0,0.0,0.0,0.0
1782779212,600169634,-1.2978413740741175,-0.32037669817079717,-2.2820146719561976,-4.759356204663412,-3.5633867422686976,1.1225155591964722,0.0,-0.0,0.0,0.0,0.0,0.0
1782779212,608152966,-1.2978413740741175,-0.32034093538393194,-2.2820146719561976,-4.759344283734457,-3.563422743474142,1.1225755214691162,0.0,-0.0,0.0,0.0,0.0,0.0
1782779212,616207206,-1.2978413740741175,-0.3203046957599085,-2.2819908300982874,-4.7593082825290125,-3.5633748213397425,1.1225275993347168,0.0,-0.0,0.0,0.0,0.0,0.0
1782779212,624254927,-1.297805134450094,-0.32034093538393194,-2.2820385138141077,-4.759332243596212,-3.5633867422686976,1.1225515604019165,0.0,-0.0,0.0,0.0,0.0,0.0
1782779212,632160981,-1.2978289763080042,-0.3203046957599085,-2.2819669882403772,-4.7593682448016565,-3.5633867422686976,1.1225275993347168,0.0,-0.0,0.0,0.0,0.0,0.0
1782779212,640164591,-1.297805134450094,-0.32034093538393194,-2.282050911580221,-4.759392563496725,-3.5633986631976526,1.1225395202636719,0.0,-0.0,0.0,0.0,0.0,0.0
1782779212,648173201,-1.2978289763080042,-0.32034093538393194,-2.2820385138141077,-4.759392563496725,-3.5633748213397425,1.1225395202636719,0.0,-0.0,0.0,0.0,0.0,0.0
1782779212,656186256,-1.2978890577899378,-0.32032901445497686,-2.2819908300982874,-4.759416524563925,-3.563434664403097,1.1225634813308716,0.0,-0.0,0.0,0.0,0.0,0.0
1782779212,664164829,-1.2978413740741175,-0.3203647772418421,-2.2820146719561976,-4.759380165730612,-3.5633867422686976,1.1225395202636719,0.0,-0.0,0.0,0.0,0.0,0.0
1782779212,672151846,-1.2978532950030726,-0.32032901445497686,-2.2820146719561976,-4.759344283734457,-3.5633626619922083,1.1225755214691162,0.0,-0.0,0.0,0.0,0.0,0.0
1782779212,680167067,-1.2978532950030726,-0.320352856312887,-2.282050911580221,-4.759356204663412,-3.563434664403097,1.1225755214691162,0.0,-0.0,0.0,0.0,0.0,0.0
1782779212,688157918,-1.2978175322162073,-0.32034093538393194,-2.2820146719561976,-4.759392563496725,-3.5633748213397425,1.1225515604019165,0.0,-0.0,0.0,0.0,0.0,0.0
1782779212,696215972,-1.2978532950030726,-0.320352856312887,-2.2820027510272425,-4.759344283734457,-3.563410822545187,1.1225634813308716,0.0,-0.0,0.0,0.0,0.0,0.0
1782779212,704161934,-1.2978175322162073,-0.3203647772418421,-2.2819908300982874,-4.759380165730612,-3.5633986631976526,1.1225634813308716,0.0,-0.0,0.0,0.0,0.0,0.0
1782779212,712164340,-1.297805134450094,-0.3203647772418421,-2.2820146719561976,-4.759380165730612,-3.5633986631976526,1.1225634813308716,0.0,-0.0,0.0,0.0,0.0,0.0
1782779212,720174210,-1.2978413740741175,-0.32034093538393194,-2.282050911580221,-4.7593682448016565,-3.563434664403097,1.1225395202636719,0.0,-0.0,0.0,0.0,0.0,0.0
1782779212,728203579,-1.297805134450094,-0.32034093538393194,-2.2820146719561976,-4.759344283734457,-3.563410822545187,1.1225515604019165,0.0,-0.0,0.0,0.0,0.0,0.0
1782779212,736226059,-1.2978652159320276,-0.32037669817079717,-2.2820385138141077,-4.759356204663412,-3.563434664403097,1.1225634813308716,0.0,-0.0,0.0,0.0,0.0,0.0
1782779212,744161854,-1.2978289763080042,-0.320352856312887,-2.2819908300982874,-4.759380165730612,-3.563422743474142,1.1225395202636719,0.0,-0.0,0.0,0.0,0.0,0.0
1782779212,752181612,-1.2978175322162073,-0.320352856312887,-2.2819669882403772,-4.7593682448016565,-3.5633626619922083,1.1225395202636719,0.0,-0.0,0.0,0.0,0.0,0.0
1782779212,760184093,-1.2978289763080042,-0.32038861909975225,-2.2820027510272425,-4.7593682448016565,-3.5633626619922083,1.1225874423980713,0.0,-0.0,0.0,0.0,0.0,0.0
1782779212,768159721,-1.2978413740741175,-0.32032901445497686,-2.2820385138141077,-4.759356204663412,-3.5633867422686976,1.1225515604019165,0.0,-0.0,0.0,0.0,0.0,0.0
1782779212,776181442,-1.2978289763080042,-0.32032901445497686,-2.2820265928851526,-4.759380165730612,-3.5633867422686976,1.122599482536316,0.0,-0.0,0.0,0.0,0.0,0.0
1782779212,784156219,-1.297901455556051,-0.3204005400287073,-2.2820385138141077,-4.759332243596212,-3.5633986631976526,1.1225755214691162,0.0,-0.0,0.0,0.0,0.0,0.0
1782779212,792161977,-1.2978413740741175,-0.32032901445497686,-2.2819789091693323,-4.759332243596212,-3.563422743474142,1.1225275993347168,0.0,-0.0,0.0,0.0,0.0,0.0
1782779212,800173031,-1.2978771368609827,-0.32034093538393194,-2.2820027510272425,-4.759332243596212,-3.5633626619922083,1.1225155591964722,0.0,-0.0,0.0,0.0,0.0,0.0
1782779212,808161919,-1.2978289763080042,-0.3204129377948206,-2.2820027510272425,-4.7593682448016565,-3.563446585332052,1.1225275993347168,0.0,-0.0,0.0,0.0,0.0,0.0
1782779212,816199936,-1.2978532950030726,-0.320352856312887,-2.2820385138141077,-4.7593682448016565,-3.563410822545187,1.1225755214691162,0.0,-0.0,0.0,0.0,0.0,0.0
1782779212,824176454,-1.2978532950030726,-0.32034093538393194,-2.2819908300982874,-4.759344283734457,-3.563422743474142,1.1225515604019165,0.0,-0.0,0.0,0.0,0.0,0.0
1782779212,832170582,-1.297805134450094,-0.32038861909975225,-2.2819908300982874,-4.759356204663412,-3.563422743474142,1.1225395202636719,0.0,-0.0,0.0,0.0,0.0,0.0
1782779212,840173544,-1.2978413740741175,-0.32032901445497686,-2.2819908300982874,-4.759332243596212,-3.563446585332052,1.1225755214691162,0.0,-0.0,0.0,0.0,0.0,0.0
1782779212,848180080,-1.297793213521139,-0.3203647772418421,-2.2820146719561976,-4.759344283734457,-3.5633867422686976,1.1225395202636719,0.0,-0.0,0.0,0.0,0.0,0.0
1782779212,856273579,-1.2978532950030726,-0.32034093538393194,-2.2820027510272425,-4.759344283734457,-3.563410822545187,1.1225755214691162,0.0,-0.0,0.0,0.0,0.0,0.0
1782779212,864183800,-1.2978413740741175,-0.32032901445497686,-2.2819908300982874,-4.759392563496725,-3.563422743474142,1.1225395202636719,0.0,-0.0,0.0,0.0,0.0,0.0
1782779212,872151188,-1.2978771368609827,-0.32032901445497686,-2.2819908300982874,-4.759356204663412,-3.5633986631976526,1.1225874423980713,0.0,-0.0,0.0,0.0,0.0,0.0
1782779212,880157427,-1.2978175322162073,-0.32037669817079717,-2.282050911580221,-4.7593682448016565,-3.5633748213397425,1.1225515604019165,0.0,-0.0,0.0,0.0,0.0,0.0
1782779212,888229426,-1.2978289763080042,-0.32034093538393194,-2.2820027510272425,-4.759380165730612,-3.5633626619922083,1.1225515604019165,0.0,-0.0,0.0,0.0,0.0,0.0
1782779212,896212203,-1.2978532950030726,-0.32032901445497686,-2.281955067311422,-4.759344283734457,-3.5633626619922083,1.1225755214691162,0.0,-0.0,0.0,0.0,0.0,0.0
1782779212,904170072,-1.2978175322162073,-0.3203166166888636,-2.2820027510272425,-4.7593682448016565,-3.5633507410632532,1.1225755214691162,0.0,-0.0,0.0,0.0,0.0,0.0
1782779212,912179664,-1.2978289763080042,-0.32038861909975225,-2.282074753438131,-4.759392563496725,-3.5633986631976526,1.1225275993347168,0.0,-0.0,0.0,0.0,0.0,0.0
1782779212,920285921,-1.2978289763080042,-0.3203647772418421,-2.2819908300982874,-4.759380165730612,-3.5633748213397425,1.1225395202636719,0.0,-0.0,0.0,0.0,0.0,0.0
1782779212,928173883,-1.297793213521139,-0.3203647772418421,-2.2820146719561976,-4.7593682448016565,-3.563422743474142,1.1225755214691162,0.0,-0.0,0.0,0.0,0.0,0.0
1782779212,936207179,-1.2978289763080042,-0.3203647772418421,-2.2819908300982874,-4.759380165730612,-3.563422743474142,1.1225755214691162,0.0,-0.0,0.0,0.0,0.0,0.0
1782779212,944176789,-1.2978413740741175,-0.32034093538393194,-2.2820027510272425,-4.759332243596212,-3.563422743474142,1.1225634813308716,0.0,-0.0,0.0,0.0,0.0,0.0
1782779212,952172121,-1.2978413740741175,-0.32034093538393194,-2.2819908300982874,-4.759344283734457,-3.563434664403097,1.1225634813308716,0.0,-0.0,0.0,0.0,0.0,0.0
1782779212,960184971,-1.2978289763080042,-0.3203046957599085,-2.2820027510272425,-4.759380165730612,-3.5633986631976526,1.1225395202636719,0.0,-0.0,0.0,0.0,0.0,0.0
1782779212,968158081,-1.2978289763080042,-0.3203166166888636,-2.2820146719561976,-4.7594046036349695,-3.563410822545187,1.1225874423980713,0.0,-0.0,0.0,0.0,0.0,0.0
1782779212,976194432,-1.2978289763080042,-0.320352856312887,-2.2820146719561976,-4.759344283734457,-3.5633986631976526,1.1225515604019165,0.0,-0.0,0.0,0.0,0.0,0.0
1782779212,984162838,-1.2978289763080042,-0.32032901445497686,-2.2819789091693323,-4.7593082825290125,-3.563410822545187,1.1225395202636719,0.0,-0.0,0.0,0.0,0.0,0.0
1782779212,992166874,-1.2978413740741175,-0.32032901445497686,-2.2820385138141077,-4.759356204663412,-3.5633986631976526,1.1225155591964722,0.0,-0.0,0.0,0.0,0.0,0.0
1782779213,167410,-1.297805134450094,-0.3203647772418421,-2.2819908300982874,-4.759344283734457,-3.563422743474142,1.1225874423980713,0.0,-0.0,0.0,0.0,0.0,0.0
1782779213,8175946,-1.2978175322162073,-0.32037669817079717,-2.2820027510272425,-4.759356204663412,-3.563410822545187,1.1225395202636719,0.0,-0.0,0.0,0.0,0.0,0.0
1782779213,16196000,-1.2978532950030726,-0.32032901445497686,-2.2820027510272425,-4.759380165730612,-3.5633986631976526,1.1225634813308716,0.0,-0.0,0.0,0.0,0.0,0.0
1782779213,24216184,-1.2978652159320276,-0.3203647772418421,-2.2820146719561976,-4.759380165730612,-3.563410822545187,1.122599482536316,0.0,-0.0,0.0,0.0,0.0,0.0
1782779213,32150591,-1.2978413740741175,-0.32038861909975225,-2.282050911580221,-4.759356204663412,-3.563410822545187,1.1225395202636719,0.0,-0.0,0.0,0.0,0.0,0.0
1782779213,40176793,-1.297805134450094,-0.32037669817079717,-2.2820265928851526,-4.759356204663412,-3.563446585332052,1.122503638267517,0.0,-0.0,0.0,0.0,0.0,0.0
1782779213,48206403,-1.2978413740741175,-0.320352856312887,-2.2820146719561976,-4.7594046036349695,-3.563410822545187,1.1225755214691162,0.0,-0.0,0.0,0.0,0.0,0.0
1782779213,56227550,-1.2978532950030726,-0.3203647772418421,-2.282050911580221,-4.759320322667257,-3.5633986631976526,1.1225395202636719,0.0,-0.0,0.0,0.0,0.0,0.0
1782779213,64170827,-1.2978289763080042,-0.32034093538393194,-2.2820265928851526,-4.7593682448016565,-3.563422743474142,1.1225395202636719,0.0,-0.0,0.0,0.0,0.0,0.0
1782779213,72170603,-1.2978771368609827,-0.3203647772418421,-2.2820146719561976,-4.759356204663412,-3.5633986631976526,1.1225275993347168,0.0,-0.0,0.0,0.0,0.0,0.0
1782779213,80256695,-1.2978289763080042,-0.3203647772418421,-2.2820146719561976,-4.759356204663412,-3.563434664403097,1.1225515604019165,0.0,-0.0,0.0,0.0,0.0,0.0
1782779213,88169879,-1.297793213521139,-0.3203166166888636,-2.2819908300982874,-4.7593682448016565,-3.5633867422686976,1.122599482536316,0.0,-0.0,0.0,0.0,0.0,0.0
1782779213,96198766,-1.2978289763080042,-0.3203647772418421,-2.2819789091693323,-4.7593682448016565,-3.5633748213397425,1.1225755214691162,0.0,-0.0,0.0,0.0,0.0,0.0
1782779213,104168284,-1.297805134450094,-0.3204005400287073,-2.2819789091693323,-4.759344283734457,-3.563410822545187,1.1225755214691162,0.0,-0.0,0.0,0.0,0.0,0.0
1782779213,112157653,-1.2978652159320276,-0.32037669817079717,-2.2819789091693323,-4.759344283734457,-3.5633986631976526,1.1225395202636719,0.0,-0.0,0.0,0.0,0.0,0.0
1782779213,120194633,-1.2978413740741175,-0.32038861909975225,-2.2820265928851526,-4.7593682448016565,-3.563410822545187,1.1225155591964722,0.0,-0.0,0.0,0.0,0.0,0.0
1782779213,128166410,-1.2978175322162073,-0.32038861909975225,-2.2820385138141077,-4.759344283734457,-3.5633748213397425,1.1225874423980713,0.0,-0.0,0.0,0.0,0.0,0.0
1782779213,136224353,-1.2978532950030726,-0.3203166166888636,-2.2820146719561976,-4.7593682448016565,-3.5633748213397425,1.1225395202636719,0.0,-0.0,0.0,0.0,0.0,0.0
1782779213,144254352,-1.2978289763080042,-0.32034093538393194,-2.2820146719561976,-4.759344283734457,-3.5633748213397425,1.1225634813308716,0.0,-0.0,0.0,0.0,0.0,0.0
1782779213,152164925,-1.2978771368609827,-0.32032901445497686,-2.282050911580221,-4.759380165730612,-3.5633986631976526,1.1225515604019165,0.0,-0.0,0.0,0.0,0.0,0.0
1782779213,160169535,-1.2978652159320276,-0.3204005400287073,-2.2819908300982874,-4.7594046036349695,-3.563410822545187,1.1225755214691162,0.0,-0.0,0.0,0.0,0.0,0.0
1782779213,168173737,-1.2978652159320276,-0.32034093538393194,-2.2819908300982874,-4.759344283734457,-3.5633626619922083,1.1225874423980713,0.0,-0.0,0.0,0.0,0.0,0.0
1782779213,176217421,-1.2978413740741175,-0.32032901445497686,-2.2819908300982874,-4.759332243596212,-3.563434664403097,1.1224915981292725,0.0,-0.0,0.0,0.0,0.0,0.0
1782779213,184174235,-1.2978289763080042,-0.32037669817079717,-2.2820265928851526,-4.759320322667257,-3.563410822545187,1.122599482536316,0.0,-0.0,0.0,0.0,0.0,0.0
1782779213,192162901,-1.2978652159320276,-0.32034093538393194,-2.2820027510272425,-4.759332243596212,-3.563434664403097,1.1225395202636719,0.0,-0.0,0.0,0.0,0.0,0.0
1782779213,200176085,-1.2978652159320276,-0.320352856312887,-2.2820146719561976,-4.759332243596212,-3.5633507410632532,1.1225515604019165,0.0,-0.0,0.0,0.0,0.0,0.0
1782779213,208197324,-1.2978771368609827,-0.32038861909975225,-2.2820027510272425,-4.759380165730612,-3.563410822545187,1.1225155591964722,0.0,-0.0,0.0,0.0,0.0,0.0
1782779213,216228434,-1.2978413740741175,-0.3204129377948206,-2.2820027510272425,-4.759344283734457,-3.5633867422686976,1.1225755214691162,0.0,-0.0,0.0,0.0,0.0,0.0
1782779213,224166618,-1.2978289763080042,-0.32037669817079717,-2.2820027510272425,-4.759416524563925,-3.563434664403097,1.1225634813308716,0.0,-0.0,0.0,0.0,0.0,0.0
1782779213,232169210,-1.2978413740741175,-0.3203647772418421,-2.2819908300982874,-4.759380165730612,-3.5633626619922083,1.1225755214691162,0.0,-0.0,0.0,0.0,0.0,0.0
1782779213,240357578,-1.2978532950030726,-0.32034093538393194,-2.2820385138141077,-4.759380165730612,-3.5633986631976526,1.1225275993347168,0.0,-0.0,0.0,0.0,0.0,0.0
1782779213,248164374,-1.2978413740741175,-0.32032901445497686,-2.2820146719561976,-4.759392563496725,-3.5633867422686976,1.1225755214691162,0.0,-0.0,0.0,0.0,0.0,0.0
1782779213,256192558,-1.2978175322162073,-0.320352856312887,-2.2820146719561976,-4.7593082825290125,-3.563422743474142,1.1225515604019165,0.0,-0.0,0.0,0.0,0.0,0.0
1782779213,264159112,-1.2978532950030726,-0.32037669817079717,-2.2819669882403772,-4.7593682448016565,-3.563422743474142,1.1225155591964722,0.0,-0.0,0.0,0.0,0.0,0.0
1782779213,272224815,-1.2978289763080042,-0.32037669817079717,-2.2820265928851526,-4.759356204663412,-3.5633867422686976,1.1225755214691162,0.0,-0.0,0.0,0.0,0.0,0.0
1782779213,280192758,-1.2978175322162073,-0.32037669817079717,-2.2819669882403772,-4.759332243596212,-3.5633867422686976,1.1225395202636719,0.0,-0.0,0.0,0.0,0.0,0.0
1782779213,288161757,-1.2978289763080042,-0.32037669817079717,-2.2819908300982874,-4.759344283734457,-3.5633986631976526,1.1225515604019165,0.0,-0.0,0.0,0.0,0.0,0.0
1782779213,296210256,-1.2978532950030726,-0.32037669817079717,-2.281942669545309,-4.759392563496725,-3.5633986631976526,1.1225275993347168,0.0,-0.0,0.0,0.0,0.0,0.0
1782779213,304266606,-1.2978175322162073,-0.3203647772418421,-2.2819908300982874,-4.7594046036349695,-3.563410822545187,1.1225155591964722,0.0,-0.0,0.0,0.0,0.0,0.0
1782779213,312160420,-1.2978652159320276,-0.3203647772418421,-2.2820027510272425,-4.759344283734457,-3.563410822545187,1.1225395202636719,0.0,-0.0,0.0,0.0,0.0,0.0
1782779213,320166623,-1.2978532950030726,-0.320352856312887,-2.2820146719561976,-4.759380165730612,-3.563446585332052,1.1225634813308716,0.0,-0.0,0.0,0.0,0.0,0.0
1782779213,328161029,-1.2978652159320276,-0.3203166166888636,-2.2819908300982874,-4.759380165730612,-3.563422743474142,1.1225395202636719,0.0,-0.0,0.0,0.0,0.0,0.0
1782779213,336306601,-1.2978532950030726,-0.3203647772418421,-2.2819908300982874,-4.7594046036349695,-3.563410822545187,1.1225874423980713,0.0,-0.0,0.0,0.0,0.0,0.0
1782779213,344168452,-1.2978413740741175,-0.3203647772418421,-2.2819908300982874,-4.759332243596212,-3.5633986631976526,1.1225515604019165,0.0,-0.0,0.0,0.0,0.0,0.0
1782779213,352171562,-1.2978652159320276,-0.32038861909975225,-2.2820385138141077,-4.759380165730612,-3.563410822545187,1.1225634813308716,0.0,-0.0,0.0,0.0,0.0,0.0
1782779213,360176154,-1.297805134450094,-0.32032901445497686,-2.2819908300982874,-4.7594046036349695,-3.5633986631976526,1.1225395202636719,0.0,-0.0,0.0,0.0,0.0,0.0
1782779213,368216764,-1.2977812925921839,-0.3204248587237757,-2.2820146719561976,-4.759332243596212,-3.563446585332052,1.122599482536316,0.0,-0.0,0.0,0.0,0.0,0.0
1782779213,376200262,-1.2978652159320276,-0.320352856312887,-2.2819669882403772,-4.759320322667257,-3.5633626619922083,1.1225155591964722,0.0,-0.0,0.0,0.0,0.0,0.0
1782779213,384158132,-1.2978413740741175,-0.3203647772418421,-2.2820265928851526,-4.759392563496725,-3.5633867422686976,1.1225634813308716,0.0,-0.0,0.0,0.0,0.0,0.0
1782779213,392167519,-1.297805134450094,-0.320352856312887,-2.2820027510272425,-4.7593682448016565,-3.5633986631976526,1.122503638267517,0.0,-0.0,0.0,0.0,0.0,0.0
1782779213,400181111,-1.2978652159320276,-0.32034093538393194,-2.2820265928851526,-4.7593682448016565,-3.5633986631976526,1.1225515604019165,0.0,-0.0,0.0,0.0,0.0,0.0
1782779213,408187647,-1.2978175322162073,-0.32037669817079717,-2.2820265928851526,-4.7593682448016565,-3.5633507410632532,1.1225874423980713,0.0,-0.0,0.0,0.0,0.0,0.0
1782779213,416156034,-1.2978652159320276,-0.3203647772418421,-2.2820027510272425,-4.759380165730612,-3.5633867422686976,1.1225395202636719,0.0,-0.0,0.0,0.0,0.0,0.0
1782779213,424182515,-1.297805134450094,-0.32034093538393194,-2.2820385138141077,-4.759356204663412,-3.563410822545187,1.1225395202636719,0.0,-0.0,0.0,0.0,0.0,0.0
1782779213,432223717,-1.2978175322162073,-0.3203647772418421,-2.2820027510272425,-4.759332243596212,-3.5633867422686976,1.1225755214691162,0.0,-0.0,0.0,0.0,0.0,0.0
1782779213,440215531,-1.2978289763080042,-0.3204129377948206,-2.2820146719561976,-4.7594046036349695,-3.563446585332052,1.1225634813308716,0.0,-0.0,0.0,0.0,0.0,0.0
1782779213,448173141,-1.2978175322162073,-0.3203647772418421,-2.2820027510272425,-4.759344283734457,-3.563410822545187,1.1225395202636719,0.0,-0.0,0.0,0.0,0.0,0.0
1782779213,456228751,-1.2978175322162073,-0.3203647772418421,-2.2820265928851526,-4.7593682448016565,-3.5633867422686976,1.1225634813308716,0.0,-0.0,0.0,0.0,0.0,0.0
1782779213,464257305,-1.2978532950030726,-0.320352856312887,-2.2820385138141077,-4.759392563496725,-3.563434664403097,1.1225155591964722,0.0,-0.0,0.0,0.0,0.0,0.0
1782779213,472165008,-1.297805134450094,-0.32034093538393194,-2.2819908300982874,-4.759356204663412,-3.5633986631976526,1.1225634813308716,0.0,-0.0,0.0,0.0,0.0,0.0
1782779213,480174673,-1.2978771368609827,-0.32037669817079717,-2.2819908300982874,-4.759344283734457,-3.5633986631976526,1.1225395202636719,0.0,-0.0,0.0,0.0,0.0,0.0
1782779213,488170746,-1.2978890577899378,-0.3203647772418421,-2.2820385138141077,-4.7594046036349695,-3.563410822545187,1.1225155591964722,0.0,-0.0,0.0,0.0,0.0,0.0
1782779213,496205171,-1.2978413740741175,-0.32034093538393194,-2.2819908300982874,-4.759344283734457,-3.563434664403097,1.1225755214691162,0.0,-0.0,0.0,0.0,0.0,0.0
1782779213,504168781,-1.2978532950030726,-0.32034093538393194,-2.2820027510272425,-4.759356204663412,-3.563410822545187,1.122503638267517,0.0,-0.0,0.0,0.0,0.0,0.0
1782779213,512152594,-1.297805134450094,-0.32032901445497686,-2.2820146719561976,-4.7594046036349695,-3.5633748213397425,1.1225874423980713,0.0,-0.0,0.0,0.0,0.0,0.0
1782779213,520174927,-1.2978652159320276,-0.3204129377948206,-2.2820146719561976,-4.7593682448016565,-3.5633986631976526,1.1225515604019165,0.0,-0.0,0.0,0.0,0.0,0.0
1782779213,528208222,-1.2978413740741175,-0.3203647772418421,-2.2820385138141077,-4.759320322667257,-3.5633626619922083,1.1225515604019165,0.0,-0.0,0.0,0.0,0.0,0.0
1782779213,536184517,-1.2978175322162073,-0.32034093538393194,-2.2820265928851526,-4.759380165730612,-3.5633867422686976,1.1225634813308716,0.0,-0.0,0.0,0.0,0.0,0.0
1782779213,544164534,-1.2978175322162073,-0.32038861909975225,-2.2820027510272425,-4.759344283734457,-3.5633867422686976,1.122599482536316,0.0,-0.0,0.0,0.0,0.0,0.0
1782779213,552174977,-1.2978289763080042,-0.320352856312887,-2.2819789091693323,-4.7593682448016565,-3.5633748213397425,1.1225515604019165,0.0,-0.0,0.0,0.0,0.0,0.0
1782779213,560164495,-1.2978175322162073,-0.32038861909975225,-2.2819789091693323,-4.7593682448016565,-3.563422743474142,1.1225755214691162,0.0,-0.0,0.0,0.0,0.0,0.0
1782779213,568169345,-1.297793213521139,-0.32032901445497686,-2.2820027510272425,-4.7593682448016565,-3.5633986631976526,1.1225155591964722,0.0,-0.0,0.0,0.0,0.0,0.0
1782779213,576185566,-1.2978413740741175,-0.32037669817079717,-2.2819669882403772,-4.759332243596212,-3.563422743474142,1.1225515604019165,0.0,-0.0,0.0,0.0,0.0,0.0
1782779213,584157954,-1.2978413740741175,-0.32032901445497686,-2.2820385138141077,-4.7593682448016565,-3.5633748213397425,1.1225515604019165,0.0,-0.0,0.0,0.0,0.0,0.0
1782779213,592181138,-1.2978289763080042,-0.320352856312887,-2.2820146719561976,-4.7593082825290125,-3.563410822545187,1.1225634813308716,0.0,-0.0,0.0,0.0,0.0,0.0
1782779213,600283563,-1.2978289763080042,-0.32038861909975225,-2.2819789091693323,-4.7593682448016565,-3.5633867422686976,1.1225755214691162,0.0,-0.0,0.0,0.0,0.0,0.0
1782779213,608172784,-1.2978413740741175,-0.32037669817079717,-2.2820265928851526,-4.7593682448016565,-3.5633626619922083,1.1225755214691162,0.0,-0.0,0.0,0.0,0.0,0.0
1782779213,616168135,-1.2978532950030726,-0.32032901445497686,-2.2819908300982874,-4.7594046036349695,-3.5633867422686976,1.1225395202636719,0.0,-0.0,0.0,0.0,0.0,0.0
1782779213,624162671,-1.297805134450094,-0.3203647772418421,-2.282050911580221,-4.7593682448016565,-3.563422743474142,1.1225755214691162,0.0,-0.0,0.0,0.0,0.0,0.0
1782779213,632238669,-1.2978289763080042,-0.32037669817079717,-2.2819789091693323,-4.7593682448016565,-3.5633986631976526,1.1225395202636719,0.0,-0.0,0.0,0.0,0.0,0.0
1782779213,640191890,-1.2978289763080042,-0.32034093538393194,-2.2820265928851526,-4.7593682448016565,-3.563422743474142,1.1225155591964722,0.0,-0.0,0.0,0.0,0.0,0.0
1782779213,648166223,-1.297805134450094,-0.3203647772418421,-2.2820385138141077,-4.7593682448016565,-3.5633626619922083,1.1225634813308716,0.0,-0.0,0.0,0.0,0.0,0.0
1782779213,656193018,-1.2978413740741175,-0.32037669817079717,-2.2820027510272425,-4.759392563496725,-3.563410822545187,1.1225634813308716,0.0,-0.0,0.0,0.0,0.0,0.0
1782779213,664271220,-1.2978413740741175,-0.3204005400287073,-2.281955067311422,-4.759344283734457,-3.5633867422686976,1.1225755214691162,0.0,-0.0,0.0,0.0,0.0,0.0
1782779213,672163293,-1.2978413740741175,-0.32037669817079717,-2.2819669882403772,-4.759392563496725,-3.5633867422686976,1.1225874423980713,0.0,-0.0,0.0,0.0,0.0,0.0
1782779213,680159070,-1.297793213521139,-0.32037669817079717,-2.2820146719561976,-4.7594046036349695,-3.563422743474142,1.1225755214691162,0.0,-0.0,0.0,0.0,0.0,0.0
1782779213,688170976,-1.2978175322162073,-0.3203647772418421,-2.2819789091693323,-4.759344283734457,-3.563410822545187,1.1225515604019165,0.0,-0.0,0.0,0.0,0.0,0.0
1782779213,696194530,-1.2978890577899378,-0.3203647772418421,-2.2819908300982874,-4.759344283734457,-3.563446585332052,1.1225395202636719,0.0,-0.0,0.0,0.0,0.0,0.0
1782779213,704172492,-1.297793213521139,-0.32034093538393194,-2.2819908300982874,-4.7593682448016565,-3.5633986631976526,1.1225755214691162,0.0,-0.0,0.0,0.0,0.0,0.0
1782779213,712165547,-1.2978652159320276,-0.32032901445497686,-2.2820027510272425,-4.7593082825290125,-3.563422743474142,1.1225755214691162,0.0,-0.0,0.0,0.0,0.0,0.0
1782779213,720167156,-1.2978175322162073,-0.3204129377948206,-2.2820027510272425,-4.759344283734457,-3.563410822545187,1.1225755214691162,0.0,-0.0,0.0,0.0,0.0,0.0
1782779213,728165563,-1.297805134450094,-0.32038861909975225,-2.2820146719561976,-4.759356204663412,-3.5633748213397425,1.1225874423980713,0.0,-0.0,0.0,0.0,0.0,0.0
1782779213,736192339,-1.2978289763080042,-0.320352856312887,-2.2820265928851526,-4.759356204663412,-3.563446585332052,1.1225395202636719,0.0,-0.0,0.0,0.0,0.0,0.0
1782779213,744151338,-1.2978652159320276,-0.32037669817079717,-2.2819908300982874,-4.7593682448016565,-3.5633626619922083,1.1225755214691162,0.0,-0.0,0.0,0.0,0.0,0.0
1782779213,752170615,-1.2978175322162073,-0.320352856312887,-2.2820146719561976,-4.759356204663412,-3.563338820134298,1.1225275993347168,0.0,-0.0,0.0,0.0,0.0,0.0
1782779213,760173299,-1.2978289763080042,-0.320352856312887,-2.2820146719561976,-4.759344283734457,-3.563410822545187,1.1225395202636719,0.0,-0.0,0.0,0.0,0.0,0.0
1782779213,768164279,-1.2978413740741175,-0.320352856312887,-2.2820027510272425,-4.7593682448016565,-3.563422743474142,1.1225755214691162,0.0,-0.0,0.0,0.0,0.0,0.0
1782779213,776202778,-1.2978175322162073,-0.32034093538393194,-2.2820146719561976,-4.759344283734457,-3.563410822545187,1.122599482536316,0.0,-0.0,0.0,0.0,0.0,0.0
1782779213,784165888,-1.297805134450094,-0.3203647772418421,-2.2820265928851526,-4.759344283734457,-3.563410822545187,1.1225395202636719,0.0,-0.0,0.0,0.0,0.0,0.0
1782779213,792159090,-1.2978652159320276,-0.3203647772418421,-2.2819908300982874,-4.7594046036349695,-3.5633626619922083,1.1225755214691162,0.0,-0.0,0.0,0.0,0.0,0.0
1782779213,800186237,-1.2978413740741175,-0.320352856312887,-2.2819908300982874,-4.7593682448016565,-3.563410822545187,1.1225755214691162,0.0,-0.0,0.0,0.0,0.0,0.0
1782779213,808161218,-1.2978289763080042,-0.3203166166888636,-2.2819908300982874,-4.759356204663412,-3.5633986631976526,1.1225275993347168,0.0,-0.0,0.0,0.0,0.0,0.0
1782779213,816214605,-1.2978289763080042,-0.320352856312887,-2.2819789091693323,-4.759416524563925,-3.5633626619922083,1.1225515604019165,0.0,-0.0,0.0,0.0,0.0,0.0
1782779213,824267252,-1.2978652159320276,-0.32037669817079717,-2.2819908300982874,-4.7593682448016565,-3.563422743474142,1.1225755214691162,0.0,-0.0,0.0,0.0,0.0,0.0
1782779213,832168159,-1.2978413740741175,-0.32032901445497686,-2.282062832509176,-4.7594046036349695,-3.5633748213397425,1.1225755214691162,0.0,-0.0,0.0,0.0,0.0,0.0
1782779213,840170324,-1.2978771368609827,-0.3204005400287073,-2.2820146719561976,-4.759356204663412,-3.5633867422686976,1.1225755214691162,0.0,-0.0,0.0,0.0,0.0,0.0
1782779213,848163545,-1.2978413740741175,-0.320352856312887,-2.2819908300982874,-4.759344283734457,-3.5633986631976526,1.1225395202636719,0.0,-0.0,0.0,0.0,0.0,0.0
1782779213,856397599,-1.2978532950030726,-0.3204005400287073,-2.2820265928851526,-4.759356204663412,-3.5633867422686976,1.1225395202636719,0.0,-0.0,0.0,0.0,0.0,0.0
1782779213,864164876,-1.2978652159320276,-0.32038861909975225,-2.2820265928851526,-4.759344283734457,-3.563434664403097,1.122503638267517,0.0,-0.0,0.0,0.0,0.0,0.0
1782779213,872164523,-1.297805134450094,-0.3203647772418421,-2.2819789091693323,-4.759380165730612,-3.5633986631976526,1.1225634813308716,0.0,-0.0,0.0,0.0,0.0,0.0
1782779213,880167170,-1.2978532950030726,-0.32032901445497686,-2.2819669882403772,-4.759356204663412,-3.5634706656085413,1.1225874423980713,0.0,-0.0,0.0,0.0,0.0,0.0
1782779213,888172484,-1.2978771368609827,-0.3204129377948206,-2.2819669882403772,-4.759356204663412,-3.5633748213397425,1.1225395202636719,0.0,-0.0,0.0,0.0,0.0,0.0
1782779213,896206056,-1.2978175322162073,-0.3203647772418421,-2.2819908300982874,-4.759356204663412,-3.563434664403097,1.1225155591964722,0.0,-0.0,0.0,0.0,0.0,0.0
1782779213,904156333,-1.2978652159320276,-0.320352856312887,-2.2819789091693323,-4.759332243596212,-3.563446585332052,1.122599482536316,0.0,-0.0,0.0,0.0,0.0,0.0
1782779213,912160684,-1.2978413740741175,-0.32032901445497686,-2.2820146719561976,-4.7593682448016565,-3.5633986631976526,1.122599482536316,0.0,-0.0,0.0,0.0,0.0,0.0
1782779213,920171331,-1.2978652159320276,-0.3203647772418421,-2.2819789091693323,-4.759356204663412,-3.563434664403097,1.1225275993347168,0.0,-0.0,0.0,0.0,0.0,0.0
1782779213,928156274,-1.2978413740741175,-0.32032901445497686,-2.2820265928851526,-4.759356204663412,-3.563422743474142,1.1225515604019165,0.0,-0.0,0.0,0.0,0.0,0.0
1782779213,936202402,-1.2978289763080042,-0.32034093538393194,-2.2819789091693323,-4.759344283734457,-3.563410822545187,1.1225755214691162,0.0,-0.0,0.0,0.0,0.0,0.0
1782779213,944196235,-1.2978532950030726,-0.32038861909975225,-2.2820027510272425,-4.759344283734457,-3.563410822545187,1.1225395202636719,0.0,-0.0,0.0,0.0,0.0,0.0
1782779213,952162845,-1.2978413740741175,-0.32037669817079717,-2.2819669882403772,-4.7593082825290125,-3.5633986631976526,1.1225634813308716,0.0,-0.0,0.0,0.0,0.0,0.0
1782779213,960180825,-1.2978532950030726,-0.320352856312887,-2.2820146719561976,-4.759356204663412,-3.5633986631976526,1.1225755214691162,0.0,-0.0,0.0,0.0,0.0,0.0
1782779213,968163176,-1.297805134450094,-0.3203647772418421,-2.2820146719561976,-4.7593682448016565,-3.5633986631976526,1.1225395202636719,0.0,-0.0,0.0,0.0,0.0,0.0
1782779213,976235174,-1.2978652159320276,-0.3203166166888636,-2.282050911580221,-4.759440485631124,-3.5633748213397425,1.1225634813308716,0.0,-0.0,0.0,0.0,0.0,0.0
1782779213,984181044,-1.297805134450094,-0.3203647772418421,-2.2819908300982874,-4.759344283734457,-3.5633986631976526,1.1225275993347168,0.0,-0.0,0.0,0.0,0.0,0.0
1782779213,992180005,-1.2978175322162073,-0.32032901445497686,-2.2819789091693323,-4.759380165730612,-3.5633867422686976,1.1225634813308716,0.0,-0.0,0.0,0.0,0.0,0.0
1782779214,162393,-1.2978532950030726,-0.32032901445497686,-2.2819908300982874,-4.759332243596212,-3.563338820134298,1.1225395202636719,0.0,-0.0,0.0,0.0,0.0,0.0
1782779214,8161836,-1.2978532950030726,-0.32037669817079717,-2.2820146719561976,-4.759332243596212,-3.563410822545187,1.1225515604019165,0.0,-0.0,0.0,0.0,0.0,0.0
1782779214,16208094,-1.2978289763080042,-0.32037669817079717,-2.2820385138141077,-4.759356204663412,-3.563446585332052,1.1225395202636719,0.0,-0.0,0.0,0.0,0.0,0.0
1782779214,24173778,-1.2978532950030726,-0.32034093538393194,-2.2819908300982874,-4.7593682448016565,-3.5633748213397425,1.1225874423980713,0.0,-0.0,0.0,0.0,0.0,0.0
1782779214,32216647,-1.2978532950030726,-0.320352856312887,-2.2820265928851526,-4.759332243596212,-3.563410822545187,1.1225515604019165,0.0,-0.0,0.0,0.0,0.0,0.0
1782779214,40166461,-1.2978532950030726,-0.32037669817079717,-2.2820027510272425,-4.759392563496725,-3.563410822545187,1.1225155591964722,0.0,-0.0,0.0,0.0,0.0,0.0
1782779214,48165571,-1.297805134450094,-0.3203647772418421,-2.2820027510272425,-4.7594046036349695,-3.5633867422686976,1.1225515604019165,0.0,-0.0,0.0,0.0,0.0,0.0
1782779214,58316046,-1.2978289763080042,-0.320352856312887,-2.2819908300982874,-4.7593682448016565,-3.563410822545187,1.1225395202636719,0.0,-0.0,0.0,0.0,0.0,0.0
1782779214,64199254,-1.2977812925921839,-0.3203647772418421,-2.282062832509176,-4.759332243596212,-3.5633748213397425,1.1225634813308716,0.0,-0.0,0.0,0.0,0.0,0.0
1782779214,72160123,-1.2978532950030726,-0.3203647772418421,-2.2819908300982874,-4.7593682448016565,-3.563422743474142,1.1225515604019165,0.0,-0.0,0.0,0.0,0.0,0.0
1782779214,80165289,-1.297805134450094,-0.320352856312887,-2.2820265928851526,-4.759344283734457,-3.5633748213397425,1.122503638267517,0.0,-0.0,0.0,0.0,0.0,0.0
1782779214,88165287,-1.2978413740741175,-0.3203647772418421,-2.282050911580221,-4.759320322667257,-3.5633748213397425,1.122599482536316,0.0,-0.0,0.0,0.0,0.0,0.0
1782779214,96199582,-1.2978413740741175,-0.32034093538393194,-2.2820027510272425,-4.759332243596212,-3.5633748213397425,1.1225755214691162,0.0,-0.0,0.0,0.0,0.0,0.0
1782779214,104166452,-1.2978532950030726,-0.32032901445497686,-2.2820265928851526,-4.759344283734457,-3.563410822545187,1.1225634813308716,0.0,-0.0,0.0,0.0,0.0,0.0
1782779214,112181265,-1.2978413740741175,-0.32038861909975225,-2.2820265928851526,-4.7593682448016565,-3.563410822545187,1.1225395202636719,0.0,-0.0,0.0,0.0,0.0,0.0
1782779214,120166208,-1.297805134450094,-0.32034093538393194,-2.2819789091693323,-4.759344283734457,-3.563422743474142,1.1225755214691162,0.0,-0.0,0.0,0.0,0.0,0.0
1782779214,128241281,-1.2978175322162073,-0.3203647772418421,-2.2820265928851526,-4.759356204663412,-3.563410822545187,1.1225874423980713,0.0,-0.0,0.0,0.0,0.0,0.0
1782779214,136216465,-1.2978652159320276,-0.32034093538393194,-2.2820027510272425,-4.759380165730612,-3.5633867422686976,1.1225755214691162,0.0,-0.0,0.0,0.0,0.0,0.0
1782779214,144161520,-1.2978532950030726,-0.32032901445497686,-2.2820265928851526,-4.759380165730612,-3.5633867422686976,1.1225874423980713,0.0,-0.0,0.0,0.0,0.0,0.0
1782779214,152180111,-1.297805134450094,-0.320352856312887,-2.2819669882403772,-4.759320322667257,-3.563422743474142,1.1225634813308716,0.0,-0.0,0.0,0.0,0.0,0.0
1782779214,160276610,-1.297805134450094,-0.32032901445497686,-2.2819908300982874,-4.759344283734457,-3.563422743474142,1.1225874423980713,0.0,-0.0,0.0,0.0,0.0,0.0
1782779214,168162794,-1.2978413740741175,-0.320352856312887,-2.2819908300982874,-4.759332243596212,-3.5633867422686976,1.1225155591964722,0.0,-0.0,0.0,0.0,0.0,0.0
1782779214,176184367,-1.2977812925921839,-0.32034093538393194,-2.2819789091693323,-4.759380165730612,-3.563434664403097,1.1225515604019165,0.0,-0.0,0.0,0.0,0.0,0.0
1782779214,184175291,-1.297793213521139,-0.32034093538393194,-2.2820146719561976,-4.759380165730612,-3.5633748213397425,1.1225634813308716,0.0,-0.0,0.0,0.0,0.0,0.0
1782779214,192213883,-1.297805134450094,-0.3203647772418421,-2.2820027510272425,-4.7593682448016565,-3.563410822545187,1.1225874423980713,0.0,-0.0,0.0,0.0,0.0,0.0
1782779214,200175067,-1.2978413740741175,-0.32037669817079717,-2.2819789091693323,-4.7594046036349695,-3.5633626619922083,1.1225634813308716,0.0,-0.0,0.0,0.0,0.0,0.0
1782779214,208164806,-1.2978175322162073,-0.3203166166888636,-2.2820146719561976,-4.7593682448016565,-3.563434664403097,1.1225395202636719,0.0,-0.0,0.0,0.0,0.0,0.0
1782779214,216193398,-1.2977812925921839,-0.320352856312887,-2.2819908300982874,-4.759344283734457,-3.5633986631976526,1.1225275993347168,0.0,-0.0,0.0,0.0,0.0,0.0
1782779214,224202193,-1.2978771368609827,-0.320352856312887,-2.2820385138141077,-4.759344283734457,-3.563434664403097,1.1225634813308716,0.0,-0.0,0.0,0.0,0.0,0.0
1782779214,232156747,-1.2978532950030726,-0.32032901445497686,-2.2819908300982874,-4.7594046036349695,-3.563422743474142,1.1225515604019165,0.0,-0.0,0.0,0.0,0.0,0.0
1782779214,240157264,-1.2978532950030726,-0.320352856312887,-2.2820146719561976,-4.759356204663412,-3.5633867422686976,1.1225155591964722,0.0,-0.0,0.0,0.0,0.0,0.0
1782779214,248169448,-1.2978175322162073,-0.320352856312887,-2.2820265928851526,-4.759380165730612,-3.5633626619922083,1.122599482536316,0.0,-0.0,0.0,0.0,0.0,0.0
1782779214,256216188,-1.2978289763080042,-0.3203647772418421,-2.2819908300982874,-4.759356204663412,-3.563410822545187,1.1225634813308716,0.0,-0.0,0.0,0.0,0.0,0.0
1782779214,264182668,-1.2978175322162073,-0.3203166166888636,-2.2819908300982874,-4.7593682448016565,-3.5633507410632532,1.1225634813308716,0.0,-0.0,0.0,0.0,0.0,0.0
1782779214,272174778,-1.2978289763080042,-0.32034093538393194,-2.2820265928851526,-4.7593082825290125,-3.5633867422686976,1.1225275993347168,0.0,-0.0,0.0,0.0,0.0,0.0
1782779214,280169370,-1.297805134450094,-0.32038861909975225,-2.2820146719561976,-4.7593082825290125,-3.5634706656085413,1.1225155591964722,0.0,-0.0,0.0,0.0,0.0,0.0
1782779214,288256590,-1.2978771368609827,-0.3204005400287073,-2.2820146719561976,-4.759332243596212,-3.5633748213397425,1.1225515604019165,0.0,-0.0,0.0,0.0,0.0,0.0
1782779214,296219700,-1.2978289763080042,-0.32038861909975225,-2.2820265928851526,-4.759380165730612,-3.5633867422686976,1.1225395202636719,0.0,-0.0,0.0,0.0,0.0,0.0
1782779214,304159496,-1.297793213521139,-0.32037669817079717,-2.2820027510272425,-4.7593682448016565,-3.5633867422686976,1.1225755214691162,0.0,-0.0,0.0,0.0,0.0,0.0
1782779214,312170976,-1.2978175322162073,-0.3203647772418421,-2.2820265928851526,-4.759344283734457,-3.5633748213397425,1.1225874423980713,0.0,-0.0,0.0,0.0,0.0,0.0
1782779214,320176715,-1.2978413740741175,-0.3203647772418421,-2.2820265928851526,-4.759392563496725,-3.5633867422686976,1.1225634813308716,0.0,-0.0,0.0,0.0,0.0,0.0
1782779214,328162770,-1.297805134450094,-0.32032901445497686,-2.2820027510272425,-4.7593682448016565,-3.5633748213397425,1.1225755214691162,0.0,-0.0,0.0,0.0,0.0,0.0
1782779214,336216009,-1.2978413740741175,-0.3204129377948206,-2.2819789091693323,-4.759380165730612,-3.5633867422686976,1.1225755214691162,0.0,-0.0,0.0,0.0,0.0,0.0
1782779214,344164434,-1.2977812925921839,-0.3204005400287073,-2.2820146719561976,-4.7593682448016565,-3.5633748213397425,1.1225275993347168,0.0,-0.0,0.0,0.0,0.0,0.0
1782779214,352241136,-1.2978413740741175,-0.320352856312887,-2.2820146719561976,-4.759392563496725,-3.563422743474142,1.1225155591964722,0.0,-0.0,0.0,0.0,0.0,0.0
1782779214,360188098,-1.2978771368609827,-0.32034093538393194,-2.2819669882403772,-4.759344283734457,-3.563422743474142,1.1225634813308716,0.0,-0.0,0.0,0.0,0.0,0.0
1782779214,368169430,-1.2978652159320276,-0.3203647772418421,-2.2820146719561976,-4.7593682448016565,-3.5633748213397425,1.1225634813308716,0.0,-0.0,0.0,0.0,0.0,0.0
1782779214,376185744,-1.2978532950030726,-0.32038861909975225,-2.2820146719561976,-4.759380165730612,-3.5633986631976526,1.1225515604019165,0.0,-0.0,0.0,0.0,0.0,0.0
1782779214,384246057,-1.2978413740741175,-0.32037669817079717,-2.2819908300982874,-4.759320322667257,-3.563410822545187,1.1225515604019165,0.0,-0.0,0.0,0.0,0.0,0.0
1782779214,392172908,-1.2978175322162073,-0.32038861909975225,-2.2820146719561976,-4.7593682448016565,-3.5633626619922083,1.1225634813308716,0.0,-0.0,0.0,0.0,0.0,0.0
1782779214,400175166,-1.2978532950030726,-0.32034093538393194,-2.2820027510272425,-4.759344283734457,-3.5633626619922083,1.1225395202636719,0.0,-0.0,0.0,0.0,0.0,0.0
1782779214,408168776,-1.297793213521139,-0.32034093538393194,-2.2819908300982874,-4.759344283734457,-3.5633867422686976,1.1225755214691162,0.0,-0.0,0.0,0.0,0.0,0.0
1782779214,416213775,-1.2978413740741175,-0.32032901445497686,-2.2820385138141077,-4.759356204663412,-3.5633748213397425,1.122611403465271,0.0,-0.0,0.0,0.0,0.0,0.0
1782779214,424168126,-1.2978652159320276,-0.320352856312887,-2.282050911580221,-4.759332243596212,-3.563410822545187,1.1225634813308716,0.0,-0.0,0.0,0.0,0.0,0.0
1782779214,432157865,-1.2978289763080042,-0.3204005400287073,-2.2819908300982874,-4.7593682448016565,-3.5633748213397425,1.1225395202636719,0.0,-0.0,0.0,0.0,0.0,0.0
1782779214,440161846,-1.2978413740741175,-0.32034093538393194,-2.2819789091693323,-4.759380165730612,-3.5633986631976526,1.1225275993347168,0.0,-0.0,0.0,0.0,0.0,0.0
1782779214,448276807,-1.2978289763080042,-0.32037669817079717,-2.2820265928851526,-4.7593682448016565,-3.5633986631976526,1.1225275993347168,0.0,-0.0,0.0,0.0,0.0,0.0
1782779214,456211547,-1.2978532950030726,-0.3203647772418421,-2.282050911580221,-4.7593682448016565,-3.5633748213397425,1.1225515604019165,0.0,-0.0,0.0,0.0,0.0,0.0
1782779214,464162879,-1.2978289763080042,-0.3203166166888636,-2.2820265928851526,-4.7594046036349695,-3.5633986631976526,1.1225515604019165,0.0,-0.0,0.0,0.0,0.0,0.0
1782779214,472179804,-1.2978175322162073,-0.320352856312887,-2.282074753438131,-4.759392563496725,-3.5633986631976526,1.1225155591964722,0.0,-0.0,0.0,0.0,0.0,0.0
1782779214,480280469,-1.2978289763080042,-0.32034093538393194,-2.2820146719561976,-4.759344283734457,-3.5633748213397425,1.1225395202636719,0.0,-0.0,0.0,0.0,0.0,0.0
1782779214,488163246,-1.2978413740741175,-0.32037669817079717,-2.2820385138141077,-4.759344283734457,-3.5633748213397425,1.1225275993347168,0.0,-0.0,0.0,0.0,0.0,0.0
1782779214,496190319,-1.2978175322162073,-0.32034093538393194,-2.2820146719561976,-4.759344283734457,-3.5633748213397425,1.1225395202636719,0.0,-0.0,0.0,0.0,0.0,0.0
1782779214,504162836,-1.297793213521139,-0.3203046957599085,-2.2820146719561976,-4.7593682448016565,-3.563410822545187,1.1225275993347168,0.0,-0.0,0.0,0.0,0.0,0.0
1782779214,512236557,-1.2978289763080042,-0.32037669817079717,-2.2820146719561976,-4.759344283734457,-3.5633986631976526,1.1225515604019165,0.0,-0.0,0.0,0.0,0.0,0.0
1782779214,520178445,-1.2978413740741175,-0.32032901445497686,-2.2820146719561976,-4.759380165730612,-3.5633748213397425,1.1225275993347168,0.0,-0.0,0.0,0.0,0.0,0.0
1782779214,528166684,-1.2978413740741175,-0.320352856312887,-2.2820265928851526,-4.759356204663412,-3.5633748213397425,1.1225755214691162,0.0,-0.0,0.0,0.0,0.0,0.0
1782779214,536274849,-1.2978289763080042,-0.32037669817079717,-2.2820027510272425,-4.7593682448016565,-3.5633867422686976,1.122599482536316,0.0,-0.0,0.0,0.0,0.0,0.0
1782779214,544210885,-1.2978413740741175,-0.3203647772418421,-2.2820027510272425,-4.759380165730612,-3.563410822545187,1.1225515604019165,0.0,-0.0,0.0,0.0,0.0,0.0
1782779214,552178106,-1.2978771368609827,-0.3203046957599085,-2.2819789091693323,-4.759380165730612,-3.5633748213397425,1.1225395202636719,0.0,-0.0,0.0,0.0,0.0,0.0
1782779214,560251716,-1.2978289763080042,-0.32034093538393194,-2.2819908300982874,-4.759332243596212,-3.563422743474142,1.1225155591964722,0.0,-0.0,0.0,0.0,0.0,0.0
1782779214,568168641,-1.2978289763080042,-0.320352856312887,-2.2820146719561976,-4.759380165730612,-3.5633626619922083,1.1225874423980713,0.0,-0.0,0.0,0.0,0.0,0.0
1782779214,576242566,-1.2978289763080042,-0.3203647772418421,-2.2820385138141077,-4.759356204663412,-3.563446585332052,1.1225515604019165,0.0,-0.0,0.0,0.0,0.0,0.0
1782779214,584166102,-1.297805134450094,-0.320352856312887,-2.2820027510272425,-4.759332243596212,-3.5633867422686976,1.1225515604019165,0.0,-0.0,0.0,0.0,0.0,0.0
1782779214,592156156,-1.2978771368609827,-0.3203647772418421,-2.2820027510272425,-4.759344283734457,-3.5633986631976526,1.122503638267517,0.0,-0.0,0.0,0.0,0.0,0.0
1782779214,600163988,-1.2978289763080042,-0.32038861909975225,-2.2819908300982874,-4.759380165730612,-3.5633986631976526,1.1225395202636719,0.0,-0.0,0.0,0.0,0.0,0.0
1782779214,608251061,-1.2978413740741175,-0.32037669817079717,-2.2820027510272425,-4.759392563496725,-3.5633986631976526,1.1225755214691162,0.0,-0.0,0.0,0.0,0.0,0.0
1782779214,616226189,-1.2978652159320276,-0.3204129377948206,-2.2819789091693323,-4.759380165730612,-3.563446585332052,1.1225155591964722,0.0,-0.0,0.0,0.0,0.0,0.0
1782779214,624163318,-1.2978289763080042,-0.3203647772418421,-2.2820027510272425,-4.759392563496725,-3.563434664403097,1.1225275993347168,0.0,-0.0,0.0,0.0,0.0,0.0
1782779214,632177594,-1.297805134450094,-0.32038861909975225,-2.282062832509176,-4.759392563496725,-3.5633986631976526,1.1225755214691162,0.0,-0.0,0.0,0.0,0.0,0.0
1782779214,640272149,-1.2978890577899378,-0.32038861909975225,-2.2819908300982874,-4.759356204663412,-3.5633986631976526,1.1225395202636719,0.0,-0.0,0.0,0.0,0.0,0.0
1782779214,648163259,-1.2978289763080042,-0.3203647772418421,-2.2820146719561976,-4.759356204663412,-3.5633867422686976,1.1225634813308716,0.0,-0.0,0.0,0.0,0.0,0.0
1782779214,656175220,-1.2978532950030726,-0.32034093538393194,-2.2819789091693323,-4.759344283734457,-3.5633507410632532,1.1225874423980713,0.0,-0.0,0.0,0.0,0.0,0.0
1782779214,664211849,-1.2978532950030726,-0.320352856312887,-2.2819789091693323,-4.759380165730612,-3.563422743474142,1.1225515604019165,0.0,-0.0,0.0,0.0,0.0,0.0
1782779214,672175718,-1.2978652159320276,-0.3203166166888636,-2.2820385138141077,-4.759392563496725,-3.5633748213397425,1.1225874423980713,0.0,-0.0,0.0,0.0,0.0,0.0
1782779214,680172161,-1.297805134450094,-0.32037669817079717,-2.2820027510272425,-4.759320322667257,-3.5633748213397425,1.1225395202636719,0.0,-0.0,0.0,0.0,0.0,0.0
1782779214,688166734,-1.2978532950030726,-0.32034093538393194,-2.2820265928851526,-4.759344283734457,-3.5633867422686976,1.1225515604019165,0.0,-0.0,0.0,0.0,0.0,0.0
1782779214,696200751,-1.2978652159320276,-0.32034093538393194,-2.2820265928851526,-4.759380165730612,-3.5633507410632532,1.1225755214691162,0.0,-0.0,0.0,0.0,0.0,0.0
1782779214,704246861,-1.2978175322162073,-0.32034093538393194,-2.2820146719561976,-4.759380165730612,-3.563434664403097,1.1225755214691162,0.0,-0.0,0.0,0.0,0.0,0.0
1782779214,712180749,-1.2978413740741175,-0.3203647772418421,-2.2820385138141077,-4.759392563496725,-3.563410822545187,1.1225275993347168,0.0,-0.0,0.0,0.0,0.0,0.0
1782779214,720172007,-1.2978289763080042,-0.32034093538393194,-2.2820146719561976,-4.759344283734457,-3.563410822545187,1.1225755214691162,0.0,-0.0,0.0,0.0,0.0,0.0
1782779214,728163117,-1.2978289763080042,-0.3204129377948206,-2.282062832509176,-4.759356204663412,-3.5633867422686976,1.1225515604019165,0.0,-0.0,0.0,0.0,0.0,0.0
1782779214,736189708,-1.297805134450094,-0.32037669817079717,-2.2820265928851526,-4.7593682448016565,-3.5633748213397425,1.1224915981292725,0.0,-0.0,0.0,0.0,0.0,0.0
1782779214,744178929,-1.2978413740741175,-0.3204129377948206,-2.2819789091693323,-4.759380165730612,-3.5634587446795862,1.1225275993347168,0.0,-0.0,0.0,0.0,0.0,0.0
1782779214,752159725,-1.2978413740741175,-0.32032901445497686,-2.2820146719561976,-4.759344283734457,-3.5633986631976526,1.1225755214691162,0.0,-0.0,0.0,0.0,0.0,0.0
1782779214,760167649,-1.2978413740741175,-0.320352856312887,-2.2819908300982874,-4.7593082825290125,-3.5633986631976526,1.1225275993347168,0.0,-0.0,0.0,0.0,0.0,0.0
1782779214,768244222,-1.2978413740741175,-0.3204005400287073,-2.2820146719561976,-4.759416524563925,-3.563434664403097,1.1225634813308716,0.0,-0.0,0.0,0.0,0.0,0.0
1782779214,776216332,-1.2978175322162073,-0.32038861909975225,-2.2819908300982874,-4.759344283734457,-3.5633867422686976,1.1225515604019165,0.0,-0.0,0.0,0.0,0.0,0.0
1782779214,784155035,-1.2978175322162073,-0.3203647772418421,-2.2820027510272425,-4.759392563496725,-3.563434664403097,1.1225874423980713,0.0,-0.0,0.0,0.0,0.0,0.0
1782779214,792164330,-1.297805134450094,-0.32032901445497686,-2.2819789091693323,-4.7594046036349695,-3.563434664403097,1.1225155591964722,0.0,-0.0,0.0,0.0,0.0,0.0
1782779214,800164847,-1.2978289763080042,-0.3204005400287073,-2.2820265928851526,-4.759332243596212,-3.5633626619922083,1.1225275993347168,0.0,-0.0,0.0,0.0,0.0,0.0
