LukePepin/On-Edge/data/deceleration_data_1782779158.csv
timestamp_sec,timestamp_nanosec,shoulder_pan_pos,shoulder_lift_pos,elbow_pos,wrist_1_pos,wrist_2_pos,wrist_3_pos,shoulder_pan_vel,shoulder_lift_vel,elbow_vel,wrist_1_vel,wrist_2_vel,wrist_3_vel
1782779158,390610564,-1.2978413740741175,-0.3203647772418421,-2.2819908300982874,-4.759344283734457,-3.5633748213397425,1.1225755214691162,0.0,-0.0,0.0,0.0,0.0,0.0
1782779158,398798879,-1.297805134450094,-0.3203166166888636,-2.2820146719561976,-4.7593682448016565,-3.5633748213397425,1.122611403465271,0.0,-0.0,0.0,0.0,0.0,0.0
1782779158,406604028,-1.2978413740741175,-0.32034093538393194,-2.2820146719561976,-4.759332243596212,-3.563410822545187,1.1225874423980713,0.0,-0.0,0.0,0.0,0.0,0.0
1782779158,414632343,-1.2978532950030726,-0.32034093538393194,-2.2820265928851526,-4.759356204663412,-3.563410822545187,1.122611403465271,0.0,-0.0,0.0,0.0,0.0,0.0
1782779158,422635788,-1.2978532950030726,-0.3203046957599085,-2.2820146719561976,-4.759392563496725,-3.563422743474142,1.122623085975647,0.0,-0.0,0.0,0.0,0.0,0.0
1782779158,430619418,-1.297805134450094,-0.32032901445497686,-2.2820146719561976,-4.759332243596212,-3.563422743474142,1.1225874423980713,0.0,-0.0,0.0,0.0,0.0,0.0
1782779158,438618419,-1.2978771368609827,-0.32034093538393194,-2.2820146719561976,-4.759344283734457,-3.5633507410632532,1.1225755214691162,0.0,-0.0,0.0,0.0,0.0,0.0
1782779158,446625326,-1.2978289763080042,-0.3202927748309534,-2.281955067311422,-4.759320322667257,-3.5633626619922083,1.1225634813308716,0.0,-0.0,0.0,0.0,0.0,0.0
1782779158,454767697,-1.2978652159320276,-0.3203166166888636,-2.2820385138141077,-4.759356204663412,-3.563422743474142,1.1225634813308716,0.0,-0.0,0.0,0.0,0.0,0.0
1782779158,462630476,-1.2977812925921839,-0.3203166166888636,-2.2820027510272425,-4.759392563496725,-3.5633986631976526,1.122623085975647,0.0,-0.0,0.0,0.0,0.0,0.0
1782779158,470614032,-1.2978532950030726,-0.320352856312887,-2.2820146719561976,-4.759320322667257,-3.5633986631976526,1.1225634813308716,0.0,-0.0,0.0,0.0,0.0,0.0
1782779158,478623736,-1.297805134450094,-0.3203166166888636,-2.2819789091693323,-4.759344283734457,-3.563410822545187,1.1225515604019165,0.0,-0.0,0.0,0.0,0.0,0.0
1782779158,486696254,-1.2978289763080042,-0.3203166166888636,-2.2820146719561976,-4.759392563496725,-3.563410822545187,1.1225755214691162,0.0,-0.0,0.0,0.0,0.0,0.0
1782779158,494635551,-1.2978175322162073,-0.32032901445497686,-2.2820265928851526,-4.7593682448016565,-3.5633748213397425,1.1225755214691162,0.0,-0.0,0.0,0.0,0.0,0.0
1782779158,502625348,-1.2978532950030726,-0.32032901445497686,-2.2819908300982874,-4.759344283734457,-3.5633986631976526,1.1225634813308716,0.0,-0.0,0.0,0.0,0.0,0.0
1782779158,510634145,-1.2978652159320276,-0.32032901445497686,-2.2820265928851526,-4.759332243596212,-3.5633507410632532,1.1225755214691162,0.0,-0.0,0.0,0.0,0.0,0.0
1782779158,518764071,-1.2978771368609827,-0.3203166166888636,-2.2819789091693323,-4.759320322667257,-3.5633867422686976,1.1225515604019165,0.0,-0.0,0.0,0.0,0.0,0.0
1782779158,526629535,-1.2978771368609827,-0.3203166166888636,-2.2820385138141077,-4.759380165730612,-3.5633867422686976,1.1225874423980713,0.0,-0.0,0.0,0.0,0.0,0.0
1782779158,534610165,-1.2978413740741175,-0.320352856312887,-2.2819908300982874,-4.759356204663412,-3.5633626619922083,1.1225275993347168,0.0,-0.0,0.0,0.0,0.0,0.0
1782779158,542769665,-1.2978289763080042,-0.3203166166888636,-2.2820265928851526,-4.759332243596212,-3.5633986631976526,1.1225874423980713,0.0,-0.0,0.0,0.0,0.0,0.0
1782779158,550759147,-1.2978289763080042,-0.3203166166888636,-2.2819789091693323,-4.759344283734457,-3.5633626619922083,1.1225874423980713,0.0,-0.0,0.0,0.0,0.0,0.0
1782779158,558624851,-1.2978413740741175,-0.3203046957599085,-2.2820146719561976,-4.759344283734457,-3.5633867422686976,1.122599482536316,0.0,-0.0,0.0,0.0,0.0,0.0
1782779158,566620981,-1.297793213521139,-0.320352856312887,-2.2819789091693323,-4.7594046036349695,-3.5633867422686976,1.1225395202636719,0.0,-0.0,0.0,0.0,0.0,0.0
1782779158,574634982,-1.2978413740741175,-0.32032901445497686,-2.2819669882403772,-4.759320322667257,-3.5633986631976526,1.1225755214691162,0.0,-0.0,0.0,0.0,0.0,0.0
1782779158,582636427,-1.2978652159320276,-0.3203166166888636,-2.2819908300982874,-4.7594046036349695,-3.5633748213397425,1.122599482536316,0.0,-0.0,0.0,0.0,0.0,0.0
1782779158,590717853,-1.2978771368609827,-0.3203647772418421,-2.2820027510272425,-4.759344283734457,-3.5633748213397425,1.1225515604019165,0.0,-0.0,0.0,0.0,0.0,0.0
1782779158,598624131,-1.297805134450094,-0.320352856312887,-2.2819908300982874,-4.759332243596212,-3.563410822545187,1.1225395202636719,0.0,-0.0,0.0,0.0,0.0,0.0
1782779158,606642446,-1.2978532950030726,-0.3203046957599085,-2.2819789091693323,-4.759344283734457,-3.5633748213397425,1.122599482536316,0.0,-0.0,0.0,0.0,0.0,0.0
1782779158,614655188,-1.2978175322162073,-0.3203046957599085,-2.281955067311422,-4.759344283734457,-3.5633986631976526,1.1225874423980713,0.0,-0.0,0.0,0.0,0.0,0.0
1782779158,622631207,-1.2978532950030726,-0.3203166166888636,-2.2819908300982874,-4.759356204663412,-3.563410822545187,1.1225634813308716,0.0,-0.0,0.0,0.0,0.0,0.0
1782779158,630610429,-1.2978289763080042,-0.3203046957599085,-2.2819908300982874,-4.7593082825290125,-3.5633748213397425,1.1225634813308716,0.0,-0.0,0.0,0.0,0.0,0.0
1782779158,638626800,-1.2978413740741175,-0.32032901445497686,-2.282050911580221,-4.7593682448016565,-3.563410822545187,1.1225755214691162,0.0,-0.0,0.0,0.0,0.0,0.0
1782779158,646757356,-1.2978532950030726,-0.3203647772418421,-2.2820146719561976,-4.759380165730612,-3.5633748213397425,1.122599482536316,0.0,-0.0,0.0,0.0,0.0,0.0
1782779158,654628912,-1.2978652159320276,-0.3203046957599085,-2.2820027510272425,-4.7593682448016565,-3.563410822545187,1.1225755214691162,0.0,-0.0,0.0,0.0,0.0,0.0
1782779158,662621394,-1.2978652159320276,-0.3203166166888636,-2.2819789091693323,-4.759380165730612,-3.563422743474142,1.1225515604019165,0.0,-0.0,0.0,0.0,0.0,0.0
1782779158,670619857,-1.2978532950030726,-0.32034093538393194,-2.2819908300982874,-4.7593682448016565,-3.5633507410632532,1.1225755214691162,0.0,-0.0,0.0,0.0,0.0,0.0
1782779158,678773894,-1.2978532950030726,-0.3203166166888636,-2.2819908300982874,-4.759296361600057,-3.5633986631976526,1.1225755214691162,0.0,-0.0,0.0,0.0,0.0,0.0
1782779158,686634136,-1.2978413740741175,-0.32034093538393194,-2.2820027510272425,-4.7593682448016565,-3.563410822545187,1.122599482536316,0.0,-0.0,0.0,0.0,0.0,0.0
1782779158,694612581,-1.2978413740741175,-0.3203166166888636,-2.2820027510272425,-4.759356204663412,-3.5633986631976526,1.1225755214691162,0.0,-0.0,0.0,0.0,0.0,0.0
1782779158,702627192,-1.297805134450094,-0.3203046957599085,-2.2820265928851526,-4.759320322667257,-3.5633748213397425,1.1225755214691162,0.0,-0.0,0.0,0.0,0.0,0.0
1782779158,710687026,-1.2978652159320276,-0.3203647772418421,-2.2820146719561976,-4.759344283734457,-3.5633626619922083,1.1225874423980713,0.0,-0.0,0.0,0.0,0.0,0.0
1782779158,718625008,-1.2978175322162073,-0.3203647772418421,-2.2820146719561976,-4.759332243596212,-3.5633867422686976,1.1225755214691162,0.0,-0.0,0.0,0.0,0.0,0.0
1782779158,726633027,-1.2978175322162073,-0.3203166166888636,-2.2820265928851526,-4.759392563496725,-3.5633626619922083,1.122611403465271,0.0,-0.0,0.0,0.0,0.0,0.0
1782779158,734623435,-1.297805134450094,-0.32034093538393194,-2.2819669882403772,-4.759344283734457,-3.563410822545187,1.1225275993347168,0.0,-0.0,0.0,0.0,0.0,0.0
1782779158,742623935,-1.2978771368609827,-0.3203166166888636,-2.2819789091693323,-4.7593682448016565,-3.5633507410632532,1.1225515604019165,0.0,-0.0,0.0,0.0,0.0,0.0
1782779158,750623584,-1.2978413740741175,-0.320352856312887,-2.2820027510272425,-4.7593082825290125,-3.563422743474142,1.122599482536316,0.0,-0.0,0.0,0.0,0.0,0.0
1782779158,758611196,-1.2978175322162073,-0.3203166166888636,-2.2819789091693323,-4.759332243596212,-3.5633867422686976,1.1225634813308716,0.0,-0.0,0.0,0.0,0.0,0.0
1782779158,766622659,-1.2978289763080042,-0.32028085390199834,-2.2820146719561976,-4.759356204663412,-3.5633867422686976,1.1225634813308716,0.0,-0.0,0.0,0.0,0.0,0.0
1782779158,774698048,-1.297793213521139,-0.320352856312887,-2.2819908300982874,-4.759320322667257,-3.5633986631976526,1.1225755214691162,0.0,-0.0,0.0,0.0,0.0,0.0
1782779158,782634493,-1.297805134450094,-0.32032901445497686,-2.281955067311422,-4.7594046036349695,-3.5633867422686976,1.1225874423980713,0.0,-0.0,0.0,0.0,0.0,0.0
1782779158,790615068,-1.2978532950030726,-0.32037669817079717,-2.2820385138141077,-4.759356204663412,-3.563434664403097,1.1225755214691162,0.0,-0.0,0.0,0.0,0.0,0.0
1782779158,798636920,-1.2978289763080042,-0.3203046957599085,-2.2819669882403772,-4.759356204663412,-3.563422743474142,1.122611403465271,0.0,-0.0,0.0,0.0,0.0,0.0
1782779158,806774383,-1.2977812925921839,-0.32037669817079717,-2.2820027510272425,-4.759392563496725,-3.563434664403097,1.1225515604019165,0.0,-0.0,0.0,0.0,0.0,0.0
1782779158,814628606,-1.2978289763080042,-0.320352856312887,-2.2820027510272425,-4.7593682448016565,-3.5633626619922083,1.122635006904602,0.0,-0.0,0.0,0.0,0.0,0.0
1782779158,822625866,-1.2978413740741175,-0.3202927748309534,-2.2819908300982874,-4.759356204663412,-3.563410822545187,1.1225874423980713,0.0,-0.0,0.0,0.0,0.0,0.0
1782779158,830616718,-1.2978532950030726,-0.32032901445497686,-2.2820385138141077,-4.759344283734457,-3.563410822545187,1.1225755214691162,0.0,-0.0,0.0,0.0,0.0,0.0
1782779158,838734385,-1.2978532950030726,-0.3203166166888636,-2.2820265928851526,-4.759344283734457,-3.563434664403097,1.1225755214691162,0.0,-0.0,0.0,0.0,0.0,0.0
1782779158,846640478,-1.297805134450094,-0.3202927748309534,-2.2819908300982874,-4.759344283734457,-3.5633748213397425,1.1225874423980713,0.0,-0.0,0.0,0.0,0.0,0.0
1782779158,854621071,-1.2978289763080042,-0.3203166166888636,-2.2819908300982874,-4.759320322667257,-3.5633507410632532,1.1225874423980713,0.0,-0.0,0.0,0.0,0.0,0.0
1782779158,862628627,-1.297805134450094,-0.32032901445497686,-2.2820027510272425,-4.759344283734457,-3.563422743474142,1.1225515604019165,0.0,-0.0,0.0,0.0,0.0,0.0
1782779158,870617424,-1.2978175322162073,-0.320352856312887,-2.2820385138141077,-4.759320322667257,-3.563410822545187,1.122599482536316,0.0,-0.0,0.0,0.0,0.0,0.0
1782779158,878616647,-1.297793213521139,-0.32034093538393194,-2.282050911580221,-4.759356204663412,-3.5633748213397425,1.1225755214691162,0.0,-0.0,0.0,0.0,0.0,0.0
1782779158,886624054,-1.2978532950030726,-0.320352856312887,-2.2820146719561976,-4.759392563496725,-3.5633748213397425,1.1225515604019165,0.0,-0.0,0.0,0.0,0.0,0.0
1782779158,894608407,-1.2978289763080042,-0.320352856312887,-2.2820146719561976,-4.759380165730612,-3.5633507410632532,1.1225634813308716,0.0,-0.0,0.0,0.0,0.0,0.0
1782779158,902624833,-1.297805134450094,-0.32034093538393194,-2.2820146719561976,-4.7593082825290125,-3.5633867422686976,1.122611403465271,0.0,-0.0,0.0,0.0,0.0,0.0
1782779158,910692167,-1.2978289763080042,-0.3203647772418421,-2.2820265928851526,-4.759380165730612,-3.563410822545187,1.1225755214691162,0.0,-0.0,0.0,0.0,0.0,0.0
1782779158,918628890,-1.2978652159320276,-0.3202927748309534,-2.282050911580221,-4.759344283734457,-3.5633507410632532,1.1225874423980713,0.0,-0.0,0.0,0.0,0.0,0.0
1782779158,926626483,-1.2978175322162073,-0.3203647772418421,-2.281955067311422,-4.759320322667257,-3.5633986631976526,1.1225395202636719,0.0,-0.0,0.0,0.0,0.0,0.0
1782779158,934625446,-1.297805134450094,-0.32032901445497686,-2.2820385138141077,-4.759392563496725,-3.563410822545187,1.122599482536316,0.0,-0.0,0.0,0.0,0.0,0.0
1782779158,942706557,-1.2978289763080042,-0.3203647772418421,-2.2819789091693323,-4.759344283734457,-3.5633626619922083,1.1225515604019165,0.0,-0.0,0.0,0.0,0.0,0.0
1782779158,950621428,-1.2978413740741175,-0.3203046957599085,-2.281955067311422,-4.7593082825290125,-3.5633867422686976,1.1225515604019165,0.0,-0.0,0.0,0.0,0.0,0.0
1782779158,958626799,-1.2978532950030726,-0.320352856312887,-2.2820146719561976,-4.759344283734457,-3.5633626619922083,1.1225755214691162,0.0,-0.0,0.0,0.0,0.0,0.0
1782779158,966618596,-1.2978413740741175,-0.32034093538393194,-2.2819789091693323,-4.759332243596212,-3.563422743474142,1.1225515604019165,0.0,-0.0,0.0,0.0,0.0,0.0
1782779158,974632244,-1.2978413740741175,-0.32034093538393194,-2.2819908300982874,-4.7593682448016565,-3.5633748213397425,1.122635006904602,0.0,-0.0,0.0,0.0,0.0,0.0
1782779158,982628875,-1.2978175322162073,-0.3203166166888636,-2.2820146719561976,-4.759380165730612,-3.5633867422686976,1.1225874423980713,0.0,-0.0,0.0,0.0,0.0,0.0
1782779158,990609005,-1.2978289763080042,-0.32032901445497686,-2.2820385138141077,-4.759332243596212,-3.5633867422686976,1.122611403465271,0.0,-0.0,0.0,0.0,0.0,0.0
1782779158,998634487,-1.2978771368609827,-0.320352856312887,-2.2819908300982874,-4.759392563496725,-3.5633626619922083,1.1225395202636719,0.0,-0.0,0.0,0.0,0.0,0.0
1782779159,6784931,-1.2978413740741175,-0.3203046957599085,-2.2819908300982874,-4.759356204663412,-3.5633867422686976,1.1225755214691162,0.0,-0.0,0.0,0.0,0.0,0.0
1782779159,14630598,-1.2978413740741175,-0.32028085390199834,-2.2820265928851526,-4.7593682448016565,-3.563410822545187,1.122611403465271,0.0,-0.0,0.0,0.0,0.0,0.0
1782779159,22618080,-1.2978175322162073,-0.32032901445497686,-2.2819789091693323,-4.759344283734457,-3.5633986631976526,1.1225755214691162,0.0,-0.0,0.0,0.0,0.0,0.0
1782779159,30633840,-1.2978532950030726,-0.32032901445497686,-2.2820027510272425,-4.759392563496725,-3.5633748213397425,1.1225755214691162,0.0,-0.0,0.0,0.0,0.0,0.0
1782779159,38762692,-1.297805134450094,-0.32034093538393194,-2.2819908300982874,-4.759332243596212,-3.5633986631976526,1.1225755214691162,0.0,-0.0,0.0,0.0,0.0,0.0
1782779159,46621452,-1.2978175322162073,-0.3203166166888636,-2.281942669545309,-4.759380165730612,-3.5633986631976526,1.1225874423980713,0.0,-0.0,0.0,0.0,0.0,0.0
1782779159,54629489,-1.2978532950030726,-0.3203166166888636,-2.2819908300982874,-4.759320322667257,-3.563422743474142,1.1225395202636719,0.0,-0.0,0.0,0.0,0.0,0.0
1782779159,62633379,-1.2978413740741175,-0.3203046957599085,-2.2819669882403772,-4.7593682448016565,-3.5633748213397425,1.1225755214691162,0.0,-0.0,0.0,0.0,0.0,0.0
1782779159,70621657,-1.2978413740741175,-0.32034093538393194,-2.2820265928851526,-4.759356204663412,-3.563434664403097,1.1225515604019165,0.0,-0.0,0.0,0.0,0.0,0.0
1782779159,78635065,-1.2978652159320276,-0.3202927748309534,-2.2820146719561976,-4.759332243596212,-3.5633507410632532,1.1225634813308716,0.0,-0.0,0.0,0.0,0.0,0.0
1782779159,86616602,-1.297805134450094,-0.3203166166888636,-2.2820027510272425,-4.759332243596212,-3.563410822545187,1.1225874423980713,0.0,-0.0,0.0,0.0,0.0,0.0
1782779159,94717028,-1.2978413740741175,-0.3203166166888636,-2.2820146719561976,-4.759344283734457,-3.563410822545187,1.1225634813308716,0.0,-0.0,0.0,0.0,0.0,0.0
1782779159,102654936,-1.2978289763080042,-0.32032901445497686,-2.2820027510272425,-4.759344283734457,-3.5633626619922083,1.1225874423980713,0.0,-0.0,0.0,0.0,0.0,0.0
1782779159,110619715,-1.2978532950030726,-0.320352856312887,-2.2820146719561976,-4.759284321461813,-3.5633626619922083,1.1225755214691162,0.0,-0.0,0.0,0.0,0.0,0.0
1782779159,118626974,-1.2977812925921839,-0.32034093538393194,-2.282050911580221,-4.759332243596212,-3.5633867422686976,1.1225275993347168,0.0,-0.0,0.0,0.0,0.0,0.0
1782779159,126625160,-1.2978289763080042,-0.3203647772418421,-2.2819908300982874,-4.759332243596212,-3.5633867422686976,1.1225755214691162,0.0,-0.0,0.0,0.0,0.0,0.0
1782779159,134618475,-1.2978289763080042,-0.3203166166888636,-2.2819908300982874,-4.759380165730612,-3.5633867422686976,1.1225395202636719,0.0,-0.0,0.0,0.0,0.0,0.0
1782779159,142630383,-1.2978652159320276,-0.32032901445497686,-2.2820265928851526,-4.759332243596212,-3.563422743474142,1.122599482536316,0.0,-0.0,0.0,0.0,0.0,0.0
1782779159,150614383,-1.2978289763080042,-0.3202927748309534,-2.2820146719561976,-4.7593682448016565,-3.5633748213397425,1.1225874423980713,0.0,-0.0,0.0,0.0,0.0,0.0
1782779159,158626921,-1.2978175322162073,-0.32032901445497686,-2.2819789091693323,-4.759392563496725,-3.5633748213397425,1.1225515604019165,0.0,-0.0,0.0,0.0,0.0,0.0
1782779159,166764013,-1.2978289763080042,-0.3203647772418421,-2.2819669882403772,-4.759344283734457,-3.5633507410632532,1.1225755214691162,0.0,-0.0,0.0,0.0,0.0,0.0
1782779159,174629440,-1.2978652159320276,-0.32032901445497686,-2.2820027510272425,-4.759332243596212,-3.563422743474142,1.122611403465271,0.0,-0.0,0.0,0.0,0.0,0.0
1782779159,182614626,-1.2978890577899378,-0.32034093538393194,-2.2819789091693323,-4.7593082825290125,-3.563422743474142,1.1225755214691162,0.0,-0.0,0.0,0.0,0.0,0.0
1782779159,190622348,-1.2978289763080042,-0.3203046957599085,-2.2820146719561976,-4.7593682448016565,-3.5633507410632532,1.1225755214691162,0.0,-0.0,0.0,0.0,0.0,0.0
1782779159,198694886,-1.2978413740741175,-0.3203166166888636,-2.2819669882403772,-4.759392563496725,-3.5633507410632532,1.1225515604019165,0.0,-0.0,0.0,0.0,0.0,0.0
1782779159,206625016,-1.297793213521139,-0.3202927748309534,-2.2820027510272425,-4.759344283734457,-3.563434664403097,1.122599482536316,0.0,-0.0,0.0,0.0,0.0,0.0
1782779159,214609775,-1.2978289763080042,-0.320352856312887,-2.2820265928851526,-4.759344283734457,-3.5633986631976526,1.1225755214691162,0.0,-0.0,0.0,0.0,0.0,0.0
1782779159,222623831,-1.2978532950030726,-0.3202927748309534,-2.2820027510272425,-4.759344283734457,-3.5633986631976526,1.1225515604019165,0.0,-0.0,0.0,0.0,0.0,0.0
1782779159,230705387,-1.297805134450094,-0.32034093538393194,-2.2820027510272425,-4.7593682448016565,-3.563410822545187,1.1225634813308716,0.0,-0.0,0.0,0.0,0.0,0.0
1782779159,238623166,-1.2978771368609827,-0.32034093538393194,-2.2819908300982874,-4.759380165730612,-3.563422743474142,1.1225515604019165,0.0,-0.0,0.0,0.0,0.0,0.0
1782779159,246623833,-1.2978175322162073,-0.32032901445497686,-2.2820027510272425,-4.759380165730612,-3.5633867422686976,1.122503638267517,0.0,-0.0,0.0,0.0,0.0,0.0
1782779159,254621129,-1.297805134450094,-0.32034093538393194,-2.2819908300982874,-4.759356204663412,-3.5633867422686976,1.1225755214691162,0.0,-0.0,0.0,0.0,0.0,0.0
1782779159,262738963,-1.297793213521139,-0.320352856312887,-2.2819669882403772,-4.759392563496725,-3.5633626619922083,1.1225515604019165,0.0,-0.0,0.0,0.0,0.0,0.0
1782779159,270637963,-1.2978413740741175,-0.32032901445497686,-2.2819789091693323,-4.759356204663412,-3.5633626619922083,1.1225874423980713,0.0,-0.0,0.0,0.0,0.0,0.0
1782779159,278624649,-1.2978413740741175,-0.3203647772418421,-2.2819789091693323,-4.759332243596212,-3.563410822545187,1.1225755214691162,0.0,-0.0,0.0,0.0,0.0,0.0
1782779159,286609557,-1.2978413740741175,-0.32032901445497686,-2.2819789091693323,-4.759332243596212,-3.563410822545187,1.122599482536316,0.0,-0.0,0.0,0.0,0.0,0.0
1782779159,294618650,-1.297805134450094,-0.3203166166888636,-2.2820146719561976,-4.759284321461813,-3.5633748213397425,1.1225755214691162,0.0,-0.0,0.0,0.0,0.0,0.0
1782779159,302630724,-1.2978652159320276,-0.32034093538393194,-2.2820385138141077,-4.7593682448016565,-3.563410822545187,1.1225755214691162,0.0,-0.0,0.0,0.0,0.0,0.0
1782779159,310618595,-1.297805134450094,-0.3203647772418421,-2.281955067311422,-4.7593682448016565,-3.5633867422686976,1.1225395202636719,0.0,-0.0,0.0,0.0,0.0,0.0
1782779159,318608373,-1.297805134450094,-0.3203166166888636,-2.2820027510272425,-4.759344283734457,-3.563434664403097,1.1225515604019165,0.0,-0.0,0.0,0.0,0.0,0.0
1782779159,326608466,-1.2978532950030726,-0.3203166166888636,-2.2820265928851526,-4.759356204663412,-3.5633867422686976,1.1225874423980713,0.0,-0.0,0.0,0.0,0.0,0.0
1782779159,334720818,-1.2978289763080042,-0.3202927748309534,-2.2819908300982874,-4.7593682448016565,-3.563422743474142,1.1225634813308716,0.0,-0.0,0.0,0.0,0.0,0.0
1782779159,342628282,-1.2978413740741175,-0.3202927748309534,-2.2820146719561976,-4.7593682448016565,-3.563422743474142,1.1225755214691162,0.0,-0.0,0.0,0.0,0.0,0.0
1782779159,350615560,-1.2978413740741175,-0.3203166166888636,-2.2820027510272425,-4.759356204663412,-3.563446585332052,1.1225755214691162,0.0,-0.0,0.0,0.0,0.0,0.0
1782779159,358614616,-1.2978413740741175,-0.3202927748309534,-2.2820027510272425,-4.759380165730612,-3.563410822545187,1.1225634813308716,0.0,-0.0,0.0,0.0,0.0,0.0
1782779159,366614320,-1.2978413740741175,-0.3202927748309534,-2.2820146719561976,-4.7593682448016565,-3.5633867422686976,1.122599482536316,0.0,-0.0,0.0,0.0,0.0,0.0
1782779159,374622210,-1.2978413740741175,-0.32034093538393194,-2.2820146719561976,-4.759344283734457,-3.563410822545187,1.1225874423980713,0.0,-0.0,0.0,0.0,0.0,0.0
1782779159,382619340,-1.2978289763080042,-0.3203046957599085,-2.2820146719561976,-4.759392563496725,-3.563422743474142,1.1225275993347168,0.0,-0.0,0.0,0.0,0.0,0.0
1782779159,390616933,-1.2978413740741175,-0.3203046957599085,-2.2820146719561976,-4.759284321461813,-3.5633867422686976,1.1226470470428467,0.0,-0.0,0.0,0.0,0.0,0.0
1782779159,398619655,-1.297805134450094,-0.3203166166888636,-2.2819908300982874,-4.759332243596212,-3.5633748213397425,1.1225395202636719,0.0,-0.0,0.0,0.0,0.0,0.0
1782779159,406634322,-1.2978289763080042,-0.32028085390199834,-2.2820385138141077,-4.759344283734457,-3.563434664403097,1.122599482536316,0.0,-0.0,0.0,0.0,0.0,0.0
1782779159,414627841,-1.2978413740741175,-0.3203046957599085,-2.2820265928851526,-4.759296361600057,-3.5633986631976526,1.122599482536316,0.0,-0.0,0.0,0.0,0.0,0.0
1782779159,422612768,-1.297805134450094,-0.3203046957599085,-2.2820146719561976,-4.759416524563925,-3.5633748213397425,1.1225515604019165,0.0,-0.0,0.0,0.0,0.0,0.0
1782779159,430641212,-1.2978289763080042,-0.32032901445497686,-2.2820027510272425,-4.759344283734457,-3.5633867422686976,1.122635006904602,0.0,-0.0,0.0,0.0,0.0,0.0
1782779159,438718435,-1.2978289763080042,-0.32032901445497686,-2.2819669882403772,-4.759344283734457,-3.5633748213397425,1.122599482536316,0.0,-0.0,0.0,0.0,0.0,0.0
1782779159,446623009,-1.2978289763080042,-0.32032901445497686,-2.281955067311422,-4.759356204663412,-3.563422743474142,1.1225275993347168,0.0,-0.0,0.0,0.0,0.0,0.0
1782779159,454610380,-1.297805134450094,-0.32034093538393194,-2.2819908300982874,-4.759356204663412,-3.563422743474142,1.1225634813308716,0.0,-0.0,0.0,0.0,0.0,0.0
1782779159,462622158,-1.2978413740741175,-0.32034093538393194,-2.2819789091693323,-4.7593682448016565,-3.563422743474142,1.122599482536316,0.0,-0.0,0.0,0.0,0.0,0.0
1782779159,470628863,-1.2978175322162073,-0.320352856312887,-2.2820146719561976,-4.759356204663412,-3.5633626619922083,1.1225755214691162,0.0,-0.0,0.0,0.0,0.0,0.0
1782779159,478627585,-1.297805134450094,-0.32028085390199834,-2.281955067311422,-4.759392563496725,-3.5633986631976526,1.1225155591964722,0.0,-0.0,0.0,0.0,0.0,0.0
1782779159,486611993,-1.2978175322162073,-0.3203046957599085,-2.2820027510272425,-4.759284321461813,-3.563410822545187,1.122623085975647,0.0,-0.0,0.0,0.0,0.0,0.0
1782779159,494622290,-1.2978175322162073,-0.32034093538393194,-2.2819789091693323,-4.759356204663412,-3.563410822545187,1.122599482536316,0.0,-0.0,0.0,0.0,0.0,0.0
1782779159,502628901,-1.2978652159320276,-0.32037669817079717,-2.2820265928851526,-4.759344283734457,-3.5633748213397425,1.122611403465271,0.0,-0.0,0.0,0.0,0.0,0.0
1782779159,510733309,-1.2978289763080042,-0.3203647772418421,-2.2820027510272425,-4.759356204663412,-3.563446585332052,1.122611403465271,0.0,-0.0,0.0,0.0,0.0,0.0
1782779159,518632328,-1.2978175322162073,-0.3203166166888636,-2.2820265928851526,-4.759320322667257,-3.563410822545187,1.1225515604019165,0.0,-0.0,0.0,0.0,0.0,0.0
1782779159,526636643,-1.297805134450094,-0.32032901445497686,-2.2820027510272425,-4.759344283734457,-3.563422743474142,1.1225755214691162,0.0,-0.0,0.0,0.0,0.0,0.0
1782779159,534625329,-1.2978652159320276,-0.3203046957599085,-2.2820027510272425,-4.759344283734457,-3.5633626619922083,1.122599482536316,0.0,-0.0,0.0,0.0,0.0,0.0
1782779159,542632126,-1.2978532950030726,-0.3203046957599085,-2.2819789091693323,-4.759380165730612,-3.5633986631976526,1.122599482536316,0.0,-0.0,0.0,0.0,0.0,0.0
1782779159,550628181,-1.2978175322162073,-0.32032901445497686,-2.2819789091693323,-4.759392563496725,-3.5633986631976526,1.1225395202636719,0.0,-0.0,0.0,0.0,0.0,0.0
1782779159,558619052,-1.2978771368609827,-0.3202927748309534,-2.2820027510272425,-4.759320322667257,-3.5633986631976526,1.1225634813308716,0.0,-0.0,0.0,0.0,0.0,0.0
1782779159,566640460,-1.2978175322162073,-0.32037669817079717,-2.2819789091693323,-4.759356204663412,-3.563410822545187,1.1225515604019165,0.0,-0.0,0.0,0.0,0.0,0.0
1782779159,574615164,-1.2978652159320276,-0.32032901445497686,-2.2819908300982874,-4.7593682448016565,-3.5633748213397425,1.1225874423980713,0.0,-0.0,0.0,0.0,0.0,0.0
1782779159,582621146,-1.2978289763080042,-0.32028085390199834,-2.2820146719561976,-4.759344283734457,-3.563410822545187,1.122611403465271,0.0,-0.0,0.0,0.0,0.0,0.0
1782779159,590638758,-1.2978175322162073,-0.3202927748309534,-2.2819908300982874,-4.759320322667257,-3.563410822545187,1.1225755214691162,0.0,-0.0,0.0,0.0,0.0,0.0
1782779159,598753239,-1.2978413740741175,-0.320352856312887,-2.2819789091693323,-4.759344283734457,-3.5633748213397425,1.122599482536316,0.0,-0.0,0.0,0.0,0.0,0.0
1782779159,606628073,-1.297793213521139,-0.3203166166888636,-2.2819908300982874,-4.759320322667257,-3.5633986631976526,1.1226470470428467,0.0,-0.0,0.0,0.0,0.0,0.0
1782779159,614610277,-1.2978413740741175,-0.3203046957599085,-2.2820385138141077,-4.759356204663412,-3.563410822545187,1.1225874423980713,0.0,-0.0,0.0,0.0,0.0,0.0
1782779159,622625019,-1.2978413740741175,-0.32034093538393194,-2.2820146719561976,-4.759344283734457,-3.5633626619922083,1.1225275993347168,0.0,-0.0,0.0,0.0,0.0,0.0
1782779159,630705574,-1.2978289763080042,-0.32034093538393194,-2.2820027510272425,-4.759380165730612,-3.5633986631976526,1.1225755214691162,0.0,-0.0,0.0,0.0,0.0,0.0
1782779159,638619964,-1.2978413740741175,-0.3203166166888636,-2.2819908300982874,-4.759380165730612,-3.563422743474142,1.1225874423980713,0.0,-0.0,0.0,0.0,0.0,0.0
1782779159,646629612,-1.2978652159320276,-0.3203647772418421,-2.2819669882403772,-4.759356204663412,-3.563410822545187,1.1225755214691162,0.0,-0.0,0.0,0.0,0.0,0.0
1782779159,654625020,-1.2978413740741175,-0.32026893297304326,-2.2819908300982874,-4.759380165730612,-3.563410822545187,1.1225275993347168,0.0,-0.0,0.0,0.0,0.0,0.0
1782779159,662626946,-1.2978771368609827,-0.3202927748309534,-2.2819669882403772,-4.759356204663412,-3.5633626619922083,1.122611403465271,0.0,-0.0,0.0,0.0,0.0,0.0
1782779159,670717373,-1.297805134450094,-0.32032901445497686,-2.2820027510272425,-4.759356204663412,-3.5633507410632532,1.122623085975647,0.0,-0.0,0.0,0.0,0.0,0.0
1782779159,678625558,-1.2978413740741175,-0.3203647772418421,-2.2820265928851526,-4.759344283734457,-3.563410822545187,1.122611403465271,0.0,-0.0,0.0,0.0,0.0,0.0
1782779159,686628670,-1.297805134450094,-0.3203647772418421,-2.2819908300982874,-4.759320322667257,-3.5633507410632532,1.1225874423980713,0.0,-0.0,0.0,0.0,0.0,0.0
1782779159,694628281,-1.2978413740741175,-0.320352856312887,-2.2820027510272425,-4.759356204663412,-3.5633748213397425,1.1225874423980713,0.0,-0.0,0.0,0.0,0.0,0.0
1782779159,702633041,-1.297805134450094,-0.32037669817079717,-2.2820146719561976,-4.759344283734457,-3.563422743474142,1.1225755214691162,0.0,-0.0,0.0,0.0,0.0,0.0
1782779159,710616634,-1.2978413740741175,-0.320352856312887,-2.2820027510272425,-4.759380165730612,-3.5633748213397425,1.1225515604019165,0.0,-0.0,0.0,0.0,0.0,0.0
1782779159,718648023,-1.297901455556051,-0.3202927748309534,-2.2820027510272425,-4.759356204663412,-3.563338820134298,1.1225395202636719,0.0,-0.0,0.0,0.0,0.0,0.0
1782779159,726706301,-1.2978289763080042,-0.320352856312887,-2.2820027510272425,-4.759344283734457,-3.5633748213397425,1.1225755214691162,0.0,-0.0,0.0,0.0,0.0,0.0
1782779159,734630172,-1.2978289763080042,-0.3203046957599085,-2.2820265928851526,-4.759332243596212,-3.563410822545187,1.1225515604019165,0.0,-0.0,0.0,0.0,0.0,0.0
1782779159,742616062,-1.2978289763080042,-0.32028085390199834,-2.2820027510272425,-4.759392563496725,-3.5633626619922083,1.1225395202636719,0.0,-0.0,0.0,0.0,0.0,0.0
1782779159,750638840,-1.2978289763080042,-0.3203046957599085,-2.2819908300982874,-4.759344283734457,-3.5633748213397425,1.1225874423980713,0.0,-0.0,0.0,0.0,0.0,0.0
1782779159,758934340,-1.2978652159320276,-0.3203166166888636,-2.2820146719561976,-4.7593682448016565,-3.563446585332052,1.1225874423980713,0.0,-0.0,0.0,0.0,0.0,0.0
1782779159,766630174,-1.2978289763080042,-0.32032901445497686,-2.2820146719561976,-4.759392563496725,-3.563410822545187,1.122611403465271,0.0,-0.0,0.0,0.0,0.0,0.0
1782779159,774612471,-1.2978652159320276,-0.3202927748309534,-2.281955067311422,-4.759332243596212,-3.5633507410632532,1.1225515604019165,0.0,-0.0,0.0,0.0,0.0,0.0
1782779159,782623693,-1.2978289763080042,-0.32034093538393194,-2.2819789091693323,-4.759356204663412,-3.563410822545187,1.1225874423980713,0.0,-0.0,0.0,0.0,0.0,0.0
1782779159,790637990,-1.2977812925921839,-0.32032901445497686,-2.2820385138141077,-4.7593682448016565,-3.563422743474142,1.1225515604019165,0.0,-0.0,0.0,0.0,0.0,0.0
1782779159,798625935,-1.2978413740741175,-0.3203166166888636,-2.2820146719561976,-4.759356204663412,-3.5633986631976526,1.1225755214691162,0.0,-0.0,0.0,0.0,0.0,0.0
1782779159,806615917,-1.2977812925921839,-0.3202927748309534,-2.2819789091693323,-4.759332243596212,-3.563434664403097,1.1225395202636719,0.0,-0.0,0.0,0.0,0.0,0.0
1782779159,814789713,-1.297793213521139,-0.3202927748309534,-2.2820027510272425,-4.759332243596212,-3.5633986631976526,1.1225755214691162,0.0,-0.0,0.0,0.0,0.0,0.0
1782779159,822798177,-1.2978413740741175,-0.3203046957599085,-2.2820027510272425,-4.759356204663412,-3.5633626619922083,1.1225634813308716,0.0,-0.0,0.0,0.0,0.0,0.0
1782779159,830636585,-1.2978413740741175,-0.32032901445497686,-2.2819789091693323,-4.7594046036349695,-3.5633986631976526,1.1225515604019165,0.0,-0.0,0.0,0.0,0.0,0.0
1782779159,838607344,-1.2978289763080042,-0.3203046957599085,-2.2820027510272425,-4.7593682448016565,-3.5633986631976526,1.1225395202636719,0.0,-0.0,0.0,0.0,0.0,0.0
1782779159,846626252,-1.2977812925921839,-0.3203046957599085,-2.2819789091693323,-4.759332243596212,-3.5633867422686976,1.1225395202636719,0.0,-0.0,0.0,0.0,0.0,0.0
1782779159,854766197,-1.2978175322162073,-0.32032901445497686,-2.282062832509176,-4.759356204663412,-3.5633626619922083,1.1225395202636719,0.0,-0.0,0.0,0.0,0.0,0.0
1782779159,862626901,-1.2978289763080042,-0.3203046957599085,-2.2820027510272425,-4.759356204663412,-3.5633507410632532,1.1225874423980713,0.0,-0.0,0.0,0.0,0.0,0.0
1782779159,870619328,-1.2978175322162073,-0.3203166166888636,-2.282050911580221,-4.759356204663412,-3.563410822545187,1.122599482536316,0.0,-0.0,0.0,0.0,0.0,0.0
1782779159,878600291,-1.2978289763080042,-0.32034093538393194,-2.2820027510272425,-4.759356204663412,-3.563410822545187,1.1225874423980713,0.0,-0.0,0.0,0.0,0.0,0.0
1782779159,886654162,-1.297805134450094,-0.3203647772418421,-2.2819669882403772,-4.759344283734457,-3.563434664403097,1.1225755214691162,0.0,-0.0,0.0,0.0,0.0,0.0
1782779159,894734088,-1.297805134450094,-0.3203046957599085,-2.2819789091693323,-4.7593682448016565,-3.563410822545187,1.1225874423980713,0.0,-0.0,0.0,0.0,0.0,0.0
1782779159,902630792,-1.297793213521139,-0.32032901445497686,-2.2819789091693323,-4.759320322667257,-3.563446585332052,1.1225874423980713,0.0,-0.0,0.0,0.0,0.0,0.0
1782779159,910627070,-1.2978413740741175,-0.3203166166888636,-2.2820146719561976,-4.759356204663412,-3.563422743474142,1.1225515604019165,0.0,-0.0,0.0,0.0,0.0,0.0
1782779159,918656923,-1.2978413740741175,-0.32034093538393194,-2.2820027510272425,-4.759332243596212,-3.5633507410632532,1.1225515604019165,0.0,-0.0,0.0,0.0,0.0,0.0
1782779159,926633053,-1.2978175322162073,-0.3202927748309534,-2.2820027510272425,-4.759320322667257,-3.563410822545187,1.1225755214691162,0.0,-0.0,0.0,0.0,0.0,0.0
1782779159,934631386,-1.2978289763080042,-0.320352856312887,-2.2819908300982874,-4.7594046036349695,-3.5633748213397425,1.122599482536316,0.0,-0.0,0.0,0.0,0.0,0.0
1782779159,942622053,-1.2978413740741175,-0.320352856312887,-2.2820027510272425,-4.759356204663412,-3.5633986631976526,1.122611403465271,0.0,-0.0,0.0,0.0,0.0,0.0
1782779159,950709424,-1.2978413740741175,-0.32032901445497686,-2.281955067311422,-4.7593682448016565,-3.5633986631976526,1.1225275993347168,0.0,-0.0,0.0,0.0,0.0,0.0
1782779159,958631795,-1.2978175322162073,-0.32034093538393194,-2.2819908300982874,-4.759332243596212,-3.563434664403097,1.1225395202636719,0.0,-0.0,0.0,0.0,0.0,0.0
1782779159,966620999,-1.2978532950030726,-0.32026893297304326,-2.2819908300982874,-4.759332243596212,-3.5633748213397425,1.1225755214691162,0.0,-0.0,0.0,0.0,0.0,0.0
1782779159,974634537,-1.2978175322162073,-0.320352856312887,-2.2820146719561976,-4.759332243596212,-3.5633986631976526,1.1225515604019165,0.0,-0.0,0.0,0.0,0.0,0.0
1782779159,982638000,-1.2978532950030726,-0.3203166166888636,-2.2820027510272425,-4.7593682448016565,-3.563410822545187,1.1225395202636719,0.0,-0.0,0.0,0.0,0.0,0.0
1782779159,990633223,-1.2977693716632288,-0.320352856312887,-2.2819908300982874,-4.759344283734457,-3.5633507410632532,1.122599482536316,0.0,-0.0,0.0,0.0,0.0,0.0
1782779159,998635741,-1.2978289763080042,-0.32028085390199834,-2.2819669882403772,-4.759344283734457,-3.5633748213397425,1.1225755214691162,0.0,-0.0,0.0,0.0,0.0,0.0
1782779160,6615409,-1.2978413740741175,-0.3203046957599085,-2.2819789091693323,-4.759356204663412,-3.563410822545187,1.122599482536316,0.0,-0.0,0.0,0.0,0.0,0.0
1782779160,14743779,-1.2978652159320276,-0.3203647772418421,-2.2819908300982874,-4.759356204663412,-3.5633986631976526,1.1225395202636719,0.0,-0.0,0.0,0.0,0.0,0.0
1782779160,22618002,-1.2978413740741175,-0.320352856312887,-2.2820027510272425,-4.759356204663412,-3.5633867422686976,1.1225755214691162,0.0,-0.0,0.0,0.0,0.0,0.0
1782779160,30622150,-1.2978771368609827,-0.320352856312887,-2.2820265928851526,-4.759356204663412,-3.5633867422686976,1.1225515604019165,0.0,-0.0,0.0,0.0,0.0,0.0
1782779160,38628484,-1.2978413740741175,-0.32032901445497686,-2.2820385138141077,-4.759344283734457,-3.5633626619922083,1.1225395202636719,0.0,-0.0,0.0,0.0,0.0,0.0
1782779160,46638633,-1.2978289763080042,-0.3203166166888636,-2.2820385138141077,-4.759380165730612,-3.5633867422686976,1.1225755214691162,0.0,-0.0,0.0,0.0,0.0,0.0
1782779160,54618781,-1.297805134450094,-0.3203647772418421,-2.2820146719561976,-4.759356204663412,-3.563422743474142,1.1225755214691162,0.0,-0.0,0.0,0.0,0.0,0.0
1782779160,62618115,-1.2978413740741175,-0.32034093538393194,-2.2819669882403772,-4.759356204663412,-3.563338820134298,1.1225515604019165,0.0,-0.0,0.0,0.0,0.0,0.0
1782779160,70604319,-1.2977812925921839,-0.3202927748309534,-2.2819908300982874,-4.7593682448016565,-3.5633748213397425,1.1225874423980713,0.0,-0.0,0.0,0.0,0.0,0.0
1782779160,78644616,-1.2978289763080042,-0.3203647772418421,-2.2819908300982874,-4.759380165730612,-3.563410822545187,1.122599482536316,0.0,-0.0,0.0,0.0,0.0,0.0
1782779160,86627783,-1.2978413740741175,-0.32037669817079717,-2.2820385138141077,-4.7593082825290125,-3.563410822545187,1.1225874423980713,0.0,-0.0,0.0,0.0,0.0,0.0
1782779160,94643709,-1.2978652159320276,-0.3203647772418421,-2.2819669882403772,-4.759344283734457,-3.5633507410632532,1.122611403465271,0.0,-0.0,0.0,0.0,0.0,0.0
1782779160,102761005,-1.2978652159320276,-0.32037669817079717,-2.2819908300982874,-4.7593682448016565,-3.5633748213397425,1.1225755214691162,0.0,-0.0,0.0,0.0,0.0,0.0
1782779160,110630210,-1.2978175322162073,-0.3203046957599085,-2.2820265928851526,-4.759320322667257,-3.563422743474142,1.1225515604019165,0.0,-0.0,0.0,0.0,0.0,0.0
1782779160,118615784,-1.2978413740741175,-0.32034093538393194,-2.2819669882403772,-4.759284321461813,-3.563422743474142,1.1225755214691162,0.0,-0.0,0.0,0.0,0.0,0.0
1782779160,126639414,-1.2978175322162073,-0.32034093538393194,-2.2820385138141077,-4.759380165730612,-3.5633507410632532,1.1225755214691162,0.0,-0.0,0.0,0.0,0.0,0.0
1782779160,134626155,-1.2978289763080042,-0.32032901445497686,-2.2820146719561976,-4.759356204663412,-3.5633867422686976,1.1225755214691162,0.0,-0.0,0.0,0.0,0.0,0.0
1782779160,142639230,-1.2978771368609827,-0.32034093538393194,-2.2820146719561976,-4.759356204663412,-3.5633748213397425,1.1225755214691162,0.0,-0.0,0.0,0.0,0.0,0.0
1782779160,150702249,-1.2978532950030726,-0.32034093538393194,-2.2819789091693323,-4.759344283734457,-3.5633867422686976,1.122623085975647,0.0,-0.0,0.0,0.0,0.0,0.0
1782779160,158617805,-1.2978413740741175,-0.32032901445497686,-2.2819908300982874,-4.759356204663412,-3.5633867422686976,1.122611403465271,0.0,-0.0,0.0,0.0,0.0,0.0
1782779160,166637379,-1.297793213521139,-0.320352856312887,-2.2820146719561976,-4.759356204663412,-3.5633626619922083,1.1225275993347168,0.0,-0.0,0.0,0.0,0.0,0.0
1782779160,174625342,-1.2978413740741175,-0.32032901445497686,-2.2819908300982874,-4.7593682448016565,-3.563446585332052,1.1225634813308716,0.0,-0.0,0.0,0.0,0.0,0.0
1782779160,182652472,-1.2978532950030726,-0.32034093538393194,-2.2820146719561976,-4.759356204663412,-3.5633507410632532,1.1225634813308716,0.0,-0.0,0.0,0.0,0.0,0.0
1782779160,190617177,-1.2978289763080042,-0.3203647772418421,-2.2820146719561976,-4.759344283734457,-3.5633867422686976,1.1225874423980713,0.0,-0.0,0.0,0.0,0.0,0.0
1782779160,198611658,-1.2978289763080042,-0.32034093538393194,-2.2820146719561976,-4.759344283734457,-3.5633986631976526,1.1225874423980713,0.0,-0.0,0.0,0.0,0.0,0.0
1782779160,206630381,-1.297805134450094,-0.32032901445497686,-2.2819908300982874,-4.759320322667257,-3.563410822545187,1.1225755214691162,0.0,-0.0,0.0,0.0,0.0,0.0
1782779160,214642363,-1.2978413740741175,-0.32034093538393194,-2.2820027510272425,-4.759344283734457,-3.5633748213397425,1.1225874423980713,0.0,-0.0,0.0,0.0,0.0,0.0
1782779160,222601011,-1.297805134450094,-0.320352856312887,-2.2820265928851526,-4.759344283734457,-3.563422743474142,1.1225634813308716,0.0,-0.0,0.0,0.0,0.0,0.0
1782779160,230600493,-1.2978413740741175,-0.3203166166888636,-2.2819669882403772,-4.759344283734457,-3.5633507410632532,1.1225755214691162,0.0,-0.0,0.0,0.0,0.0,0.0
1782779160,238599105,-1.2978413740741175,-0.32028085390199834,-2.2819908300982874,-4.759356204663412,-3.5633867422686976,1.1225515604019165,0.0,-0.0,0.0,0.0,0.0,0.0
1782779160,246626513,-1.2978175322162073,-0.320352856312887,-2.2819789091693323,-4.759344283734457,-3.5633986631976526,1.122599482536316,0.0,-0.0,0.0,0.0,0.0,0.0
1782779160,254601920,-1.2978532950030726,-0.32032901445497686,-2.2819908300982874,-4.759356204663412,-3.563446585332052,1.1225515604019165,0.0,-0.0,0.0,0.0,0.0,0.0
1782779160,262612606,-1.2978532950030726,-0.32032901445497686,-2.2819789091693323,-4.7593682448016565,-3.5633626619922083,1.122611403465271,0.0,-0.0,0.0,0.0,0.0,0.0
1782779160,270600162,-1.2978289763080042,-0.32032901445497686,-2.2819789091693323,-4.7593082825290125,-3.563422743474142,1.1225515604019165,0.0,-0.0,0.0,0.0,0.0,0.0
1782779160,278647644,-1.297793213521139,-0.32037669817079717,-2.2820265928851526,-4.759356204663412,-3.5633986631976526,1.1225874423980713,0.0,-0.0,0.0,0.0,0.0,0.0
1782779160,286643755,-1.2978413740741175,-0.3203166166888636,-2.2819908300982874,-4.759296361600057,-3.563338820134298,1.1225755214691162,0.0,-0.0,0.0,0.0,0.0,0.0
1782779160,294642367,-1.2978289763080042,-0.3203046957599085,-2.2820265928851526,-4.759344283734457,-3.5633748213397425,1.122599482536316,0.0,-0.0,0.0,0.0,0.0,0.0
1782779160,302644348,-1.297805134450094,-0.3203046957599085,-2.2819789091693323,-4.759344283734457,-3.563410822545187,1.1225395202636719,0.0,-0.0,0.0,0.0,0.0,0.0
1782779160,310707941,-1.2978175322162073,-0.3202927748309534,-2.281955067311422,-4.759344283734457,-3.5633626619922083,1.1225755214691162,0.0,-0.0,0.0,0.0,0.0,0.0
1782779160,318606127,-1.2978413740741175,-0.32034093538393194,-2.2819908300982874,-4.759380165730612,-3.5633748213397425,1.1225634813308716,0.0,-0.0,0.0,0.0,0.0,0.0
1782779160,326635776,-1.2978175322162073,-0.3203647772418421,-2.2819908300982874,-4.759344283734457,-3.5633748213397425,1.122599482536316,0.0,-0.0,0.0,0.0,0.0,0.0
1782779160,334633554,-1.2978532950030726,-0.3203647772418421,-2.2819669882403772,-4.759332243596212,-3.563422743474142,1.1225874423980713,0.0,-0.0,0.0,0.0,0.0,0.0
1782779160,342709387,-1.2978532950030726,-0.32032901445497686,-2.2820265928851526,-4.759320322667257,-3.5633867422686976,1.1225874423980713,0.0,-0.0,0.0,0.0,0.0,0.0
1782779160,350638258,-1.2978532950030726,-0.3202927748309534,-2.2820265928851526,-4.7593682448016565,-3.5633986631976526,1.1225634813308716,0.0,-0.0,0.0,0.0,0.0,0.0
1782779160,358599462,-1.2977693716632288,-0.32034093538393194,-2.2819908300982874,-4.759344283734457,-3.5633748213397425,1.1225874423980713,0.0,-0.0,0.0,0.0,0.0,0.0
1782779160,366629333,-1.2978289763080042,-0.3203647772418421,-2.2820385138141077,-4.759356204663412,-3.563422743474142,1.1225634813308716,0.0,-0.0,0.0,0.0,0.0,0.0
1782779160,374700500,-1.297805134450094,-0.3203166166888636,-2.2819908300982874,-4.759332243596212,-3.5633867422686976,1.1225515604019165,0.0,-0.0,0.0,0.0,0.0,0.0
1782779160,382621038,-1.2978413740741175,-0.32032901445497686,-2.2819789091693323,-4.759380165730612,-3.563422743474142,1.1225874423980713,0.0,-0.0,0.0,0.0,0.0,0.0
1782779160,390614186,-1.297793213521139,-0.32028085390199834,-2.2820146719561976,-4.759344283734457,-3.563326899205343,1.122611403465271,0.0,-0.0,0.0,0.0,0.0,0.0
1782779160,398605649,-1.2978289763080042,-0.320352856312887,-2.2820385138141077,-4.759320322667257,-3.5633507410632532,1.122503638267517,0.0,-0.0,0.0,0.0,0.0,0.0
1782779160,406640779,-1.297805134450094,-0.3202927748309534,-2.2819908300982874,-4.759380165730612,-3.5633507410632532,1.1225874423980713,0.0,-0.0,0.0,0.0,0.0,0.0
1782779160,414605965,-1.2978652159320276,-0.3203166166888636,-2.2820146719561976,-4.759356204663412,-3.5633507410632532,1.1225874423980713,0.0,-0.0,0.0,0.0,0.0,0.0
1782779160,422603521,-1.2978532950030726,-0.32034093538393194,-2.2820265928851526,-4.759344283734457,-3.5633986631976526,1.122611403465271,0.0,-0.0,0.0,0.0,0.0,0.0
1782779160,430600077,-1.2978771368609827,-0.32032901445497686,-2.2820385138141077,-4.759392563496725,-3.5633626619922083,1.1225755214691162,0.0,-0.0,0.0,0.0,0.0,0.0
1782779160,438647688,-1.297805134450094,-0.32032901445497686,-2.2820146719561976,-4.759332243596212,-3.5633507410632532,1.1225755214691162,0.0,-0.0,0.0,0.0,0.0,0.0
1782779160,446612726,-1.2978532950030726,-0.32032901445497686,-2.2819669882403772,-4.759380165730612,-3.563422743474142,1.1225755214691162,0.0,-0.0,0.0,0.0,0.0,0.0
1782779160,454612393,-1.2978289763080042,-0.32034093538393194,-2.2820385138141077,-4.759356204663412,-3.5633626619922083,1.1225634813308716,0.0,-0.0,0.0,0.0,0.0,0.0
1782779160,462600727,-1.2978413740741175,-0.3203046957599085,-2.2820146719561976,-4.7593682448016565,-3.5633986631976526,1.1225515604019165,0.0,-0.0,0.0,0.0,0.0,0.0
1782779160,470601968,-1.2978289763080042,-0.3202927748309534,-2.2820146719561976,-4.759344283734457,-3.563410822545187,1.1225275993347168,0.0,-0.0,0.0,0.0,0.0,0.0
1782779160,478608153,-1.297793213521139,-0.3203046957599085,-2.2820385138141077,-4.7593682448016565,-3.5633626619922083,1.1225395202636719,0.0,-0.0,0.0,0.0,0.0,0.0
1782779160,486602024,-1.2978175322162073,-0.3203046957599085,-2.2820265928851526,-4.7593082825290125,-3.5633626619922083,1.122623085975647,0.0,-0.0,0.0,0.0,0.0,0.0
1782779160,494603117,-1.2978289763080042,-0.32028085390199834,-2.2820027510272425,-4.7593682448016565,-3.563446585332052,1.1225755214691162,0.0,-0.0,0.0,0.0,0.0,0.0
1782779160,502640784,-1.2978532950030726,-0.320352856312887,-2.2820385138141077,-4.759392563496725,-3.5633986631976526,1.1225755214691162,0.0,-0.0,0.0,0.0,0.0,0.0
1782779160,510611970,-1.2978532950030726,-0.3203166166888636,-2.2820265928851526,-4.759320322667257,-3.5633507410632532,1.1225874423980713,0.0,-0.0,0.0,0.0,0.0,0.0
1782779160,518654618,-1.2978289763080042,-0.32032901445497686,-2.2820146719561976,-4.759332243596212,-3.5633986631976526,1.1225634813308716,0.0,-0.0,0.0,0.0,0.0,0.0
1782779160,526609730,-1.2978289763080042,-0.32034093538393194,-2.2820027510272425,-4.759320322667257,-3.5633626619922083,1.1225755214691162,0.0,-0.0,0.0,0.0,0.0,0.0
1782779160,534600360,-1.297793213521139,-0.320352856312887,-2.2820385138141077,-4.759344283734457,-3.5633748213397425,1.1225755214691162,0.0,-0.0,0.0,0.0,0.0,0.0
1782779160,542613360,-1.2978413740741175,-0.32032901445497686,-2.2820385138141077,-4.759380165730612,-3.563410822545187,1.1225395202636719,0.0,-0.0,0.0,0.0,0.0,0.0
1782779160,550617434,-1.2978413740741175,-0.3203166166888636,-2.2819789091693323,-4.7593082825290125,-3.5633986631976526,1.122611403465271,0.0,-0.0,0.0,0.0,0.0,0.0
1782779160,558647972,-1.2978175322162073,-0.32032901445497686,-2.2820385138141077,-4.759320322667257,-3.5633507410632532,1.1225755214691162,0.0,-0.0,0.0,0.0,0.0,0.0
1782779160,566776490,-1.2978175322162073,-0.32038861909975225,-2.2819908300982874,-4.7593682448016565,-3.563410822545187,1.1225634813308716,0.0,-0.0,0.0,0.0,0.0,0.0
1782779160,574725843,-1.297805134450094,-0.32034093538393194,-2.2820146719561976,-4.759356204663412,-3.563434664403097,1.1225634813308716,0.0,-0.0,0.0,0.0,0.0,0.0
1782779160,582751602,-1.297805134450094,-0.32037669817079717,-2.2820265928851526,-4.759356204663412,-3.5633867422686976,1.1225515604019165,0.0,-0.0,0.0,0.0,0.0,0.0
1782779160,590704399,-1.2978890577899378,-0.3202927748309534,-2.2820027510272425,-4.759344283734457,-3.5633867422686976,1.122611403465271,0.0,-0.0,0.0,0.0,0.0,0.0
1782779160,598619511,-1.2978652159320276,-0.3203166166888636,-2.2820146719561976,-4.759356204663412,-3.5633626619922083,1.1225395202636719,0.0,-0.0,0.0,0.0,0.0,0.0
1782779160,606717974,-1.2978413740741175,-0.3203647772418421,-2.2819669882403772,-4.759356204663412,-3.563410822545187,1.122611403465271,0.0,-0.0,0.0,0.0,0.0,0.0
1782779160,614644252,-1.2977812925921839,-0.32032901445497686,-2.2819908300982874,-4.759332243596212,-3.5633986631976526,1.1225874423980713,0.0,-0.0,0.0,0.0,0.0,0.0
1782779160,622616753,-1.2978289763080042,-0.320352856312887,-2.2819908300982874,-4.759356204663412,-3.5633867422686976,1.1225155591964722,0.0,-0.0,0.0,0.0,0.0,0.0
1782779160,630639605,-1.2978532950030726,-0.320352856312887,-2.2820385138141077,-4.759344283734457,-3.5633986631976526,1.122599482536316,0.0,-0.0,0.0,0.0,0.0,0.0
1782779160,638645513,-1.2978413740741175,-0.32028085390199834,-2.2820027510272425,-4.759380165730612,-3.563410822545187,1.122599482536316,0.0,-0.0,0.0,0.0,0.0,0.0
1782779160,646643976,-1.2978532950030726,-0.3203166166888636,-2.2820027510272425,-4.759356204663412,-3.5633867422686976,1.1225395202636719,0.0,-0.0,0.0,0.0,0.0,0.0
1782779160,654627624,-1.2978413740741175,-0.32032901445497686,-2.2819908300982874,-4.759356204663412,-3.5633986631976526,1.1225634813308716,0.0,-0.0,0.0,0.0,0.0,0.0
1782779160,662626680,-1.2978532950030726,-0.32032901445497686,-2.2819669882403772,-4.759392563496725,-3.563410822545187,1.1225755214691162,0.0,-0.0,0.0,0.0,0.0,0.0
1782779160,670635366,-1.2978175322162073,-0.3203166166888636,-2.281955067311422,-4.759344283734457,-3.563422743474142,1.1225395202636719,0.0,-0.0,0.0,0.0,0.0,0.0
1782779160,678634848,-1.2977693716632288,-0.3203166166888636,-2.2819908300982874,-4.759356204663412,-3.5633748213397425,1.1225874423980713,0.0,-0.0,0.0,0.0,0.0,0.0
1782779160,686640811,-1.2978413740741175,-0.3203166166888636,-2.2820385138141077,-4.759356204663412,-3.563338820134298,1.1225634813308716,0.0,-0.0,0.0,0.0,0.0,0.0
1782779160,694753237,-1.2978413740741175,-0.320352856312887,-2.2819789091693323,-4.759356204663412,-3.5633507410632532,1.122599482536316,0.0,-0.0,0.0,0.0,0.0,0.0
1782779160,702912663,-1.2978289763080042,-0.3203166166888636,-2.2819908300982874,-4.759332243596212,-3.5633986631976526,1.122599482536316,0.0,-0.0,0.0,0.0,0.0,0.0
1782779160,710635609,-1.2978652159320276,-0.32032901445497686,-2.2820146719561976,-4.7593682448016565,-3.563410822545187,1.1225755214691162,0.0,-0.0,0.0,0.0,0.0,0.0
1782779160,718708516,-1.2978289763080042,-0.320352856312887,-2.2820027510272425,-4.7593682448016565,-3.5633986631976526,1.122611403465271,0.0,-0.0,0.0,0.0,0.0,0.0
1782779160,726632776,-1.2978289763080042,-0.32032901445497686,-2.281955067311422,-4.759380165730612,-3.5633507410632532,1.1225755214691162,0.0,-0.0,0.0,0.0,0.0,0.0
1782779160,734641258,-1.2978175322162073,-0.3203647772418421,-2.2819908300982874,-4.759320322667257,-3.5633748213397425,1.1225515604019165,0.0,-0.0,0.0,0.0,0.0,0.0
1782779160,742636703,-1.2978532950030726,-0.3203166166888636,-2.281955067311422,-4.759356204663412,-3.5633986631976526,1.1225755214691162,0.0,-0.0,0.0,0.0,0.0,0.0
1782779160,750691221,-1.2978413740741175,-0.320352856312887,-2.2819669882403772,-4.759392563496725,-3.5633867422686976,1.1225755214691162,0.0,-0.0,0.0,0.0,0.0,0.0
1782779160,758687500,-1.2978413740741175,-0.3203046957599085,-2.2820027510272425,-4.759344283734457,-3.563434664403097,1.1225755214691162,0.0,-0.0,0.0,0.0,0.0,0.0
1782779160,766741204,-1.2978175322162073,-0.3203647772418421,-2.2820027510272425,-4.759380165730612,-3.5633748213397425,1.1225755214691162,0.0,-0.0,0.0,0.0,0.0,0.0
1782779160,774652093,-1.2978652159320276,-0.3203046957599085,-2.2820146719561976,-4.759344283734457,-3.563422743474142,1.1225395202636719,0.0,-0.0,0.0,0.0,0.0,0.0
1782779160,782727353,-1.2978532950030726,-0.32032901445497686,-2.2820265928851526,-4.759392563496725,-3.5633867422686976,1.122623085975647,0.0,-0.0,0.0,0.0,0.0,0.0
1782779160,790636520,-1.2977812925921839,-0.32034093538393194,-2.2819908300982874,-4.759344283734457,-3.5633867422686976,1.1225755214691162,0.0,-0.0,0.0,0.0,0.0,0.0
1782779160,798639631,-1.2978413740741175,-0.32038861909975225,-2.2820027510272425,-4.759320322667257,-3.563422743474142,1.1225755214691162,0.0,-0.0,0.0,0.0,0.0,0.0
1782779160,806643058,-1.2978175322162073,-0.3203647772418421,-2.2820146719561976,-4.759344283734457,-3.5633748213397425,1.122599482536316,0.0,-0.0,0.0,0.0,0.0,0.0
1782779160,814694021,-1.2978289763080042,-0.3203166166888636,-2.2820027510272425,-4.759356204663412,-3.563422743474142,1.1225755214691162,0.0,-0.0,0.0,0.0,0.0,0.0
1782779160,822641725,-1.2978289763080042,-0.3203647772418421,-2.2819789091693323,-4.759356204663412,-3.563410822545187,1.1225755214691162,0.0,-0.0,0.0,0.0,0.0,0.0
1782779160,830689633,-1.297805134450094,-0.320352856312887,-2.2819908300982874,-4.759332243596212,-3.5633986631976526,1.1225755214691162,0.0,-0.0,0.0,0.0,0.0,0.0
1782779160,838653615,-1.2978289763080042,-0.32038861909975225,-2.2820265928851526,-4.759356204663412,-3.5633986631976526,1.1225395202636719,0.0,-0.0,0.0,0.0,0.0,0.0
1782779160,846642652,-1.2977812925921839,-0.32037669817079717,-2.2819789091693323,-4.759320322667257,-3.5633626619922083,1.122599482536316,0.0,-0.0,0.0,0.0,0.0,0.0
1782779160,854625578,-1.2978175322162073,-0.3203647772418421,-2.2820027510272425,-4.759344283734457,-3.5633748213397425,1.1225755214691162,0.0,-0.0,0.0,0.0,0.0,0.0
1782779160,862622264,-1.2978771368609827,-0.3202927748309534,-2.282050911580221,-4.759344283734457,-3.5633986631976526,1.1225515604019165,0.0,-0.0,0.0,0.0,0.0,0.0
1782779160,870653616,-1.2978413740741175,-0.3202927748309534,-2.2820385138141077,-4.759356204663412,-3.5633867422686976,1.122599482536316,0.0,-0.0,0.0,0.0,0.0,0.0
1782779160,878647209,-1.2978532950030726,-0.3202927748309534,-2.2820027510272425,-4.759380165730612,-3.5633986631976526,1.122599482536316,0.0,-0.0,0.0,0.0,0.0,0.0
1782779160,886633006,-1.2978532950030726,-0.3203166166888636,-2.2820027510272425,-4.759380165730612,-3.5633507410632532,1.1225755214691162,0.0,-0.0,0.0,0.0,0.0,0.0
1782779160,894628247,-1.2978771368609827,-0.32032901445497686,-2.2819669882403772,-4.759320322667257,-3.5633748213397425,1.1225275993347168,0.0,-0.0,0.0,0.0,0.0,0.0
1782779160,902646192,-1.2978652159320276,-0.32034093538393194,-2.2819669882403772,-4.759356204663412,-3.5633626619922083,1.1225874423980713,0.0,-0.0,0.0,0.0,0.0,0.0
1782779160,910706507,-1.297805134450094,-0.32032901445497686,-2.2820146719561976,-4.759392563496725,-3.5633986631976526,1.1225634813308716,0.0,-0.0,0.0,0.0,0.0,0.0
1782779160,918629896,-1.2978289763080042,-0.3202927748309534,-2.2819908300982874,-4.7593082825290125,-3.5633986631976526,1.122599482536316,0.0,-0.0,0.0,0.0,0.0,0.0
1782779160,926644452,-1.2978413740741175,-0.32032901445497686,-2.282050911580221,-4.759344283734457,-3.5633748213397425,1.1225874423980713,0.0,-0.0,0.0,0.0,0.0,0.0
1782779160,934725804,-1.2977812925921839,-0.32032901445497686,-2.2820265928851526,-4.759380165730612,-3.563434664403097,1.1225515604019165,0.0,-0.0,0.0,0.0,0.0,0.0
1782779160,942647416,-1.2978289763080042,-0.32032901445497686,-2.2820385138141077,-4.759332243596212,-3.563422743474142,1.1225634813308716,0.0,-0.0,0.0,0.0,0.0,0.0
1782779160,950652046,-1.2978289763080042,-0.32026893297304326,-2.2820027510272425,-4.759320322667257,-3.5633748213397425,1.122611403465271,0.0,-0.0,0.0,0.0,0.0,0.0
1782779160,958643620,-1.2978175322162073,-0.32032901445497686,-2.2820146719561976,-4.759344283734457,-3.5633867422686976,1.122599482536316,0.0,-0.0,0.0,0.0,0.0,0.0
1782779160,966654306,-1.2978289763080042,-0.320352856312887,-2.2820385138141077,-4.7593682448016565,-3.5633626619922083,1.1225515604019165,0.0,-0.0,0.0,0.0,0.0,0.0
1782779160,974630417,-1.2978413740741175,-0.32028085390199834,-2.2819789091693323,-4.7593082825290125,-3.5633867422686976,1.122611403465271,0.0,-0.0,0.0,0.0,0.0,0.0
1782779160,982697029,-1.2978175322162073,-0.320352856312887,-2.2820265928851526,-4.759380165730612,-3.5633986631976526,1.122599482536316,0.0,-0.0,0.0,0.0,0.0,0.0
1782779160,990694196,-1.2978413740741175,-0.3202927748309534,-2.2820265928851526,-4.759344283734457,-3.5633867422686976,1.1225874423980713,0.0,-0.0,0.0,0.0,0.0,0.0
1782779160,998648437,-1.297805134450094,-0.320352856312887,-2.2820385138141077,-4.7593682448016565,-3.5633986631976526,1.1225634813308716,0.0,-0.0,0.0,0.0,0.0,0.0
1782779161,6654067,-1.2978532950030726,-0.3203647772418421,-2.2820146719561976,-4.759320322667257,-3.5633748213397425,1.1225515604019165,0.0,-0.0,0.0,0.0,0.0,0.0
1782779161,14638604,-1.2978413740741175,-0.3203166166888636,-2.2820027510272425,-4.759356204663412,-3.5633748213397425,1.1225755214691162,0.0,-0.0,0.0,0.0,0.0,0.0
1782779161,22725123,-1.2978413740741175,-0.3203647772418421,-2.2819908300982874,-4.7593682448016565,-3.5633748213397425,1.1225395202636719,0.0,-0.0,0.0,0.0,0.0,0.0
1782779161,30628124,-1.297805134450094,-0.32026893297304326,-2.2820146719561976,-4.759344283734457,-3.5633748213397425,1.1225755214691162,0.0,-0.0,0.0,0.0,0.0,0.0
1782779161,38731272,-1.297805134450094,-0.3203166166888636,-2.2819669882403772,-4.759392563496725,-3.5633507410632532,1.1225395202636719,0.0,-0.0,0.0,0.0,0.0,0.0
1782779161,46644198,-1.2978413740741175,-0.3203046957599085,-2.2819908300982874,-4.759332243596212,-3.5633626619922083,1.1225634813308716,0.0,-0.0,0.0,0.0,0.0,0.0
1782779161,54637125,-1.2978413740741175,-0.32032901445497686,-2.2819789091693323,-4.759344283734457,-3.5633748213397425,1.1225275993347168,0.0,-0.0,0.0,0.0,0.0,0.0
1782779161,62646366,-1.2978652159320276,-0.3203046957599085,-2.2819789091693323,-4.759344283734457,-3.5633986631976526,1.1225755214691162,0.0,-0.0,0.0,0.0,0.0,0.0
1782779161,70622440,-1.2978652159320276,-0.3203166166888636,-2.2820385138141077,-4.7593682448016565,-3.563410822545187,1.122599482536316,0.0,-0.0,0.0,0.0,0.0,0.0
1782779161,78642070,-1.2978413740741175,-0.32034093538393194,-2.2819669882403772,-4.7593682448016565,-3.5633507410632532,1.1225755214691162,0.0,-0.0,0.0,0.0,0.0,0.0
1782779161,86646478,-1.2978289763080042,-0.32032901445497686,-2.2820027510272425,-4.759356204663412,-3.5633507410632532,1.1225275993347168,0.0,-0.0,0.0,0.0,0.0,0.0
1782779161,94694311,-1.2978413740741175,-0.3203166166888636,-2.2820265928851526,-4.759356204663412,-3.5633748213397425,1.1225634813308716,0.0,-0.0,0.0,0.0,0.0,0.0
1782779161,102698812,-1.2978532950030726,-0.3202927748309534,-2.2820027510272425,-4.759416524563925,-3.563434664403097,1.1225515604019165,0.0,-0.0,0.0,0.0,0.0,0.0
1782779161,110717423,-1.2977574507342737,-0.32032901445497686,-2.2819908300982874,-4.759332243596212,-3.5633986631976526,1.1225874423980713,0.0,-0.0,0.0,0.0,0.0,0.0
1782779161,118724924,-1.2977812925921839,-0.32032901445497686,-2.2820265928851526,-4.7593682448016565,-3.563422743474142,1.122599482536316,0.0,-0.0,0.0,0.0,0.0,0.0
1782779161,126639276,-1.2978532950030726,-0.3203166166888636,-2.2820146719561976,-4.759332243596212,-3.5633748213397425,1.1225874423980713,0.0,-0.0,0.0,0.0,0.0,0.0
1782779161,134632239,-1.2978652159320276,-0.32032901445497686,-2.2819789091693323,-4.759344283734457,-3.5633507410632532,1.122599482536316,0.0,-0.0,0.0,0.0,0.0,0.0
1782779161,142631851,-1.297793213521139,-0.32032901445497686,-2.2819908300982874,-4.7593682448016565,-3.563434664403097,1.1225874423980713,0.0,-0.0,0.0,0.0,0.0,0.0
1782779161,150707462,-1.2978532950030726,-0.3203046957599085,-2.2820146719561976,-4.759344283734457,-3.5633748213397425,1.1225395202636719,0.0,-0.0,0.0,0.0,0.0,0.0
1782779161,158734777,-1.2978289763080042,-0.32028085390199834,-2.2820146719561976,-4.759344283734457,-3.5633867422686976,1.1225874423980713,0.0,-0.0,0.0,0.0,0.0,0.0
1782779161,166618037,-1.2978289763080042,-0.32034093538393194,-2.281942669545309,-4.7593682448016565,-3.5633626619922083,1.122599482536316,0.0,-0.0,0.0,0.0,0.0,0.0
1782779161,174628426,-1.2978890577899378,-0.32034093538393194,-2.2820385138141077,-4.759344283734457,-3.5633986631976526,1.1225755214691162,0.0,-0.0,0.0,0.0,0.0,0.0
1782779161,182648519,-1.2978175322162073,-0.3203166166888636,-2.2819789091693323,-4.759332243596212,-3.563410822545187,1.1225755214691162,0.0,-0.0,0.0,0.0,0.0,0.0
1782779161,190757130,-1.2978413740741175,-0.3203647772418421,-2.2820027510272425,-4.759344283734457,-3.563422743474142,1.1226470470428467,0.0,-0.0,0.0,0.0,0.0,0.0
1782779161,198648835,-1.297805134450094,-0.3202927748309534,-2.2820146719561976,-4.759380165730612,-3.5633748213397425,1.1225395202636719,0.0,-0.0,0.0,0.0,0.0,0.0
1782779161,206765131,-1.2978413740741175,-0.3203647772418421,-2.2819908300982874,-4.759344283734457,-3.563422743474142,1.1225634813308716,0.0,-0.0,0.0,0.0,0.0,0.0
1782779161,214648539,-1.2978289763080042,-0.320352856312887,-2.2820385138141077,-4.759392563496725,-3.5633748213397425,1.1225155591964722,0.0,-0.0,0.0,0.0,0.0,0.0
1782779161,222652632,-1.2978175322162073,-0.32032901445497686,-2.2820027510272425,-4.759332243596212,-3.563410822545187,1.1225874423980713,0.0,-0.0,0.0,0.0,0.0,0.0
1782779161,230719947,-1.2978652159320276,-0.3203166166888636,-2.2820027510272425,-4.7593682448016565,-3.563422743474142,1.1225634813308716,0.0,-0.0,0.0,0.0,0.0,0.0
1782779161,238778799,-1.2978175322162073,-0.32034093538393194,-2.2820385138141077,-4.759392563496725,-3.5633867422686976,1.122611403465271,0.0,-0.0,0.0,0.0,0.0,0.0
1782779161,246702948,-1.297793213521139,-0.320352856312887,-2.2819908300982874,-4.759332243596212,-3.5633986631976526,1.1225874423980713,0.0,-0.0,0.0,0.0,0.0,0.0
1782779161,254653337,-1.2978413740741175,-0.3203046957599085,-2.2820146719561976,-4.759320322667257,-3.5633748213397425,1.1225395202636719,0.0,-0.0,0.0,0.0,0.0,0.0
1782779161,262695819,-1.2978532950030726,-0.32032901445497686,-2.281955067311422,-4.7593682448016565,-3.5633986631976526,1.1225634813308716,0.0,-0.0,0.0,0.0,0.0,0.0
1782779161,270632153,-1.2978413740741175,-0.3202927748309534,-2.2820265928851526,-4.7593082825290125,-3.563410822545187,1.122599482536316,0.0,-0.0,0.0,0.0,0.0,0.0
1782779161,278623875,-1.2978532950030726,-0.3203046957599085,-2.2819908300982874,-4.759332243596212,-3.5633748213397425,1.1225755214691162,0.0,-0.0,0.0,0.0,0.0,0.0
1782779161,286646709,-1.2978289763080042,-0.3203647772418421,-2.2819908300982874,-4.759380165730612,-3.563422743474142,1.122599482536316,0.0,-0.0,0.0,0.0,0.0,0.0
1782779161,294642431,-1.2978532950030726,-0.320352856312887,-2.2819789091693323,-4.759332243596212,-3.5633986631976526,1.1225755214691162,0.0,-0.0,0.0,0.0,0.0,0.0
1782779161,302644728,-1.2978289763080042,-0.320352856312887,-2.282050911580221,-4.7594046036349695,-3.563410822545187,1.1225634813308716,0.0,-0.0,0.0,0.0,0.0,0.0
1782779161,310615247,-1.2978413740741175,-0.3203647772418421,-2.2820265928851526,-4.7593682448016565,-3.5633986631976526,1.1225515604019165,0.0,-0.0,0.0,0.0,0.0,0.0
1782779161,318632766,-1.2978289763080042,-0.3202927748309534,-2.2820146719561976,-4.759344283734457,-3.563410822545187,1.1225395202636719,0.0,-0.0,0.0,0.0,0.0,0.0
1782779161,326611803,-1.2978175322162073,-0.3202927748309534,-2.2820146719561976,-4.759356204663412,-3.5633507410632532,1.1225755214691162,0.0,-0.0,0.0,0.0,0.0,0.0
1782779161,334631304,-1.2978175322162073,-0.32032901445497686,-2.2819908300982874,-4.759320322667257,-3.563422743474142,1.1225874423980713,0.0,-0.0,0.0,0.0,0.0,0.0
1782779161,342623563,-1.2978652159320276,-0.3203046957599085,-2.2819789091693323,-4.7593682448016565,-3.5633867422686976,1.122611403465271,0.0,-0.0,0.0,0.0,0.0,0.0
1782779161,350717619,-1.2978289763080042,-0.3202927748309534,-2.2820027510272425,-4.759332243596212,-3.5633986631976526,1.1225395202636719,0.0,-0.0,0.0,0.0,0.0,0.0
1782779161,358751027,-1.2978771368609827,-0.320352856312887,-2.2820265928851526,-4.759320322667257,-3.563410822545187,1.1225755214691162,0.0,-0.0,0.0,0.0,0.0,0.0
1782779161,366634416,-1.2978532950030726,-0.3203046957599085,-2.2820146719561976,-4.7593682448016565,-3.563422743474142,1.1225634813308716,0.0,-0.0,0.0,0.0,0.0,0.0
1782779161,374651398,-1.2978652159320276,-0.3202927748309534,-2.2819908300982874,-4.759356204663412,-3.563422743474142,1.1225874423980713,0.0,-0.0,0.0,0.0,0.0,0.0
1782779161,382631213,-1.2977812925921839,-0.3202927748309534,-2.281942669545309,-4.7593082825290125,-3.5633748213397425,1.1225634813308716,0.0,-0.0,0.0,0.0,0.0,0.0
1782779161,390639047,-1.2978413740741175,-0.320352856312887,-2.2819789091693323,-4.759332243596212,-3.5633626619922083,1.1225634813308716,0.0,-0.0,0.0,0.0,0.0,0.0
1782779161,398622584,-1.2978413740741175,-0.32028085390199834,-2.2820265928851526,-4.7593082825290125,-3.563422743474142,1.122611403465271,0.0,-0.0,0.0,0.0,0.0,0.0
1782779161,406633399,-1.2978532950030726,-0.32032901445497686,-2.2820146719561976,-4.759296361600057,-3.5633867422686976,1.1225515604019165,0.0,-0.0,0.0,0.0,0.0,0.0
1782779161,414642381,-1.2978289763080042,-0.3202927748309534,-2.2820385138141077,-4.759344283734457,-3.563410822545187,1.1225755214691162,0.0,-0.0,0.0,0.0,0.0,0.0
1782779161,422722437,-1.2978532950030726,-0.32032901445497686,-2.2820146719561976,-4.759356204663412,-3.5633507410632532,1.122635006904602,0.0,-0.0,0.0,0.0,0.0,0.0
1782779161,430656382,-1.2978652159320276,-0.3203166166888636,-2.2819669882403772,-4.759320322667257,-3.5633626619922083,1.1225634813308716,0.0,-0.0,0.0,0.0,0.0,0.0
1782779161,438694882,-1.2978532950030726,-0.320352856312887,-2.2819908300982874,-4.759332243596212,-3.563434664403097,1.1225395202636719,0.0,-0.0,0.0,0.0,0.0,0.0
1782779161,446641031,-1.2978175322162073,-0.3203647772418421,-2.281955067311422,-4.759344283734457,-3.5633986631976526,1.1225755214691162,0.0,-0.0,0.0,0.0,0.0,0.0
1782779161,454635679,-1.2978175322162073,-0.32034093538393194,-2.2820265928851526,-4.759380165730612,-3.5633986631976526,1.1225395202636719,0.0,-0.0,0.0,0.0,0.0,0.0
1782779161,462709698,-1.2978413740741175,-0.32034093538393194,-2.2820027510272425,-4.759344283734457,-3.5633986631976526,1.1225755214691162,0.0,-0.0,0.0,0.0,0.0,0.0
1782779161,470639587,-1.2978289763080042,-0.3203647772418421,-2.2819908300982874,-4.7593682448016565,-3.5633626619922083,1.1225634813308716,0.0,-0.0,0.0,0.0,0.0,0.0
1782779161,478616162,-1.2977812925921839,-0.32032901445497686,-2.2820146719561976,-4.759344283734457,-3.563410822545187,1.1225515604019165,0.0,-0.0,0.0,0.0,0.0,0.0
1782779161,486611292,-1.2978175322162073,-0.32034093538393194,-2.2819789091693323,-4.759380165730612,-3.5633986631976526,1.1225755214691162,0.0,-0.0,0.0,0.0,0.0,0.0
1782779161,494626885,-1.2978532950030726,-0.3202927748309534,-2.2820146719561976,-4.7593682448016565,-3.5633867422686976,1.1225515604019165,0.0,-0.0,0.0,0.0,0.0,0.0
1782779161,502636070,-1.2978532950030726,-0.3203647772418421,-2.2820265928851526,-4.759356204663412,-3.5633626619922083,1.1225755214691162,0.0,-0.0,0.0,0.0,0.0,0.0
1782779161,510641348,-1.2978289763080042,-0.32032901445497686,-2.2820027510272425,-4.759344283734457,-3.5633986631976526,1.1225634813308716,0.0,-0.0,0.0,0.0,0.0,0.0
1782779161,518644849,-1.2978175322162073,-0.32032901445497686,-2.2819908300982874,-4.7593682448016565,-3.563422743474142,1.122611403465271,0.0,-0.0,0.0,0.0,0.0,0.0
1782779161,526758645,-1.297793213521139,-0.32032901445497686,-2.2820385138141077,-4.759356204663412,-3.5633867422686976,1.1225874423980713,0.0,-0.0,0.0,0.0,0.0,0.0
1782779161,534633960,-1.2977812925921839,-0.3203166166888636,-2.2820385138141077,-4.759392563496725,-3.5633626619922083,1.1225755214691162,0.0,-0.0,0.0,0.0,0.0,0.0
1782779161,542653701,-1.2978289763080042,-0.3203166166888636,-2.2820027510272425,-4.759344283734457,-3.5633748213397425,1.122599482536316,0.0,-0.0,0.0,0.0,0.0,0.0
1782779161,550642776,-1.2978289763080042,-0.3203166166888636,-2.2820146719561976,-4.759320322667257,-3.563434664403097,1.1225515604019165,0.0,-0.0,0.0,0.0,0.0,0.0
1782779161,558630795,-1.2978413740741175,-0.32034093538393194,-2.2819789091693323,-4.759332243596212,-3.563422743474142,1.1225515604019165,0.0,-0.0,0.0,0.0,0.0,0.0
1782779161,566630647,-1.2978175322162073,-0.32032901445497686,-2.2820027510272425,-4.759344283734457,-3.5633867422686976,1.1225874423980713,0.0,-0.0,0.0,0.0,0.0,0.0
1782779161,574613592,-1.2978532950030726,-0.3202927748309534,-2.2820146719561976,-4.7593682448016565,-3.5633748213397425,1.1225395202636719,0.0,-0.0,0.0,0.0,0.0,0.0
1782779161,582714888,-1.297805134450094,-0.3203647772418421,-2.2819789091693323,-4.759344283734457,-3.5633626619922083,1.1225275993347168,0.0,-0.0,0.0,0.0,0.0,0.0
1782779161,590647778,-1.2978652159320276,-0.32032901445497686,-2.2820265928851526,-4.7593682448016565,-3.5633507410632532,1.1225755214691162,0.0,-0.0,0.0,0.0,0.0,0.0
1782779161,598623574,-1.297793213521139,-0.32032901445497686,-2.2819789091693323,-4.759344283734457,-3.5633867422686976,1.1225515604019165,0.0,-0.0,0.0,0.0,0.0,0.0
1782779161,606619389,-1.2978175322162073,-0.32034093538393194,-2.2820146719561976,-4.759356204663412,-3.5633748213397425,1.122635006904602,0.0,-0.0,0.0,0.0,0.0,0.0
1782779161,614612760,-1.2978652159320276,-0.32032901445497686,-2.281942669545309,-4.759332243596212,-3.5633748213397425,1.1225275993347168,0.0,-0.0,0.0,0.0,0.0,0.0
1782779161,622634649,-1.2978652159320276,-0.32032901445497686,-2.2820385138141077,-4.759392563496725,-3.5633867422686976,1.1225755214691162,0.0,-0.0,0.0,0.0,0.0,0.0
1782779161,630651539,-1.2978289763080042,-0.32034093538393194,-2.2820027510272425,-4.759356204663412,-3.5633986631976526,1.122611403465271,0.0,-0.0,0.0,0.0,0.0,0.0
1782779161,638636428,-1.2978175322162073,-0.320352856312887,-2.2820027510272425,-4.759344283734457,-3.563410822545187,1.1225755214691162,0.0,-0.0,0.0,0.0,0.0,0.0
1782779161,646644595,-1.2978532950030726,-0.32034093538393194,-2.2820027510272425,-4.759344283734457,-3.5633986631976526,1.1225874423980713,0.0,-0.0,0.0,0.0,0.0,0.0
1782779161,654606818,-1.297793213521139,-0.3203046957599085,-2.2820027510272425,-4.759320322667257,-3.5633748213397425,1.1225515604019165,0.0,-0.0,0.0,0.0,0.0,0.0
1782779161,662638392,-1.2978532950030726,-0.3203647772418421,-2.2820385138141077,-4.7593682448016565,-3.5633748213397425,1.1225634813308716,0.0,-0.0,0.0,0.0,0.0,0.0
1782779161,670649448,-1.2978175322162073,-0.3203046957599085,-2.2819669882403772,-4.7593682448016565,-3.563422743474142,1.122599482536316,0.0,-0.0,0.0,0.0,0.0,0.0
1782779161,678630689,-1.2978771368609827,-0.3203166166888636,-2.2820027510272425,-4.759356204663412,-3.5633507410632532,1.122599482536316,0.0,-0.0,0.0,0.0,0.0,0.0
1782779161,686720059,-1.2978413740741175,-0.3203046957599085,-2.2820265928851526,-4.7594046036349695,-3.563410822545187,1.1225634813308716,0.0,-0.0,0.0,0.0,0.0,0.0
1782779161,695051078,-1.2978413740741175,-0.3203046957599085,-2.2820265928851526,-4.7594046036349695,-3.563410822545187,1.1225634813308716,0.0,-0.0,0.0,0.0,0.0,0.0
1782779161,702644894,-1.297805134450094,-0.32034093538393194,-2.2820146719561976,-4.759332243596212,-3.563410822545187,1.122599482536316,0.0,-0.0,0.0,0.0,0.0,0.0
1782779161,710697746,-1.2978289763080042,-0.32034093538393194,-2.2820027510272425,-4.759356204663412,-3.563434664403097,1.1225395202636719,0.0,-0.0,0.0,0.0,0.0,0.0
1782779161,718745968,-1.2978413740741175,-0.32032901445497686,-2.2820027510272425,-4.759344283734457,-3.5633986631976526,1.1225634813308716,0.0,-0.0,0.0,0.0,0.0,0.0
1782779161,726637950,-1.2978532950030726,-0.32034093538393194,-2.2820027510272425,-4.759320322667257,-3.5633748213397425,1.1225634813308716,0.0,-0.0,0.0,0.0,0.0,0.0
1782779161,734625895,-1.2978532950030726,-0.3202927748309534,-2.2820027510272425,-4.759392563496725,-3.5633986631976526,1.1225755214691162,0.0,-0.0,0.0,0.0,0.0,0.0
1782779161,742625284,-1.2978771368609827,-0.3203046957599085,-2.2820265928851526,-4.759392563496725,-3.5633626619922083,1.1225634813308716,0.0,-0.0,0.0,0.0,0.0,0.0
1782779161,750621211,-1.2978175322162073,-0.32034093538393194,-2.282050911580221,-4.759320322667257,-3.563410822545187,1.1225634813308716,0.0,-0.0,0.0,0.0,0.0,0.0
1782779161,758645433,-1.2978413740741175,-0.32037669817079717,-2.2819908300982874,-4.759356204663412,-3.563410822545187,1.1225395202636719,0.0,-0.0,0.0,0.0,0.0,0.0
1782779161,767098988,-1.297805134450094,-0.3203647772418421,-2.282062832509176,-4.759392563496725,-3.5633626619922083,1.1225874423980713,0.0,-0.0,0.0,0.0,0.0,0.0
1782779161,774640100,-1.2978175322162073,-0.3203166166888636,-2.2820027510272425,-4.759296361600057,-3.5633748213397425,1.1225755214691162,0.0,-0.0,0.0,0.0,0.0,0.0
1782779161,782635379,-1.2978771368609827,-0.3203166166888636,-2.2820146719561976,-4.7593682448016565,-3.5633626619922083,1.1225634813308716,0.0,-0.0,0.0,0.0,0.0,0.0
1782779161,792773337,-1.2978532950030726,-0.32032901445497686,-2.2819908300982874,-4.7593082825290125,-3.5633986631976526,1.1225515604019165,0.0,-0.0,0.0,0.0,0.0,0.0
1782779161,798997860,-1.297805134450094,-0.320352856312887,-2.2820146719561976,-4.759320322667257,-3.5633626619922083,1.122611403465271,0.0,-0.0,0.0,0.0,0.0,0.0
1782779161,806711379,-1.2977812925921839,-0.3202927748309534,-2.282050911580221,-4.759332243596212,-3.5633986631976526,1.1225874423980713,0.0,-0.0,0.0,0.0,0.0,0.0
1782779161,814719546,-1.297805134450094,-0.3203166166888636,-2.2819669882403772,-4.7593682448016565,-3.5633748213397425,1.1225874423980713,0.0,-0.0,0.0,0.0,0.0,0.0
1782779161,822637436,-1.2978652159320276,-0.320352856312887,-2.2819669882403772,-4.759380165730612,-3.5633867422686976,1.122623085975647,0.0,-0.0,0.0,0.0,0.0,0.0
1782779161,832838487,-1.2977812925921839,-0.32034093538393194,-2.2820146719561976,-4.759344283734457,-3.5633748213397425,1.122599482536316,0.0,-0.0,0.0,0.0,0.0,0.0
1782779161,840912968,-1.2977812925921839,-0.32034093538393194,-2.2820146719561976,-4.759344283734457,-3.5633748213397425,1.122599482536316,0.0,-0.0,0.0,0.0,0.0,0.0
1782779161,846765381,-1.2978413740741175,-0.32032901445497686,-2.2820027510272425,-4.759356204663412,-3.563434664403097,1.122611403465271,0.0,-0.0,0.0,0.0,0.0,0.0
1782779161,854878511,-1.2978175322162073,-0.32034093538393194,-2.2819789091693323,-4.759356204663412,-3.5633986631976526,1.1225634813308716,0.0,-0.0,0.0,0.0,0.0,0.0
1782779161,862906733,-1.297805134450094,-0.32032901445497686,-2.2820385138141077,-4.759344283734457,-3.563422743474142,1.122599482536316,0.0,-0.0,0.0,0.0,0.0,0.0
1782779161,871048048,-1.2978413740741175,-0.32032901445497686,-2.2820027510272425,-4.759344283734457,-3.5633507410632532,1.1225874423980713,0.0,-0.0,0.0,0.0,0.0,0.0
1782779161,908734203,-1.2978652159320276,-0.3202927748309534,-2.2820027510272425,-4.759320322667257,-3.563422743474142,1.1225755214691162,0.0,-0.0,0.0,0.0,0.0,0.0
1782779161,912223436,-1.2978175322162073,-0.3202927748309534,-2.2820146719561976,-4.759332243596212,-3.5633867422686976,1.1225755214691162,0.0,-0.0,0.0,0.0,0.0,0.0
1782779161,935359458,-1.2978890577899378,-0.32032901445497686,-2.2819908300982874,-4.759332243596212,-3.5633626619922083,1.1225874423980713,0.0,-0.0,0.0,0.0,0.0,0.0
1782779161,953771638,-1.2978413740741175,-0.32032901445497686,-2.2819669882403772,-4.759344283734457,-3.563410822545187,1.1225874423980713,0.0,-0.0,0.0,0.0,0.0,0.0
1782779161,957501018,-1.2978413740741175,-0.32032901445497686,-2.2819669882403772,-4.759344283734457,-3.563410822545187,1.1225874423980713,0.0,-0.0,0.0,0.0,0.0,0.0
1782779161,970835692,-1.2978413740741175,-0.32032901445497686,-2.2819669882403772,-4.759344283734457,-3.563410822545187,1.1225874423980713,0.0,-0.0,0.0,0.0,0.0,0.0
1782779161,981250520,-1.2978652159320276,-0.32034093538393194,-2.2819908300982874,-4.759296361600057,-3.5633986631976526,1.1225755214691162,0.0,-0.0,0.0,0.0,0.0,0.0
1782779161,985252641,-1.2978652159320276,-0.32034093538393194,-2.2819908300982874,-4.759296361600057,-3.5633986631976526,1.1225755214691162,0.0,-0.0,0.0,0.0,0.0,0.0
1782779161,999091831,-1.2978771368609827,-0.320352856312887,-2.2820385138141077,-4.759332243596212,-3.5633867422686976,1.122611403465271,0.0,-0.0,0.0,0.0,0.0,0.0
1782779162,6736592,-1.2978652159320276,-0.3203046957599085,-2.2819908300982874,-4.759332243596212,-3.563422743474142,1.122599482536316,0.0,-0.0,0.0,0.0,0.0,0.0
1782779162,15257795,-1.2978175322162073,-0.3203046957599085,-2.2819789091693323,-4.759380165730612,-3.5633748213397425,1.122611403465271,0.0,-0.0,0.0,0.0,0.0,0.0
1782779162,22750926,-1.297805134450094,-0.32028085390199834,-2.2820385138141077,-4.759380165730612,-3.5633748213397425,1.122611403465271,0.0,-0.0,0.0,0.0,0.0,0.0
1782779162,30699871,-1.2978652159320276,-0.32028085390199834,-2.2820027510272425,-4.759344283734457,-3.563422743474142,1.1225874423980713,0.0,-0.0,0.0,0.0,0.0,0.0
1782779162,38621964,-1.2978175322162073,-0.32032901445497686,-2.2819789091693323,-4.759332243596212,-3.5633748213397425,1.1225395202636719,0.0,-0.0,0.0,0.0,0.0,0.0
1782779162,46634945,-1.2978771368609827,-0.320352856312887,-2.2819908300982874,-4.759356204663412,-3.5633748213397425,1.1225755214691162,0.0,-0.0,0.0,0.0,0.0,0.0
1782779162,54620520,-1.2978532950030726,-0.3203647772418421,-2.2820146719561976,-4.759320322667257,-3.5633867422686976,1.1225755214691162,0.0,-0.0,0.0,0.0,0.0,0.0
1782779162,62734687,-1.2978532950030726,-0.32028085390199834,-2.2820146719561976,-4.759332243596212,-3.5633748213397425,1.1225395202636719,0.0,-0.0,0.0,0.0,0.0,0.0
1782779162,70655817,-1.297805134450094,-0.32034093538393194,-2.282062832509176,-4.759356204663412,-3.5633867422686976,1.1225275993347168,0.0,-0.0,0.0,0.0,0.0,0.0
1782779162,79297186,-1.2978289763080042,-0.3203166166888636,-2.2820027510272425,-4.7594046036349695,-3.5633986631976526,1.1225755214691162,0.0,-0.0,0.0,0.0,0.0,0.0
1782779162,86715317,-1.2978175322162073,-0.32034093538393194,-2.2819789091693323,-4.7593682448016565,-3.563434664403097,1.1225634813308716,0.0,-0.0,0.0,0.0,0.0,0.0
1782779162,94636818,-1.2978413740741175,-0.320352856312887,-2.2819789091693323,-4.7593682448016565,-3.563410822545187,1.1225755214691162,0.0,-0.0,0.0,0.0,0.0,0.0
1782779162,102610985,-1.297805134450094,-0.32034093538393194,-2.2820146719561976,-4.759356204663412,-3.5633626619922083,1.1225155591964722,0.0,-0.0,0.0,0.0,0.0,0.0
1782779162,110720411,-1.2978175322162073,-0.3203166166888636,-2.2819789091693323,-4.759344283734457,-3.563410822545187,1.1225395202636719,0.0,-0.0,0.0,0.0,0.0,0.0
1782779162,118626226,-1.2978532950030726,-0.3203166166888636,-2.2820146719561976,-4.759332243596212,-3.5633986631976526,1.1225755214691162,0.0,-0.0,0.0,0.0,0.0,0.0
1782779162,126612523,-1.2978652159320276,-0.320352856312887,-2.2819789091693323,-4.759344283734457,-3.563410822545187,1.1225874423980713,0.0,-0.0,0.0,0.0,0.0,0.0
1782779162,134698153,-1.2978175322162073,-0.3203046957599085,-2.2820146719561976,-4.759332243596212,-3.563410822545187,1.122623085975647,0.0,-0.0,0.0,0.0,0.0,0.0
1782779162,142692764,-1.2978532950030726,-0.32032901445497686,-2.2820027510272425,-4.7593682448016565,-3.563422743474142,1.1225634813308716,0.0,-0.0,0.0,0.0,0.0,0.0
1782779162,150620653,-1.297901455556051,-0.3203647772418421,-2.2819669882403772,-4.759356204663412,-3.5633626619922083,1.1225634813308716,0.0,-0.0,0.0,0.0,0.0,0.0
1782779162,158616931,-1.2978413740741175,-0.32032901445497686,-2.2820146719561976,-4.759392563496725,-3.563410822545187,1.1225515604019165,0.0,-0.0,0.0,0.0,0.0,0.0
1782779162,166616839,-1.2978289763080042,-0.3202927748309534,-2.2820146719561976,-4.759392563496725,-3.5633626619922083,1.122611403465271,0.0,-0.0,0.0,0.0,0.0,0.0
1782779162,174613395,-1.2978289763080042,-0.3203166166888636,-2.2820385138141077,-4.7593682448016565,-3.563446585332052,1.1225275993347168,0.0,-0.0,0.0,0.0,0.0,0.0
1782779162,182608858,-1.2978413740741175,-0.32034093538393194,-2.2820027510272425,-4.759356204663412,-3.5633986631976526,1.1225634813308716,0.0,-0.0,0.0,0.0,0.0,0.0
1782779162,190628285,-1.2978652159320276,-0.32034093538393194,-2.2819908300982874,-4.759356204663412,-3.5633626619922083,1.1225634813308716,0.0,-0.0,0.0,0.0,0.0,0.0
1782779162,198576026,-1.297805134450094,-0.3203046957599085,-2.2819669882403772,-4.759332243596212,-3.563422743474142,1.1226470470428467,0.0,-0.0,0.0,0.0,0.0,0.0
1782779162,206623859,-1.2978652159320276,-0.32034093538393194,-2.2820146719561976,-4.759344283734457,-3.5633986631976526,1.1225275993347168,0.0,-0.0,0.0,0.0,0.0,0.0
1782779162,214622971,-1.2978289763080042,-0.32032901445497686,-2.2820146719561976,-4.7593082825290125,-3.563422743474142,1.1225634813308716,0.0,-0.0,0.0,0.0,0.0,0.0
1782779162,222629878,-1.2978413740741175,-0.3203046957599085,-2.2820027510272425,-4.759332243596212,-3.5633986631976526,1.1225155591964722,0.0,-0.0,0.0,0.0,0.0,0.0
1782779162,230640490,-1.2978289763080042,-0.320352856312887,-2.2819908300982874,-4.7593682448016565,-3.563434664403097,1.1225874423980713,0.0,-0.0,0.0,0.0,0.0,0.0
1782779162,238749212,-1.2978289763080042,-0.32034093538393194,-2.2819669882403772,-4.759332243596212,-3.5633748213397425,1.122611403465271,0.0,-0.0,0.0,0.0,0.0,0.0
1782779162,246702416,-1.297793213521139,-0.32032901445497686,-2.2820265928851526,-4.759332243596212,-3.5633867422686976,1.1225515604019165,0.0,-0.0,0.0,0.0,0.0,0.0
1782779162,286738955,-1.2978413740741175,-0.3203647772418421,-2.2820385138141077,-4.759380165730612,-3.5633867422686976,1.1225755214691162,0.0,-0.0,0.0,0.0,0.0,0.0
1782779162,294869770,-1.2978175322162073,-0.32037669817079717,-2.2820027510272425,-4.759344283734457,-3.5633748213397425,1.1225634813308716,0.0,-0.0,0.0,0.0,0.0,0.0
1782779162,302685289,-1.2978413740741175,-0.3203647772418421,-2.282050911580221,-4.759392563496725,-3.5633748213397425,1.1225755214691162,0.0,-0.0,0.0,0.0,0.0,0.0
1782779162,310746456,-1.297805134450094,-0.3203166166888636,-2.2820027510272425,-4.7593682448016565,-3.5633507410632532,1.1225755214691162,0.0,-0.0,0.0,0.0,0.0,0.0
1782779162,320722229,-1.297805134450094,-0.320352856312887,-2.2819908300982874,-4.759332243596212,-3.5633986631976526,1.1225634813308716,0.0,-0.0,0.0,0.0,0.0,0.0
1782779162,326850160,-1.297805134450094,-0.320352856312887,-2.2819908300982874,-4.759332243596212,-3.5633986631976526,1.1225634813308716,0.0,-0.0,0.0,0.0,0.0,0.0
1782779162,366726754,-1.2978413740741175,-0.3202927748309534,-2.281955067311422,-4.759380165730612,-3.5633748213397425,1.1225755214691162,0.0,-0.0,0.0,0.0,0.0,0.0
1782779162,374640051,-1.2978532950030726,-0.3202927748309534,-2.2819908300982874,-4.7593682448016565,-3.563434664403097,1.1225515604019165,0.0,-0.0,0.0,0.0,0.0,0.0
1782779162,382640014,-1.2977812925921839,-0.3203046957599085,-2.2820027510272425,-4.759344283734457,-3.5633986631976526,1.1225755214691162,0.0,-0.0,0.0,0.0,0.0,0.0
1782779162,390771440,-1.2978413740741175,-0.32032901445497686,-2.2820146719561976,-4.759344283734457,-3.5633748213397425,1.1225634813308716,0.0,-0.0,0.0,0.0,0.0,0.0
1782779162,398919274,-1.2978413740741175,-0.3203647772418421,-2.282050911580221,-4.7593682448016565,-3.563422743474142,1.1225755214691162,0.0,-0.0,0.0,0.0,0.0,0.0
1782779162,406638849,-1.2978532950030726,-0.3202927748309534,-2.2820385138141077,-4.7593682448016565,-3.563410822545187,1.1225515604019165,0.0,-0.0,0.0,0.0,0.0,0.0
1782779162,415097903,-1.2978289763080042,-0.32028085390199834,-2.2820265928851526,-4.759320322667257,-3.5633748213397425,1.122599482536316,0.0,-0.0,0.0,0.0,0.0,0.0
1782779162,422612683,-1.297805134450094,-0.3203046957599085,-2.2820146719561976,-4.759392563496725,-3.5633507410632532,1.1225755214691162,0.0,-0.0,0.0,0.0,0.0,0.0
1782779162,430625831,-1.2978289763080042,-0.320352856312887,-2.2820027510272425,-4.759344283734457,-3.5633986631976526,1.122599482536316,0.0,-0.0,0.0,0.0,0.0,0.0
1782779162,438615924,-1.297793213521139,-0.32032901445497686,-2.2820385138141077,-4.759332243596212,-3.5633748213397425,1.1225155591964722,0.0,-0.0,0.0,0.0,0.0,0.0
1782779162,446714850,-1.2978289763080042,-0.3203166166888636,-2.2819908300982874,-4.759344283734457,-3.5633986631976526,1.122635006904602,0.0,-0.0,0.0,0.0,0.0,0.0
1782779162,455605978,-1.2978532950030726,-0.3203046957599085,-2.2819908300982874,-4.759296361600057,-3.5633748213397425,1.122599482536316,0.0,-0.0,0.0,0.0,0.0,0.0
1782779162,462883832,-1.2978532950030726,-0.3203046957599085,-2.2819908300982874,-4.759296361600057,-3.5633748213397425,1.122599482536316,0.0,-0.0,0.0,0.0,0.0,0.0
1782779162,470642796,-1.2978289763080042,-0.320352856312887,-2.2819789091693323,-4.7593682448016565,-3.563410822545187,1.1225515604019165,0.0,-0.0,0.0,0.0,0.0,0.0
1782779162,479070351,-1.2978532950030726,-0.320352856312887,-2.2819789091693323,-4.759344283734457,-3.5633507410632532,1.1225634813308716,0.0,-0.0,0.0,0.0,0.0,0.0
1782779162,487117869,-1.2978175322162073,-0.32028085390199834,-2.2819789091693323,-4.759344283734457,-3.563434664403097,1.122599482536316,0.0,-0.0,0.0,0.0,0.0,0.0
1782779162,494633315,-1.2978289763080042,-0.32032901445497686,-2.2820146719561976,-4.759392563496725,-3.563422743474142,1.1225755214691162,0.0,-0.0,0.0,0.0,0.0,0.0
1782779162,502824982,-1.2978652159320276,-0.32034093538393194,-2.2819669882403772,-4.759344283734457,-3.5633748213397425,1.1225515604019165,0.0,-0.0,0.0,0.0,0.0,0.0
1782779162,514656751,-1.2978175322162073,-0.3203166166888636,-2.2820027510272425,-4.7593682448016565,-3.563410822545187,1.122599482536316,0.0,-0.0,0.0,0.0,0.0,0.0
1782779162,519893869,-1.2978175322162073,-0.3203166166888636,-2.2820027510272425,-4.7593682448016565,-3.563410822545187,1.122599482536316,0.0,-0.0,0.0,0.0,0.0,0.0
1782779162,526625242,-1.2978289763080042,-0.32028085390199834,-2.2820265928851526,-4.759344283734457,-3.563422743474142,1.1225755214691162,0.0,-0.0,0.0,0.0,0.0,0.0
1782779162,534704668,-1.2978652159320276,-0.3203166166888636,-2.2820146719561976,-4.759392563496725,-3.5633867422686976,1.1225755214691162,0.0,-0.0,0.0,0.0,0.0,0.0
1782779162,542942464,-1.2978289763080042,-0.3203647772418421,-2.2820385138141077,-4.759380165730612,-3.563422743474142,1.1225634813308716,0.0,-0.0,0.0,0.0,0.0,0.0
1782779162,550623891,-1.2978413740741175,-0.320352856312887,-2.281955067311422,-4.759356204663412,-3.563410822545187,1.1225755214691162,0.0,-0.0,0.0,0.0,0.0,0.0
1782779162,558624836,-1.2978289763080042,-0.32032901445497686,-2.282050911580221,-4.7593682448016565,-3.5633986631976526,1.122599482536316,0.0,-0.0,0.0,0.0,0.0,0.0
1782779162,574237078,-1.2978413740741175,-0.32037669817079717,-2.2820027510272425,-4.7593682448016565,-3.5633867422686976,1.122599482536316,0.0,-0.0,0.0,0.0,0.0,0.0
1782779162,582611633,-1.2978413740741175,-0.3203647772418421,-2.2820146719561976,-4.759296361600057,-3.5633986631976526,1.122599482536316,0.0,-0.0,0.0,0.0,0.0,0.0
1782779162,590636319,-1.2978413740741175,-0.32032901445497686,-2.2820385138141077,-4.759332243596212,-3.563422743474142,1.1225275993347168,0.0,-0.0,0.0,0.0,0.0,0.0
1782779162,598618801,-1.2978652159320276,-0.320352856312887,-2.2819908300982874,-4.759344283734457,-3.563410822545187,1.1225634813308716,0.0,-0.0,0.0,0.0,0.0,0.0
1782779162,607013245,-1.2978532950030726,-0.3203647772418421,-2.2820146719561976,-4.759356204663412,-3.563446585332052,1.1225634813308716,0.0,-0.0,0.0,0.0,0.0,0.0
1782779162,616844037,-1.2978175322162073,-0.32034093538393194,-2.2820146719561976,-4.759356204663412,-3.5633626619922083,1.122599482536316,0.0,-0.0,0.0,0.0,0.0,0.0
1782779162,630725450,-1.2978175322162073,-0.32032901445497686,-2.2820146719561976,-4.759344283734457,-3.563410822545187,1.1225874423980713,0.0,-0.0,0.0,0.0,0.0,0.0
1782779162,639222208,-1.2978175322162073,-0.3203166166888636,-2.2819669882403772,-4.759380165730612,-3.5633626619922083,1.1225634813308716,0.0,-0.0,0.0,0.0,0.0,0.0
1782779162,647123709,-1.2978771368609827,-0.320352856312887,-2.2819789091693323,-4.759380165730612,-3.563422743474142,1.122623085975647,0.0,-0.0,0.0,0.0,0.0,0.0
1782779162,655224802,-1.2978289763080042,-0.32034093538393194,-2.2819908300982874,-4.7594046036349695,-3.5633748213397425,1.122599482536316,0.0,-0.0,0.0,0.0,0.0,0.0
1782779162,663265302,-1.2978289763080042,-0.320352856312887,-2.282050911580221,-4.7593682448016565,-3.5633626619922083,1.122599482536316,0.0,-0.0,0.0,0.0,0.0,0.0
1782779162,671066340,-1.2978413740741175,-0.32028085390199834,-2.2819908300982874,-4.759344283734457,-3.563410822545187,1.1225755214691162,0.0,-0.0,0.0,0.0,0.0,0.0
1782779162,686091028,-1.2978289763080042,-0.3203166166888636,-2.2820146719561976,-4.759356204663412,-3.563434664403097,1.1225634813308716,0.0,-0.0,0.0,0.0,0.0,0.0
1782779162,702615601,-1.2978175322162073,-0.32034093538393194,-2.282050911580221,-4.7593682448016565,-3.563422743474142,1.1225755214691162,0.0,-0.0,0.0,0.0,0.0,0.0
1782779162,710624861,-1.2978289763080042,-0.32032901445497686,-2.2819908300982874,-4.759356204663412,-3.5633626619922083,1.1225395202636719,0.0,-0.0,0.0,0.0,0.0,0.0
1782779162,719105916,-1.297805134450094,-0.32034093538393194,-2.2819908300982874,-4.7593682448016565,-3.563410822545187,1.1225634813308716,0.0,-0.0,0.0,0.0,0.0,0.0
1782779162,726796157,-1.2978289763080042,-0.32032901445497686,-2.2819789091693323,-4.759356204663412,-3.5633748213397425,1.1225515604019165,0.0,-0.0,0.0,0.0,0.0,0.0
1782779162,746936093,-1.2978289763080042,-0.32032901445497686,-2.2819789091693323,-4.7593682448016565,-3.5633748213397425,1.1225634813308716,0.0,-0.0,0.0,0.0,0.0,0.0
1782779162,753006283,-1.2978289763080042,-0.32032901445497686,-2.2819789091693323,-4.759332243596212,-3.5633626619922083,1.1225755214691162,0.0,-0.0,0.0,0.0,0.0,0.0
1782779162,761106524,-1.297805134450094,-0.3203166166888636,-2.2819669882403772,-4.759392563496725,-3.5633867422686976,1.1225634813308716,0.0,-0.0,0.0,0.0,0.0,0.0
1782779162,768139804,-1.2978413740741175,-0.32032901445497686,-2.2820146719561976,-4.759332243596212,-3.563410822545187,1.1225874423980713,0.0,-0.0,0.0,0.0,0.0,0.0
1782779162,776360378,-1.297793213521139,-0.3203046957599085,-2.281955067311422,-4.759332243596212,-3.5633986631976526,1.122635006904602,0.0,-0.0,0.0,0.0,0.0,0.0
1782779162,783306399,-1.297793213521139,-0.3203046957599085,-2.281955067311422,-4.759332243596212,-3.5633986631976526,1.122635006904602,0.0,-0.0,0.0,0.0,0.0,0.0
1782779162,817929172,-1.297793213521139,-0.32034093538393194,-2.2820027510272425,-4.759380165730612,-3.5633626619922083,1.1225755214691162,0.0,-0.0,0.0,0.0,0.0,0.0
1782779162,822546902,-1.297805134450094,-0.3203046957599085,-2.2820027510272425,-4.759344283734457,-3.563410822545187,1.1225515604019165,0.0,-0.0,0.0,0.0,0.0,0.0
1782779162,830887383,-1.2978175322162073,-0.32032901445497686,-2.2820385138141077,-4.759356204663412,-3.5633507410632532,1.122599482536316,0.0,-0.0,0.0,0.0,0.0,0.0
1782779162,839017069,-1.297805134450094,-0.32034093538393194,-2.2819908300982874,-4.759344283734457,-3.5633986631976526,1.1225395202636719,0.0,-0.0,0.0,0.0,0.0,0.0
1782779162,846626533,-1.2978413740741175,-0.3203647772418421,-2.2819669882403772,-4.7593682448016565,-3.563422743474142,1.1225755214691162,0.0,-0.0,0.0,0.0,0.0,0.0
1782779162,862623052,-1.297793213521139,-0.32037669817079717,-2.282050911580221,-4.759344283734457,-3.5633626619922083,1.122611403465271,0.0,-0.0,0.0,0.0,0.0,0.0
1782779162,870625515,-1.2978652159320276,-0.3203166166888636,-2.2820146719561976,-4.759344283734457,-3.5633626619922083,1.1225755214691162,0.0,-0.0,0.0,0.0,0.0,0.0
1782779162,878858330,-1.2978532950030726,-0.32032901445497686,-2.2819789091693323,-4.759356204663412,-3.5633626619922083,1.1225755214691162,0.0,-0.0,0.0,0.0,0.0,0.0
1782779162,886622220,-1.2978289763080042,-0.320352856312887,-2.2820146719561976,-4.759332243596212,-3.5633867422686976,1.1225874423980713,0.0,-0.0,0.0,0.0,0.0,0.0
1782779162,902754331,-1.297805134450094,-0.32034093538393194,-2.2820146719561976,-4.7593082825290125,-3.5633748213397425,1.122599482536316,0.0,-0.0,0.0,0.0,0.0,0.0
1782779162,910730350,-1.297805134450094,-0.3203166166888636,-2.2820265928851526,-4.759356204663412,-3.563410822545187,1.1225634813308716,0.0,-0.0,0.0,0.0,0.0,0.0
1782779162,918619517,-1.2978175322162073,-0.3203046957599085,-2.2819908300982874,-4.759332243596212,-3.5633507410632532,1.1225755214691162,0.0,-0.0,0.0,0.0,0.0,0.0
1782779162,926609536,-1.2978175322162073,-0.32032901445497686,-2.2819908300982874,-4.7593682448016565,-3.5633507410632532,1.1225755214691162,0.0,-0.0,0.0,0.0,0.0,0.0
1782779162,934607499,-1.2978413740741175,-0.3203046957599085,-2.281955067311422,-4.759380165730612,-3.563422743474142,1.1225755214691162,0.0,-0.0,0.0,0.0,0.0,0.0
1782779162,942580963,-1.2978652159320276,-0.320352856312887,-2.2820385138141077,-4.759332243596212,-3.563422743474142,1.1225755214691162,0.0,-0.0,0.0,0.0,0.0,0.0
1782779162,950711352,-1.2978771368609827,-0.32032901445497686,-2.2820385138141077,-4.759356204663412,-3.563422743474142,1.1225874423980713,0.0,-0.0,0.0,0.0,0.0,0.0
1782779162,958686445,-1.2978532950030726,-0.32032901445497686,-2.2820146719561976,-4.759356204663412,-3.5633748213397425,1.1225515604019165,0.0,-0.0,0.0,0.0,0.0,0.0
1782779162,966782778,-1.2978413740741175,-0.3203166166888636,-2.282050911580221,-4.7593082825290125,-3.5633748213397425,1.1225755214691162,0.0,-0.0,0.0,0.0,0.0,0.0
1782779162,974967111,-1.297793213521139,-0.32034093538393194,-2.2820146719561976,-4.759380165730612,-3.5633867422686976,1.122611403465271,0.0,-0.0,0.0,0.0,0.0,0.0
1782779162,982629612,-1.2978413740741175,-0.32032901445497686,-2.2820385138141077,-4.759332243596212,-3.563422743474142,1.1225515604019165,0.0,-0.0,0.0,0.0,0.0,0.0
1782779162,990617205,-1.2978413740741175,-0.32032901445497686,-2.2820265928851526,-4.759356204663412,-3.5633626619922083,1.122635006904602,0.0,-0.0,0.0,0.0,0.0,0.0
1782779163,3182788,-1.2978413740741175,-0.32037669817079717,-2.2819789091693323,-4.759332243596212,-3.5633748213397425,1.1225755214691162,0.0,-0.0,0.0,0.0,0.0,0.0
1782779163,14609169,-1.2978652159320276,-0.32037669817079717,-2.2819908300982874,-4.7593682448016565,-3.563434664403097,1.122611403465271,0.0,-0.0,0.0,0.0,0.0,0.0
1782779163,22648799,-1.2978890577899378,-0.320352856312887,-2.282050911580221,-4.7593682448016565,-3.5633986631976526,1.122635006904602,0.0,-0.0,0.0,0.0,0.0,0.0
1782779163,30630670,-1.2978652159320276,-0.32032901445497686,-2.2820027510272425,-4.759344283734457,-3.5633626619922083,1.1225515604019165,0.0,-0.0,0.0,0.0,0.0,0.0
1782779163,38609707,-1.2978413740741175,-0.3203166166888636,-2.2820265928851526,-4.7593682448016565,-3.5633867422686976,1.1225634813308716,0.0,-0.0,0.0,0.0,0.0,0.0
1782779163,46612689,-1.297793213521139,-0.3203647772418421,-2.2819908300982874,-4.759332243596212,-3.563410822545187,1.1225515604019165,0.0,-0.0,0.0,0.0,0.0,0.0
1782779163,54621633,-1.2978289763080042,-0.32032901445497686,-2.2820146719561976,-4.759332243596212,-3.563422743474142,1.1225395202636719,0.0,-0.0,0.0,0.0,0.0,0.0
1782779163,62632078,-1.2978890577899378,-0.32032901445497686,-2.2820265928851526,-4.759320322667257,-3.5633507410632532,1.122611403465271,0.0,-0.0,0.0,0.0,0.0,0.0
1782779163,70624504,-1.297805134450094,-0.3203046957599085,-2.2820265928851526,-4.759416524563925,-3.5633626619922083,1.1225874423980713,0.0,-0.0,0.0,0.0,0.0,0.0
1782779163,78904486,-1.297805134450094,-0.3203046957599085,-2.2820265928851526,-4.759416524563925,-3.5633626619922083,1.1225874423980713,0.0,-0.0,0.0,0.0,0.0,0.0
1782779163,86796005,-1.2977693716632288,-0.3203647772418421,-2.2819789091693323,-4.759392563496725,-3.5633748213397425,1.1225515604019165,0.0,-0.0,0.0,0.0,0.0,0.0
1782779163,94653709,-1.2978413740741175,-0.32037669817079717,-2.2819789091693323,-4.759356204663412,-3.5633626619922083,1.1225634813308716,0.0,-0.0,0.0,0.0,0.0,0.0
1782779163,102823875,-1.2978175322162073,-0.3203647772418421,-2.2819908300982874,-4.7593682448016565,-3.5633986631976526,1.1225755214691162,0.0,-0.0,0.0,0.0,0.0,0.0
1782779163,111049857,-1.2978289763080042,-0.32032901445497686,-2.2819908300982874,-4.7593682448016565,-3.5633986631976526,1.1225395202636719,0.0,-0.0,0.0,0.0,0.0,0.0
1782779163,118634414,-1.2978289763080042,-0.32034093538393194,-2.2819789091693323,-4.759356204663412,-3.5633867422686976,1.1225395202636719,0.0,-0.0,0.0,0.0,0.0,0.0
1782779163,128769853,-1.2978532950030726,-0.32028085390199834,-2.2819908300982874,-4.759356204663412,-3.5633867422686976,1.1225395202636719,0.0,-0.0,0.0,0.0,0.0,0.0
1782779163,134745469,-1.2978532950030726,-0.3203046957599085,-2.2820265928851526,-4.759356204663412,-3.5633986631976526,1.1225515604019165,0.0,-0.0,0.0,0.0,0.0,0.0
1782779163,142650007,-1.297805134450094,-0.32032901445497686,-2.2819908300982874,-4.759320322667257,-3.5633626619922083,1.1225755214691162,0.0,-0.0,0.0,0.0,0.0,0.0
1782779163,150625322,-1.2978175322162073,-0.3203046957599085,-2.2819669882403772,-4.759344283734457,-3.5633748213397425,1.1225874423980713,0.0,-0.0,0.0,0.0,0.0,0.0
1782779163,158617322,-1.2978289763080042,-0.3202927748309534,-2.2820146719561976,-4.759428564702169,-3.563446585332052,1.122599482536316,0.0,-0.0,0.0,0.0,0.0,0.0
1782779163,166767526,-1.2978289763080042,-0.3202927748309534,-2.2820146719561976,-4.759332243596212,-3.5633867422686976,1.1225755214691162,0.0,-0.0,0.0,0.0,0.0,0.0
1782779163,189765492,-1.2978532950030726,-0.32032901445497686,-2.2820385138141077,-4.759332243596212,-3.5633748213397425,1.122623085975647,0.0,-0.0,0.0,0.0,0.0,0.0
1782779163,198643509,-1.2977812925921839,-0.320352856312887,-2.2819669882403772,-4.759344283734457,-3.563338820134298,1.1225755214691162,0.0,-0.0,0.0,0.0,0.0,0.0
1782779163,206615787,-1.2978413740741175,-0.3202927748309534,-2.2820027510272425,-4.759320322667257,-3.5633626619922083,1.1225515604019165,0.0,-0.0,0.0,0.0,0.0,0.0
1782779163,214601250,-1.2978532950030726,-0.3203647772418421,-2.2820265928851526,-4.7593682448016565,-3.5633986631976526,1.1225874423980713,0.0,-0.0,0.0,0.0,0.0,0.0
1782779163,222606640,-1.2978175322162073,-0.3203166166888636,-2.2820265928851526,-4.759344283734457,-3.563422743474142,1.1225755214691162,0.0,-0.0,0.0,0.0,0.0,0.0
1782779163,230605121,-1.2978413740741175,-0.3203647772418421,-2.2820146719561976,-4.759320322667257,-3.5633626619922083,1.1225755214691162,0.0,-0.0,0.0,0.0,0.0,0.0
1782779163,238622973,-1.2978532950030726,-0.32034093538393194,-2.2819908300982874,-4.759344283734457,-3.5633748213397425,1.1224915981292725,0.0,-0.0,0.0,0.0,0.0,0.0
1782779163,246606122,-1.2978175322162073,-0.32032901445497686,-2.2819908300982874,-4.759344283734457,-3.563410822545187,1.1225634813308716,0.0,-0.0,0.0,0.0,0.0,0.0
1782779163,254608233,-1.2978289763080042,-0.3203166166888636,-2.2819908300982874,-4.7593682448016565,-3.5633986631976526,1.1225275993347168,0.0,-0.0,0.0,0.0,0.0,0.0
1782779163,262614048,-1.2978413740741175,-0.320352856312887,-2.2820265928851526,-4.759392563496725,-3.5633748213397425,1.1225874423980713,0.0,-0.0,0.0,0.0,0.0,0.0
1782779163,270627771,-1.297805134450094,-0.32032901445497686,-2.2820027510272425,-4.759320322667257,-3.5633867422686976,1.1225874423980713,0.0,-0.0,0.0,0.0,0.0,0.0
1782779163,278636716,-1.2978289763080042,-0.32028085390199834,-2.2820146719561976,-4.759344283734457,-3.5633748213397425,1.1225755214691162,0.0,-0.0,0.0,0.0,0.0,0.0
1782779163,286695419,-1.2978175322162073,-0.3203166166888636,-2.2820265928851526,-4.7593682448016565,-3.5633507410632532,1.1225634813308716,0.0,-0.0,0.0,0.0,0.0,0.0
1782779163,294608012,-1.2978652159320276,-0.32032901445497686,-2.2819908300982874,-4.759380165730612,-3.5633748213397425,1.1225395202636719,0.0,-0.0,0.0,0.0,0.0,0.0
1782779163,302612013,-1.297805134450094,-0.32037669817079717,-2.2820265928851526,-4.759380165730612,-3.5633986631976526,1.1225755214691162,0.0,-0.0,0.0,0.0,0.0,0.0
1782779163,310644976,-1.2978289763080042,-0.32034093538393194,-2.2820146719561976,-4.7593682448016565,-3.5633867422686976,1.1225275993347168,0.0,-0.0,0.0,0.0,0.0,0.0
1782779163,318630365,-1.2978289763080042,-0.3203166166888636,-2.2819789091693323,-4.759332243596212,-3.563422743474142,1.1225395202636719,0.0,-0.0,0.0,0.0,0.0,0.0
1782779163,326597754,-1.2978175322162073,-0.320352856312887,-2.2819669882403772,-4.759332243596212,-3.5633748213397425,1.122599482536316,0.0,-0.0,0.0,0.0,0.0,0.0
1782779163,334617199,-1.2978289763080042,-0.320352856312887,-2.2820027510272425,-4.7593682448016565,-3.5633986631976526,1.122599482536316,0.0,-0.0,0.0,0.0,0.0,0.0
1782779163,342711255,-1.2978532950030726,-0.3203647772418421,-2.2820146719561976,-4.759356204663412,-3.563434664403097,1.1225755214691162,0.0,-0.0,0.0,0.0,0.0,0.0
1782779163,350897310,-1.2978175322162073,-0.320352856312887,-2.2820027510272425,-4.759344283734457,-3.563422743474142,1.1225634813308716,0.0,-0.0,0.0,0.0,0.0,0.0
1782779163,358629700,-1.2978532950030726,-0.3203166166888636,-2.2820027510272425,-4.759344283734457,-3.5633986631976526,1.122611403465271,0.0,-0.0,0.0,0.0,0.0,0.0
1782779163,366630367,-1.2978413740741175,-0.3202927748309534,-2.2820146719561976,-4.759344283734457,-3.5633748213397425,1.1225755214691162,0.0,-0.0,0.0,0.0,0.0,0.0
1782779163,374637793,-1.297793213521139,-0.32034093538393194,-2.2820146719561976,-4.759344283734457,-3.5633507410632532,1.1225755214691162,0.0,-0.0,0.0,0.0,0.0,0.0
1782779163,382894256,-1.2978652159320276,-0.320352856312887,-2.2820385138141077,-4.759392563496725,-3.5633867422686976,1.1225634813308716,0.0,-0.0,0.0,0.0,0.0,0.0
1782779163,390611979,-1.2977574507342737,-0.3203166166888636,-2.2819908300982874,-4.759380165730612,-3.563422743474142,1.1225395202636719,0.0,-0.0,0.0,0.0,0.0,0.0
1782779163,398629998,-1.2978289763080042,-0.32032901445497686,-2.2820146719561976,-4.759356204663412,-3.5633986631976526,1.1225874423980713,0.0,-0.0,0.0,0.0,0.0,0.0
1782779163,406629924,-1.2978532950030726,-0.320352856312887,-2.2819669882403772,-4.759344283734457,-3.563422743474142,1.1225634813308716,0.0,-0.0,0.0,0.0,0.0,0.0
1782779163,414656776,-1.2978175322162073,-0.3203166166888636,-2.2819908300982874,-4.759416524563925,-3.5633986631976526,1.122599482536316,0.0,-0.0,0.0,0.0,0.0,0.0
1782779163,422638128,-1.2978175322162073,-0.32028085390199834,-2.282062832509176,-4.759356204663412,-3.5633626619922083,1.1225515604019165,0.0,-0.0,0.0,0.0,0.0,0.0
1782779163,430631628,-1.2978289763080042,-0.320352856312887,-2.2820146719561976,-4.7593682448016565,-3.5633867422686976,1.1225634813308716,0.0,-0.0,0.0,0.0,0.0,0.0
1782779163,438753258,-1.2978413740741175,-0.32032901445497686,-2.2820146719561976,-4.7593682448016565,-3.5633748213397425,1.1225755214691162,0.0,-0.0,0.0,0.0,0.0,0.0
1782779163,446701073,-1.2978289763080042,-0.32034093538393194,-2.2820146719561976,-4.7593082825290125,-3.5633748213397425,1.122599482536316,0.0,-0.0,0.0,0.0,0.0,0.0
1782779163,456529106,-1.2978652159320276,-0.320352856312887,-2.2820027510272425,-4.7593682448016565,-3.563434664403097,1.1225755214691162,0.0,-0.0,0.0,0.0,0.0,0.0
