LukePepin/On-Edge/data/deceleration_data_1782763377.csv
timestamp_sec,timestamp_nanosec,shoulder_pan_pos,shoulder_lift_pos,elbow_pos,wrist_1_pos,wrist_2_pos,wrist_3_pos,shoulder_pan_vel,shoulder_lift_vel,elbow_vel,wrist_1_vel,wrist_2_vel,wrist_3_vel
1782763378,887843283,-1.8053200880633753,-0.8379748503314417,-1.9944198767291468,-4.610817734395162,-3.563087050114767,1.7938542366027832,0.0,-0.0,0.0,0.0,0.0,0.0
1782763378,895798682,-1.8053200880633753,-0.8379748503314417,-1.9944198767291468,-4.610817734395162,-3.563087050114767,1.7938542366027832,0.0,-0.0,0.0,0.0,0.0,0.0
1782763378,911306278,-1.8053682486163538,-0.8380106131183069,-1.9944561163531702,-4.610757891331808,-3.5631230513202112,1.7938542366027832,0.0,-0.0,0.0,0.0,0.0,0.0
1782763378,927648573,-1.8053439299212855,-0.8380463759051722,-1.994443718587057,-4.610769812260763,-3.5630632082568567,1.7938902378082275,0.0,-0.0,0.0,0.0,0.0,0.0
1782763378,930375021,-1.8053439299212855,-0.8380463759051722,-1.994443718587057,-4.610769812260763,-3.5630632082568567,1.7938902378082275,0.0,-0.0,0.0,0.0,0.0,0.0
1782763378,946018838,-1.8053558508502405,-0.8379986921893519,-1.994443718587057,-4.610769812260763,-3.5630632082568567,1.7937943935394287,0.0,-0.0,0.0,0.0,0.0,0.0
1782763378,959414576,-1.8053081671344202,-0.8379867712603968,-1.9944680372821253,-4.610721890126364,-3.5630632082568567,1.7938542366027832,0.0,-0.0,0.0,0.0,0.0,0.0
1782763378,967306716,-1.8053682486163538,-0.8379624525653284,-1.9944317976581019,-4.610769812260763,-3.5630512873279017,1.7938662767410278,0.0,-0.0,0.0,0.0,0.0,0.0
1782763379,10518412,-1.8053682486163538,-0.8379748503314417,-1.9943960348712366,-4.610769812260763,-3.563087050114767,1.7937943935394287,0.0,-0.0,0.0,0.0,0.0,0.0
1782763379,23476245,-1.8053200880633753,-0.8380106131183069,-1.9943841139422815,-4.610757891331808,-3.5631230513202112,1.7938423156738281,0.0,-0.0,0.0,0.0,0.0,0.0
1782763379,31316922,-1.8052962462054651,-0.838022534047262,-1.9944079558001917,-4.610781852399008,-3.5631230513202112,1.7937943935394287,0.0,-0.0,0.0,0.0,0.0,0.0
1782763379,39300746,-1.8053200880633753,-0.838022534047262,-1.9944561163531702,-4.610757891331808,-3.563087050114767,1.7938542366027832,0.0,-0.0,0.0,0.0,0.0,0.0
1782763379,47417126,-1.8053439299212855,-0.8379986921893519,-1.994347874318258,-4.610733811055319,-3.5631349722491663,1.7938302755355835,0.0,-0.0,0.0,0.0,0.0,0.0
1782763379,55300340,-1.8053682486163538,-0.8379986921893519,-1.9943960348712366,-4.610793773327963,-3.563099209462301,1.7938302755355835,0.0,-0.0,0.0,0.0,0.0,0.0
1782763379,63303349,-1.8053682486163538,-0.8379986921893519,-1.9943960348712366,-4.610757891331808,-3.5630512873279017,1.7938423156738281,0.0,-0.0,0.0,0.0,0.0,0.0
1782763379,71453821,-1.8053558508502405,-0.8380106131183069,-1.9943960348712366,-4.610793773327963,-3.563111130391256,1.7938063144683838,0.0,-0.0,0.0,0.0,0.0,0.0
1782763379,79375924,-1.8053558508502405,-0.8379986921893519,-1.9944317976581019,-4.610769812260763,-3.563087050114767,1.7938542366027832,0.0,-0.0,0.0,0.0,0.0,0.0
1782763379,87345045,-1.8053558508502405,-0.8379748503314417,-1.9944079558001917,-4.610769812260763,-3.5631349722491663,1.7938183546066284,0.0,-0.0,0.0,0.0,0.0,0.0
1782763379,95358517,-1.8053558508502405,-0.8379867712603968,-1.9943960348712366,-4.610793773327963,-3.563087050114767,1.7938063144683838,0.0,-0.0,0.0,0.0,0.0,0.0
1782763379,103993245,-1.8053439299212855,-0.8379867712603968,-1.9943960348712366,-4.610721890126364,-3.5630632082568567,1.7938302755355835,0.0,-0.0,0.0,0.0,0.0,0.0
1782763379,111305055,-1.8053320089923304,-0.8380106131183069,-1.994443718587057,-4.610817734395162,-3.563111130391256,1.7938183546066284,0.0,-0.0,0.0,0.0,0.0,0.0
1782763379,119343453,-1.8053801695453089,-0.8380344549762171,-1.9944317976581019,-4.610745851193563,-3.563087050114767,1.7938183546066284,0.0,-0.0,0.0,0.0,0.0,0.0
1782763379,127364481,-1.8053558508502405,-0.8379867712603968,-1.9944198767291468,-4.610745851193563,-3.5630632082568567,1.7938302755355835,0.0,-0.0,0.0,0.0,0.0,0.0
1782763379,135383898,-1.8053801695453089,-0.8380106131183069,-1.9944317976581019,-4.610817734395162,-3.5631590525256556,1.7938423156738281,0.0,-0.0,0.0,0.0,0.0,0.0
1782763379,143297742,-1.8053439299212855,-0.8379867712603968,-1.994443718587057,-4.610781852399008,-3.563099209462301,1.793878197669983,0.0,-0.0,0.0,0.0,0.0,0.0
1782763379,151432787,-1.8053682486163538,-0.8379986921893519,-1.9944198767291468,-4.610793773327963,-3.5630632082568567,1.793878197669983,0.0,-0.0,0.0,0.0,0.0,0.0
1782763379,159325835,-1.8053558508502405,-0.8380463759051722,-1.9943960348712366,-4.610793773327963,-3.563087050114767,1.793782353401184,0.0,-0.0,0.0,0.0,0.0,0.0
1782763379,167322437,-1.8053801695453089,-0.8380106131183069,-1.9944198767291468,-4.610757891331808,-3.563075129185812,1.793782353401184,0.0,-0.0,0.0,0.0,0.0,0.0
1782763379,175358983,-1.8053081671344202,-0.838022534047262,-1.9944198767291468,-4.610781852399008,-3.563087050114767,1.7938183546066284,0.0,-0.0,0.0,0.0,0.0,0.0
1782763379,183301049,-1.8053200880633753,-0.8379748503314417,-1.9944317976581019,-4.610793773327963,-3.5631230513202112,1.7938542366027832,0.0,-0.0,0.0,0.0,0.0,0.0
1782763379,191488094,-1.8053200880633753,-0.8379986921893519,-1.9943721930133265,-4.610769812260763,-3.563075129185812,1.7938183546066284,0.0,-0.0,0.0,0.0,0.0,0.0
1782763379,199292661,-1.8053200880633753,-0.838022534047262,-1.994443718587057,-4.610769812260763,-3.563099209462301,1.7938902378082275,0.0,-0.0,0.0,0.0,0.0,0.0
1782763379,215298847,-1.805392090474264,-0.8380106131183069,-1.994443718587057,-4.610757891331808,-3.563099209462301,1.7938302755355835,0.0,-0.0,0.0,0.0,0.0,0.0
1782763379,223294615,-1.8053558508502405,-0.8379986921893519,-1.9944317976581019,-4.610781852399008,-3.563075129185812,1.7938183546066284,0.0,-0.0,0.0,0.0,0.0,0.0
1782763379,231332421,-1.8053200880633753,-0.8380106131183069,-1.9944079558001917,-4.610793773327963,-3.5630632082568567,1.7937943935394287,0.0,-0.0,0.0,0.0,0.0,0.0
1782763379,239318746,-1.8053558508502405,-0.8379505316363733,-1.9944079558001917,-4.610793773327963,-3.563075129185812,1.7938302755355835,0.0,-0.0,0.0,0.0,0.0,0.0
1782763379,247320940,-1.8053439299212855,-0.8379986921893519,-1.994443718587057,-4.610829774533407,-3.563087050114767,1.7938662767410278,0.0,-0.0,0.0,0.0,0.0,0.0
1782763379,255390968,-1.8052962462054651,-0.8379867712603968,-1.9943960348712366,-4.610829774533407,-3.5630512873279017,1.7938542366027832,0.0,-0.0,0.0,0.0,0.0,0.0
1782763379,263320793,-1.8053320089923304,-0.8379986921893519,-1.9944317976581019,-4.610757891331808,-3.5631230513202112,1.7938183546066284,0.0,-0.0,0.0,0.0,0.0,0.0
1782763379,271317988,-1.8053200880633753,-0.838022534047262,-1.9944079558001917,-4.610781852399008,-3.5630632082568567,1.7938423156738281,0.0,-0.0,0.0,0.0,0.0,0.0
1782763379,279355108,-1.8053682486163538,-0.8379867712603968,-1.994443718587057,-4.610793773327963,-3.563111130391256,1.7938662767410278,0.0,-0.0,0.0,0.0,0.0,0.0
1782763379,287376951,-1.8053801695453089,-0.838022534047262,-1.9944198767291468,-4.610781852399008,-3.5630632082568567,1.7938183546066284,0.0,-0.0,0.0,0.0,0.0,0.0
1782763379,295325979,-1.8053558508502405,-0.8379867712603968,-1.9944198767291468,-4.610745851193563,-3.5631230513202112,1.7938423156738281,0.0,-0.0,0.0,0.0,0.0,0.0
1782763379,303306248,-1.8053320089923304,-0.8379867712603968,-1.9944079558001917,-4.610733811055319,-3.563099209462301,1.7938302755355835,0.0,-0.0,0.0,0.0,0.0,0.0
1782763379,311327443,-1.8053439299212855,-0.8379624525653284,-1.9944198767291468,-4.610769812260763,-3.5630632082568567,1.793782353401184,0.0,-0.0,0.0,0.0,0.0,0.0
1782763379,319332230,-1.8053558508502405,-0.8379867712603968,-1.9944198767291468,-4.610757891331808,-3.5630632082568567,1.7938063144683838,0.0,-0.0,0.0,0.0,0.0,0.0
1782763379,327324222,-1.8053439299212855,-0.838022534047262,-1.9944079558001917,-4.610733811055319,-3.563087050114767,1.7938423156738281,0.0,-0.0,0.0,0.0,0.0,0.0
1782763379,335319065,-1.8053320089923304,-0.8379505316363733,-1.9944198767291468,-4.610781852399008,-3.563099209462301,1.7938662767410278,0.0,-0.0,0.0,0.0,0.0,0.0
1782763379,343318130,-1.8053320089923304,-0.8379748503314417,-1.9944317976581019,-4.610781852399008,-3.563111130391256,1.7937943935394287,0.0,-0.0,0.0,0.0,0.0,0.0
1782763379,351312547,-1.8053439299212855,-0.8379748503314417,-1.994443718587057,-4.610757891331808,-3.563099209462301,1.7938542366027832,0.0,-0.0,0.0,0.0,0.0,0.0
1782763379,359292334,-1.8053439299212855,-0.8379748503314417,-1.9944079558001917,-4.610745851193563,-3.5630512873279017,1.7938302755355835,0.0,-0.0,0.0,0.0,0.0,0.0
1782763379,367304344,-1.805392090474264,-0.8379748503314417,-1.9944317976581019,-4.610745851193563,-3.563075129185812,1.7937943935394287,0.0,-0.0,0.0,0.0,0.0,0.0
1782763379,375335890,-1.8053682486163538,-0.8379748503314417,-1.9944317976581019,-4.610781852399008,-3.563111130391256,1.7938542366027832,0.0,-0.0,0.0,0.0,0.0,0.0
1782763379,383295344,-1.8053320089923304,-0.838022534047262,-1.9943960348712366,-4.610805813466207,-3.563111130391256,1.7938302755355835,0.0,-0.0,0.0,0.0,0.0,0.0
1782763379,391290539,-1.8053558508502405,-0.8379748503314417,-1.9944198767291468,-4.610805813466207,-3.5630512873279017,1.7937703132629395,0.0,-0.0,0.0,0.0,0.0,0.0
1782763379,399309549,-1.8053558508502405,-0.8379986921893519,-1.9943960348712366,-4.610769812260763,-3.563087050114767,1.7938183546066284,0.0,-0.0,0.0,0.0,0.0,0.0
1782763379,407307595,-1.8053320089923304,-0.8380587736712855,-1.9943841139422815,-4.610781852399008,-3.563099209462301,1.7938183546066284,0.0,-0.0,0.0,0.0,0.0,0.0
1782763379,415355512,-1.8053558508502405,-0.8379867712603968,-1.9944079558001917,-4.610757891331808,-3.563099209462301,1.7938183546066284,0.0,-0.0,0.0,0.0,0.0,0.0
1782763379,423291355,-1.8053558508502405,-0.8380106131183069,-1.9944079558001917,-4.610769812260763,-3.5630632082568567,1.7938183546066284,0.0,-0.0,0.0,0.0,0.0,0.0
1782763379,431289606,-1.8053439299212855,-0.8379867712603968,-1.9944198767291468,-4.610769812260763,-3.563087050114767,1.7938183546066284,0.0,-0.0,0.0,0.0,0.0,0.0
1782763379,439297467,-1.8053439299212855,-0.8380706946002405,-1.9944561163531702,-4.610733811055319,-3.5630632082568567,1.7938063144683838,0.0,-0.0,0.0,0.0,0.0,0.0
1782763379,447298106,-1.8053200880633753,-0.8379624525653284,-1.9943960348712366,-4.610781852399008,-3.5630391279803675,1.7938063144683838,0.0,-0.0,0.0,0.0,0.0,0.0
1782763379,455312727,-1.8053200880633753,-0.8379624525653284,-1.9944317976581019,-4.610781852399008,-3.563075129185812,1.7938183546066284,0.0,-0.0,0.0,0.0,0.0,0.0
1782763379,463338607,-1.8053200880633753,-0.838022534047262,-1.9943960348712366,-4.610769812260763,-3.563075129185812,1.7938183546066284,0.0,-0.0,0.0,0.0,0.0,0.0
1782763379,471305006,-1.8053200880633753,-0.8379748503314417,-1.9944317976581019,-4.610793773327963,-3.563111130391256,1.7938063144683838,0.0,-0.0,0.0,0.0,0.0,0.0
1782763379,479306423,-1.8053558508502405,-0.8380106131183069,-1.9943721930133265,-4.610805813466207,-3.563087050114767,1.793782353401184,0.0,-0.0,0.0,0.0,0.0,0.0
1782763379,487303766,-1.8053320089923304,-0.8379867712603968,-1.9943960348712366,-4.610817734395162,-3.5630272070514124,1.7937703132629395,0.0,-0.0,0.0,0.0,0.0,0.0
1782763379,495309979,-1.8053439299212855,-0.8379867712603968,-1.9944680372821253,-4.610721890126364,-3.563111130391256,1.7938662767410278,0.0,-0.0,0.0,0.0,0.0,0.0
1782763379,503298896,-1.8053558508502405,-0.8379624525653284,-1.9943960348712366,-4.610817734395162,-3.563087050114767,1.7938662767410278,0.0,-0.0,0.0,0.0,0.0,0.0
1782763379,511307868,-1.8053682486163538,-0.8379748503314417,-1.9944079558001917,-4.610793773327963,-3.5630512873279017,1.7938183546066284,0.0,-0.0,0.0,0.0,0.0,0.0
1782763379,519381063,-1.8053320089923304,-0.8380587736712855,-1.9944317976581019,-4.610793773327963,-3.5630512873279017,1.7938542366027832,0.0,-0.0,0.0,0.0,0.0,0.0
1782763379,527304277,-1.8053320089923304,-0.838022534047262,-1.9944680372821253,-4.610793773327963,-3.563111130391256,1.7938662767410278,0.0,-0.0,0.0,0.0,0.0,0.0
1782763379,535306601,-1.8053200880633753,-0.8380344549762171,-1.9944198767291468,-4.610733811055319,-3.5630512873279017,1.7937943935394287,0.0,-0.0,0.0,0.0,0.0,0.0
1782763379,543323629,-1.8053558508502405,-0.8379867712603968,-1.9944079558001917,-4.610781852399008,-3.563075129185812,1.7938302755355835,0.0,-0.0,0.0,0.0,0.0,0.0
1782763379,551333176,-1.8053558508502405,-0.8380344549762171,-1.994443718587057,-4.610745851193563,-3.563075129185812,1.7937943935394287,0.0,-0.0,0.0,0.0,0.0,0.0
1782763379,559306519,-1.8053801695453089,-0.8379748503314417,-1.9943960348712366,-4.610805813466207,-3.5630512873279017,1.7938542366027832,0.0,-0.0,0.0,0.0,0.0,0.0
1782763379,567304213,-1.8053320089923304,-0.8379748503314417,-1.9944680372821253,-4.610769812260763,-3.563087050114767,1.7938542366027832,0.0,-0.0,0.0,0.0,0.0,0.0
1782763379,575298964,-1.8053320089923304,-0.8380106131183069,-1.9943841139422815,-4.610805813466207,-3.563075129185812,1.7938423156738281,0.0,-0.0,0.0,0.0,0.0,0.0
1782763379,583299696,-1.8053081671344202,-0.8380106131183069,-1.9944680372821253,-4.610817734395162,-3.563111130391256,1.7938063144683838,0.0,-0.0,0.0,0.0,0.0,0.0
1782763379,591294335,-1.8053558508502405,-0.8379986921893519,-1.9944198767291468,-4.610769812260763,-3.563111130391256,1.7937943935394287,0.0,-0.0,0.0,0.0,0.0,0.0
1782763379,599299400,-1.8053439299212855,-0.8379748503314417,-1.9944561163531702,-4.610781852399008,-3.5631230513202112,1.7938063144683838,0.0,-0.0,0.0,0.0,0.0,0.0
1782763379,607331946,-1.8053081671344202,-0.8379867712603968,-1.994443718587057,-4.610769812260763,-3.5630512873279017,1.7938423156738281,0.0,-0.0,0.0,0.0,0.0,0.0
1782763379,615309104,-1.8053682486163538,-0.8379986921893519,-1.9943960348712366,-4.610793773327963,-3.563099209462301,1.7938183546066284,0.0,-0.0,0.0,0.0,0.0,0.0
1782763379,623375354,-1.8053200880633753,-0.8379748503314417,-1.9943960348712366,-4.610781852399008,-3.5630512873279017,1.7938063144683838,0.0,-0.0,0.0,0.0,0.0,0.0
1782763379,631313920,-1.8053439299212855,-0.8380587736712855,-1.9943960348712366,-4.610793773327963,-3.563111130391256,1.7938302755355835,0.0,-0.0,0.0,0.0,0.0,0.0
1782763379,639300059,-1.8053558508502405,-0.838022534047262,-1.994443718587057,-4.610709849988119,-3.563099209462301,1.7938063144683838,0.0,-0.0,0.0,0.0,0.0,0.0
1782763379,647334050,-1.8053558508502405,-0.8379867712603968,-1.9943841139422815,-4.610805813466207,-3.563075129185812,1.7938423156738281,0.0,-0.0,0.0,0.0,0.0,0.0
1782763379,655312060,-1.8053558508502405,-0.8380463759051722,-1.9944198767291468,-4.610817734395162,-3.5630512873279017,1.7938542366027832,0.0,-0.0,0.0,0.0,0.0,0.0
1782763379,663317588,-1.80528432527651,-0.8379986921893519,-1.9943960348712366,-4.610793773327963,-3.563075129185812,1.7938302755355835,0.0,-0.0,0.0,0.0,0.0,0.0
1782763379,671335634,-1.8053801695453089,-0.838022534047262,-1.9943841139422815,-4.610745851193563,-3.5630632082568567,1.7938662767410278,0.0,-0.0,0.0,0.0,0.0,0.0
1782763379,679314440,-1.8053320089923304,-0.8379986921893519,-1.9944198767291468,-4.610757891331808,-3.5630391279803675,1.7937703132629395,0.0,-0.0,0.0,0.0,0.0,0.0
1782763379,687304857,-1.8053558508502405,-0.8379986921893519,-1.9943960348712366,-4.610769812260763,-3.563111130391256,1.7938063144683838,0.0,-0.0,0.0,0.0,0.0,0.0
1782763379,695326385,-1.805392090474264,-0.8379748503314417,-1.9943960348712366,-4.610793773327963,-3.5630632082568567,1.7938063144683838,0.0,-0.0,0.0,0.0,0.0,0.0
1782763379,703302451,-1.8053439299212855,-0.8379986921893519,-1.9943841139422815,-4.610805813466207,-3.563111130391256,1.7938183546066284,0.0,-0.0,0.0,0.0,0.0,0.0
1782763379,711316701,-1.8053320089923304,-0.8379986921893519,-1.9944561163531702,-4.610817734395162,-3.563111130391256,1.7938183546066284,0.0,-0.0,0.0,0.0,0.0,0.0
1782763379,719327859,-1.8053682486163538,-0.8379748503314417,-1.9944079558001917,-4.610781852399008,-3.563099209462301,1.7938423156738281,0.0,-0.0,0.0,0.0,0.0,0.0
1782763379,727309054,-1.8053682486163538,-0.8380106131183069,-1.994443718587057,-4.610817734395162,-3.5630632082568567,1.7938302755355835,0.0,-0.0,0.0,0.0,0.0,0.0
1782763379,735303137,-1.8053200880633753,-0.8379986921893519,-1.9943841139422815,-4.610817734395162,-3.563099209462301,1.7938423156738281,0.0,-0.0,0.0,0.0,0.0,0.0
1782763379,743296684,-1.8053320089923304,-0.8379748503314417,-1.9943960348712366,-4.610769812260763,-3.563099209462301,1.7938183546066284,0.0,-0.0,0.0,0.0,0.0,0.0
1782763379,751335990,-1.8053439299212855,-0.8380344549762171,-1.994443718587057,-4.610757891331808,-3.563111130391256,1.7938183546066284,0.0,-0.0,0.0,0.0,0.0,0.0
1782763379,759318036,-1.8053439299212855,-0.8379748503314417,-1.9944198767291468,-4.610757891331808,-3.563099209462301,1.7938423156738281,0.0,-0.0,0.0,0.0,0.0,0.0
1782763379,767295676,-1.8053439299212855,-0.8379748503314417,-1.9943960348712366,-4.610733811055319,-3.5630391279803675,1.7938423156738281,0.0,-0.0,0.0,0.0,0.0,0.0
1782763379,775307519,-1.80528432527651,-0.8380344549762171,-1.9944079558001917,-4.610781852399008,-3.563111130391256,1.7938183546066284,0.0,-0.0,0.0,0.0,0.0,0.0
1782763379,783318565,-1.8053801695453089,-0.8379986921893519,-1.994443718587057,-4.610781852399008,-3.563087050114767,1.7938423156738281,0.0,-0.0,0.0,0.0,0.0,0.0
1782763379,791303353,-1.8053801695453089,-0.8379748503314417,-1.9943960348712366,-4.610733811055319,-3.5630512873279017,1.7938302755355835,0.0,-0.0,0.0,0.0,0.0,0.0
1782763379,799324807,-1.8053200880633753,-0.8380344549762171,-1.994443718587057,-4.610745851193563,-3.5630272070514124,1.7938302755355835,0.0,-0.0,0.0,0.0,0.0,0.0
1782763379,807309964,-1.8053320089923304,-0.8379867712603968,-1.9944198767291468,-4.610793773327963,-3.5630632082568567,1.793782353401184,0.0,-0.0,0.0,0.0,0.0,0.0
1782763379,815316900,-1.8053439299212855,-0.8379748503314417,-1.9943960348712366,-4.610745851193563,-3.563099209462301,1.7938302755355835,0.0,-0.0,0.0,0.0,0.0,0.0
1782763379,823308502,-1.8053200880633753,-0.8379867712603968,-1.9944317976581019,-4.610805813466207,-3.563111130391256,1.7938423156738281,0.0,-0.0,0.0,0.0,0.0,0.0
1782763379,831330826,-1.8052962462054651,-0.8380344549762171,-1.994443718587057,-4.610769812260763,-3.563087050114767,1.7938183546066284,0.0,-0.0,0.0,0.0,0.0,0.0
1782763379,839299688,-1.8053439299212855,-0.8380106131183069,-1.9944317976581019,-4.610793773327963,-3.563111130391256,1.7938183546066284,0.0,-0.0,0.0,0.0,0.0,0.0
1782763379,847305790,-1.8053682486163538,-0.8379748503314417,-1.9943960348712366,-4.610793773327963,-3.5630391279803675,1.793878197669983,0.0,-0.0,0.0,0.0,0.0,0.0
1782763379,855305633,-1.8053200880633753,-0.838022534047262,-1.9944198767291468,-4.610745851193563,-3.563111130391256,1.7938063144683838,0.0,-0.0,0.0,0.0,0.0,0.0
1782763379,863317828,-1.8053081671344202,-0.8379748503314417,-1.9943960348712366,-4.610769812260763,-3.563075129185812,1.793782353401184,0.0,-0.0,0.0,0.0,0.0,0.0
1782763379,871300560,-1.8053439299212855,-0.8379748503314417,-1.9943841139422815,-4.610769812260763,-3.563087050114767,1.7938423156738281,0.0,-0.0,0.0,0.0,0.0,0.0
1782763379,879351310,-1.8053081671344202,-0.838022534047262,-1.9943721930133265,-4.610793773327963,-3.563111130391256,1.7938302755355835,0.0,-0.0,0.0,0.0,0.0,0.0
1782763379,887301579,-1.8053682486163538,-0.8380344549762171,-1.9944198767291468,-4.610793773327963,-3.5630632082568567,1.7938183546066284,0.0,-0.0,0.0,0.0,0.0,0.0
1782763379,895304700,-1.8053439299212855,-0.8380106131183069,-1.9944079558001917,-4.610733811055319,-3.5630632082568567,1.7938542366027832,0.0,-0.0,0.0,0.0,0.0,0.0
1782763379,903305172,-1.8053320089923304,-0.8379986921893519,-1.9943960348712366,-4.610805813466207,-3.5630632082568567,1.7938542366027832,0.0,-0.0,0.0,0.0,0.0,0.0
1782763379,911301497,-1.8053439299212855,-0.8380106131183069,-1.9943960348712366,-4.610769812260763,-3.563075129185812,1.7938302755355835,0.0,-0.0,0.0,0.0,0.0,0.0
1782763379,919305914,-1.8053439299212855,-0.8379748503314417,-1.9944198767291468,-4.610769812260763,-3.5630632082568567,1.7937943935394287,0.0,-0.0,0.0,0.0,0.0,0.0
1782763379,927308868,-1.8053439299212855,-0.8379748503314417,-1.994443718587057,-4.610829774533407,-3.563075129185812,1.7938183546066284,0.0,-0.0,0.0,0.0,0.0,0.0
1782763379,935304544,-1.8053682486163538,-0.838022534047262,-1.9944198767291468,-4.610745851193563,-3.5630632082568567,1.7938302755355835,0.0,-0.0,0.0,0.0,0.0,0.0
1782763379,943296054,-1.8053558508502405,-0.8379867712603968,-1.9943960348712366,-4.610793773327963,-3.5631349722491663,1.7938302755355835,0.0,-0.0,0.0,0.0,0.0,0.0
1782763379,951298508,-1.805272404347555,-0.8379505316363733,-1.9943960348712366,-4.610745851193563,-3.563099209462301,1.7938183546066284,0.0,-0.0,0.0,0.0,0.0,0.0
1782763379,959319425,-1.8053320089923304,-0.8380463759051722,-1.994443718587057,-4.610757891331808,-3.5630632082568567,1.793878197669983,0.0,-0.0,0.0,0.0,0.0,0.0
1782763379,967343564,-1.8053558508502405,-0.8379867712603968,-1.9944079558001917,-4.610769812260763,-3.563075129185812,1.7938302755355835,0.0,-0.0,0.0,0.0,0.0,0.0
1782763379,975298259,-1.8053439299212855,-0.8379867712603968,-1.9944079558001917,-4.610733811055319,-3.563087050114767,1.7938662767410278,0.0,-0.0,0.0,0.0,0.0,0.0
1782763379,983291787,-1.8053200880633753,-0.838022534047262,-1.994443718587057,-4.610757891331808,-3.563111130391256,1.7938063144683838,0.0,-0.0,0.0,0.0,0.0,0.0
1782763379,991319352,-1.8053439299212855,-0.8379624525653284,-1.9943960348712366,-4.610781852399008,-3.563087050114767,1.7938542366027832,0.0,-0.0,0.0,0.0,0.0,0.0
1782763379,999295954,-1.8053558508502405,-0.8379986921893519,-1.9943841139422815,-4.610745851193563,-3.563099209462301,1.7938542366027832,0.0,-0.0,0.0,0.0,0.0,0.0
1782763380,7289964,-1.8053320089923304,-0.8379986921893519,-1.9944317976581019,-4.610733811055319,-3.563087050114767,1.7938423156738281,0.0,-0.0,0.0,0.0,0.0,0.0
1782763380,15293455,-1.8053801695453089,-0.8379986921893519,-1.9943721930133265,-4.610709849988119,-3.563087050114767,1.7938423156738281,0.0,-0.0,0.0,0.0,0.0,0.0
1782763380,23317520,-1.8053682486163538,-0.838022534047262,-1.9944198767291468,-4.610769812260763,-3.5630152861224573,1.7938542366027832,0.0,-0.0,0.0,0.0,0.0,0.0
1782763380,31296456,-1.8053320089923304,-0.8380344549762171,-1.9944317976581019,-4.610757891331808,-3.563111130391256,1.7938423156738281,0.0,-0.0,0.0,0.0,0.0,0.0
1782763380,39292558,-1.8053682486163538,-0.8379986921893519,-1.9944198767291468,-4.610757891331808,-3.563087050114767,1.7938423156738281,0.0,-0.0,0.0,0.0,0.0,0.0
1782763380,47293512,-1.8053200880633753,-0.8379986921893519,-1.9944317976581019,-4.610757891331808,-3.5631230513202112,1.7938183546066284,0.0,-0.0,0.0,0.0,0.0,0.0
1782763380,55293188,-1.8053439299212855,-0.8379867712603968,-1.9944317976581019,-4.610745851193563,-3.5630632082568567,1.793878197669983,0.0,-0.0,0.0,0.0,0.0,0.0
1782763380,63295698,-1.8053320089923304,-0.8380587736712855,-1.994443718587057,-4.610781852399008,-3.563111130391256,1.7938423156738281,0.0,-0.0,0.0,0.0,0.0,0.0
1782763380,71296393,-1.8053439299212855,-0.838022534047262,-1.9944561163531702,-4.610757891331808,-3.5630632082568567,1.7938662767410278,0.0,-0.0,0.0,0.0,0.0,0.0
1782763380,79301495,-1.8053439299212855,-0.8379624525653284,-1.9943960348712366,-4.610793773327963,-3.563111130391256,1.7938063144683838,0.0,-0.0,0.0,0.0,0.0,0.0
1782763380,87320967,-1.8053320089923304,-0.8380463759051722,-1.9944079558001917,-4.610781852399008,-3.5630391279803675,1.7938183546066284,0.0,-0.0,0.0,0.0,0.0,0.0
1782763380,95299959,-1.8053558508502405,-0.8379867712603968,-1.9944317976581019,-4.610757891331808,-3.563111130391256,1.7938542366027832,0.0,-0.0,0.0,0.0,0.0,0.0
1782763380,103294487,-1.8053801695453089,-0.8379748503314417,-1.9944198767291468,-4.610769812260763,-3.5631230513202112,1.7937943935394287,0.0,-0.0,0.0,0.0,0.0,0.0
1782763380,111301681,-1.8053320089923304,-0.8380106131183069,-1.9944317976581019,-4.610781852399008,-3.5630632082568567,1.7938423156738281,0.0,-0.0,0.0,0.0,0.0,0.0
1782763380,119316895,-1.8053200880633753,-0.838022534047262,-1.9944198767291468,-4.610817734395162,-3.5630512873279017,1.7938183546066284,0.0,-0.0,0.0,0.0,0.0,0.0
1782763380,127294627,-1.8053558508502405,-0.838022534047262,-1.9944198767291468,-4.610781852399008,-3.563075129185812,1.7938063144683838,0.0,-0.0,0.0,0.0,0.0,0.0
1782763380,135294544,-1.8053320089923304,-0.8379986921893519,-1.9943960348712366,-4.610793773327963,-3.563111130391256,1.7938423156738281,0.0,-0.0,0.0,0.0,0.0,0.0
1782763380,143297998,-1.8053682486163538,-0.8379867712603968,-1.994443718587057,-4.610745851193563,-3.5630512873279017,1.7938423156738281,0.0,-0.0,0.0,0.0,0.0,0.0
1782763380,151322137,-1.8053200880633753,-0.8380463759051722,-1.9943960348712366,-4.610793773327963,-3.563111130391256,1.7938542366027832,0.0,-0.0,0.0,0.0,0.0,0.0
1782763380,159302424,-1.8053439299212855,-0.8379867712603968,-1.9944198767291468,-4.610733811055319,-3.563075129185812,1.7938423156738281,0.0,-0.0,0.0,0.0,0.0,0.0
1782763380,167295249,-1.8053200880633753,-0.8380463759051722,-1.9944198767291468,-4.610793773327963,-3.563075129185812,1.7937943935394287,0.0,-0.0,0.0,0.0,0.0,0.0
1782763380,175296221,-1.8053320089923304,-0.8379748503314417,-1.9943841139422815,-4.610781852399008,-3.563099209462301,1.7938183546066284,0.0,-0.0,0.0,0.0,0.0,0.0
1782763380,183322305,-1.8053081671344202,-0.8379867712603968,-1.9944079558001917,-4.610745851193563,-3.5631230513202112,1.7938423156738281,0.0,-0.0,0.0,0.0,0.0,0.0
1782763380,191296222,-1.8053320089923304,-0.8380106131183069,-1.9944561163531702,-4.610805813466207,-3.5630632082568567,1.7938423156738281,0.0,-0.0,0.0,0.0,0.0,0.0
1782763380,199297621,-1.8053320089923304,-0.8379867712603968,-1.9944317976581019,-4.610793773327963,-3.563075129185812,1.7939021587371826,0.0,-0.0,0.0,0.0,0.0,0.0
1782763380,207297890,-1.8053558508502405,-0.838022534047262,-1.9944198767291468,-4.610769812260763,-3.563099209462301,1.7938423156738281,0.0,-0.0,0.0,0.0,0.0,0.0
1782763380,215322547,-1.8053558508502405,-0.8379986921893519,-1.9944561163531702,-4.610745851193563,-3.563075129185812,1.7938063144683838,0.0,-0.0,0.0,0.0,0.0,0.0
1782763380,223297501,-1.8053558508502405,-0.8379986921893519,-1.9943841139422815,-4.610769812260763,-3.563099209462301,1.7938423156738281,0.0,-0.0,0.0,0.0,0.0,0.0
1782763380,231299233,-1.8053682486163538,-0.8379986921893519,-1.9943960348712366,-4.610793773327963,-3.5630391279803675,1.7938302755355835,0.0,-0.0,0.0,0.0,0.0,0.0
1782763380,239299261,-1.8053558508502405,-0.8380106131183069,-1.9944317976581019,-4.610769812260763,-3.563075129185812,1.7938423156738281,0.0,-0.0,0.0,0.0,0.0,0.0
1782763380,247297067,-1.805392090474264,-0.8379867712603968,-1.9944079558001917,-4.610745851193563,-3.5630391279803675,1.7938423156738281,0.0,-0.0,0.0,0.0,0.0,0.0
1782763380,255295929,-1.8053682486163538,-0.8380106131183069,-1.9944317976581019,-4.610805813466207,-3.563099209462301,1.7938063144683838,0.0,-0.0,0.0,0.0,0.0,0.0
1782763380,263302253,-1.8053801695453089,-0.8379986921893519,-1.994443718587057,-4.610733811055319,-3.5631471315967005,1.7938183546066284,0.0,-0.0,0.0,0.0,0.0,0.0
1782763380,271311244,-1.8053439299212855,-0.8379867712603968,-1.9944198767291468,-4.610781852399008,-3.563087050114767,1.7938302755355835,0.0,-0.0,0.0,0.0,0.0,0.0
1782763380,279321402,-1.8053682486163538,-0.838022534047262,-1.9943960348712366,-4.610793773327963,-3.5630391279803675,1.7938063144683838,0.0,-0.0,0.0,0.0,0.0,0.0
1782763380,287300393,-1.8053439299212855,-0.838022534047262,-1.9943721930133265,-4.610793773327963,-3.5631349722491663,1.7938423156738281,0.0,-0.0,0.0,0.0,0.0,0.0
1782763380,295309514,-1.8053320089923304,-0.8379867712603968,-1.9944198767291468,-4.610781852399008,-3.563087050114767,1.7937943935394287,0.0,-0.0,0.0,0.0,0.0,0.0
1782763380,303294820,-1.8053200880633753,-0.8379986921893519,-1.9944561163531702,-4.610781852399008,-3.5630391279803675,1.7938423156738281,0.0,-0.0,0.0,0.0,0.0,0.0
1782763380,311306496,-1.8053801695453089,-0.8379986921893519,-1.994443718587057,-4.610757891331808,-3.5630391279803675,1.7938063144683838,0.0,-0.0,0.0,0.0,0.0,0.0
1782763380,319300635,-1.805392090474264,-0.8379748503314417,-1.9944561163531702,-4.610757891331808,-3.5631230513202112,1.7938302755355835,0.0,-0.0,0.0,0.0,0.0,0.0
1782763380,327301164,-1.8053200880633753,-0.8380106131183069,-1.9944079558001917,-4.610733811055319,-3.563075129185812,1.7938423156738281,0.0,-0.0,0.0,0.0,0.0,0.0
1782763380,335292173,-1.8053320089923304,-0.8380106131183069,-1.9944198767291468,-4.610745851193563,-3.5630632082568567,1.7938542366027832,0.0,-0.0,0.0,0.0,0.0,0.0
1782763380,343324127,-1.805392090474264,-0.8380587736712855,-1.9944317976581019,-4.610781852399008,-3.563075129185812,1.7937943935394287,0.0,-0.0,0.0,0.0,0.0,0.0
1782763380,351309915,-1.8053320089923304,-0.8380106131183069,-1.9944198767291468,-4.610781852399008,-3.5630512873279017,1.793878197669983,0.0,-0.0,0.0,0.0,0.0,0.0
1782763380,359364313,-1.8053439299212855,-0.8380344549762171,-1.9944561163531702,-4.610793773327963,-3.563111130391256,1.7937943935394287,0.0,-0.0,0.0,0.0,0.0,0.0
1782763380,367287249,-1.805392090474264,-0.8379986921893519,-1.9944317976581019,-4.610745851193563,-3.563087050114767,1.7938183546066284,0.0,-0.0,0.0,0.0,0.0,0.0
1782763380,375318666,-1.8052962462054651,-0.8380106131183069,-1.9944198767291468,-4.610769812260763,-3.5631471315967005,1.7938423156738281,0.0,-0.0,0.0,0.0,0.0,0.0
1782763380,383363694,-1.8053558508502405,-0.8379748503314417,-1.9943841139422815,-4.610805813466207,-3.5630632082568567,1.7938302755355835,0.0,-0.0,0.0,0.0,0.0,0.0
1782763380,391299074,-1.8053558508502405,-0.8379867712603968,-1.9943960348712366,-4.610781852399008,-3.563099209462301,1.7938302755355835,0.0,-0.0,0.0,0.0,0.0,0.0
1782763380,399313102,-1.8053682486163538,-0.8379748503314417,-1.9944317976581019,-4.610793773327963,-3.5631230513202112,1.7938063144683838,0.0,-0.0,0.0,0.0,0.0,0.0
1782763380,407306149,-1.8053801695453089,-0.8379986921893519,-1.9943960348712366,-4.610769812260763,-3.563087050114767,1.7938183546066284,0.0,-0.0,0.0,0.0,0.0,0.0
1782763380,415300658,-1.8053439299212855,-0.8379986921893519,-1.9944561163531702,-4.610757891331808,-3.563075129185812,1.7938183546066284,0.0,-0.0,0.0,0.0,0.0,0.0
1782763380,423307335,-1.8053558508502405,-0.8379986921893519,-1.9944317976581019,-4.610745851193563,-3.563087050114767,1.7938302755355835,0.0,-0.0,0.0,0.0,0.0,0.0
1782763380,431299696,-1.8053320089923304,-0.8380106131183069,-1.9944561163531702,-4.610769812260763,-3.5630632082568567,1.7937943935394287,0.0,-0.0,0.0,0.0,0.0,0.0
1782763380,439310243,-1.8053682486163538,-0.8379867712603968,-1.9944198767291468,-4.610757891331808,-3.563099209462301,1.7938423156738281,0.0,-0.0,0.0,0.0,0.0,0.0
1782763380,447290197,-1.8053682486163538,-0.8379986921893519,-1.994443718587057,-4.610793773327963,-3.5630512873279017,1.7938302755355835,0.0,-0.0,0.0,0.0,0.0,0.0
1782763380,455302521,-1.8052962462054651,-0.8379986921893519,-1.9944079558001917,-4.610721890126364,-3.563075129185812,1.7938542366027832,0.0,-0.0,0.0,0.0,0.0,0.0
1782763380,463361994,-1.8053682486163538,-0.8379986921893519,-1.9944079558001917,-4.610793773327963,-3.5630632082568567,1.7937463521957397,0.0,-0.0,0.0,0.0,0.0,0.0
1782763380,471378188,-1.8053682486163538,-0.8380106131183069,-1.9943841139422815,-4.610829774533407,-3.5630632082568567,1.7938183546066284,0.0,-0.0,0.0,0.0,0.0,0.0
1782763380,479310976,-1.8053682486163538,-0.8379748503314417,-1.9944317976581019,-4.610769812260763,-3.5630512873279017,1.7938542366027832,0.0,-0.0,0.0,0.0,0.0,0.0
1782763380,487310560,-1.8053682486163538,-0.838022534047262,-1.994443718587057,-4.610793773327963,-3.563075129185812,1.7938423156738281,0.0,-0.0,0.0,0.0,0.0,0.0
1782763380,495297977,-1.8053558508502405,-0.8380106131183069,-1.9944079558001917,-4.610781852399008,-3.5631230513202112,1.7938063144683838,0.0,-0.0,0.0,0.0,0.0,0.0
1782763380,503306709,-1.8053320089923304,-0.8379986921893519,-1.9944317976581019,-4.610793773327963,-3.563087050114767,1.7938542366027832,0.0,-0.0,0.0,0.0,0.0,0.0
1782763380,511305311,-1.8053320089923304,-0.8379867712603968,-1.9943960348712366,-4.610721890126364,-3.5630632082568567,1.7938423156738281,0.0,-0.0,0.0,0.0,0.0,0.0
1782763380,519293339,-1.8053558508502405,-0.8379986921893519,-1.9944198767291468,-4.610757891331808,-3.563099209462301,1.7938302755355835,0.0,-0.0,0.0,0.0,0.0,0.0
1782763380,527297145,-1.8053439299212855,-0.8380344549762171,-1.9944079558001917,-4.610817734395162,-3.563111130391256,1.7938183546066284,0.0,-0.0,0.0,0.0,0.0,0.0
1782763380,535329043,-1.8053439299212855,-0.8379986921893519,-1.9944079558001917,-4.610757891331808,-3.5630632082568567,1.7938662767410278,0.0,-0.0,0.0,0.0,0.0,0.0
1782763380,543300849,-1.8053081671344202,-0.8379748503314417,-1.9944079558001917,-4.610757891331808,-3.5631230513202112,1.7938423156738281,0.0,-0.0,0.0,0.0,0.0,0.0
1782763380,551302304,-1.8053320089923304,-0.8379867712603968,-1.9944561163531702,-4.610817734395162,-3.563075129185812,1.7938063144683838,0.0,-0.0,0.0,0.0,0.0,0.0
1782763380,559303406,-1.8053439299212855,-0.8380344549762171,-1.9944198767291468,-4.610781852399008,-3.5630632082568567,1.7938542366027832,0.0,-0.0,0.0,0.0,0.0,0.0
1782763380,567370693,-1.8053439299212855,-0.838022534047262,-1.9944317976581019,-4.610781852399008,-3.563075129185812,1.7937943935394287,0.0,-0.0,0.0,0.0,0.0,0.0
1782763380,575301629,-1.8053558508502405,-0.8380463759051722,-1.9944198767291468,-4.610745851193563,-3.563111130391256,1.7938423156738281,0.0,-0.0,0.0,0.0,0.0,0.0
1782763380,583299916,-1.805392090474264,-0.8379505316363733,-1.9944079558001917,-4.610745851193563,-3.563111130391256,1.7938302755355835,0.0,-0.0,0.0,0.0,0.0,0.0
1782763380,591302963,-1.8053320089923304,-0.8380344549762171,-1.9944198767291468,-4.610793773327963,-3.5630632082568567,1.7937943935394287,0.0,-0.0,0.0,0.0,0.0,0.0
1782763380,599337454,-1.8053682486163538,-0.838022534047262,-1.994443718587057,-4.610805813466207,-3.5631230513202112,1.7938183546066284,0.0,-0.0,0.0,0.0,0.0,0.0
1782763380,607308297,-1.8053558508502405,-0.8379505316363733,-1.9944198767291468,-4.610757891331808,-3.563075129185812,1.7938423156738281,0.0,-0.0,0.0,0.0,0.0,0.0
1782763380,615306881,-1.8053320089923304,-0.8380106131183069,-1.9944198767291468,-4.610781852399008,-3.563075129185812,1.7938423156738281,0.0,-0.0,0.0,0.0,0.0,0.0
1782763380,623301612,-1.8053200880633753,-0.838022534047262,-1.9944317976581019,-4.610793773327963,-3.563075129185812,1.7938542366027832,0.0,-0.0,0.0,0.0,0.0,0.0
1782763380,631298678,-1.8053801695453089,-0.8380106131183069,-1.9944561163531702,-4.610721890126364,-3.563075129185812,1.793878197669983,0.0,-0.0,0.0,0.0,0.0,0.0
1782763380,639313076,-1.8053558508502405,-0.8379386107074183,-1.994443718587057,-4.610793773327963,-3.563099209462301,1.7938063144683838,0.0,-0.0,0.0,0.0,0.0,0.0
1782763380,647297438,-1.8053439299212855,-0.8379867712603968,-1.9943960348712366,-4.610805813466207,-3.563087050114767,1.7937943935394287,0.0,-0.0,0.0,0.0,0.0,0.0
1782763380,655295373,-1.8053320089923304,-0.8379505316363733,-1.9944198767291468,-4.610757891331808,-3.563087050114767,1.793782353401184,0.0,-0.0,0.0,0.0,0.0,0.0
1782763380,663315994,-1.8053682486163538,-0.8380344549762171,-1.9944198767291468,-4.610817734395162,-3.563111130391256,1.7937943935394287,0.0,-0.0,0.0,0.0,0.0,0.0
1782763380,671297966,-1.8053081671344202,-0.8379748503314417,-1.9944680372821253,-4.610817734395162,-3.5630512873279017,1.7937943935394287,0.0,-0.0,0.0,0.0,0.0,0.0
1782763380,679294384,-1.8053801695453089,-0.8379986921893519,-1.9943960348712366,-4.610805813466207,-3.563099209462301,1.793878197669983,0.0,-0.0,0.0,0.0,0.0,0.0
1782763380,687311726,-1.8053439299212855,-0.8379748503314417,-1.9944680372821253,-4.610805813466207,-3.5630632082568567,1.7938423156738281,0.0,-0.0,0.0,0.0,0.0,0.0
1782763380,695302755,-1.8053081671344202,-0.8379986921893519,-1.9944079558001917,-4.610769812260763,-3.563075129185812,1.7937943935394287,0.0,-0.0,0.0,0.0,0.0,0.0
1782763380,703306116,-1.8053682486163538,-0.8380106131183069,-1.9944198767291468,-4.610817734395162,-3.563087050114767,1.7938183546066284,0.0,-0.0,0.0,0.0,0.0,0.0
1782763380,711298644,-1.8053320089923304,-0.8379986921893519,-1.9944561163531702,-4.610757891331808,-3.563111130391256,1.7938183546066284,0.0,-0.0,0.0,0.0,0.0,0.0
1782763380,719299839,-1.8053081671344202,-0.838022534047262,-1.9944198767291468,-4.610733811055319,-3.563087050114767,1.7938302755355835,0.0,-0.0,0.0,0.0,0.0,0.0
1782763380,727303997,-1.8053558508502405,-0.838022534047262,-1.9944079558001917,-4.610781852399008,-3.563111130391256,1.7937943935394287,0.0,-0.0,0.0,0.0,0.0,0.0
1782763380,735872355,-1.8053801695453089,-0.8379986921893519,-1.9944079558001917,-4.610757891331808,-3.563087050114767,1.793782353401184,0.0,-0.0,0.0,0.0,0.0,0.0
1782763380,743312405,-1.805392090474264,-0.8379624525653284,-1.9943841139422815,-4.610769812260763,-3.5630632082568567,1.7938063144683838,0.0,-0.0,0.0,0.0,0.0,0.0
1782763380,751301174,-1.8053439299212855,-0.8379986921893519,-1.9944680372821253,-4.610793773327963,-3.563075129185812,1.7938183546066284,0.0,-0.0,0.0,0.0,0.0,0.0
1782763380,759297165,-1.8053200880633753,-0.8379748503314417,-1.9944317976581019,-4.610745851193563,-3.563087050114767,1.7938542366027832,0.0,-0.0,0.0,0.0,0.0,0.0
1782763380,767325008,-1.8053320089923304,-0.838022534047262,-1.9943721930133265,-4.610781852399008,-3.5630632082568567,1.793878197669983,0.0,-0.0,0.0,0.0,0.0,0.0
1782763380,775303203,-1.8053320089923304,-0.8379986921893519,-1.9944317976581019,-4.610781852399008,-3.563099209462301,1.7937943935394287,0.0,-0.0,0.0,0.0,0.0,0.0
1782763380,783315046,-1.8053081671344202,-0.8380106131183069,-1.994443718587057,-4.610781852399008,-3.563075129185812,1.7938302755355835,0.0,-0.0,0.0,0.0,0.0,0.0
1782763380,791304629,-1.8053320089923304,-0.8379748503314417,-1.9944198767291468,-4.610745851193563,-3.5631230513202112,1.7938302755355835,0.0,-0.0,0.0,0.0,0.0,0.0
1782763380,799301658,-1.805404011403219,-0.8379748503314417,-1.9944079558001917,-4.610805813466207,-3.563087050114767,1.7938423156738281,0.0,-0.0,0.0,0.0,0.0,0.0
1782763380,807493314,-1.8053320089923304,-0.8379748503314417,-1.9944317976581019,-4.610793773327963,-3.563075129185812,1.7938302755355835,0.0,-0.0,0.0,0.0,0.0,0.0
1782763380,815312047,-1.8053558508502405,-0.8379867712603968,-1.9943960348712366,-4.610805813466207,-3.563075129185812,1.7937943935394287,0.0,-0.0,0.0,0.0,0.0,0.0
1782763380,823317594,-1.8053439299212855,-0.8380106131183069,-1.9944198767291468,-4.610781852399008,-3.563099209462301,1.7938063144683838,0.0,-0.0,0.0,0.0,0.0,0.0
1782763380,831314085,-1.8053682486163538,-0.8379986921893519,-1.9944198767291468,-4.610769812260763,-3.5631230513202112,1.7938183546066284,0.0,-0.0,0.0,0.0,0.0,0.0
1782763380,839311243,-1.8053081671344202,-0.8379748503314417,-1.9944561163531702,-4.610781852399008,-3.5631230513202112,1.7937943935394287,0.0,-0.0,0.0,0.0,0.0,0.0
1782763380,847314160,-1.8053682486163538,-0.838022534047262,-1.9944198767291468,-4.610769812260763,-3.563075129185812,1.7938063144683838,0.0,-0.0,0.0,0.0,0.0,0.0
1782763380,855312040,-1.8053558508502405,-0.8379867712603968,-1.9944198767291468,-4.610769812260763,-3.5630391279803675,1.7938302755355835,0.0,-0.0,0.0,0.0,0.0,0.0
1782763380,863384067,-1.8053558508502405,-0.8380463759051722,-1.9944198767291468,-4.610781852399008,-3.5630512873279017,1.7938662767410278,0.0,-0.0,0.0,0.0,0.0,0.0
1782763380,871301226,-1.8053081671344202,-0.838022534047262,-1.9944799582110804,-4.610733811055319,-3.5630632082568567,1.7938423156738281,0.0,-0.0,0.0,0.0,0.0,0.0
1782763380,879304198,-1.8053682486163538,-0.8379748503314417,-1.9944198767291468,-4.610781852399008,-3.5630391279803675,1.7938183546066284,0.0,-0.0,0.0,0.0,0.0,0.0
1782763380,887350393,-1.8053200880633753,-0.8379867712603968,-1.9943841139422815,-4.610793773327963,-3.5630272070514124,1.793878197669983,0.0,-0.0,0.0,0.0,0.0,0.0
1782763380,895326847,-1.8053439299212855,-0.8379748503314417,-1.9944317976581019,-4.610769812260763,-3.5631230513202112,1.7938542366027832,0.0,-0.0,0.0,0.0,0.0,0.0
1782763380,903314949,-1.8053682486163538,-0.8379986921893519,-1.9943841139422815,-4.610769812260763,-3.563087050114767,1.7938183546066284,0.0,-0.0,0.0,0.0,0.0,0.0
1782763380,911311107,-1.8053200880633753,-0.838022534047262,-1.994443718587057,-4.610805813466207,-3.5630512873279017,1.7938423156738281,0.0,-0.0,0.0,0.0,0.0,0.0
1782763380,919313320,-1.8053558508502405,-0.8379748503314417,-1.9943960348712366,-4.610793773327963,-3.563075129185812,1.7938183546066284,0.0,-0.0,0.0,0.0,0.0,0.0
1782763380,927330682,-1.8053558508502405,-0.8379748503314417,-1.9944317976581019,-4.610769812260763,-3.5630512873279017,1.7938542366027832,0.0,-0.0,0.0,0.0,0.0,0.0
1782763380,935321395,-1.8053558508502405,-0.8379748503314417,-1.9944317976581019,-4.610769812260763,-3.563087050114767,1.7938302755355835,0.0,-0.0,0.0,0.0,0.0,0.0
1782763380,943312738,-1.8053801695453089,-0.8379867712603968,-1.9944198767291468,-4.610817734395162,-3.563111130391256,1.7938302755355835,0.0,-0.0,0.0,0.0,0.0,0.0
1782763380,951316174,-1.8053558508502405,-0.8379986921893519,-1.9944317976581019,-4.610769812260763,-3.563099209462301,1.7938183546066284,0.0,-0.0,0.0,0.0,0.0,0.0
1782763380,959322072,-1.8053320089923304,-0.8380344549762171,-1.9944561163531702,-4.610757891331808,-3.563075129185812,1.793878197669983,0.0,-0.0,0.0,0.0,0.0,0.0
1782763380,967309082,-1.8053682486163538,-0.8379748503314417,-1.994443718587057,-4.610793773327963,-3.563099209462301,1.7938183546066284,0.0,-0.0,0.0,0.0,0.0,0.0
1782763380,975303554,-1.8053320089923304,-0.8379867712603968,-1.9944079558001917,-4.610781852399008,-3.5630632082568567,1.7938063144683838,0.0,-0.0,0.0,0.0,0.0,0.0
1782763380,983306694,-1.8053200880633753,-0.8379986921893519,-1.9944198767291468,-4.610781852399008,-3.563087050114767,1.7938423156738281,0.0,-0.0,0.0,0.0,0.0,0.0
1782763380,991324814,-1.8053439299212855,-0.8380106131183069,-1.9944317976581019,-4.610757891331808,-3.5630512873279017,1.7938423156738281,0.0,-0.0,0.0,0.0,0.0,0.0
1782763380,999309435,-1.8053320089923304,-0.8380106131183069,-1.9944317976581019,-4.610769812260763,-3.5630512873279017,1.7938423156738281,0.0,-0.0,0.0,0.0,0.0,0.0
1782763381,7307149,-1.805392090474264,-0.8380344549762171,-1.994443718587057,-4.610793773327963,-3.563087050114767,1.7938542366027832,0.0,-0.0,0.0,0.0,0.0,0.0
1782763381,15304084,-1.8053439299212855,-0.838022534047262,-1.9944198767291468,-4.610745851193563,-3.563099209462301,1.7937703132629395,0.0,-0.0,0.0,0.0,0.0,0.0
1782763381,23334816,-1.8053320089923304,-0.8379986921893519,-1.9944198767291468,-4.610817734395162,-3.563075129185812,1.7938423156738281,0.0,-0.0,0.0,0.0,0.0,0.0
1782763381,31303418,-1.8053439299212855,-0.838022534047262,-1.9943960348712366,-4.610757891331808,-3.563075129185812,1.7938542366027832,0.0,-0.0,0.0,0.0,0.0,0.0
1782763381,39306169,-1.8053682486163538,-0.8379748503314417,-1.9944317976581019,-4.610793773327963,-3.563099209462301,1.7938302755355835,0.0,-0.0,0.0,0.0,0.0,0.0
1782763381,47304289,-1.8053200880633753,-0.8379867712603968,-1.9944561163531702,-4.610769812260763,-3.563099209462301,1.7938662767410278,0.0,-0.0,0.0,0.0,0.0,0.0
1782763381,55330132,-1.8053558508502405,-0.8379624525653284,-1.9944317976581019,-4.610769812260763,-3.563087050114767,1.793782353401184,0.0,-0.0,0.0,0.0,0.0,0.0
1782763381,63307475,-1.8053081671344202,-0.8380344549762171,-1.9943841139422815,-4.610841695462362,-3.563087050114767,1.7938542366027832,0.0,-0.0,0.0,0.0,0.0,0.0
1782763381,71305300,-1.8053320089923304,-0.838022534047262,-1.9943960348712366,-4.610781852399008,-3.5630632082568567,1.7938183546066284,0.0,-0.0,0.0,0.0,0.0,0.0
1782763381,79305587,-1.8053558508502405,-0.8379867712603968,-1.9944198767291468,-4.610757891331808,-3.563099209462301,1.7937943935394287,0.0,-0.0,0.0,0.0,0.0,0.0
1782763381,87330930,-1.8053439299212855,-0.8379748503314417,-1.9944680372821253,-4.610793773327963,-3.563099209462301,1.7937943935394287,0.0,-0.0,0.0,0.0,0.0,0.0
1782763381,95302440,-1.8053558508502405,-0.8379624525653284,-1.9944317976581019,-4.610817734395162,-3.563099209462301,1.7938302755355835,0.0,-0.0,0.0,0.0,0.0,0.0
1782763381,103313301,-1.8053200880633753,-0.8380106131183069,-1.9944317976581019,-4.610769812260763,-3.5630512873279017,1.7938423156738281,0.0,-0.0,0.0,0.0,0.0,0.0
1782763381,111306718,-1.8053320089923304,-0.8379748503314417,-1.9943841139422815,-4.610781852399008,-3.5630512873279017,1.7938302755355835,0.0,-0.0,0.0,0.0,0.0,0.0
1782763381,119302006,-1.8053558508502405,-0.8379867712603968,-1.9944198767291468,-4.610757891331808,-3.563099209462301,1.793782353401184,0.0,-0.0,0.0,0.0,0.0,0.0
1782763381,127296460,-1.8053081671344202,-0.838022534047262,-1.9944079558001917,-4.610781852399008,-3.563075129185812,1.7938423156738281,0.0,-0.0,0.0,0.0,0.0,0.0
1782763381,135309340,-1.805392090474264,-0.838022534047262,-1.9943841139422815,-4.610769812260763,-3.5630632082568567,1.7938302755355835,0.0,-0.0,0.0,0.0,0.0,0.0
1782763381,143315701,-1.8053558508502405,-0.8379748503314417,-1.9944079558001917,-4.610805813466207,-3.563075129185812,1.7938183546066284,0.0,-0.0,0.0,0.0,0.0,0.0
1782763381,151291674,-1.8053801695453089,-0.8380106131183069,-1.9944317976581019,-4.610781852399008,-3.563111130391256,1.7938542366027832,0.0,-0.0,0.0,0.0,0.0,0.0
1782763381,161146784,-1.8052962462054651,-0.8379867712603968,-1.994443718587057,-4.610733811055319,-3.5630512873279017,1.7938423156738281,0.0,-0.0,0.0,0.0,0.0,0.0
1782763381,167748450,-1.8053200880633753,-0.8379748503314417,-1.9944317976581019,-4.610769812260763,-3.563075129185812,1.7938542366027832,0.0,-0.0,0.0,0.0,0.0,0.0
1782763381,175620201,-1.8053801695453089,-0.8379748503314417,-1.9944198767291468,-4.610745851193563,-3.5631230513202112,1.7938063144683838,0.0,-0.0,0.0,0.0,0.0,0.0
1782763381,212009622,-1.8053081671344202,-0.838022534047262,-1.9944317976581019,-4.610781852399008,-3.563111130391256,1.7937943935394287,0.0,-0.0,0.0,0.0,0.0,0.0
1782763381,219140766,-1.8053320089923304,-0.8379505316363733,-1.9944198767291468,-4.610757891331808,-3.563087050114767,1.7938423156738281,0.0,-0.0,0.0,0.0,0.0,0.0
1782763381,225307620,-1.805392090474264,-0.8380587736712855,-1.9944317976581019,-4.610757891331808,-3.5630512873279017,1.7938302755355835,0.0,-0.0,0.0,0.0,0.0,0.0
1782763381,232674411,-1.8053320089923304,-0.8379986921893519,-1.9944680372821253,-4.610757891331808,-3.563087050114767,1.7938063144683838,0.0,-0.0,0.0,0.0,0.0,0.0
1782763381,247557363,-1.8053558508502405,-0.8380344549762171,-1.9944198767291468,-4.610733811055319,-3.563075129185812,1.7937943935394287,0.0,-0.0,0.0,0.0,0.0,0.0
1782763381,255622964,-1.805392090474264,-0.8379986921893519,-1.9944198767291468,-4.610769812260763,-3.563099209462301,1.7938423156738281,0.0,-0.0,0.0,0.0,0.0,0.0
1782763381,263310476,-1.8053200880633753,-0.838022534047262,-1.994443718587057,-4.610793773327963,-3.5630391279803675,1.793782353401184,0.0,-0.0,0.0,0.0,0.0,0.0
1782763381,271317337,-1.8053682486163538,-0.8380106131183069,-1.9943721930133265,-4.610769812260763,-3.5631230513202112,1.7938063144683838,0.0,-0.0,0.0,0.0,0.0,0.0
1782763381,279458365,-1.8053439299212855,-0.8380344549762171,-1.9944079558001917,-4.610805813466207,-3.563111130391256,1.793878197669983,0.0,-0.0,0.0,0.0,0.0,0.0
1782763381,289161420,-1.8053439299212855,-0.8380106131183069,-1.994443718587057,-4.610781852399008,-3.563087050114767,1.7938423156738281,0.0,-0.0,0.0,0.0,0.0,0.0
1782763381,295333366,-1.8053558508502405,-0.8379624525653284,-1.9943960348712366,-4.610733811055319,-3.563099209462301,1.7937943935394287,0.0,-0.0,0.0,0.0,0.0,0.0
1782763381,304047075,-1.8053320089923304,-0.8379986921893519,-1.9943960348712366,-4.610769812260763,-3.563099209462301,1.7938542366027832,0.0,-0.0,0.0,0.0,0.0,0.0
1782763381,311303682,-1.8053320089923304,-0.8379986921893519,-1.9944561163531702,-4.610781852399008,-3.5631349722491663,1.7937943935394287,0.0,-0.0,0.0,0.0,0.0,0.0
1782763381,319555283,-1.8053682486163538,-0.838022534047262,-1.9944198767291468,-4.610721890126364,-3.5630272070514124,1.7938302755355835,0.0,-0.0,0.0,0.0,0.0,0.0
1782763381,328920988,-1.8053439299212855,-0.8380106131183069,-1.9943841139422815,-4.610757891331808,-3.563087050114767,1.7938423156738281,0.0,-0.0,0.0,0.0,0.0,0.0
1782763381,335507858,-1.8053320089923304,-0.8380344549762171,-1.9944079558001917,-4.610793773327963,-3.563111130391256,1.7938423156738281,0.0,-0.0,0.0,0.0,0.0,0.0
1782763381,343321480,-1.8053320089923304,-0.8379624525653284,-1.9944198767291468,-4.610829774533407,-3.563087050114767,1.7938662767410278,0.0,-0.0,0.0,0.0,0.0,0.0
1782763381,351298378,-1.8053682486163538,-0.838022534047262,-1.9944799582110804,-4.610733811055319,-3.563075129185812,1.7937943935394287,0.0,-0.0,0.0,0.0,0.0,0.0
1782763381,359301925,-1.805392090474264,-0.8379748503314417,-1.9943841139422815,-4.610769812260763,-3.563099209462301,1.7938302755355835,0.0,-0.0,0.0,0.0,0.0,0.0
1782763381,367297916,-1.8053558508502405,-0.8379986921893519,-1.994443718587057,-4.610781852399008,-3.563087050114767,1.7938662767410278,0.0,-0.0,0.0,0.0,0.0,0.0
1782763381,375295685,-1.8053558508502405,-0.8379986921893519,-1.9944079558001917,-4.610757891331808,-3.563099209462301,1.7937943935394287,0.0,-0.0,0.0,0.0,0.0,0.0
1782763381,383465990,-1.8053801695453089,-0.8380106131183069,-1.9944079558001917,-4.610733811055319,-3.5631471315967005,1.7937943935394287,0.0,-0.0,0.0,0.0,0.0,0.0
1782763381,391407889,-1.8053682486163538,-0.8379748503314417,-1.9944317976581019,-4.610757891331808,-3.563099209462301,1.7938063144683838,0.0,-0.0,0.0,0.0,0.0,0.0
1782763381,399368492,-1.8053682486163538,-0.8380463759051722,-1.9943960348712366,-4.610769812260763,-3.5630512873279017,1.7938423156738281,0.0,-0.0,0.0,0.0,0.0,0.0
1782763381,407437112,-1.8053320089923304,-0.838022534047262,-1.9943960348712366,-4.610769812260763,-3.5630632082568567,1.7938423156738281,0.0,-0.0,0.0,0.0,0.0,0.0
1782763381,415370937,-1.8053682486163538,-0.8379867712603968,-1.9944198767291468,-4.610781852399008,-3.563087050114767,1.7938542366027832,0.0,-0.0,0.0,0.0,0.0,0.0
1782763381,423423409,-1.8053200880633753,-0.838022534047262,-1.9943841139422815,-4.610745851193563,-3.5631349722491663,1.7938423156738281,0.0,-0.0,0.0,0.0,0.0,0.0
1782763381,431415419,-1.8053558508502405,-0.8379748503314417,-1.9944317976581019,-4.610793773327963,-3.5630632082568567,1.7938183546066284,0.0,-0.0,0.0,0.0,0.0,0.0
1782763381,439467447,-1.8053439299212855,-0.8380344549762171,-1.994443718587057,-4.610769812260763,-3.563075129185812,1.7938662767410278,0.0,-0.0,0.0,0.0,0.0,0.0
1782763381,447499160,-1.8053320089923304,-0.8380344549762171,-1.994443718587057,-4.610733811055319,-3.563111130391256,1.7938302755355835,0.0,-0.0,0.0,0.0,0.0,0.0
1782763381,455445948,-1.8053200880633753,-0.8380106131183069,-1.994443718587057,-4.610757891331808,-3.563099209462301,1.793782353401184,0.0,-0.0,0.0,0.0,0.0,0.0
1782763381,463474957,-1.8053320089923304,-0.8380106131183069,-1.9944079558001917,-4.610745851193563,-3.5630152861224573,1.7938063144683838,0.0,-0.0,0.0,0.0,0.0,0.0
1782763381,471501541,-1.8053200880633753,-0.8380344549762171,-1.9943960348712366,-4.610817734395162,-3.563075129185812,1.7938063144683838,0.0,-0.0,0.0,0.0,0.0,0.0
1782763381,479505643,-1.8053558508502405,-0.8379867712603968,-1.994443718587057,-4.610757891331808,-3.563087050114767,1.7938302755355835,0.0,-0.0,0.0,0.0,0.0,0.0
1782763381,487482708,-1.8053439299212855,-0.8380106131183069,-1.9944561163531702,-4.610793773327963,-3.563111130391256,1.7938423156738281,0.0,-0.0,0.0,0.0,0.0,0.0
1782763381,495297293,-1.8053439299212855,-0.8379867712603968,-1.9943960348712366,-4.610793773327963,-3.563087050114767,1.7938063144683838,0.0,-0.0,0.0,0.0,0.0,0.0
1782763381,503292154,-1.8053439299212855,-0.8379867712603968,-1.994443718587057,-4.610793773327963,-3.5630152861224573,1.7938183546066284,0.0,-0.0,0.0,0.0,0.0,0.0
1782763381,511298386,-1.8053558508502405,-0.8379986921893519,-1.9944198767291468,-4.610769812260763,-3.5631230513202112,1.7938423156738281,0.0,-0.0,0.0,0.0,0.0,0.0
1782763381,519493636,-1.8053320089923304,-0.8380344549762171,-1.9943960348712366,-4.610769812260763,-3.563075129185812,1.7938183546066284,0.0,-0.0,0.0,0.0,0.0,0.0
1782763381,527299091,-1.8053200880633753,-0.8380106131183069,-1.9944561163531702,-4.610769812260763,-3.5630632082568567,1.7938423156738281,0.0,-0.0,0.0,0.0,0.0,0.0
1782763381,535339359,-1.8053200880633753,-0.8380106131183069,-1.9944561163531702,-4.610769812260763,-3.5630632082568567,1.7938423156738281,0.0,-0.0,0.0,0.0,0.0,0.0
1782763381,543417350,-1.8052962462054651,-0.8380344549762171,-1.9943960348712366,-4.610781852399008,-3.5630512873279017,1.7938662767410278,0.0,-0.0,0.0,0.0,0.0,0.0
1782763381,557785564,-1.8053801695453089,-0.8379867712603968,-1.9944198767291468,-4.610781852399008,-3.5630391279803675,1.7938542366027832,0.0,-0.0,0.0,0.0,0.0,0.0
1782763381,567473527,-1.8053682486163538,-0.8380106131183069,-1.9944680372821253,-4.610769812260763,-3.5631349722491663,1.7937943935394287,0.0,-0.0,0.0,0.0,0.0,0.0
1782763381,579409958,-1.8053801695453089,-0.838022534047262,-1.9944079558001917,-4.610769812260763,-3.563111130391256,1.7938063144683838,0.0,-0.0,0.0,0.0,0.0,0.0
1782763381,584569262,-1.8053200880633753,-0.8379867712603968,-1.9943960348712366,-4.610793773327963,-3.563111130391256,1.7938063144683838,0.0,-0.0,0.0,0.0,0.0,0.0
1782763381,591301779,-1.8053558508502405,-0.838022534047262,-1.994443718587057,-4.610757891331808,-3.563075129185812,1.7938542366027832,0.0,-0.0,0.0,0.0,0.0,0.0
1782763381,599299159,-1.8053558508502405,-0.8379624525653284,-1.9943841139422815,-4.610805813466207,-3.563099209462301,1.7938302755355835,0.0,-0.0,0.0,0.0,0.0,0.0
1782763381,607292502,-1.8053200880633753,-0.8379624525653284,-1.994443718587057,-4.610781852399008,-3.563099209462301,1.7938183546066284,0.0,-0.0,0.0,0.0,0.0,0.0
1782763381,615298549,-1.8053200880633753,-0.8379986921893519,-1.9943960348712366,-4.610793773327963,-3.563111130391256,1.7938542366027832,0.0,-0.0,0.0,0.0,0.0,0.0
1782763381,623333762,-1.805392090474264,-0.8379867712603968,-1.9944680372821253,-4.610733811055319,-3.563099209462301,1.7938302755355835,0.0,-0.0,0.0,0.0,0.0,0.0
1782763381,631307827,-1.8053558508502405,-0.8379867712603968,-1.994443718587057,-4.610793773327963,-3.563111130391256,1.7938423156738281,0.0,-0.0,0.0,0.0,0.0,0.0
1782763381,639301930,-1.8053558508502405,-0.8379867712603968,-1.9944561163531702,-4.610805813466207,-3.5630512873279017,1.7938542366027832,0.0,-0.0,0.0,0.0,0.0,0.0
1782763381,647324532,-1.8053200880633753,-0.8380463759051722,-1.9943960348712366,-4.610745851193563,-3.5630632082568567,1.7938542366027832,0.0,-0.0,0.0,0.0,0.0,0.0
1782763381,655329634,-1.8053439299212855,-0.8379986921893519,-1.9943960348712366,-4.610757891331808,-3.5630632082568567,1.7938063144683838,0.0,-0.0,0.0,0.0,0.0,0.0
1782763381,663322033,-1.8053439299212855,-0.8379867712603968,-1.9944198767291468,-4.610805813466207,-3.563099209462301,1.7938063144683838,0.0,-0.0,0.0,0.0,0.0,0.0
1782763381,671309987,-1.8053801695453089,-0.8380463759051722,-1.9944079558001917,-4.610733811055319,-3.563099209462301,1.7938423156738281,0.0,-0.0,0.0,0.0,0.0,0.0
1782763381,679323589,-1.8053801695453089,-0.8380344549762171,-1.9943721930133265,-4.610757891331808,-3.563087050114767,1.7938063144683838,0.0,-0.0,0.0,0.0,0.0,0.0
1782763381,687358395,-1.8053682486163538,-0.8379867712603968,-1.9943721930133265,-4.610805813466207,-3.563075129185812,1.7937703132629395,0.0,-0.0,0.0,0.0,0.0,0.0
1782763381,695326219,-1.8053801695453089,-0.8379748503314417,-1.9944198767291468,-4.610757891331808,-3.563111130391256,1.793782353401184,0.0,-0.0,0.0,0.0,0.0,0.0
1782763381,703310210,-1.8053320089923304,-0.8379748503314417,-1.9944079558001917,-4.610769812260763,-3.563099209462301,1.7938542366027832,0.0,-0.0,0.0,0.0,0.0,0.0
1782763381,711312128,-1.8053439299212855,-0.8380106131183069,-1.9943960348712366,-4.610841695462362,-3.5630391279803675,1.7938423156738281,0.0,-0.0,0.0,0.0,0.0,0.0
1782763381,719317359,-1.8053558508502405,-0.8380106131183069,-1.9943721930133265,-4.610781852399008,-3.5630632082568567,1.7938423156738281,0.0,-0.0,0.0,0.0,0.0,0.0
1782763381,727331202,-1.8053801695453089,-0.8379867712603968,-1.9944198767291468,-4.610805813466207,-3.563087050114767,1.7938063144683838,0.0,-0.0,0.0,0.0,0.0,0.0
1782763381,735332101,-1.8053320089923304,-0.838022534047262,-1.9944198767291468,-4.610769812260763,-3.563087050114767,1.7937703132629395,0.0,-0.0,0.0,0.0,0.0,0.0
1782763381,743313407,-1.8053081671344202,-0.8379986921893519,-1.9943597952472132,-4.610793773327963,-3.563087050114767,1.7937703132629395,0.0,-0.0,0.0,0.0,0.0,0.0
1782763381,751311583,-1.8053320089923304,-0.8379624525653284,-1.9944317976581019,-4.610781852399008,-3.563075129185812,1.7937943935394287,0.0,-0.0,0.0,0.0,0.0,0.0
1782763381,759326574,-1.8053682486163538,-0.8379748503314417,-1.9944079558001917,-4.610793773327963,-3.563087050114767,1.7938302755355835,0.0,-0.0,0.0,0.0,0.0,0.0
1782763381,767310121,-1.8053200880633753,-0.8380106131183069,-1.9944198767291468,-4.610781852399008,-3.563087050114767,1.7938063144683838,0.0,-0.0,0.0,0.0,0.0,0.0
1782763381,775317520,-1.8053801695453089,-0.8379867712603968,-1.9944317976581019,-4.610757891331808,-3.563111130391256,1.7938302755355835,0.0,-0.0,0.0,0.0,0.0,0.0
1782763381,783314585,-1.8053439299212855,-0.8379867712603968,-1.9944198767291468,-4.610781852399008,-3.5630512873279017,1.7938423156738281,0.0,-0.0,0.0,0.0,0.0,0.0
1782763381,791325854,-1.805404011403219,-0.8380106131183069,-1.9943960348712366,-4.610793773327963,-3.563099209462301,1.7938183546066284,0.0,-0.0,0.0,0.0,0.0,0.0
1782763381,799309826,-1.8053682486163538,-0.8379986921893519,-1.9943960348712366,-4.610805813466207,-3.563111130391256,1.7938542366027832,0.0,-0.0,0.0,0.0,0.0,0.0
1782763381,807349002,-1.8053682486163538,-0.8379867712603968,-1.994443718587057,-4.610817734395162,-3.5631230513202112,1.7937943935394287,0.0,-0.0,0.0,0.0,0.0,0.0
1782763381,815349919,-1.805272404347555,-0.8380106131183069,-1.9943597952472132,-4.610757891331808,-3.5631471315967005,1.7938302755355835,0.0,-0.0,0.0,0.0,0.0,0.0
1782763381,823397966,-1.8053682486163538,-0.8379986921893519,-1.9944198767291468,-4.610709849988119,-3.563087050114767,1.7938423156738281,0.0,-0.0,0.0,0.0,0.0,0.0
1782763381,831309143,-1.8053320089923304,-0.8380587736712855,-1.994443718587057,-4.610781852399008,-3.5631230513202112,1.793878197669983,0.0,-0.0,0.0,0.0,0.0,0.0
1782763381,839334689,-1.8053081671344202,-0.8379867712603968,-1.9943960348712366,-4.610793773327963,-3.563075129185812,1.7938063144683838,0.0,-0.0,0.0,0.0,0.0,0.0
1782763381,847359514,-1.8054159323321741,-0.8380344549762171,-1.9944561163531702,-4.610793773327963,-3.563099209462301,1.7938542366027832,0.0,-0.0,0.0,0.0,0.0,0.0
1782763381,855334523,-1.8053320089923304,-0.8379867712603968,-1.9943841139422815,-4.610793773327963,-3.5631349722491663,1.7938302755355835,0.0,-0.0,0.0,0.0,0.0,0.0
1782763381,863316792,-1.8053200880633753,-0.8380344549762171,-1.9944561163531702,-4.610769812260763,-3.5630632082568567,1.7938183546066284,0.0,-0.0,0.0,0.0,0.0,0.0
1782763381,871325135,-1.8053200880633753,-0.8379986921893519,-1.9944079558001917,-4.610769812260763,-3.563099209462301,1.7938183546066284,0.0,-0.0,0.0,0.0,0.0,0.0
1782763381,879323108,-1.8053682486163538,-0.8379266897784632,-1.9944198767291468,-4.610769812260763,-3.5631230513202112,1.7938183546066284,0.0,-0.0,0.0,0.0,0.0,0.0
1782763381,893323528,-1.8053558508502405,-0.8379867712603968,-1.994443718587057,-4.610781852399008,-3.5630632082568567,1.7938542366027832,0.0,-0.0,0.0,0.0,0.0,0.0
1782763381,897868427,-1.8053558508502405,-0.8379867712603968,-1.994443718587057,-4.610781852399008,-3.5630632082568567,1.7938542366027832,0.0,-0.0,0.0,0.0,0.0,0.0
1782763381,904208595,-1.8053801695453089,-0.8379505316363733,-1.9944198767291468,-4.610781852399008,-3.563087050114767,1.7938063144683838,0.0,-0.0,0.0,0.0,0.0,0.0
1782763381,913843799,-1.8053801695453089,-0.8379748503314417,-1.9944198767291468,-4.610745851193563,-3.563099209462301,1.7938423156738281,0.0,-0.0,0.0,0.0,0.0,0.0
1782763381,927309573,-1.8053439299212855,-0.8379748503314417,-1.9943960348712366,-4.610757891331808,-3.5630632082568567,1.7938542366027832,0.0,-0.0,0.0,0.0,0.0,0.0
1782763381,936844315,-1.8053200880633753,-0.8379748503314417,-1.9944317976581019,-4.610757891331808,-3.563075129185812,1.7938183546066284,0.0,-0.0,0.0,0.0,0.0,0.0
1782763381,944315587,-1.8053439299212855,-0.8379748503314417,-1.9944198767291468,-4.610781852399008,-3.5630632082568567,1.7938542366027832,0.0,-0.0,0.0,0.0,0.0,0.0
1782763381,951410935,-1.8053801695453089,-0.8379867712603968,-1.9944680372821253,-4.610781852399008,-3.5630632082568567,1.7938542366027832,0.0,-0.0,0.0,0.0,0.0,0.0
1782763381,959333482,-1.8053439299212855,-0.8380463759051722,-1.9944079558001917,-4.610781852399008,-3.563075129185812,1.7937943935394287,0.0,-0.0,0.0,0.0,0.0,0.0
1782763381,967301918,-1.8053200880633753,-0.8380344549762171,-1.994443718587057,-4.610793773327963,-3.5630632082568567,1.7938542366027832,0.0,-0.0,0.0,0.0,0.0,0.0
1782763381,975398372,-1.8053200880633753,-0.8380344549762171,-1.994443718587057,-4.610793773327963,-3.5630632082568567,1.7938542366027832,0.0,-0.0,0.0,0.0,0.0,0.0
1782763381,983529380,-1.8053081671344202,-0.8379867712603968,-1.9944317976581019,-4.610757891331808,-3.563099209462301,1.7938183546066284,0.0,-0.0,0.0,0.0,0.0,0.0
1782763381,991408724,-1.8053081671344202,-0.838022534047262,-1.994443718587057,-4.610793773327963,-3.563099209462301,1.7938183546066284,0.0,-0.0,0.0,0.0,0.0,0.0
1782763381,999494233,-1.8053200880633753,-0.8380463759051722,-1.9943960348712366,-4.610769812260763,-3.5630632082568567,1.793782353401184,0.0,-0.0,0.0,0.0,0.0,0.0
1782763382,7306725,-1.8053682486163538,-0.8379986921893519,-1.9943721930133265,-4.610757891331808,-3.563099209462301,1.7937943935394287,0.0,-0.0,0.0,0.0,0.0,0.0
1782763382,15300772,-1.8053801695453089,-0.838022534047262,-1.9943960348712366,-4.610733811055319,-3.563087050114767,1.7938662767410278,0.0,-0.0,0.0,0.0,0.0,0.0
1782763382,23330171,-1.8053200880633753,-0.8380344549762171,-1.9943841139422815,-4.610817734395162,-3.563087050114767,1.7938183546066284,0.0,-0.0,0.0,0.0,0.0,0.0
1782763382,31286162,-1.805392090474264,-0.8379748503314417,-1.9944317976581019,-4.610757891331808,-3.5630632082568567,1.7938183546066284,0.0,-0.0,0.0,0.0,0.0,0.0
1782763382,39303931,-1.805392090474264,-0.8380344549762171,-1.994443718587057,-4.610781852399008,-3.563099209462301,1.7938302755355835,0.0,-0.0,0.0,0.0,0.0,0.0
1782763382,47300681,-1.8053200880633753,-0.8380344549762171,-1.9944198767291468,-4.610733811055319,-3.5631230513202112,1.7938423156738281,0.0,-0.0,0.0,0.0,0.0,0.0
1782763382,55269395,-1.8053320089923304,-0.8379867712603968,-1.9944198767291468,-4.610769812260763,-3.563087050114767,1.7938423156738281,0.0,-0.0,0.0,0.0,0.0,0.0
1782763382,63307627,-1.8053801695453089,-0.8380463759051722,-1.9943960348712366,-4.610757891331808,-3.563087050114767,1.7937943935394287,0.0,-0.0,0.0,0.0,0.0,0.0
1782763382,71303136,-1.8053081671344202,-0.8379986921893519,-1.9944079558001917,-4.610757891331808,-3.563099209462301,1.7938302755355835,0.0,-0.0,0.0,0.0,0.0,0.0
1782763382,79299035,-1.8053081671344202,-0.8379867712603968,-1.9944198767291468,-4.610757891331808,-3.5630512873279017,1.7938063144683838,0.0,-0.0,0.0,0.0,0.0,0.0
1782763382,87305637,-1.8053558508502405,-0.8380106131183069,-1.9944198767291468,-4.610793773327963,-3.5630632082568567,1.7938542366027832,0.0,-0.0,0.0,0.0,0.0,0.0
1782763382,95305313,-1.8053682486163538,-0.8380106131183069,-1.9944198767291468,-4.610769812260763,-3.563111130391256,1.7938423156738281,0.0,-0.0,0.0,0.0,0.0,0.0
1782763382,103339656,-1.8053801695453089,-0.8379748503314417,-1.994443718587057,-4.610757891331808,-3.563087050114767,1.7938662767410278,0.0,-0.0,0.0,0.0,0.0,0.0
1782763382,111297814,-1.8053081671344202,-0.8380106131183069,-1.9944079558001917,-4.610781852399008,-3.563099209462301,1.7938662767410278,0.0,-0.0,0.0,0.0,0.0,0.0
1782763382,119301231,-1.8053200880633753,-0.8379505316363733,-1.9944317976581019,-4.610793773327963,-3.563087050114767,1.7938302755355835,0.0,-0.0,0.0,0.0,0.0,0.0
1782763382,127299148,-1.8053558508502405,-0.8379748503314417,-1.9944561163531702,-4.610781852399008,-3.5630512873279017,1.7938423156738281,0.0,-0.0,0.0,0.0,0.0,0.0
1782763382,135296010,-1.8053320089923304,-0.8379867712603968,-1.9943841139422815,-4.610793773327963,-3.563099209462301,1.7938183546066284,0.0,-0.0,0.0,0.0,0.0,0.0
1782763382,143305446,-1.8053682486163538,-0.8379505316363733,-1.9943960348712366,-4.610745851193563,-3.5630512873279017,1.7938183546066284,0.0,-0.0,0.0,0.0,0.0,0.0
1782763382,152024451,-1.8053320089923304,-0.8380344549762171,-1.9944079558001917,-4.610817734395162,-3.563111130391256,1.7937943935394287,0.0,-0.0,0.0,0.0,0.0,0.0
1782763382,159309798,-1.80528432527651,-0.8379748503314417,-1.9943597952472132,-4.610793773327963,-3.563099209462301,1.7937943935394287,0.0,-0.0,0.0,0.0,0.0,0.0
1782763382,167299160,-1.8053439299212855,-0.8379266897784632,-1.994443718587057,-4.610805813466207,-3.563075129185812,1.7938662767410278,0.0,-0.0,0.0,0.0,0.0,0.0
1782763382,175327336,-1.8053558508502405,-0.8379867712603968,-1.9944198767291468,-4.610757891331808,-3.5630632082568567,1.7938423156738281,0.0,-0.0,0.0,0.0,0.0,0.0
1782763382,183296587,-1.8053081671344202,-0.8380106131183069,-1.9943960348712366,-4.610757891331808,-3.563111130391256,1.7938542366027832,0.0,-0.0,0.0,0.0,0.0,0.0
1782763382,191377448,-1.8053320089923304,-0.8379867712603968,-1.9944198767291468,-4.610745851193563,-3.563087050114767,1.7938423156738281,0.0,-0.0,0.0,0.0,0.0,0.0
1782763382,199602178,-1.8053558508502405,-0.8379867712603968,-1.9944561163531702,-4.610793773327963,-3.563075129185812,1.7938302755355835,0.0,-0.0,0.0,0.0,0.0,0.0
1782763382,207315541,-1.8053801695453089,-0.8379986921893519,-1.9944079558001917,-4.610757891331808,-3.563075129185812,1.7938662767410278,0.0,-0.0,0.0,0.0,0.0,0.0
1782763382,215296644,-1.805404011403219,-0.8379986921893519,-1.994443718587057,-4.610805813466207,-3.563075129185812,1.7938542366027832,0.0,-0.0,0.0,0.0,0.0,0.0
1782763382,223304283,-1.80528432527651,-0.8380344549762171,-1.9943721930133265,-4.610781852399008,-3.5630632082568567,1.7938302755355835,0.0,-0.0,0.0,0.0,0.0,0.0
1782763382,231333163,-1.8053558508502405,-0.8379386107074183,-1.9943960348712366,-4.610805813466207,-3.563087050114767,1.7938662767410278,0.0,-0.0,0.0,0.0,0.0,0.0
1782763382,239293210,-1.8053320089923304,-0.8379748503314417,-1.994443718587057,-4.610757891331808,-3.563099209462301,1.7938423156738281,0.0,-0.0,0.0,0.0,0.0,0.0
1782763382,247295497,-1.8053801695453089,-0.8380344549762171,-1.9944198767291468,-4.610745851193563,-3.5630632082568567,1.7938542366027832,0.0,-0.0,0.0,0.0,0.0,0.0
1782763382,255421099,-1.8053439299212855,-0.8379624525653284,-1.9943721930133265,-4.610757891331808,-3.5631349722491663,1.7938063144683838,0.0,-0.0,0.0,0.0,0.0,0.0
1782763382,263298961,-1.8053801695453089,-0.8379748503314417,-1.9944198767291468,-4.610745851193563,-3.563087050114767,1.7938662767410278,0.0,-0.0,0.0,0.0,0.0,0.0
1782763382,271290934,-1.8053439299212855,-0.838022534047262,-1.9944561163531702,-4.610793773327963,-3.563075129185812,1.7938542366027832,0.0,-0.0,0.0,0.0,0.0,0.0
1782763382,279310573,-1.8052962462054651,-0.8379867712603968,-1.9944079558001917,-4.610757891331808,-3.5631349722491663,1.793782353401184,0.0,-0.0,0.0,0.0,0.0,0.0
1782763382,287297935,-1.8053439299212855,-0.8380587736712855,-1.9944079558001917,-4.610709849988119,-3.563111130391256,1.7938063144683838,0.0,-0.0,0.0,0.0,0.0,0.0
1782763382,295329463,-1.8053320089923304,-0.8380106131183069,-1.9944317976581019,-4.610757891331808,-3.563075129185812,1.7938183546066284,0.0,-0.0,0.0,0.0,0.0,0.0
1782763382,303328602,-1.8053320089923304,-0.8379748503314417,-1.9943960348712366,-4.610781852399008,-3.5630512873279017,1.7938183546066284,0.0,-0.0,0.0,0.0,0.0,0.0
1782763382,311340500,-1.8053801695453089,-0.8379986921893519,-1.9944561163531702,-4.610781852399008,-3.563111130391256,1.7938542366027832,0.0,-0.0,0.0,0.0,0.0,0.0
1782763382,319306992,-1.8053439299212855,-0.8380344549762171,-1.9944079558001917,-4.610793773327963,-3.563111130391256,1.7938542366027832,0.0,-0.0,0.0,0.0,0.0,0.0
1782763382,327317335,-1.8053439299212855,-0.8379986921893519,-1.9944198767291468,-4.610757891331808,-3.563087050114767,1.7938183546066284,0.0,-0.0,0.0,0.0,0.0,0.0
1782763382,335329678,-1.8053439299212855,-0.8380344549762171,-1.9944079558001917,-4.610805813466207,-3.5631230513202112,1.7938302755355835,0.0,-0.0,0.0,0.0,0.0,0.0
1782763382,343304484,-1.8053558508502405,-0.8380106131183069,-1.9944079558001917,-4.610745851193563,-3.5630512873279017,1.7938662767410278,0.0,-0.0,0.0,0.0,0.0,0.0
1782763382,351311327,-1.8053682486163538,-0.8379986921893519,-1.9944079558001917,-4.610769812260763,-3.563075129185812,1.793782353401184,0.0,-0.0,0.0,0.0,0.0,0.0
1782763382,359310503,-1.8053558508502405,-0.8379986921893519,-1.9944079558001917,-4.610793773327963,-3.5630512873279017,1.7938302755355835,0.0,-0.0,0.0,0.0,0.0,0.0
1782763382,367317772,-1.8053682486163538,-0.8379748503314417,-1.9944198767291468,-4.610817734395162,-3.563087050114767,1.7938423156738281,0.0,-0.0,0.0,0.0,0.0,0.0
1782763382,375317134,-1.8053320089923304,-0.8379624525653284,-1.9943960348712366,-4.610817734395162,-3.5631349722491663,1.793878197669983,0.0,-0.0,0.0,0.0,0.0,0.0
1782763382,383320588,-1.8053081671344202,-0.8380463759051722,-1.9944079558001917,-4.610781852399008,-3.563099209462301,1.7938423156738281,0.0,-0.0,0.0,0.0,0.0,0.0
1782763382,391324560,-1.8053200880633753,-0.8379748503314417,-1.9943960348712366,-4.610769812260763,-3.563087050114767,1.7937943935394287,0.0,-0.0,0.0,0.0,0.0,0.0
1782763382,399422366,-1.8053801695453089,-0.838022534047262,-1.9944198767291468,-4.610769812260763,-3.5630512873279017,1.7938063144683838,0.0,-0.0,0.0,0.0,0.0,0.0
1782763382,407300932,-1.8053439299212855,-0.8379986921893519,-1.9944079558001917,-4.610793773327963,-3.563099209462301,1.7938542366027832,0.0,-0.0,0.0,0.0,0.0,0.0
1782763382,415319793,-1.8053200880633753,-0.8380106131183069,-1.9944317976581019,-4.610781852399008,-3.5631349722491663,1.7938063144683838,0.0,-0.0,0.0,0.0,0.0,0.0
1782763382,423317618,-1.8053320089923304,-0.8380463759051722,-1.9944079558001917,-4.610757891331808,-3.563087050114767,1.7938302755355835,0.0,-0.0,0.0,0.0,0.0,0.0
1782763382,431353257,-1.8053320089923304,-0.8380106131183069,-1.9944561163531702,-4.610793773327963,-3.5630632082568567,1.7938183546066284,0.0,-0.0,0.0,0.0,0.0,0.0
1782763382,439318359,-1.805404011403219,-0.838022534047262,-1.9944079558001917,-4.610817734395162,-3.563099209462301,1.7938542366027832,0.0,-0.0,0.0,0.0,0.0,0.0
1782763382,447336295,-1.8053200880633753,-0.8379748503314417,-1.9944680372821253,-4.610793773327963,-3.5630632082568567,1.7938063144683838,0.0,-0.0,0.0,0.0,0.0,0.0
1782763382,455297286,-1.8053558508502405,-0.8379986921893519,-1.9943721930133265,-4.610733811055319,-3.5630512873279017,1.7938063144683838,0.0,-0.0,0.0,0.0,0.0,0.0
1782763382,463283333,-1.8053439299212855,-0.8380106131183069,-1.9943960348712366,-4.610817734395162,-3.5630632082568567,1.7938063144683838,0.0,-0.0,0.0,0.0,0.0,0.0
1782763382,471328398,-1.8053439299212855,-0.8380587736712855,-1.9944079558001917,-4.610769812260763,-3.563099209462301,1.7938302755355835,0.0,-0.0,0.0,0.0,0.0,0.0
1782763382,479321056,-1.8053558508502405,-0.8379505316363733,-1.9944317976581019,-4.610793773327963,-3.563099209462301,1.7938542366027832,0.0,-0.0,0.0,0.0,0.0,0.0
1782763382,487318788,-1.8053081671344202,-0.8379748503314417,-1.9943960348712366,-4.610745851193563,-3.5631230513202112,1.7938423156738281,0.0,-0.0,0.0,0.0,0.0,0.0
1782763382,495315538,-1.8053320089923304,-0.8379867712603968,-1.9943960348712366,-4.610793773327963,-3.563099209462301,1.7938302755355835,0.0,-0.0,0.0,0.0,0.0,0.0
1782763382,503372844,-1.805272404347555,-0.838022534047262,-1.9943721930133265,-4.610793773327963,-3.5630632082568567,1.7938183546066284,0.0,-0.0,0.0,0.0,0.0,0.0
1782763382,511296261,-1.805392090474264,-0.8379748503314417,-1.9944079558001917,-4.610769812260763,-3.563075129185812,1.7938423156738281,0.0,-0.0,0.0,0.0,0.0,0.0
1782763382,519321086,-1.8053439299212855,-0.8379624525653284,-1.9944317976581019,-4.610769812260763,-3.563111130391256,1.7938542366027832,0.0,-0.0,0.0,0.0,0.0,0.0
1782763382,527413965,-1.8053439299212855,-0.838022534047262,-1.9943721930133265,-4.610769812260763,-3.5630391279803675,1.7938063144683838,0.0,-0.0,0.0,0.0,0.0,0.0
1782763382,535322512,-1.805392090474264,-0.8380106131183069,-1.9943841139422815,-4.610781852399008,-3.5630632082568567,1.7938423156738281,0.0,-0.0,0.0,0.0,0.0,0.0
1782763382,543314744,-1.8053682486163538,-0.8380106131183069,-1.994443718587057,-4.610793773327963,-3.5630512873279017,1.7938183546066284,0.0,-0.0,0.0,0.0,0.0,0.0
1782763382,551319087,-1.8053558508502405,-0.8379986921893519,-1.994443718587057,-4.610781852399008,-3.563087050114767,1.7938302755355835,0.0,-0.0,0.0,0.0,0.0,0.0
1782763382,559334523,-1.80528432527651,-0.8379624525653284,-1.9944079558001917,-4.610781852399008,-3.563111130391256,1.7938302755355835,0.0,-0.0,0.0,0.0,0.0,0.0
1782763382,567303070,-1.8052962462054651,-0.8379748503314417,-1.9944198767291468,-4.610769812260763,-3.563099209462301,1.7938423156738281,0.0,-0.0,0.0,0.0,0.0,0.0
1782763382,575300320,-1.8053558508502405,-0.8379867712603968,-1.9944561163531702,-4.610745851193563,-3.5630272070514124,1.7938302755355835,0.0,-0.0,0.0,0.0,0.0,0.0
1782763382,583324367,-1.8053200880633753,-0.8379748503314417,-1.9944317976581019,-4.610769812260763,-3.563087050114767,1.7937943935394287,0.0,-0.0,0.0,0.0,0.0,0.0
1782763382,591327876,-1.8053558508502405,-0.8379748503314417,-1.9944198767291468,-4.610793773327963,-3.5631349722491663,1.7938542366027832,0.0,-0.0,0.0,0.0,0.0,0.0
1782763382,599320071,-1.8053439299212855,-0.8379624525653284,-1.9943960348712366,-4.610793773327963,-3.5630512873279017,1.7938183546066284,0.0,-0.0,0.0,0.0,0.0,0.0
1782763382,607311155,-1.8053200880633753,-0.8379748503314417,-1.9944317976581019,-4.610817734395162,-3.5631349722491663,1.7938302755355835,0.0,-0.0,0.0,0.0,0.0,0.0
1782763382,615329665,-1.8053320089923304,-0.838022534047262,-1.9944198767291468,-4.610805813466207,-3.5631230513202112,1.7937943935394287,0.0,-0.0,0.0,0.0,0.0,0.0
1782763382,623310415,-1.8053081671344202,-0.8380344549762171,-1.9944317976581019,-4.610733811055319,-3.5631230513202112,1.7938423156738281,0.0,-0.0,0.0,0.0,0.0,0.0
1782763382,631300629,-1.8053558508502405,-0.8379624525653284,-1.9944561163531702,-4.610757891331808,-3.563087050114767,1.7938423156738281,0.0,-0.0,0.0,0.0,0.0,0.0
1782763382,639314249,-1.8053801695453089,-0.8379505316363733,-1.994443718587057,-4.610769812260763,-3.5631230513202112,1.7938063144683838,0.0,-0.0,0.0,0.0,0.0,0.0
1782763382,647318870,-1.8053439299212855,-0.8379867712603968,-1.9943841139422815,-4.610781852399008,-3.563087050114767,1.7937943935394287,0.0,-0.0,0.0,0.0,0.0,0.0
1782763382,655320306,-1.8053200880633753,-0.838022534047262,-1.9944317976581019,-4.610757891331808,-3.563111130391256,1.7938662767410278,0.0,-0.0,0.0,0.0,0.0,0.0
1782763382,663321908,-1.8053439299212855,-0.8379986921893519,-1.9943841139422815,-4.610805813466207,-3.5631230513202112,1.793782353401184,0.0,-0.0,0.0,0.0,0.0,0.0
1782763382,671343325,-1.8053320089923304,-0.8379867712603968,-1.9943841139422815,-4.610805813466207,-3.5630632082568567,1.7938423156738281,0.0,-0.0,0.0,0.0,0.0,0.0
1782763382,679314261,-1.8053558508502405,-0.8380344549762171,-1.9944198767291468,-4.610769812260763,-3.563099209462301,1.7938183546066284,0.0,-0.0,0.0,0.0,0.0,0.0
1782763382,687303715,-1.8053558508502405,-0.8379986921893519,-1.9944079558001917,-4.610757891331808,-3.563087050114767,1.7938063144683838,0.0,-0.0,0.0,0.0,0.0,0.0
1782763382,695330539,-1.805392090474264,-0.838022534047262,-1.9944680372821253,-4.610745851193563,-3.563075129185812,1.7938423156738281,0.0,-0.0,0.0,0.0,0.0,0.0
1782763382,703322975,-1.8053439299212855,-0.8379748503314417,-1.9943960348712366,-4.610793773327963,-3.563111130391256,1.7938302755355835,0.0,-0.0,0.0,0.0,0.0,0.0
1782763382,711326910,-1.8053682486163538,-0.8379986921893519,-1.9944561163531702,-4.610829774533407,-3.563099209462301,1.793782353401184,0.0,-0.0,0.0,0.0,0.0,0.0
1782763382,719319291,-1.8053320089923304,-0.8379748503314417,-1.9944198767291468,-4.610817734395162,-3.563087050114767,1.7938542366027832,0.0,-0.0,0.0,0.0,0.0,0.0
1782763382,727351522,-1.805404011403219,-0.8380344549762171,-1.9943960348712366,-4.610805813466207,-3.5631230513202112,1.7938423156738281,0.0,-0.0,0.0,0.0,0.0,0.0
1782763382,735309125,-1.8053439299212855,-0.8380344549762171,-1.9944079558001917,-4.610781852399008,-3.563099209462301,1.7938063144683838,0.0,-0.0,0.0,0.0,0.0,0.0
1782763382,743314560,-1.8053320089923304,-0.8379505316363733,-1.9943721930133265,-4.610757891331808,-3.563087050114767,1.7938063144683838,0.0,-0.0,0.0,0.0,0.0,0.0
1782763382,751405940,-1.8053801695453089,-0.8379748503314417,-1.9944079558001917,-4.610769812260763,-3.563099209462301,1.7938542366027832,0.0,-0.0,0.0,0.0,0.0,0.0
1782763382,759303969,-1.8053558508502405,-0.8380106131183069,-1.9943960348712366,-4.610781852399008,-3.563111130391256,1.7938423156738281,0.0,-0.0,0.0,0.0,0.0,0.0
1782763382,767302312,-1.8053320089923304,-0.8379986921893519,-1.994443718587057,-4.610745851193563,-3.563075129185812,1.7938302755355835,0.0,-0.0,0.0,0.0,0.0,0.0
1782763382,775307006,-1.8053439299212855,-0.8379624525653284,-1.9944561163531702,-4.610733811055319,-3.563075129185812,1.7938542366027832,0.0,-0.0,0.0,0.0,0.0,0.0
1782763382,783316442,-1.8053200880633753,-0.8379748503314417,-1.9944198767291468,-4.610781852399008,-3.563099209462301,1.7938183546066284,0.0,-0.0,0.0,0.0,0.0,0.0
1782763382,791295878,-1.8053439299212855,-0.8379986921893519,-1.9944198767291468,-4.610781852399008,-3.563099209462301,1.7938662767410278,0.0,-0.0,0.0,0.0,0.0,0.0
1782763382,799293721,-1.8053682486163538,-0.8379748503314417,-1.9943841139422815,-4.610769812260763,-3.5631230513202112,1.7938063144683838,0.0,-0.0,0.0,0.0,0.0,0.0
1782763382,807307230,-1.8053439299212855,-0.8380344549762171,-1.9943841139422815,-4.610757891331808,-3.563099209462301,1.793782353401184,0.0,-0.0,0.0,0.0,0.0,0.0
1782763382,815412702,-1.8053682486163538,-0.8379867712603968,-1.9944198767291468,-4.610817734395162,-3.563111130391256,1.7938063144683838,0.0,-0.0,0.0,0.0,0.0,0.0
1782763382,823296250,-1.8053439299212855,-0.838022534047262,-1.9944561163531702,-4.610757891331808,-3.5631349722491663,1.7937703132629395,0.0,-0.0,0.0,0.0,0.0,0.0
1782763382,831293482,-1.8053320089923304,-0.8380344549762171,-1.9944079558001917,-4.610757891331808,-3.563087050114767,1.7937943935394287,0.0,-0.0,0.0,0.0,0.0,0.0
1782763382,839314862,-1.8053081671344202,-0.8379748503314417,-1.9943960348712366,-4.610793773327963,-3.563111130391256,1.7938063144683838,0.0,-0.0,0.0,0.0,0.0,0.0
1782763382,847339167,-1.8053081671344202,-0.8379748503314417,-1.9944079558001917,-4.610805813466207,-3.563087050114767,1.7938423156738281,0.0,-0.0,0.0,0.0,0.0,0.0
1782763382,855303529,-1.8053439299212855,-0.8379624525653284,-1.9944317976581019,-4.610757891331808,-3.563075129185812,1.7938183546066284,0.0,-0.0,0.0,0.0,0.0,0.0
1782763382,863293076,-1.8053081671344202,-0.8379867712603968,-1.9944317976581019,-4.610745851193563,-3.5631349722491663,1.7937943935394287,0.0,-0.0,0.0,0.0,0.0,0.0
1782763382,871302012,-1.8053558508502405,-0.8379986921893519,-1.9943960348712366,-4.610757891331808,-3.563099209462301,1.7938302755355835,0.0,-0.0,0.0,0.0,0.0,0.0
1782763382,879300151,-1.8053682486163538,-0.8380106131183069,-1.9943960348712366,-4.610793773327963,-3.5631349722491663,1.7937703132629395,0.0,-0.0,0.0,0.0,0.0,0.0
1782763382,887295235,-1.8053558508502405,-0.8379748503314417,-1.9944317976581019,-4.610793773327963,-3.5630632082568567,1.7937943935394287,0.0,-0.0,0.0,0.0,0.0,0.0
1782763382,895313207,-1.8052962462054651,-0.8379986921893519,-1.994443718587057,-4.610745851193563,-3.5630391279803675,1.7938302755355835,0.0,-0.0,0.0,0.0,0.0,0.0
1782763382,903337494,-1.8053558508502405,-0.8379266897784632,-1.9944198767291468,-4.610793773327963,-3.5630512873279017,1.7938902378082275,0.0,-0.0,0.0,0.0,0.0,0.0
1782763382,911331689,-1.8052962462054651,-0.8380344549762171,-1.9943960348712366,-4.610769812260763,-3.563111130391256,1.7938063144683838,0.0,-0.0,0.0,0.0,0.0,0.0
1782763382,919307366,-1.805392090474264,-0.8379867712603968,-1.9944198767291468,-4.610805813466207,-3.5630632082568567,1.7938183546066284,0.0,-0.0,0.0,0.0,0.0,0.0
1782763382,927294227,-1.8053320089923304,-0.8380344549762171,-1.9944561163531702,-4.610769812260763,-3.5630512873279017,1.7938302755355835,0.0,-0.0,0.0,0.0,0.0,0.0
1782763382,935300052,-1.8053320089923304,-0.8379624525653284,-1.9944198767291468,-4.610721890126364,-3.5630512873279017,1.7938183546066284,0.0,-0.0,0.0,0.0,0.0,0.0
1782763382,943296988,-1.8053320089923304,-0.8379505316363733,-1.9943960348712366,-4.610793773327963,-3.563099209462301,1.7938423156738281,0.0,-0.0,0.0,0.0,0.0,0.0
1782763382,951302386,-1.8053682486163538,-0.8379867712603968,-1.9944799582110804,-4.610757891331808,-3.563087050114767,1.7938423156738281,0.0,-0.0,0.0,0.0,0.0,0.0
1782763382,959303155,-1.8053320089923304,-0.8379867712603968,-1.9944079558001917,-4.610781852399008,-3.563075129185812,1.7938662767410278,0.0,-0.0,0.0,0.0,0.0,0.0
1782763382,967299276,-1.8053200880633753,-0.8379867712603968,-1.9944317976581019,-4.610757891331808,-3.563075129185812,1.7938183546066284,0.0,-0.0,0.0,0.0,0.0,0.0
1782763382,975324582,-1.8053801695453089,-0.8380463759051722,-1.9944198767291468,-4.610757891331808,-3.563111130391256,1.7938662767410278,0.0,-0.0,0.0,0.0,0.0,0.0
1782763382,983295129,-1.8053439299212855,-0.8379867712603968,-1.9943960348712366,-4.610805813466207,-3.563111130391256,1.7938063144683838,0.0,-0.0,0.0,0.0,0.0,0.0
1782763382,991288620,-1.8053439299212855,-0.8380106131183069,-1.9944079558001917,-4.610793773327963,-3.5630391279803675,1.7938302755355835,0.0,-0.0,0.0,0.0,0.0,0.0
1782763382,999299629,-1.8053558508502405,-0.8379986921893519,-1.9943960348712366,-4.610757891331808,-3.5631471315967005,1.7938423156738281,0.0,-0.0,0.0,0.0,0.0,0.0
1782763383,7310954,-1.8053081671344202,-0.8380344549762171,-1.9944317976581019,-4.610817734395162,-3.563087050114767,1.7938423156738281,0.0,-0.0,0.0,0.0,0.0,0.0
1782763383,15298445,-1.8053081671344202,-0.8379986921893519,-1.9944317976581019,-4.610793773327963,-3.563087050114767,1.7937943935394287,0.0,-0.0,0.0,0.0,0.0,0.0
1782763383,23300010,-1.805392090474264,-0.8379505316363733,-1.9944561163531702,-4.610769812260763,-3.563087050114767,1.7938183546066284,0.0,-0.0,0.0,0.0,0.0,0.0
1782763383,31298224,-1.8053682486163538,-0.8379505316363733,-1.9944079558001917,-4.610805813466207,-3.563075129185812,1.7938423156738281,0.0,-0.0,0.0,0.0,0.0,0.0
1782763383,39326344,-1.8053558508502405,-0.8379748503314417,-1.9943841139422815,-4.610793773327963,-3.563075129185812,1.7937943935394287,0.0,-0.0,0.0,0.0,0.0,0.0
1782763383,47301484,-1.8053558508502405,-0.8379624525653284,-1.9944198767291468,-4.610769812260763,-3.5630512873279017,1.7938542366027832,0.0,-0.0,0.0,0.0,0.0,0.0
1782763383,55295234,-1.8052962462054651,-0.8380344549762171,-1.9944198767291468,-4.610769812260763,-3.563075129185812,1.7938183546066284,0.0,-0.0,0.0,0.0,0.0,0.0
1782763383,63303577,-1.8053682486163538,-0.838022534047262,-1.9944079558001917,-4.610793773327963,-3.5630632082568567,1.7937943935394287,0.0,-0.0,0.0,0.0,0.0,0.0
1782763383,71300920,-1.8053558508502405,-0.8379505316363733,-1.9944079558001917,-4.610733811055319,-3.563087050114767,1.7937703132629395,0.0,-0.0,0.0,0.0,0.0,0.0
1782763383,79300615,-1.8053439299212855,-0.8380106131183069,-1.9944079558001917,-4.610781852399008,-3.563087050114767,1.7937703132629395,0.0,-0.0,0.0,0.0,0.0,0.0
1782763383,87299977,-1.8053439299212855,-0.8379748503314417,-1.994443718587057,-4.610781852399008,-3.5631349722491663,1.7938183546066284,0.0,-0.0,0.0,0.0,0.0,0.0
1782763383,95302505,-1.8053439299212855,-0.8380344549762171,-1.9943721930133265,-4.610805813466207,-3.5630632082568567,1.7938063144683838,0.0,-0.0,0.0,0.0,0.0,0.0
1782763383,103298070,-1.8053081671344202,-0.838022534047262,-1.9944079558001917,-4.610781852399008,-3.563099209462301,1.7938423156738281,0.0,-0.0,0.0,0.0,0.0,0.0
1782763383,111305932,-1.8053439299212855,-0.8379624525653284,-1.9944561163531702,-4.610805813466207,-3.5630632082568567,1.7938662767410278,0.0,-0.0,0.0,0.0,0.0,0.0
1782763383,119311201,-1.8053200880633753,-0.8380463759051722,-1.9944198767291468,-4.610757891331808,-3.5630512873279017,1.7938063144683838,0.0,-0.0,0.0,0.0,0.0,0.0
1782763383,127301581,-1.8053200880633753,-0.8379986921893519,-1.9944561163531702,-4.610769812260763,-3.5631349722491663,1.7938183546066284,0.0,-0.0,0.0,0.0,0.0,0.0
1782763383,135329553,-1.8053439299212855,-0.8379624525653284,-1.9944198767291468,-4.610817734395162,-3.5630632082568567,1.7938302755355835,0.0,-0.0,0.0,0.0,0.0,0.0
1782763383,143291600,-1.8053081671344202,-0.8379986921893519,-1.9943960348712366,-4.610769812260763,-3.5630632082568567,1.7938183546066284,0.0,-0.0,0.0,0.0,0.0,0.0
1782763383,151305443,-1.8053081671344202,-0.8380344549762171,-1.9943841139422815,-4.610781852399008,-3.563087050114767,1.7938542366027832,0.0,-0.0,0.0,0.0,0.0,0.0
1782763383,174203016,-1.8053439299212855,-0.838022534047262,-1.994443718587057,-4.610757891331808,-3.5631349722491663,1.7938302755355835,0.0,-0.0,0.0,0.0,0.0,0.0
1782763383,189204078,-1.8053682486163538,-0.8379748503314417,-1.9944079558001917,-4.610757891331808,-3.5630632082568567,1.7938063144683838,0.0,-0.0,0.0,0.0,0.0,0.0
1782763383,195265414,-1.8053439299212855,-0.8379986921893519,-1.9943841139422815,-4.610757891331808,-3.5630632082568567,1.7938542366027832,0.0,-0.0,0.0,0.0,0.0,0.0
1782763383,203935808,-1.8053682486163538,-0.8379986921893519,-1.994443718587057,-4.610805813466207,-3.563075129185812,1.7938063144683838,0.0,-0.0,0.0,0.0,0.0,0.0
1782763383,207547158,-1.8053439299212855,-0.8379386107074183,-1.9943721930133265,-4.610781852399008,-3.563111130391256,1.7938662767410278,0.0,-0.0,0.0,0.0,0.0,0.0
1782763383,220033420,-1.8053682486163538,-0.8379867712603968,-1.9944317976581019,-4.610805813466207,-3.563075129185812,1.7937943935394287,0.0,-0.0,0.0,0.0,0.0,0.0
1782763383,229747883,-1.8053439299212855,-0.8379986921893519,-1.9944198767291468,-4.610709849988119,-3.563087050114767,1.7938542366027832,0.0,-0.0,0.0,0.0,0.0,0.0
1782763383,238278408,-1.8053320089923304,-0.8379986921893519,-1.9944198767291468,-4.610757891331808,-3.5630391279803675,1.7938302755355835,0.0,-0.0,0.0,0.0,0.0,0.0
1782763383,247308282,-1.8053320089923304,-0.8379624525653284,-1.9944317976581019,-4.610745851193563,-3.563111130391256,1.793878197669983,0.0,-0.0,0.0,0.0,0.0,0.0
1782763383,257767796,-1.8053200880633753,-0.8379748503314417,-1.9944198767291468,-4.610721890126364,-3.563075129185812,1.7938302755355835,0.0,-0.0,0.0,0.0,0.0,0.0
1782763383,263297727,-1.8053682486163538,-0.8380106131183069,-1.994443718587057,-4.610793773327963,-3.5630632082568567,1.7938542366027832,0.0,-0.0,0.0,0.0,0.0,0.0
1782763383,271300256,-1.8053320089923304,-0.8380106131183069,-1.9944317976581019,-4.610854093228475,-3.563111130391256,1.7938423156738281,0.0,-0.0,0.0,0.0,0.0,0.0
1782763383,279306524,-1.8053439299212855,-0.8379986921893519,-1.9943960348712366,-4.610757891331808,-3.563075129185812,1.7938302755355835,0.0,-0.0,0.0,0.0,0.0,0.0
1782763383,287598125,-1.8053439299212855,-0.838022534047262,-1.9944198767291468,-4.610721890126364,-3.563099209462301,1.793782353401184,0.0,-0.0,0.0,0.0,0.0,0.0
1782763383,295365118,-1.8053320089923304,-0.838022534047262,-1.9944317976581019,-4.610793773327963,-3.5631230513202112,1.7938662767410278,0.0,-0.0,0.0,0.0,0.0,0.0
1782763383,303452145,-1.8053081671344202,-0.8379624525653284,-1.9944079558001917,-4.610781852399008,-3.563075129185812,1.7938542366027832,0.0,-0.0,0.0,0.0,0.0,0.0
1782763383,311311804,-1.8053558508502405,-0.8379748503314417,-1.9944198767291468,-4.610793773327963,-3.563111130391256,1.7938542366027832,0.0,-0.0,0.0,0.0,0.0,0.0
1782763383,319430517,-1.8053558508502405,-0.8379986921893519,-1.9944079558001917,-4.610805813466207,-3.5631230513202112,1.7938183546066284,0.0,-0.0,0.0,0.0,0.0,0.0
1782763383,327401156,-1.8053439299212855,-0.8379748503314417,-1.9944198767291468,-4.610757891331808,-3.563075129185812,1.7938542366027832,0.0,-0.0,0.0,0.0,0.0,0.0
1782763383,335994329,-1.8053439299212855,-0.8379748503314417,-1.9944198767291468,-4.610805813466207,-3.563099209462301,1.7938423156738281,0.0,-0.0,0.0,0.0,0.0,0.0
1782763383,346817841,-1.8053320089923304,-0.838022534047262,-1.9944079558001917,-4.610721890126364,-3.563075129185812,1.7938302755355835,0.0,-0.0,0.0,0.0,0.0,0.0
1782763383,351316649,-1.8053682486163538,-0.8380106131183069,-1.9944680372821253,-4.610757891331808,-3.563111130391256,1.793782353401184,0.0,-0.0,0.0,0.0,0.0,0.0
1782763383,359581601,-1.8053081671344202,-0.8379748503314417,-1.9944198767291468,-4.610781852399008,-3.563087050114767,1.7938063144683838,0.0,-0.0,0.0,0.0,0.0,0.0
1782763383,367315039,-1.8053200880633753,-0.8379748503314417,-1.9943960348712366,-4.610757891331808,-3.563087050114767,1.7938542366027832,0.0,-0.0,0.0,0.0,0.0,0.0
1782763383,375306863,-1.8053439299212855,-0.8379986921893519,-1.9943960348712366,-4.610769812260763,-3.5630512873279017,1.7938423156738281,0.0,-0.0,0.0,0.0,0.0,0.0
1782763383,383309317,-1.8053439299212855,-0.838022534047262,-1.9944079558001917,-4.610841695462362,-3.563111130391256,1.7938302755355835,0.0,-0.0,0.0,0.0,0.0,0.0
1782763383,391310086,-1.8053200880633753,-0.8379986921893519,-1.9944198767291468,-4.610805813466207,-3.563111130391256,1.7938662767410278,0.0,-0.0,0.0,0.0,0.0,0.0
1782763383,400971179,-1.8053682486163538,-0.8379748503314417,-1.994443718587057,-4.610793773327963,-3.563099209462301,1.7937943935394287,0.0,-0.0,0.0,0.0,0.0,0.0
1782763383,407370216,-1.8053320089923304,-0.8379986921893519,-1.9943960348712366,-4.610793773327963,-3.5630632082568567,1.7938063144683838,0.0,-0.0,0.0,0.0,0.0,0.0
1782763383,415389115,-1.8053558508502405,-0.8380106131183069,-1.9944198767291468,-4.610757891331808,-3.563075129185812,1.7938183546066284,0.0,-0.0,0.0,0.0,0.0,0.0
1782763383,423308681,-1.8053081671344202,-0.838022534047262,-1.9944198767291468,-4.610757891331808,-3.563099209462301,1.7938423156738281,0.0,-0.0,0.0,0.0,0.0,0.0
1782763383,431316412,-1.8053320089923304,-0.8379624525653284,-1.9944079558001917,-4.610769812260763,-3.5630391279803675,1.7937943935394287,0.0,-0.0,0.0,0.0,0.0,0.0
1782763383,439334904,-1.8053439299212855,-0.8380106131183069,-1.9943960348712366,-4.610793773327963,-3.5630512873279017,1.7938662767410278,0.0,-0.0,0.0,0.0,0.0,0.0
1782763383,447662374,-1.8053320089923304,-0.8379867712603968,-1.9944198767291468,-4.610757891331808,-3.563075129185812,1.7938063144683838,0.0,-0.0,0.0,0.0,0.0,0.0
1782763383,457106431,-1.8053200880633753,-0.8380587736712855,-1.9943960348712366,-4.610781852399008,-3.563099209462301,1.7938302755355835,0.0,-0.0,0.0,0.0,0.0,0.0
1782763383,495767765,-1.8053320089923304,-0.8379748503314417,-1.9944079558001917,-4.610793773327963,-3.563111130391256,1.7938423156738281,0.0,-0.0,0.0,0.0,0.0,0.0
1782763383,503448944,-1.8053439299212855,-0.8379624525653284,-1.9944079558001917,-4.610757891331808,-3.5630391279803675,1.7938302755355835,0.0,-0.0,0.0,0.0,0.0,0.0
1782763383,513276146,-1.8053200880633753,-0.8379867712603968,-1.9944198767291468,-4.610769812260763,-3.5630632082568567,1.7938423156738281,0.0,-0.0,0.0,0.0,0.0,0.0
1782763383,519498629,-1.8053200880633753,-0.8380106131183069,-1.9943960348712366,-4.610805813466207,-3.563099209462301,1.7937943935394287,0.0,-0.0,0.0,0.0,0.0,0.0
1782763383,527297122,-1.8053801695453089,-0.8379867712603968,-1.9943841139422815,-4.610793773327963,-3.5630391279803675,1.7938183546066284,0.0,-0.0,0.0,0.0,0.0,0.0
1782763383,535292057,-1.8053081671344202,-0.8379867712603968,-1.9943960348712366,-4.610817734395162,-3.5630632082568567,1.7937703132629395,0.0,-0.0,0.0,0.0,0.0,0.0
1782763383,543291289,-1.8053801695453089,-0.8379867712603968,-1.9944198767291468,-4.610757891331808,-3.5630632082568567,1.7938423156738281,0.0,-0.0,0.0,0.0,0.0,0.0
1782763383,551301669,-1.8053558508502405,-0.8379986921893519,-1.994443718587057,-4.610745851193563,-3.5630632082568567,1.7937943935394287,0.0,-0.0,0.0,0.0,0.0,0.0
1782763383,559292309,-1.8053801695453089,-0.838022534047262,-1.9943960348712366,-4.610805813466207,-3.563075129185812,1.7937943935394287,0.0,-0.0,0.0,0.0,0.0,0.0
1782763383,568275202,-1.8053320089923304,-0.8380463759051722,-1.9944079558001917,-4.610769812260763,-3.563075129185812,1.7938063144683838,0.0,-0.0,0.0,0.0,0.0,0.0
1782763383,575301365,-1.8053558508502405,-0.8379986921893519,-1.9944317976581019,-4.610757891331808,-3.563087050114767,1.7937943935394287,0.0,-0.0,0.0,0.0,0.0,0.0
1782763383,583294912,-1.8053320089923304,-0.8380344549762171,-1.9944198767291468,-4.610805813466207,-3.5630632082568567,1.7938183546066284,0.0,-0.0,0.0,0.0,0.0,0.0
1782763383,591288588,-1.8053081671344202,-0.8379867712603968,-1.9943721930133265,-4.610781852399008,-3.5631349722491663,1.7938302755355835,0.0,-0.0,0.0,0.0,0.0,0.0
1782763383,599288579,-1.8053439299212855,-0.8380106131183069,-1.9944198767291468,-4.610757891331808,-3.563099209462301,1.7938302755355835,0.0,-0.0,0.0,0.0,0.0,0.0
1782763383,607294404,-1.8053439299212855,-0.8379986921893519,-1.9943960348712366,-4.610769812260763,-3.563075129185812,1.7938302755355835,0.0,-0.0,0.0,0.0,0.0,0.0
1782763383,615288840,-1.8053320089923304,-0.8379867712603968,-1.9944079558001917,-4.610805813466207,-3.563087050114767,1.7938063144683838,0.0,-0.0,0.0,0.0,0.0,0.0
1782763383,623310275,-1.8053439299212855,-0.8380106131183069,-1.9943841139422815,-4.610745851193563,-3.5631349722491663,1.7938063144683838,0.0,-0.0,0.0,0.0,0.0,0.0
1782763383,631302970,-1.805404011403219,-0.8379867712603968,-1.9944198767291468,-4.610709849988119,-3.563111130391256,1.7938302755355835,0.0,-0.0,0.0,0.0,0.0,0.0
1782763383,639297091,-1.8053200880633753,-0.8379986921893519,-1.9944561163531702,-4.610781852399008,-3.563075129185812,1.7938302755355835,0.0,-0.0,0.0,0.0,0.0,0.0
1782763383,647322119,-1.8053200880633753,-0.8380587736712855,-1.9944317976581019,-4.610793773327963,-3.563075129185812,1.7938662767410278,0.0,-0.0,0.0,0.0,0.0,0.0
1782763383,655291036,-1.8053558508502405,-0.8379867712603968,-1.9943960348712366,-4.610745851193563,-3.563111130391256,1.7938183546066284,0.0,-0.0,0.0,0.0,0.0,0.0
1782763383,663294453,-1.8053320089923304,-0.8379867712603968,-1.9944680372821253,-4.610745851193563,-3.563087050114767,1.7938302755355835,0.0,-0.0,0.0,0.0,0.0,0.0
1782763383,671294426,-1.8053320089923304,-0.8379748503314417,-1.9944079558001917,-4.610769812260763,-3.563075129185812,1.7938063144683838,0.0,-0.0,0.0,0.0,0.0,0.0
1782763383,679303639,-1.8052962462054651,-0.838022534047262,-1.9943960348712366,-4.610781852399008,-3.5630632082568567,1.7938063144683838,0.0,-0.0,0.0,0.0,0.0,0.0
1782763383,687290260,-1.8053081671344202,-0.8379867712603968,-1.9944198767291468,-4.610757891331808,-3.5630391279803675,1.7938662767410278,0.0,-0.0,0.0,0.0,0.0,0.0
1782763383,695292714,-1.8053439299212855,-0.838022534047262,-1.9943960348712366,-4.610757891331808,-3.5630632082568567,1.7938183546066284,0.0,-0.0,0.0,0.0,0.0,0.0
1782763383,703298261,-1.8052962462054651,-0.8379748503314417,-1.9944317976581019,-4.610817734395162,-3.5630391279803675,1.7938423156738281,0.0,-0.0,0.0,0.0,0.0,0.0
1782763383,711320845,-1.8053200880633753,-0.8379986921893519,-1.9944317976581019,-4.610757891331808,-3.563087050114767,1.7938423156738281,0.0,-0.0,0.0,0.0,0.0,0.0
1782763383,719290929,-1.805404011403219,-0.8380344549762171,-1.9944317976581019,-4.610769812260763,-3.5630272070514124,1.7937943935394287,0.0,-0.0,0.0,0.0,0.0,0.0
1782763383,727291309,-1.8053200880633753,-0.8379986921893519,-1.994443718587057,-4.610781852399008,-3.563087050114767,1.7938063144683838,0.0,-0.0,0.0,0.0,0.0,0.0
1782763383,735299726,-1.8053439299212855,-0.8380106131183069,-1.9944317976581019,-4.610769812260763,-3.5631349722491663,1.7938183546066284,0.0,-0.0,0.0,0.0,0.0,0.0
1782763383,743308365,-1.8053801695453089,-0.8379986921893519,-1.9944079558001917,-4.610793773327963,-3.563111130391256,1.7938662767410278,0.0,-0.0,0.0,0.0,0.0,0.0
1782763383,751303153,-1.8052962462054651,-0.8379748503314417,-1.9944198767291468,-4.610757891331808,-3.563087050114767,1.7937943935394287,0.0,-0.0,0.0,0.0,0.0,0.0
1782763383,759296310,-1.8053200880633753,-0.8380106131183069,-1.9944198767291468,-4.610733811055319,-3.563087050114767,1.7937583923339844,0.0,-0.0,0.0,0.0,0.0,0.0
1782763383,767296894,-1.8053200880633753,-0.8379986921893519,-1.9944079558001917,-4.610781852399008,-3.5631230513202112,1.7938183546066284,0.0,-0.0,0.0,0.0,0.0,0.0
1782763383,775380459,-1.8053200880633753,-0.8380106131183069,-1.9944317976581019,-4.610793773327963,-3.5631230513202112,1.7938662767410278,0.0,-0.0,0.0,0.0,0.0,0.0
1782763383,783310877,-1.8053558508502405,-0.8379867712603968,-1.9944561163531702,-4.610757891331808,-3.5630391279803675,1.7938542366027832,0.0,-0.0,0.0,0.0,0.0,0.0
1782763383,791338553,-1.8053682486163538,-0.8379748503314417,-1.9943721930133265,-4.610769812260763,-3.5630512873279017,1.7938423156738281,0.0,-0.0,0.0,0.0,0.0,0.0
1782763383,799292803,-1.8053682486163538,-0.8380106131183069,-1.9944561163531702,-4.610805813466207,-3.563099209462301,1.7938302755355835,0.0,-0.0,0.0,0.0,0.0,0.0
1782763383,807303054,-1.8053439299212855,-0.8379867712603968,-1.9943721930133265,-4.610781852399008,-3.563099209462301,1.7938183546066284,0.0,-0.0,0.0,0.0,0.0,0.0
1782763383,815310175,-1.8053081671344202,-0.8379986921893519,-1.9943960348712366,-4.610793773327963,-3.563075129185812,1.7937943935394287,0.0,-0.0,0.0,0.0,0.0,0.0
1782763383,823343369,-1.8053682486163538,-0.838022534047262,-1.994443718587057,-4.610781852399008,-3.563075129185812,1.7938542366027832,0.0,-0.0,0.0,0.0,0.0,0.0
1782763383,831289583,-1.80528432527651,-0.8379986921893519,-1.9943721930133265,-4.610745851193563,-3.5631230513202112,1.7937943935394287,0.0,-0.0,0.0,0.0,0.0,0.0
1782763383,839304056,-1.8053439299212855,-0.8380106131183069,-1.9944561163531702,-4.610781852399008,-3.5630632082568567,1.7937943935394287,0.0,-0.0,0.0,0.0,0.0,0.0
1782763383,847310639,-1.8053801695453089,-0.8379986921893519,-1.9944079558001917,-4.610769812260763,-3.563111130391256,1.7938302755355835,0.0,-0.0,0.0,0.0,0.0,0.0
1782763383,855309908,-1.8053320089923304,-0.8379986921893519,-1.9944198767291468,-4.610781852399008,-3.563099209462301,1.7938542366027832,0.0,-0.0,0.0,0.0,0.0,0.0
1782763383,863289066,-1.8053200880633753,-0.8379986921893519,-1.9944198767291468,-4.610733811055319,-3.563075129185812,1.7938183546066284,0.0,-0.0,0.0,0.0,0.0,0.0
1782763383,871285317,-1.8053439299212855,-0.8380344549762171,-1.9944198767291468,-4.610757891331808,-3.563111130391256,1.793782353401184,0.0,-0.0,0.0,0.0,0.0,0.0
1782763383,879301475,-1.8053439299212855,-0.8379986921893519,-1.9943597952472132,-4.610769812260763,-3.563087050114767,1.7938662767410278,0.0,-0.0,0.0,0.0,0.0,0.0
1782763383,887300169,-1.8053682486163538,-0.8380344549762171,-1.9944079558001917,-4.610769812260763,-3.563087050114767,1.7937943935394287,0.0,-0.0,0.0,0.0,0.0,0.0
1782763383,895302346,-1.8053558508502405,-0.8379748503314417,-1.9944198767291468,-4.610757891331808,-3.563099209462301,1.7937943935394287,0.0,-0.0,0.0,0.0,0.0,0.0
1782763383,903305226,-1.8052962462054651,-0.8380106131183069,-1.9944561163531702,-4.610793773327963,-3.5630272070514124,1.7938183546066284,0.0,-0.0,0.0,0.0,0.0,0.0
1782763383,911301754,-1.8053682486163538,-0.8380106131183069,-1.9943960348712366,-4.610769812260763,-3.5630632082568567,1.7938542366027832,0.0,-0.0,0.0,0.0,0.0,0.0
1782763383,919306153,-1.8053801695453089,-0.8379867712603968,-1.9944079558001917,-4.610769812260763,-3.5630632082568567,1.7937943935394287,0.0,-0.0,0.0,0.0,0.0,0.0
