LukePepin/On-Edge/data/deceleration_data_1782779363.csv
timestamp_sec,timestamp_nanosec,shoulder_pan_pos,shoulder_lift_pos,elbow_pos,wrist_1_pos,wrist_2_pos,wrist_3_pos,shoulder_pan_vel,shoulder_lift_vel,elbow_vel,wrist_1_vel,wrist_2_vel,wrist_3_vel
1782779364,32504730,-1.6895130316363733,-0.5930359999286097,-2.2819908300982874,-4.759883944188253,-3.5630152861224573,0.6720300316810608,0.0,-0.0,0.0,0.0,0.0,0.0
1782779364,39573191,-1.6895607153521937,-0.5930236021624964,-2.2819908300982874,-4.759883944188253,-3.5630152861224573,0.6721135377883911,0.0,-0.0,0.0,0.0,0.0,0.0
1782779364,47435594,-1.6895368734942835,-0.5929997603045862,-2.2820385138141077,-4.7598599831210535,-3.562967363988058,0.6720539927482605,0.0,-0.0,0.0,0.0,0.0,0.0
1782779364,58153655,-1.6895487944232386,-0.59308368364443,-2.2820027510272425,-4.759895865117208,-3.563003126774923,0.6720895767211914,0.0,-0.0,0.0,0.0,0.0,0.0
1782779364,63579214,-1.6895487944232386,-0.59308368364443,-2.2820027510272425,-4.759895865117208,-3.563003126774923,0.6720895767211914,0.0,-0.0,0.0,0.0,0.0,0.0
1782779364,71428598,-1.6895249525653284,-0.5930236021624964,-2.2820265928851526,-4.759895865117208,-3.563003126774923,0.6720420122146606,0.0,-0.0,0.0,0.0,0.0,0.0
1782779364,79439612,-1.6895249525653284,-0.5930236021624964,-2.282062832509176,-4.759883944188253,-3.562991205845968,0.6721374988555908,0.0,-0.0,0.0,0.0,0.0,0.0
1782779364,87424570,-1.6895249525653284,-0.5930479208575647,-2.2819789091693323,-4.759895865117208,-3.5629432837115687,0.6720180511474609,0.0,-0.0,0.0,0.0,0.0,0.0
1782779364,95506361,-1.6895249525653284,-0.5930717627154749,-2.2820385138141077,-4.759847942982809,-3.5630391279803675,0.6720895767211914,0.0,-0.0,0.0,0.0,0.0,0.0
1782779364,103419468,-1.6895845572101038,-0.5930717627154749,-2.2820265928851526,-4.759847942982809,-3.562979284917013,0.6720779538154602,0.0,-0.0,0.0,0.0,0.0,0.0
1782779364,111409945,-1.6895607153521937,-0.5930479208575647,-2.2820265928851526,-4.759871904050009,-3.562991205845968,0.6720779538154602,0.0,-0.0,0.0,0.0,0.0,0.0
1782779364,119425384,-1.6895487944232386,-0.5930359999286097,-2.2820146719561976,-4.759847942982809,-3.5630391279803675,0.6721015572547913,0.0,-0.0,0.0,0.0,0.0,0.0
1782779364,127447305,-1.6895607153521937,-0.5930236021624964,-2.2820146719561976,-4.7598599831210535,-3.563003126774923,0.6720779538154602,0.0,-0.0,0.0,0.0,0.0,0.0
1782779364,135486578,-1.6895845572101038,-0.5930598417865198,-2.2820027510272425,-4.7598599831210535,-3.563003126774923,0.6720539927482605,0.0,-0.0,0.0,0.0,0.0,0.0
1782779364,143422833,-1.6895726362811487,-0.5930359999286097,-2.2820146719561976,-4.759836022053854,-3.562979284917013,0.6720539927482605,0.0,-0.0,0.0,0.0,0.0,0.0
1782779364,151419754,-1.6895130316363733,-0.5930598417865198,-2.2819908300982874,-4.7598599831210535,-3.5630272070514124,0.672125518321991,0.0,-0.0,0.0,0.0,0.0,0.0
1782779364,159442156,-1.6895726362811487,-0.5930479208575647,-2.2819908300982874,-4.7598599831210535,-3.5630512873279017,0.672125518321991,0.0,-0.0,0.0,0.0,0.0,0.0
1782779364,167437874,-1.6895487944232386,-0.5929878393756312,-2.2819789091693323,-4.759871904050009,-3.563003126774923,0.6720300316810608,0.0,-0.0,0.0,0.0,0.0,0.0
1782779364,175445536,-1.6895487944232386,-0.5930479208575647,-2.2819789091693323,-4.759883944188253,-3.5630152861224573,0.6721015572547913,0.0,-0.0,0.0,0.0,0.0,0.0
1782779364,183447549,-1.6895130316363733,-0.5930236021624964,-2.2820027510272425,-4.759883944188253,-3.562991205845968,0.6720779538154602,0.0,-0.0,0.0,0.0,0.0,0.0
1782779364,191446970,-1.6895249525653284,-0.5930598417865198,-2.2820146719561976,-4.759836022053854,-3.5630391279803675,0.6720895767211914,0.0,-0.0,0.0,0.0,0.0,0.0
1782779364,199437447,-1.6895368734942835,-0.5930116812335413,-2.2820027510272425,-4.759895865117208,-3.562967363988058,0.6720180511474609,0.0,-0.0,0.0,0.0,0.0,0.0
1782779364,207439831,-1.6895845572101038,-0.5930236021624964,-2.2820027510272425,-4.759895865117208,-3.563003126774923,0.6720779538154602,0.0,-0.0,0.0,0.0,0.0,0.0
1782779364,215465715,-1.6895726362811487,-0.5930116812335413,-2.2820265928851526,-4.759847942982809,-3.5630272070514124,0.6721015572547913,0.0,-0.0,0.0,0.0,0.0,0.0
1782779364,223495692,-1.6895487944232386,-0.5929997603045862,-2.2819789091693323,-4.759883944188253,-3.562979284917013,0.6720659732818604,0.0,-0.0,0.0,0.0,0.0,0.0
1782779364,231455780,-1.6895487944232386,-0.5930359999286097,-2.2820146719561976,-4.759883944188253,-3.563003126774923,0.6720659732818604,0.0,-0.0,0.0,0.0,0.0,0.0
1782779364,239470349,-1.6895726362811487,-0.5930956045733851,-2.2820027510272425,-4.759836022053854,-3.562991205845968,0.6720779538154602,0.0,-0.0,0.0,0.0,0.0,0.0
1782779364,247493844,-1.6895368734942835,-0.5930116812335413,-2.2820027510272425,-4.759871904050009,-3.5630391279803675,0.6720180511474609,0.0,-0.0,0.0,0.0,0.0,0.0
1782779364,255494080,-1.6895249525653284,-0.5930116812335413,-2.2819908300982874,-4.759847942982809,-3.5630272070514124,0.6720895767211914,0.0,-0.0,0.0,0.0,0.0,0.0
1782779364,263456501,-1.6895487944232386,-0.5930479208575647,-2.2819908300982874,-4.759907905255453,-3.5630152861224573,0.6721135377883911,0.0,-0.0,0.0,0.0,0.0,0.0
1782779364,271445070,-1.6895487944232386,-0.5930116812335413,-2.2820146719561976,-4.759895865117208,-3.5630272070514124,0.6720420122146606,0.0,-0.0,0.0,0.0,0.0,0.0
1782779364,279494565,-1.6895368734942835,-0.5930236021624964,-2.2820385138141077,-4.759847942982809,-3.5630512873279017,0.6720895767211914,0.0,-0.0,0.0,0.0,0.0,0.0
1782779364,287444246,-1.6895845572101038,-0.5930236021624964,-2.2820027510272425,-4.759883944188253,-3.562979284917013,0.6720539927482605,0.0,-0.0,0.0,0.0,0.0,0.0
1782779364,295427278,-1.6895607153521937,-0.5930956045733851,-2.2820265928851526,-4.759871904050009,-3.562991205845968,0.6720659732818604,0.0,-0.0,0.0,0.0,0.0,0.0
1782779364,303440866,-1.6895726362811487,-0.5930717627154749,-2.2820146719561976,-4.759919826184408,-3.562979284917013,0.6720180511474609,0.0,-0.0,0.0,0.0,0.0,0.0
1782779364,311428935,-1.6895130316363733,-0.5929997603045862,-2.2819789091693323,-4.759871904050009,-3.5630152861224573,0.6720779538154602,0.0,-0.0,0.0,0.0,0.0,0.0
1782779364,319422097,-1.6895487944232386,-0.5930717627154749,-2.2820146719561976,-4.759883944188253,-3.5630512873279017,0.6720539927482605,0.0,-0.0,0.0,0.0,0.0,0.0
1782779364,327441074,-1.6895726362811487,-0.5930479208575647,-2.2820146719561976,-4.7598599831210535,-3.5630152861224573,0.6720895767211914,0.0,-0.0,0.0,0.0,0.0,0.0
1782779364,335452921,-1.6895726362811487,-0.5930956045733851,-2.2820385138141077,-4.759883944188253,-3.5630272070514124,0.6720895767211914,0.0,-0.0,0.0,0.0,0.0,0.0
1782779364,343472194,-1.6895487944232386,-0.5930717627154749,-2.2820027510272425,-4.759871904050009,-3.562979284917013,0.6720659732818604,0.0,-0.0,0.0,0.0,0.0,0.0
1782779364,351457670,-1.6895607153521937,-0.5929997603045862,-2.2820146719561976,-4.759883944188253,-3.563003126774923,0.6720659732818604,0.0,-0.0,0.0,0.0,0.0,0.0
1782779364,359568887,-1.6895487944232386,-0.5930717627154749,-2.2819789091693323,-4.759823981915609,-3.5630152861224573,0.6720895767211914,0.0,-0.0,0.0,0.0,0.0,0.0
1782779364,367447772,-1.6895130316363733,-0.5930359999286097,-2.2820146719561976,-4.759895865117208,-3.5630391279803675,0.6721015572547913,0.0,-0.0,0.0,0.0,0.0,0.0
1782779364,375425026,-1.6895249525653284,-0.5930116812335413,-2.2820146719561976,-4.759836022053854,-3.562991205845968,0.6721135377883911,0.0,-0.0,0.0,0.0,0.0,0.0
1782779364,383422281,-1.6895368734942835,-0.5930479208575647,-2.282050911580221,-4.759847942982809,-3.5630512873279017,0.6720659732818604,0.0,-0.0,0.0,0.0,0.0,0.0
1782779364,391446035,-1.6895845572101038,-0.5930359999286097,-2.282050911580221,-4.759895865117208,-3.5630391279803675,0.6721015572547913,0.0,-0.0,0.0,0.0,0.0,0.0
1782779364,399430475,-1.6895368734942835,-0.5930479208575647,-2.2819908300982874,-4.759871904050009,-3.5630272070514124,0.6721015572547913,0.0,-0.0,0.0,0.0,0.0,0.0
1782779364,407452933,-1.6895607153521937,-0.5930717627154749,-2.2819908300982874,-4.759871904050009,-3.5630272070514124,0.6720300316810608,0.0,-0.0,0.0,0.0,0.0,0.0
1782779364,415419910,-1.6895368734942835,-0.5930236021624964,-2.2820385138141077,-4.759871904050009,-3.562979284917013,0.6720895767211914,0.0,-0.0,0.0,0.0,0.0,0.0
1782779364,423434812,-1.6895607153521937,-0.5930598417865198,-2.2820265928851526,-4.759847942982809,-3.5630512873279017,0.6720539927482605,0.0,-0.0,0.0,0.0,0.0,0.0
1782779364,431432808,-1.6895726362811487,-0.5929878393756312,-2.2819789091693323,-4.759871904050009,-3.5630152861224573,0.6720779538154602,0.0,-0.0,0.0,0.0,0.0,0.0
1782779364,439431303,-1.6895726362811487,-0.5930116812335413,-2.2820146719561976,-4.759847942982809,-3.562979284917013,0.6720895767211914,0.0,-0.0,0.0,0.0,0.0,0.0
1782779364,447429205,-1.6895607153521937,-0.5930236021624964,-2.2820027510272425,-4.759871904050009,-3.5630391279803675,0.6720539927482605,0.0,-0.0,0.0,0.0,0.0,0.0
1782779364,455432960,-1.6895368734942835,-0.5930116812335413,-2.2820265928851526,-4.759919826184408,-3.563075129185812,0.6720779538154602,0.0,-0.0,0.0,0.0,0.0,0.0
1782779364,463457825,-1.6895249525653284,-0.59308368364443,-2.2820027510272425,-4.759883944188253,-3.5630272070514124,0.6720539927482605,0.0,-0.0,0.0,0.0,0.0,0.0
1782779364,476276584,-1.6895607153521937,-0.5930956045733851,-2.2820027510272425,-4.759895865117208,-3.562979284917013,0.6721015572547913,0.0,-0.0,0.0,0.0,0.0,0.0
1782779364,504559317,-1.6895487944232386,-0.5930479208575647,-2.2820027510272425,-4.759895865117208,-3.5630272070514124,0.6720779538154602,0.0,-0.0,0.0,0.0,0.0,0.0
1782779364,511525500,-1.6895249525653284,-0.5930359999286097,-2.2820265928851526,-4.7598599831210535,-3.563003126774923,0.6720300316810608,0.0,-0.0,0.0,0.0,0.0,0.0
1782779364,520428604,-1.6895487944232386,-0.5930598417865198,-2.2819908300982874,-4.759823981915609,-3.5630272070514124,0.6720895767211914,0.0,-0.0,0.0,0.0,0.0,0.0
1782779364,527759082,-1.6895130316363733,-0.5929759184466761,-2.2820265928851526,-4.759895865117208,-3.562991205845968,0.6720539927482605,0.0,-0.0,0.0,0.0,0.0,0.0
1782779364,535581985,-1.6896207968341272,-0.5930598417865198,-2.2820265928851526,-4.7598599831210535,-3.5630152861224573,0.6720659732818604,0.0,-0.0,0.0,0.0,0.0,0.0
1782779364,544614681,-1.6895130316363733,-0.5930598417865198,-2.2819789091693323,-4.759883944188253,-3.562991205845968,0.6720539927482605,0.0,-0.0,0.0,0.0,0.0,0.0
1782779364,564349179,-1.6895607153521937,-0.5930359999286097,-2.2819669882403772,-4.759883944188253,-3.562991205845968,0.6720539927482605,0.0,-0.0,0.0,0.0,0.0,0.0
1782779364,568193372,-1.6895607153521937,-0.5930717627154749,-2.2819908300982874,-4.759847942982809,-3.563003126774923,0.6721135377883911,0.0,-0.0,0.0,0.0,0.0,0.0
1782779364,573200616,-1.6895607153521937,-0.5930717627154749,-2.2819908300982874,-4.759847942982809,-3.563003126774923,0.6721135377883911,0.0,-0.0,0.0,0.0,0.0,0.0
1782779364,577124494,-1.6895249525653284,-0.5930359999286097,-2.2820146719561976,-4.759907905255453,-3.562979284917013,0.6720895767211914,0.0,-0.0,0.0,0.0,0.0,0.0
1782779364,583636308,-1.6895249525653284,-0.5930359999286097,-2.2820146719561976,-4.759907905255453,-3.562979284917013,0.6720895767211914,0.0,-0.0,0.0,0.0,0.0,0.0
1782779364,592692522,-1.6895130316363733,-0.5930236021624964,-2.2820146719561976,-4.759836022053854,-3.562991205845968,0.6720539927482605,0.0,-0.0,0.0,0.0,0.0,0.0
1782779364,601267738,-1.6895607153521937,-0.5930598417865198,-2.2820385138141077,-4.759895865117208,-3.563003126774923,0.6721015572547913,0.0,-0.0,0.0,0.0,0.0,0.0
1782779364,611993337,-1.6895726362811487,-0.5930236021624964,-2.2819908300982874,-4.759895865117208,-3.5630391279803675,0.6720420122146606,0.0,-0.0,0.0,0.0,0.0,0.0
1782779364,615513808,-1.6895726362811487,-0.5930236021624964,-2.2819908300982874,-4.759895865117208,-3.5630391279803675,0.6720420122146606,0.0,-0.0,0.0,0.0,0.0,0.0
1782779364,623456636,-1.6895726362811487,-0.5930236021624964,-2.2819908300982874,-4.759895865117208,-3.5630391279803675,0.6720420122146606,0.0,-0.0,0.0,0.0,0.0,0.0
1782779364,631499872,-1.6895607153521937,-0.5929997603045862,-2.2820385138141077,-4.759836022053854,-3.562967363988058,0.6720539927482605,0.0,-0.0,0.0,0.0,0.0,0.0
1782779364,639468627,-1.6895487944232386,-0.5930598417865198,-2.2820385138141077,-4.7598599831210535,-3.562991205845968,0.6720895767211914,0.0,-0.0,0.0,0.0,0.0,0.0
1782779364,652299497,-1.6895607153521937,-0.5930236021624964,-2.2820265928851526,-4.759871904050009,-3.563003126774923,0.6720659732818604,0.0,-0.0,0.0,0.0,0.0,0.0
1782779364,656952687,-1.6895607153521937,-0.5930236021624964,-2.2820265928851526,-4.759871904050009,-3.563003126774923,0.6720659732818604,0.0,-0.0,0.0,0.0,0.0,0.0
1782779364,663422298,-1.6895368734942835,-0.5930359999286097,-2.2819789091693323,-4.759871904050009,-3.5630272070514124,0.6720895767211914,0.0,-0.0,0.0,0.0,0.0,0.0
1782779364,671415774,-1.6895487944232386,-0.5930116812335413,-2.2819908300982874,-4.759836022053854,-3.5630391279803675,0.6720539927482605,0.0,-0.0,0.0,0.0,0.0,0.0
1782779364,679536788,-1.6895845572101038,-0.5930717627154749,-2.2820146719561976,-4.7598599831210535,-3.562991205845968,0.6720539927482605,0.0,-0.0,0.0,0.0,0.0,0.0
1782779364,687498431,-1.6895845572101038,-0.59308368364443,-2.2820146719561976,-4.759907905255453,-3.5630272070514124,0.6720659732818604,0.0,-0.0,0.0,0.0,0.0,0.0
1782779364,695508149,-1.6895368734942835,-0.5930479208575647,-2.2819789091693323,-4.759871904050009,-3.5630152861224573,0.6720659732818604,0.0,-0.0,0.0,0.0,0.0,0.0
1782779364,703821143,-1.6895726362811487,-0.5930479208575647,-2.2820385138141077,-4.759847942982809,-3.562967363988058,0.6720539927482605,0.0,-0.0,0.0,0.0,0.0,0.0
1782779364,712012971,-1.6895845572101038,-0.5930359999286097,-2.2819908300982874,-4.759907905255453,-3.5630391279803675,0.6720895767211914,0.0,-0.0,0.0,0.0,0.0,0.0
1782779364,719459023,-1.6895845572101038,-0.5930359999286097,-2.2819908300982874,-4.759907905255453,-3.5630391279803675,0.6720895767211914,0.0,-0.0,0.0,0.0,0.0,0.0
1782779364,727438611,-1.6895487944232386,-0.5930479208575647,-2.2820027510272425,-4.759871904050009,-3.563003126774923,0.6720895767211914,0.0,-0.0,0.0,0.0,0.0,0.0
1782779364,735452365,-1.6895249525653284,-0.5930717627154749,-2.2819908300982874,-4.7598599831210535,-3.562967363988058,0.6720420122146606,0.0,-0.0,0.0,0.0,0.0,0.0
1782779364,752718222,-1.6895607153521937,-0.5930479208575647,-2.2820265928851526,-4.759919826184408,-3.5630152861224573,0.6720895767211914,0.0,-0.0,0.0,0.0,0.0,0.0
1782779364,757201543,-1.6895607153521937,-0.5930479208575647,-2.2820265928851526,-4.759919826184408,-3.5630152861224573,0.6720895767211914,0.0,-0.0,0.0,0.0,0.0,0.0
1782779364,761952751,-1.6896088759051722,-0.5930116812335413,-2.2820146719561976,-4.759883944188253,-3.5630632082568567,0.6720420122146606,0.0,-0.0,0.0,0.0,0.0,0.0
1782779364,767482624,-1.6895964781390589,-0.5930717627154749,-2.2819789091693323,-4.759883944188253,-3.563003126774923,0.6720300316810608,0.0,-0.0,0.0,0.0,0.0,0.0
1782779364,775590693,-1.6895249525653284,-0.5930116812335413,-2.2820265928851526,-4.7598599831210535,-3.562991205845968,0.6720779538154602,0.0,-0.0,0.0,0.0,0.0,0.0
1782779364,783454040,-1.6895249525653284,-0.5930479208575647,-2.2819908300982874,-4.7598599831210535,-3.562967363988058,0.6721015572547913,0.0,-0.0,0.0,0.0,0.0,0.0
1782779364,792357940,-1.6895607153521937,-0.5930359999286097,-2.2820027510272425,-4.759895865117208,-3.5630512873279017,0.6720180511474609,0.0,-0.0,0.0,0.0,0.0,0.0
1782779364,806501492,-1.6895726362811487,-0.5930598417865198,-2.2820146719561976,-4.759871904050009,-3.5630152861224573,0.6720659732818604,0.0,-0.0,0.0,0.0,0.0,0.0
1782779364,821054727,-1.6895130316363733,-0.5930479208575647,-2.2820146719561976,-4.759847942982809,-3.5630272070514124,0.6720659732818604,0.0,-0.0,0.0,0.0,0.0,0.0
1782779364,828499483,-1.6895607153521937,-0.5930717627154749,-2.2820027510272425,-4.759907905255453,-3.5630272070514124,0.6720779538154602,0.0,-0.0,0.0,0.0,0.0,0.0
1782779364,833159043,-1.6895607153521937,-0.5930717627154749,-2.2820027510272425,-4.759907905255453,-3.5630272070514124,0.6720779538154602,0.0,-0.0,0.0,0.0,0.0,0.0
1782779364,839506692,-1.6895607153521937,-0.5930717627154749,-2.2820027510272425,-4.7598599831210535,-3.5630512873279017,0.6721015572547913,0.0,-0.0,0.0,0.0,0.0,0.0
1782779364,847804538,-1.6895368734942835,-0.5930479208575647,-2.2819908300982874,-4.7598599831210535,-3.5630512873279017,0.6720779538154602,0.0,-0.0,0.0,0.0,0.0,0.0
1782779364,855491941,-1.6895368734942835,-0.5930479208575647,-2.2819908300982874,-4.7598599831210535,-3.5630512873279017,0.6720779538154602,0.0,-0.0,0.0,0.0,0.0,0.0
1782779364,863545196,-1.6895726362811487,-0.5930116812335413,-2.2820027510272425,-4.7598599831210535,-3.562979284917013,0.6720300316810608,0.0,-0.0,0.0,0.0,0.0,0.0
1782779364,871452024,-1.6895130316363733,-0.5930116812335413,-2.2820385138141077,-4.759895865117208,-3.563087050114767,0.6721015572547913,0.0,-0.0,0.0,0.0,0.0,0.0
1782779364,879531853,-1.6895130316363733,-0.5930598417865198,-2.2819789091693323,-4.759871904050009,-3.5630512873279017,0.6720659732818604,0.0,-0.0,0.0,0.0,0.0,0.0
1782779364,887418756,-1.6895964781390589,-0.5930236021624964,-2.2820146719561976,-4.759871904050009,-3.5630272070514124,0.6720895767211914,0.0,-0.0,0.0,0.0,0.0,0.0
1782779364,895508676,-1.6895487944232386,-0.5930116812335413,-2.2819908300982874,-4.759823981915609,-3.562967363988058,0.6720180511474609,0.0,-0.0,0.0,0.0,0.0,0.0
1782779364,903413209,-1.6895487944232386,-0.5930956045733851,-2.2820146719561976,-4.7598599831210535,-3.562979284917013,0.6720659732818604,0.0,-0.0,0.0,0.0,0.0,0.0
1782779364,911653537,-1.6895487944232386,-0.5930598417865198,-2.2820146719561976,-4.759883944188253,-3.5630272070514124,0.6720659732818604,0.0,-0.0,0.0,0.0,0.0,0.0
1782779364,919549829,-1.6895845572101038,-0.5930236021624964,-2.2819908300982874,-4.759823981915609,-3.5630272070514124,0.6720779538154602,0.0,-0.0,0.0,0.0,0.0,0.0
1782779364,928486080,-1.6895607153521937,-0.5930598417865198,-2.2820385138141077,-4.759883944188253,-3.5630391279803675,0.6720539927482605,0.0,-0.0,0.0,0.0,0.0,0.0
1782779364,936259113,-1.6895607153521937,-0.5930479208575647,-2.2819908300982874,-4.759907905255453,-3.5630512873279017,0.6720659732818604,0.0,-0.0,0.0,0.0,0.0,0.0
1782779364,944147386,-1.6895607153521937,-0.5930479208575647,-2.2819908300982874,-4.759907905255453,-3.563003126774923,0.6720659732818604,0.0,-0.0,0.0,0.0,0.0,0.0
1782779364,951548698,-1.6895487944232386,-0.5929759184466761,-2.282050911580221,-4.759871904050009,-3.5630512873279017,0.6720659732818604,0.0,-0.0,0.0,0.0,0.0,0.0
1782779364,959503638,-1.6895487944232386,-0.5929759184466761,-2.282050911580221,-4.759871904050009,-3.5630512873279017,0.6720659732818604,0.0,-0.0,0.0,0.0,0.0,0.0
1782779364,967624559,-1.6895607153521937,-0.5930116812335413,-2.2819908300982874,-4.759883944188253,-3.5630272070514124,0.6720659732818604,0.0,-0.0,0.0,0.0,0.0,0.0
1782779364,978806730,-1.6895130316363733,-0.5930236021624964,-2.2820146719561976,-4.759871904050009,-3.563003126774923,0.6721135377883911,0.0,-0.0,0.0,0.0,0.0,0.0
1782779364,983456253,-1.6895130316363733,-0.5930236021624964,-2.2820146719561976,-4.759871904050009,-3.563003126774923,0.6721135377883911,0.0,-0.0,0.0,0.0,0.0,0.0
1782779364,991414878,-1.6895726362811487,-0.5930598417865198,-2.2819908300982874,-4.759847942982809,-3.5630152861224573,0.6720420122146606,0.0,-0.0,0.0,0.0,0.0,0.0
1782779364,999419651,-1.6895726362811487,-0.5930359999286097,-2.2820146719561976,-4.759907905255453,-3.5630512873279017,0.6721015572547913,0.0,-0.0,0.0,0.0,0.0,0.0
1782779365,7430757,-1.6895249525653284,-0.5930598417865198,-2.2820146719561976,-4.759823981915609,-3.5630152861224573,0.6721015572547913,0.0,-0.0,0.0,0.0,0.0,0.0
1782779365,15425845,-1.6895130316363733,-0.5930479208575647,-2.2819908300982874,-4.759847942982809,-3.562991205845968,0.6720539927482605,0.0,-0.0,0.0,0.0,0.0,0.0
1782779365,23411600,-1.6895845572101038,-0.5930598417865198,-2.2819908300982874,-4.759871904050009,-3.5630272070514124,0.6720895767211914,0.0,-0.0,0.0,0.0,0.0,0.0
1782779365,31494817,-1.6895964781390589,-0.5930479208575647,-2.2820027510272425,-4.759847942982809,-3.562979284917013,0.6720779538154602,0.0,-0.0,0.0,0.0,0.0,0.0
1782779365,39568553,-1.6895368734942835,-0.5930359999286097,-2.2820146719561976,-4.759871904050009,-3.562979284917013,0.6720895767211914,0.0,-0.0,0.0,0.0,0.0,0.0
1782779365,47416141,-1.6895368734942835,-0.5930479208575647,-2.2820866743670862,-4.759895865117208,-3.5630272070514124,0.6721015572547913,0.0,-0.0,0.0,0.0,0.0,0.0
1782779365,55440099,-1.6895487944232386,-0.5930479208575647,-2.2820265928851526,-4.759847942982809,-3.562967363988058,0.6720779538154602,0.0,-0.0,0.0,0.0,0.0,0.0
1782779365,63449298,-1.6895964781390589,-0.5930359999286097,-2.2820265928851526,-4.759895865117208,-3.562967363988058,0.6720779538154602,0.0,-0.0,0.0,0.0,0.0,0.0
1782779365,71628811,-1.6895607153521937,-0.5930598417865198,-2.2819908300982874,-4.759919826184408,-3.5630272070514124,0.6721015572547913,0.0,-0.0,0.0,0.0,0.0,0.0
1782779365,79453695,-1.6895607153521937,-0.5930598417865198,-2.2819908300982874,-4.759919826184408,-3.5630272070514124,0.6721015572547913,0.0,-0.0,0.0,0.0,0.0,0.0
1782779365,87415320,-1.6895607153521937,-0.5930116812335413,-2.282062832509176,-4.759871904050009,-3.5630512873279017,0.6721015572547913,0.0,-0.0,0.0,0.0,0.0,0.0
1782779365,95445426,-1.6895130316363733,-0.5930598417865198,-2.2820027510272425,-4.759871904050009,-3.563003126774923,0.6720420122146606,0.0,-0.0,0.0,0.0,0.0,0.0
1782779365,103415311,-1.6895249525653284,-0.5929997603045862,-2.2820146719561976,-4.759883944188253,-3.5630272070514124,0.6720895767211914,0.0,-0.0,0.0,0.0,0.0,0.0
1782779365,111427547,-1.6895368734942835,-0.5930717627154749,-2.2820385138141077,-4.759907905255453,-3.563003126774923,0.6721135377883911,0.0,-0.0,0.0,0.0,0.0,0.0
1782779365,119628911,-1.6895487944232386,-0.5930717627154749,-2.2820385138141077,-4.759823981915609,-3.562991205845968,0.6720539927482605,0.0,-0.0,0.0,0.0,0.0,0.0
1782779365,127536722,-1.6895487944232386,-0.5930359999286097,-2.2820027510272425,-4.759883944188253,-3.562967363988058,0.6720659732818604,0.0,-0.0,0.0,0.0,0.0,0.0
1782779365,135414217,-1.6895249525653284,-0.5930598417865198,-2.2819908300982874,-4.759907905255453,-3.5630272070514124,0.6720300316810608,0.0,-0.0,0.0,0.0,0.0,0.0
1782779365,143461860,-1.6895249525653284,-0.5930116812335413,-2.2820385138141077,-4.759871904050009,-3.563003126774923,0.6720539927482605,0.0,-0.0,0.0,0.0,0.0,0.0
1782779365,151387671,-1.6895845572101038,-0.5930236021624964,-2.2819669882403772,-4.759883944188253,-3.5630391279803675,0.6720659732818604,0.0,-0.0,0.0,0.0,0.0,0.0
1782779365,159417610,-1.6895368734942835,-0.5930359999286097,-2.2820385138141077,-4.759895865117208,-3.563003126774923,0.6720539927482605,0.0,-0.0,0.0,0.0,0.0,0.0
1782779365,167414439,-1.6895607153521937,-0.5930236021624964,-2.2820265928851526,-4.759836022053854,-3.563003126774923,0.6721015572547913,0.0,-0.0,0.0,0.0,0.0,0.0
1782779365,175413063,-1.6895487944232386,-0.59308368364443,-2.2820146719561976,-4.7598599831210535,-3.5630512873279017,0.6720895767211914,0.0,-0.0,0.0,0.0,0.0,0.0
1782779365,183413485,-1.6895249525653284,-0.5930236021624964,-2.2820027510272425,-4.759907905255453,-3.562991205845968,0.6720539927482605,0.0,-0.0,0.0,0.0,0.0,0.0
1782779365,191417832,-1.6895607153521937,-0.5930116812335413,-2.2820385138141077,-4.759836022053854,-3.5630391279803675,0.6721135377883911,0.0,-0.0,0.0,0.0,0.0,0.0
1782779365,199572937,-1.6895487944232386,-0.5930479208575647,-2.2820027510272425,-4.7598599831210535,-3.562991205845968,0.6720659732818604,0.0,-0.0,0.0,0.0,0.0,0.0
1782779365,212857473,-1.6895845572101038,-0.59308368364443,-2.2820027510272425,-4.7598599831210535,-3.5630152861224573,0.6720539927482605,0.0,-0.0,0.0,0.0,0.0,0.0
1782779365,223623201,-1.6895130316363733,-0.5930479208575647,-2.2820146719561976,-4.7598599831210535,-3.563003126774923,0.6720420122146606,0.0,-0.0,0.0,0.0,0.0,0.0
1782779365,231449178,-1.6895607153521937,-0.5930236021624964,-2.2819789091693323,-4.759883944188253,-3.5630272070514124,0.6720659732818604,0.0,-0.0,0.0,0.0,0.0,0.0
1782779365,239421654,-1.6895726362811487,-0.5930956045733851,-2.2819908300982874,-4.759907905255453,-3.5630272070514124,0.6720779538154602,0.0,-0.0,0.0,0.0,0.0,0.0
1782779365,247542390,-1.6895368734942835,-0.5930598417865198,-2.2820265928851526,-4.759871904050009,-3.5630272070514124,0.6720895767211914,0.0,-0.0,0.0,0.0,0.0,0.0
1782779365,271493616,-1.6895487944232386,-0.5930236021624964,-2.2819669882403772,-4.7598599831210535,-3.563003126774923,0.6720420122146606,0.0,-0.0,0.0,0.0,0.0,0.0
1782779365,279653407,-1.6895607153521937,-0.5930479208575647,-2.2820027510272425,-4.7598599831210535,-3.5630272070514124,0.6720659732818604,0.0,-0.0,0.0,0.0,0.0,0.0
1782779365,287469533,-1.6896088759051722,-0.5929997603045862,-2.2820265928851526,-4.759919826184408,-3.563003126774923,0.6721015572547913,0.0,-0.0,0.0,0.0,0.0,0.0
1782779365,296112026,-1.6895487944232386,-0.5930236021624964,-2.2820146719561976,-4.759871904050009,-3.5630391279803675,0.6720539927482605,0.0,-0.0,0.0,0.0,0.0,0.0
1782779365,303504893,-1.6895487944232386,-0.5930236021624964,-2.2820146719561976,-4.759871904050009,-3.5630391279803675,0.6720539927482605,0.0,-0.0,0.0,0.0,0.0,0.0
1782779365,311458722,-1.6895249525653284,-0.5930359999286097,-2.2820146719561976,-4.759931866322653,-3.5630272070514124,0.672125518321991,0.0,-0.0,0.0,0.0,0.0,0.0
1782779365,319637883,-1.6895726362811487,-0.5930598417865198,-2.2820385138141077,-4.759871904050009,-3.5630152861224573,0.6721015572547913,0.0,-0.0,0.0,0.0,0.0,0.0
1782779365,327434898,-1.6895845572101038,-0.5930717627154749,-2.281942669545309,-4.759907905255453,-3.562979284917013,0.6720300316810608,0.0,-0.0,0.0,0.0,0.0,0.0
1782779365,335423448,-1.6895368734942835,-0.5930598417865198,-2.2820385138141077,-4.7598599831210535,-3.562991205845968,0.6720420122146606,0.0,-0.0,0.0,0.0,0.0,0.0
1782779365,343589536,-1.6895726362811487,-0.5929759184466761,-2.2820146719561976,-4.759883944188253,-3.562991205845968,0.6720539927482605,0.0,-0.0,0.0,0.0,0.0,0.0
1782779365,354343337,-1.6895130316363733,-0.5930359999286097,-2.282062832509176,-4.759836022053854,-3.562991205845968,0.6720895767211914,0.0,-0.0,0.0,0.0,0.0,0.0
1782779365,359484193,-1.6895130316363733,-0.5930359999286097,-2.282062832509176,-4.759836022053854,-3.562991205845968,0.6720895767211914,0.0,-0.0,0.0,0.0,0.0,0.0
1782779365,367418059,-1.6895249525653284,-0.5930598417865198,-2.2819908300982874,-4.759847942982809,-3.5630391279803675,0.6720779538154602,0.0,-0.0,0.0,0.0,0.0,0.0
1782779365,377747417,-1.6895726362811487,-0.5930236021624964,-2.2820027510272425,-4.7598599831210535,-3.5630152861224573,0.6720300316810608,0.0,-0.0,0.0,0.0,0.0,0.0
1782779365,384590120,-1.6895368734942835,-0.5930717627154749,-2.2820027510272425,-4.759847942982809,-3.5630512873279017,0.6720420122146606,0.0,-0.0,0.0,0.0,0.0,0.0
1782779365,415452067,-1.6895368734942835,-0.5930359999286097,-2.2820146719561976,-4.759883944188253,-3.5630152861224573,0.6720779538154602,0.0,-0.0,0.0,0.0,0.0,0.0
1782779365,423592098,-1.6895249525653284,-0.5930479208575647,-2.2820146719561976,-4.759895865117208,-3.563075129185812,0.6720895767211914,0.0,-0.0,0.0,0.0,0.0,0.0
1782779365,431597093,-1.6895368734942835,-0.5930116812335413,-2.2820027510272425,-4.7598599831210535,-3.563003126774923,0.6721015572547913,0.0,-0.0,0.0,0.0,0.0,0.0
1782779365,439448682,-1.6895607153521937,-0.5930116812335413,-2.2819789091693323,-4.759895865117208,-3.5630272070514124,0.6721015572547913,0.0,-0.0,0.0,0.0,0.0,0.0
1782779365,447694306,-1.6895249525653284,-0.5930236021624964,-2.2820146719561976,-4.759871904050009,-3.5630512873279017,0.6720659732818604,0.0,-0.0,0.0,0.0,0.0,0.0
1782779365,455568986,-1.6895726362811487,-0.5930479208575647,-2.2819789091693323,-4.759907905255453,-3.5630152861224573,0.6720779538154602,0.0,-0.0,0.0,0.0,0.0,0.0
1782779365,463496593,-1.6895726362811487,-0.5930479208575647,-2.2819789091693323,-4.759907905255453,-3.5630152861224573,0.6720779538154602,0.0,-0.0,0.0,0.0,0.0,0.0
1782779365,471830624,-1.6895845572101038,-0.5930359999286097,-2.2820146719561976,-4.759847942982809,-3.5630512873279017,0.6720779538154602,0.0,-0.0,0.0,0.0,0.0,0.0
1782779365,479671157,-1.6895726362811487,-0.5930479208575647,-2.2819669882403772,-4.759919826184408,-3.562979284917013,0.6721135377883911,0.0,-0.0,0.0,0.0,0.0,0.0
1782779365,487655893,-1.6895726362811487,-0.5930479208575647,-2.2819669882403772,-4.759919826184408,-3.562979284917013,0.6721135377883911,0.0,-0.0,0.0,0.0,0.0,0.0
1782779365,496107813,-1.6895249525653284,-0.5930116812335413,-2.2819789091693323,-4.7598599831210535,-3.563003126774923,0.6720895767211914,0.0,-0.0,0.0,0.0,0.0,0.0
1782779365,503851012,-1.6895487944232386,-0.5930479208575647,-2.2819908300982874,-4.7598599831210535,-3.563003126774923,0.6720539927482605,0.0,-0.0,0.0,0.0,0.0,0.0
1782779365,511538527,-1.6895845572101038,-0.5930236021624964,-2.2820146719561976,-4.759907905255453,-3.5630512873279017,0.6720300316810608,0.0,-0.0,0.0,0.0,0.0,0.0
1782779365,519463781,-1.6895845572101038,-0.5930236021624964,-2.2820146719561976,-4.759907905255453,-3.5630512873279017,0.6720300316810608,0.0,-0.0,0.0,0.0,0.0,0.0
1782779365,527417406,-1.6895487944232386,-0.5930717627154749,-2.2820265928851526,-4.759907905255453,-3.5630152861224573,0.6720420122146606,0.0,-0.0,0.0,0.0,0.0,0.0
1782779365,535450494,-1.6895487944232386,-0.5930236021624964,-2.2820385138141077,-4.7598599831210535,-3.5630152861224573,0.6721015572547913,0.0,-0.0,0.0,0.0,0.0,0.0
1782779365,543550304,-1.6895368734942835,-0.5930717627154749,-2.2820265928851526,-4.759883944188253,-3.5630152861224573,0.6720779538154602,0.0,-0.0,0.0,0.0,0.0,0.0
1782779365,551451781,-1.6895845572101038,-0.5929997603045862,-2.2820146719561976,-4.7598599831210535,-3.5630391279803675,0.6720895767211914,0.0,-0.0,0.0,0.0,0.0,0.0
1782779365,559464905,-1.6895607153521937,-0.5930598417865198,-2.2820027510272425,-4.759871904050009,-3.563003126774923,0.6720539927482605,0.0,-0.0,0.0,0.0,0.0,0.0
1782779365,567436030,-1.6895607153521937,-0.5930717627154749,-2.2820146719561976,-4.7598599831210535,-3.562991205845968,0.6720895767211914,0.0,-0.0,0.0,0.0,0.0,0.0
1782779365,575473396,-1.6895726362811487,-0.5930479208575647,-2.2819908300982874,-4.759836022053854,-3.5630512873279017,0.6720300316810608,0.0,-0.0,0.0,0.0,0.0,0.0
1782779365,583439780,-1.6895368734942835,-0.5930717627154749,-2.2820146719561976,-4.759871904050009,-3.5630272070514124,0.6721015572547913,0.0,-0.0,0.0,0.0,0.0,0.0
1782779365,591435849,-1.6895368734942835,-0.5930479208575647,-2.282062832509176,-4.759847942982809,-3.563003126774923,0.6720659732818604,0.0,-0.0,0.0,0.0,0.0,0.0
1782779365,599437567,-1.6895607153521937,-0.5930479208575647,-2.2819908300982874,-4.759836022053854,-3.5630512873279017,0.6721015572547913,0.0,-0.0,0.0,0.0,0.0,0.0
1782779365,607474321,-1.6895726362811487,-0.5930116812335413,-2.2820265928851526,-4.759919826184408,-3.562979284917013,0.6720895767211914,0.0,-0.0,0.0,0.0,0.0,0.0
1782779365,615438242,-1.6895487944232386,-0.5930479208575647,-2.2819908300982874,-4.759836022053854,-3.5630272070514124,0.6720659732818604,0.0,-0.0,0.0,0.0,0.0,0.0
1782779365,623421552,-1.6895130316363733,-0.5930359999286097,-2.2819789091693323,-4.759895865117208,-3.5630272070514124,0.6720420122146606,0.0,-0.0,0.0,0.0,0.0,0.0
1782779365,631432899,-1.6895607153521937,-0.5930598417865198,-2.2820265928851526,-4.759836022053854,-3.5630512873279017,0.6720420122146606,0.0,-0.0,0.0,0.0,0.0,0.0
1782779365,639474431,-1.6895130316363733,-0.5930359999286097,-2.2820385138141077,-4.759847942982809,-3.5630272070514124,0.6720420122146606,0.0,-0.0,0.0,0.0,0.0,0.0
1782779365,647478760,-1.68950063387026,-0.5930717627154749,-2.2820146719561976,-4.759907905255453,-3.5630272070514124,0.6721015572547913,0.0,-0.0,0.0,0.0,0.0,0.0
1782779365,655423625,-1.6895607153521937,-0.5930717627154749,-2.2819789091693323,-4.759788099919454,-3.5630152861224573,0.6720659732818604,0.0,-0.0,0.0,0.0,0.0,0.0
1782779365,663433658,-1.6895368734942835,-0.5930717627154749,-2.2820265928851526,-4.7598599831210535,-3.562991205845968,0.6720895767211914,0.0,-0.0,0.0,0.0,0.0,0.0
1782779365,671445967,-1.6895726362811487,-0.5930116812335413,-2.2819908300982874,-4.759871904050009,-3.562991205845968,0.6720779538154602,0.0,-0.0,0.0,0.0,0.0,0.0
1782779365,679438333,-1.6895368734942835,-0.5930236021624964,-2.2820027510272425,-4.759883944188253,-3.562979284917013,0.6720539927482605,0.0,-0.0,0.0,0.0,0.0,0.0
1782779365,687431828,-1.6895130316363733,-0.5930359999286097,-2.2820265928851526,-4.759895865117208,-3.563003126774923,0.6720779538154602,0.0,-0.0,0.0,0.0,0.0,0.0
1782779365,695436120,-1.6895487944232386,-0.5930479208575647,-2.2819908300982874,-4.7598599831210535,-3.5630152861224573,0.6720420122146606,0.0,-0.0,0.0,0.0,0.0,0.0
1782779365,703484670,-1.6895845572101038,-0.5930116812335413,-2.2819908300982874,-4.7598599831210535,-3.5630152861224573,0.6720539927482605,0.0,-0.0,0.0,0.0,0.0,0.0
1782779365,711442203,-1.6895964781390589,-0.5930598417865198,-2.2820146719561976,-4.759907905255453,-3.562991205845968,0.6721015572547913,0.0,-0.0,0.0,0.0,0.0,0.0
1782779365,719425346,-1.6895368734942835,-0.5930359999286097,-2.2819669882403772,-4.7598599831210535,-3.562991205845968,0.6720539927482605,0.0,-0.0,0.0,0.0,0.0,0.0
1782779365,727434063,-1.6895726362811487,-0.5930598417865198,-2.2819908300982874,-4.759871904050009,-3.5630152861224573,0.6721135377883911,0.0,-0.0,0.0,0.0,0.0,0.0
1782779365,735472910,-1.6895130316363733,-0.5930236021624964,-2.2819908300982874,-4.759883944188253,-3.5629552046405237,0.6720895767211914,0.0,-0.0,0.0,0.0,0.0,0.0
1782779365,743433128,-1.6895845572101038,-0.5930116812335413,-2.2819908300982874,-4.7598599831210535,-3.562979284917013,0.6720779538154602,0.0,-0.0,0.0,0.0,0.0,0.0
1782779365,751447086,-1.6895607153521937,-0.5930359999286097,-2.2820385138141077,-4.759847942982809,-3.5630152861224573,0.6720895767211914,0.0,-0.0,0.0,0.0,0.0,0.0
1782779365,759560340,-1.6895487944232386,-0.5930956045733851,-2.2819908300982874,-4.759871904050009,-3.5630391279803675,0.6720539927482605,0.0,-0.0,0.0,0.0,0.0,0.0
1782779365,767591279,-1.6895845572101038,-0.5929997603045862,-2.2820265928851526,-4.759895865117208,-3.5630391279803675,0.6720659732818604,0.0,-0.0,0.0,0.0,0.0,0.0
1782779365,775560978,-1.6895249525653284,-0.5930116812335413,-2.2819669882403772,-4.759895865117208,-3.5630512873279017,0.6720420122146606,0.0,-0.0,0.0,0.0,0.0,0.0
1782779365,783531140,-1.6895249525653284,-0.5929997603045862,-2.2819789091693323,-4.759871904050009,-3.5630512873279017,0.6720895767211914,0.0,-0.0,0.0,0.0,0.0,0.0
1782779365,791560413,-1.6895845572101038,-0.5930598417865198,-2.2820146719561976,-4.759871904050009,-3.563003126774923,0.6720420122146606,0.0,-0.0,0.0,0.0,0.0,0.0
1782779365,799605723,-1.6895845572101038,-0.5930359999286097,-2.282050911580221,-4.759895865117208,-3.562991205845968,0.6721374988555908,0.0,-0.0,0.0,0.0,0.0,0.0
1782779365,807556200,-1.6895368734942835,-0.5929878393756312,-2.2820146719561976,-4.759907905255453,-3.5630272070514124,0.6720779538154602,0.0,-0.0,0.0,0.0,0.0,0.0
1782779365,815503880,-1.6895845572101038,-0.5930236021624964,-2.2820027510272425,-4.759871904050009,-3.562991205845968,0.6720895767211914,0.0,-0.0,0.0,0.0,0.0,0.0
1782779365,823494468,-1.6895845572101038,-0.5930236021624964,-2.2820027510272425,-4.759871904050009,-3.562991205845968,0.6720895767211914,0.0,-0.0,0.0,0.0,0.0,0.0
1782779365,831482556,-1.6895726362811487,-0.5930598417865198,-2.2820265928851526,-4.759883944188253,-3.563003126774923,0.6721135377883911,0.0,-0.0,0.0,0.0,0.0,0.0
1782779365,839441736,-1.6895368734942835,-0.5930236021624964,-2.282050911580221,-4.759871904050009,-3.563003126774923,0.6720659732818604,0.0,-0.0,0.0,0.0,0.0,0.0
1782779365,847425787,-1.6895130316363733,-0.5930479208575647,-2.2819789091693323,-4.759788099919454,-3.5630272070514124,0.6720779538154602,0.0,-0.0,0.0,0.0,0.0,0.0
1782779365,855446912,-1.6895726362811487,-0.5929878393756312,-2.281955067311422,-4.7598599831210535,-3.562991205845968,0.6720895767211914,0.0,-0.0,0.0,0.0,0.0,0.0
1782779365,863543666,-1.6895249525653284,-0.5930359999286097,-2.2819908300982874,-4.759919826184408,-3.562991205845968,0.6720659732818604,0.0,-0.0,0.0,0.0,0.0,0.0
1782779365,871440643,-1.6895130316363733,-0.5930116812335413,-2.2820146719561976,-4.759871904050009,-3.5630391279803675,0.6721015572547913,0.0,-0.0,0.0,0.0,0.0,0.0
1782779365,879423101,-1.6895726362811487,-0.5930479208575647,-2.2820146719561976,-4.7598599831210535,-3.563003126774923,0.6720779538154602,0.0,-0.0,0.0,0.0,0.0,0.0
1782779365,887433393,-1.6895130316363733,-0.5929878393756312,-2.282050911580221,-4.759847942982809,-3.563003126774923,0.6720300316810608,0.0,-0.0,0.0,0.0,0.0,0.0
1782779365,895476647,-1.6895845572101038,-0.5929759184466761,-2.2820027510272425,-4.759847942982809,-3.562991205845968,0.6720895767211914,0.0,-0.0,0.0,0.0,0.0,0.0
1782779365,903447290,-1.6895607153521937,-0.5929878393756312,-2.2819908300982874,-4.759871904050009,-3.5630272070514124,0.6721015572547913,0.0,-0.0,0.0,0.0,0.0,0.0
1782779365,911422711,-1.6895130316363733,-0.59308368364443,-2.2819908300982874,-4.759883944188253,-3.5630152861224573,0.6721015572547913,0.0,-0.0,0.0,0.0,0.0,0.0
1782779365,919438188,-1.6895249525653284,-0.5930479208575647,-2.2819908300982874,-4.759907905255453,-3.562991205845968,0.6720779538154602,0.0,-0.0,0.0,0.0,0.0,0.0
1782779365,927569498,-1.6895726362811487,-0.5930236021624964,-2.2820265928851526,-4.7598599831210535,-3.5630272070514124,0.6720779538154602,0.0,-0.0,0.0,0.0,0.0,0.0
1782779365,935567863,-1.6895607153521937,-0.5929759184466761,-2.2820027510272425,-4.759823981915609,-3.5630152861224573,0.6720539927482605,0.0,-0.0,0.0,0.0,0.0,0.0
1782779365,943525562,-1.6895845572101038,-0.5930236021624964,-2.2819789091693323,-4.759871904050009,-3.5630391279803675,0.6720779538154602,0.0,-0.0,0.0,0.0,0.0,0.0
1782779365,951538335,-1.6895368734942835,-0.5930116812335413,-2.2820146719561976,-4.759871904050009,-3.5630391279803675,0.6720779538154602,0.0,-0.0,0.0,0.0,0.0,0.0
1782779365,959590682,-1.6895249525653284,-0.5930116812335413,-2.2820146719561976,-4.759895865117208,-3.5630512873279017,0.6721015572547913,0.0,-0.0,0.0,0.0,0.0,0.0
1782779365,967586677,-1.6895249525653284,-0.5930116812335413,-2.2820146719561976,-4.759895865117208,-3.5630512873279017,0.6721015572547913,0.0,-0.0,0.0,0.0,0.0,0.0
1782779365,975477858,-1.6895368734942835,-0.5930359999286097,-2.2819908300982874,-4.759883944188253,-3.563003126774923,0.6720895767211914,0.0,-0.0,0.0,0.0,0.0,0.0
1782779365,983550519,-1.6895487944232386,-0.5930359999286097,-2.2819669882403772,-4.759847942982809,-3.563003126774923,0.6720659732818604,0.0,-0.0,0.0,0.0,0.0,0.0
1782779365,991589052,-1.6895368734942835,-0.5930236021624964,-2.2820027510272425,-4.7598599831210535,-3.5630512873279017,0.6720300316810608,0.0,-0.0,0.0,0.0,0.0,0.0
1782779365,999598250,-1.6895368734942835,-0.5930236021624964,-2.2820027510272425,-4.7598599831210535,-3.5630512873279017,0.6720300316810608,0.0,-0.0,0.0,0.0,0.0,0.0
1782779366,7505450,-1.6895487944232386,-0.5930236021624964,-2.2820146719561976,-4.759907905255453,-3.562979284917013,0.6720895767211914,0.0,-0.0,0.0,0.0,0.0,0.0
1782779366,15555204,-1.6895368734942835,-0.5930116812335413,-2.2820265928851526,-4.759907905255453,-3.562991205845968,0.6720180511474609,0.0,-0.0,0.0,0.0,0.0,0.0
1782779366,23603291,-1.6895487944232386,-0.5930236021624964,-2.2819789091693323,-4.759836022053854,-3.5630152861224573,0.6720779538154602,0.0,-0.0,0.0,0.0,0.0,0.0
1782779366,31579213,-1.6895607153521937,-0.5930359999286097,-2.2820385138141077,-4.759883944188253,-3.5630632082568567,0.6721015572547913,0.0,-0.0,0.0,0.0,0.0,0.0
1782779366,39533430,-1.6895607153521937,-0.5929997603045862,-2.282062832509176,-4.7598599831210535,-3.562991205845968,0.6720895767211914,0.0,-0.0,0.0,0.0,0.0,0.0
1782779366,47456111,-1.68950063387026,-0.5930479208575647,-2.2820866743670862,-4.759895865117208,-3.5630152861224573,0.6720539927482605,0.0,-0.0,0.0,0.0,0.0,0.0
1782779366,55442680,-1.6895368734942835,-0.5930479208575647,-2.2820146719561976,-4.7598599831210535,-3.562991205845968,0.6720300316810608,0.0,-0.0,0.0,0.0,0.0,0.0
1782779366,63475860,-1.6895249525653284,-0.5929997603045862,-2.2820146719561976,-4.759836022053854,-3.5630512873279017,0.6720779538154602,0.0,-0.0,0.0,0.0,0.0,0.0
1782779366,71423059,-1.6895726362811487,-0.5930359999286097,-2.2820027510272425,-4.759907905255453,-3.562991205845968,0.6720895767211914,0.0,-0.0,0.0,0.0,0.0,0.0
1782779366,79435628,-1.6895845572101038,-0.5930236021624964,-2.2819908300982874,-4.759871904050009,-3.563003126774923,0.6720895767211914,0.0,-0.0,0.0,0.0,0.0,0.0
1782779366,87476438,-1.6895249525653284,-0.5930116812335413,-2.2820265928851526,-4.759847942982809,-3.563003126774923,0.6720539927482605,0.0,-0.0,0.0,0.0,0.0,0.0
1782779366,95438378,-1.6895487944232386,-0.5930359999286097,-2.2820027510272425,-4.759895865117208,-3.5630391279803675,0.6720539927482605,0.0,-0.0,0.0,0.0,0.0,0.0
1782779366,103421132,-1.6895487944232386,-0.5930116812335413,-2.2820027510272425,-4.7598599831210535,-3.563003126774923,0.6720539927482605,0.0,-0.0,0.0,0.0,0.0,0.0
1782779366,111434961,-1.6895249525653284,-0.5930116812335413,-2.2820146719561976,-4.759883944188253,-3.5630391279803675,0.6721135377883911,0.0,-0.0,0.0,0.0,0.0,0.0
1782779366,119472622,-1.6895845572101038,-0.5929878393756312,-2.2819669882403772,-4.759895865117208,-3.5630152861224573,0.6720659732818604,0.0,-0.0,0.0,0.0,0.0,0.0
1782779366,127440266,-1.6895726362811487,-0.5930236021624964,-2.2820146719561976,-4.759871904050009,-3.5630391279803675,0.6720300316810608,0.0,-0.0,0.0,0.0,0.0,0.0
1782779366,135424168,-1.6895726362811487,-0.5930479208575647,-2.2819789091693323,-4.759883944188253,-3.563003126774923,0.6720420122146606,0.0,-0.0,0.0,0.0,0.0,0.0
1782779366,143435349,-1.6895607153521937,-0.5930359999286097,-2.2820385138141077,-4.759847942982809,-3.563003126774923,0.6720539927482605,0.0,-0.0,0.0,0.0,0.0,0.0
1782779366,151518751,-1.6895726362811487,-0.5929878393756312,-2.2820146719561976,-4.759847942982809,-3.5630632082568567,0.6720779538154602,0.0,-0.0,0.0,0.0,0.0,0.0
1782779366,159437561,-1.6895607153521937,-0.5930479208575647,-2.2819669882403772,-4.759836022053854,-3.562991205845968,0.6720659732818604,0.0,-0.0,0.0,0.0,0.0,0.0
1782779366,167421612,-1.6895607153521937,-0.5930479208575647,-2.2820265928851526,-4.759847942982809,-3.562991205845968,0.6720300316810608,0.0,-0.0,0.0,0.0,0.0,0.0
1782779366,175448607,-1.6895249525653284,-0.5929997603045862,-2.2819789091693323,-4.7598599831210535,-3.562979284917013,0.6720539927482605,0.0,-0.0,0.0,0.0,0.0,0.0
1782779366,183544157,-1.6895368734942835,-0.5930359999286097,-2.2820265928851526,-4.759847942982809,-3.562991205845968,0.6721015572547913,0.0,-0.0,0.0,0.0,0.0,0.0
1782779366,191437708,-1.6895726362811487,-0.5930236021624964,-2.2820146719561976,-4.759836022053854,-3.5630512873279017,0.6720659732818604,0.0,-0.0,0.0,0.0,0.0,0.0
1782779366,199423963,-1.6895726362811487,-0.5929878393756312,-2.2820027510272425,-4.759883944188253,-3.562979284917013,0.6720779538154602,0.0,-0.0,0.0,0.0,0.0,0.0
1782779366,207437051,-1.6895726362811487,-0.5930598417865198,-2.2820027510272425,-4.759919826184408,-3.5630272070514124,0.6720779538154602,0.0,-0.0,0.0,0.0,0.0,0.0
1782779366,215471842,-1.6895726362811487,-0.5930116812335413,-2.2819908300982874,-4.7598599831210535,-3.5630272070514124,0.6720180511474609,0.0,-0.0,0.0,0.0,0.0,0.0
1782779366,223446948,-1.6895249525653284,-0.5930717627154749,-2.2819789091693323,-4.759883944188253,-3.563003126774923,0.6720539927482605,0.0,-0.0,0.0,0.0,0.0,0.0
1782779366,231424703,-1.6895607153521937,-0.5929997603045862,-2.2820146719561976,-4.759871904050009,-3.562991205845968,0.6720539927482605,0.0,-0.0,0.0,0.0,0.0,0.0
1782779366,239446957,-1.6895249525653284,-0.5930236021624964,-2.2820146719561976,-4.759871904050009,-3.562991205845968,0.6721015572547913,0.0,-0.0,0.0,0.0,0.0,0.0
1782779366,247539859,-1.6895130316363733,-0.5930479208575647,-2.2819908300982874,-4.759823981915609,-3.5630272070514124,0.6721135377883911,0.0,-0.0,0.0,0.0,0.0,0.0
1782779366,255432577,-1.6895368734942835,-0.5930956045733851,-2.2819908300982874,-4.759847942982809,-3.563003126774923,0.6720420122146606,0.0,-0.0,0.0,0.0,0.0,0.0
1782779366,263430943,-1.6895607153521937,-0.5930236021624964,-2.2820385138141077,-4.7598599831210535,-3.5630272070514124,0.6720539927482605,0.0,-0.0,0.0,0.0,0.0,0.0
1782779366,271437382,-1.6895607153521937,-0.5930359999286097,-2.2820385138141077,-4.759847942982809,-3.5630272070514124,0.6721015572547913,0.0,-0.0,0.0,0.0,0.0,0.0
1782779366,279474599,-1.6895368734942835,-0.5930116812335413,-2.2820146719561976,-4.759883944188253,-3.5630512873279017,0.6721135377883911,0.0,-0.0,0.0,0.0,0.0,0.0
1782779366,287436132,-1.6895368734942835,-0.5930236021624964,-2.2820027510272425,-4.7598599831210535,-3.5630272070514124,0.6720895767211914,0.0,-0.0,0.0,0.0,0.0,0.0
1782779366,295457756,-1.6895487944232386,-0.5930236021624964,-2.2820146719561976,-4.759871904050009,-3.5630272070514124,0.6720779538154602,0.0,-0.0,0.0,0.0,0.0,0.0
1782779366,303434955,-1.6895607153521937,-0.5930359999286097,-2.2819908300982874,-4.759907905255453,-3.5630272070514124,0.6720659732818604,0.0,-0.0,0.0,0.0,0.0,0.0
1782779366,311475654,-1.6895607153521937,-0.5929997603045862,-2.2820027510272425,-4.759931866322653,-3.563075129185812,0.6720779538154602,0.0,-0.0,0.0,0.0,0.0,0.0
1782779366,319439594,-1.6895726362811487,-0.5929997603045862,-2.2819908300982874,-4.759847942982809,-3.562991205845968,0.6720779538154602,0.0,-0.0,0.0,0.0,0.0,0.0
1782779366,327417941,-1.6895964781390589,-0.5930236021624964,-2.2820265928851526,-4.7598599831210535,-3.5630152861224573,0.6720779538154602,0.0,-0.0,0.0,0.0,0.0,0.0
1782779366,335431177,-1.6895607153521937,-0.5929759184466761,-2.2819669882403772,-4.759931866322653,-3.5630152861224573,0.6721135377883911,0.0,-0.0,0.0,0.0,0.0,0.0
1782779366,343474024,-1.6895487944232386,-0.5930479208575647,-2.2820146719561976,-4.759895865117208,-3.562979284917013,0.6720060706138611,0.0,-0.0,0.0,0.0,0.0,0.0
1782779366,351430574,-1.6895607153521937,-0.5930359999286097,-2.282050911580221,-4.759871904050009,-3.5630152861224573,0.6720420122146606,0.0,-0.0,0.0,0.0,0.0,0.0
1782779366,359421495,-1.6895487944232386,-0.5930236021624964,-2.281955067311422,-4.759883944188253,-3.562979284917013,0.6720300316810608,0.0,-0.0,0.0,0.0,0.0,0.0
1782779366,367434509,-1.6895487944232386,-0.5930236021624964,-2.2820027510272425,-4.7598599831210535,-3.5630272070514124,0.6720539927482605,0.0,-0.0,0.0,0.0,0.0,0.0
1782779366,375474986,-1.6895726362811487,-0.5929878393756312,-2.2820146719561976,-4.759871904050009,-3.563003126774923,0.6721135377883911,0.0,-0.0,0.0,0.0,0.0,0.0
1782779366,383445592,-1.6895607153521937,-0.5929997603045862,-2.2820146719561976,-4.7598599831210535,-3.5630152861224573,0.6720420122146606,0.0,-0.0,0.0,0.0,0.0,0.0
1782779366,391417513,-1.6895964781390589,-0.5929997603045862,-2.2820385138141077,-4.759847942982809,-3.562979284917013,0.6720895767211914,0.0,-0.0,0.0,0.0,0.0,0.0
1782779366,399460712,-1.6895487944232386,-0.5930236021624964,-2.2820265928851526,-4.759883944188253,-3.5630512873279017,0.672125518321991,0.0,-0.0,0.0,0.0,0.0,0.0
1782779366,407456003,-1.6895368734942835,-0.5929997603045862,-2.2819789091693323,-4.7598599831210535,-3.5630512873279017,0.6720420122146606,0.0,-0.0,0.0,0.0,0.0,0.0
1782779366,415422424,-1.6895368734942835,-0.5930956045733851,-2.2820027510272425,-4.759931866322653,-3.5630512873279017,0.6720539927482605,0.0,-0.0,0.0,0.0,0.0,0.0
1782779366,423428623,-1.6895368734942835,-0.5929997603045862,-2.2820027510272425,-4.7598599831210535,-3.562991205845968,0.6720779538154602,0.0,-0.0,0.0,0.0,0.0,0.0
1782779366,431436267,-1.6895487944232386,-0.5930116812335413,-2.2819789091693323,-4.759895865117208,-3.562979284917013,0.6720659732818604,0.0,-0.0,0.0,0.0,0.0,0.0
1782779366,439474299,-1.6895130316363733,-0.5930236021624964,-2.2819789091693323,-4.759847942982809,-3.5630512873279017,0.6720659732818604,0.0,-0.0,0.0,0.0,0.0,0.0
1782779366,447435905,-1.6895487944232386,-0.5930479208575647,-2.2819789091693323,-4.759836022053854,-3.5630391279803675,0.6720659732818604,0.0,-0.0,0.0,0.0,0.0,0.0
1782779366,455429474,-1.68950063387026,-0.5930236021624964,-2.2820385138141077,-4.759883944188253,-3.5630152861224573,0.6720659732818604,0.0,-0.0,0.0,0.0,0.0,0.0
1782779366,463433525,-1.6895607153521937,-0.5930236021624964,-2.2820385138141077,-4.759871904050009,-3.5630272070514124,0.6720300316810608,0.0,-0.0,0.0,0.0,0.0,0.0
1782779366,471705316,-1.6895845572101038,-0.5930479208575647,-2.2820027510272425,-4.7598599831210535,-3.5630512873279017,0.6720659732818604,0.0,-0.0,0.0,0.0,0.0,0.0
1782779366,479571293,-1.6895487944232386,-0.5930116812335413,-2.2820265928851526,-4.7598599831210535,-3.5630272070514124,0.6721135377883911,0.0,-0.0,0.0,0.0,0.0,0.0
1782779366,487512547,-1.6895130316363733,-0.5930116812335413,-2.2819908300982874,-4.759871904050009,-3.563003126774923,0.6720659732818604,0.0,-0.0,0.0,0.0,0.0,0.0
1782779366,495599153,-1.6895726362811487,-0.5930116812335413,-2.2820146719561976,-4.759847942982809,-3.5630632082568567,0.6720539927482605,0.0,-0.0,0.0,0.0,0.0,0.0
1782779366,503682519,-1.6895368734942835,-0.5930236021624964,-2.282062832509176,-4.759883944188253,-3.5630272070514124,0.6721015572547913,0.0,-0.0,0.0,0.0,0.0,0.0
1782779366,511584273,-1.6895368734942835,-0.5930236021624964,-2.282062832509176,-4.759883944188253,-3.5630272070514124,0.6721015572547913,0.0,-0.0,0.0,0.0,0.0,0.0
1782779366,519463843,-1.6895249525653284,-0.5929997603045862,-2.2819669882403772,-4.759836022053854,-3.563003126774923,0.6720779538154602,0.0,-0.0,0.0,0.0,0.0,0.0
1782779366,527554764,-1.6896088759051722,-0.5930598417865198,-2.2820146719561976,-4.759847942982809,-3.5630512873279017,0.6721015572547913,0.0,-0.0,0.0,0.0,0.0,0.0
1782779366,535576666,-1.6895964781390589,-0.5929878393756312,-2.2819908300982874,-4.759907905255453,-3.5630391279803675,0.6720659732818604,0.0,-0.0,0.0,0.0,0.0,0.0
1782779366,543605420,-1.6895964781390589,-0.5929878393756312,-2.2819908300982874,-4.759907905255453,-3.5630391279803675,0.6720659732818604,0.0,-0.0,0.0,0.0,0.0,0.0
1782779366,551451305,-1.6895368734942835,-0.5930359999286097,-2.2820027510272425,-4.759847942982809,-3.5630512873279017,0.6721015572547913,0.0,-0.0,0.0,0.0,0.0,0.0
1782779366,559510652,-1.68950063387026,-0.5929878393756312,-2.2820146719561976,-4.759871904050009,-3.563003126774923,0.6721015572547913,0.0,-0.0,0.0,0.0,0.0,0.0
1782779366,567489425,-1.6896207968341272,-0.5930359999286097,-2.2820265928851526,-4.759871904050009,-3.562967363988058,0.6721015572547913,0.0,-0.0,0.0,0.0,0.0,0.0
1782779366,575454364,-1.6895487944232386,-0.5929997603045862,-2.2820027510272425,-4.759823981915609,-3.563003126774923,0.6720779538154602,0.0,-0.0,0.0,0.0,0.0,0.0
1782779366,583999247,-1.6895487944232386,-0.5930236021624964,-2.2819908300982874,-4.759919826184408,-3.562991205845968,0.6720659732818604,0.0,-0.0,0.0,0.0,0.0,0.0
1782779366,591483632,-1.6895487944232386,-0.5930236021624964,-2.2819908300982874,-4.759919826184408,-3.562991205845968,0.6720659732818604,0.0,-0.0,0.0,0.0,0.0,0.0
1782779366,599503053,-1.6895368734942835,-0.5930116812335413,-2.2820146719561976,-4.759895865117208,-3.5630152861224573,0.6721374988555908,0.0,-0.0,0.0,0.0,0.0,0.0
1782779366,607505215,-1.68950063387026,-0.5930236021624964,-2.2820265928851526,-4.759931866322653,-3.562979284917013,0.6720300316810608,0.0,-0.0,0.0,0.0,0.0,0.0
1782779366,615485877,-1.6895607153521937,-0.5930236021624964,-2.2819789091693323,-4.759871904050009,-3.5630152861224573,0.6720539927482605,0.0,-0.0,0.0,0.0,0.0,0.0
1782779366,623479965,-1.6895130316363733,-0.5929759184466761,-2.2820265928851526,-4.759907905255453,-3.5630391279803675,0.6720895767211914,0.0,-0.0,0.0,0.0,0.0,0.0
1782779366,631565330,-1.6895964781390589,-0.5929759184466761,-2.2820385138141077,-4.759883944188253,-3.562991205845968,0.6721015572547913,0.0,-0.0,0.0,0.0,0.0,0.0
1782779366,639504640,-1.6895607153521937,-0.5930236021624964,-2.2819908300982874,-4.759895865117208,-3.5630391279803675,0.6720779538154602,0.0,-0.0,0.0,0.0,0.0,0.0
1782779366,647548450,-1.6895607153521937,-0.5929759184466761,-2.2820146719561976,-4.759812060986654,-3.563003126774923,0.6720539927482605,0.0,-0.0,0.0,0.0,0.0,0.0
1782779366,655720760,-1.68947679201235,-0.5929878393756312,-2.282050911580221,-4.759931866322653,-3.562979284917013,0.6721135377883911,0.009651295840740204,0.0007030745618976653,0.0,0.0,0.0,0.011683820746839046
1782779366,663556163,-1.68947679201235,-0.5929878393756312,-2.282050911580221,-4.759931866322653,-3.562979284917013,0.6721135377883911,0.009651295840740204,0.0007030745618976653,0.0,0.0,0.0,0.011683820746839046
1782779366,671479769,-1.6885536352740687,-0.5925686995135706,-2.2822182814227503,-4.759979788457052,-3.562991205845968,0.6729764342308044,0.27262672781944275,0.16908302903175354,0.0,0.0,0.0,0.25749146938323975
1782779366,679530320,-1.6864669958697718,-0.5910356680499476,-2.2821224371539515,-4.75975209871401,-3.562991205845968,0.6753369569778442,0.2098485827445984,0.16660310328006744,0.0036671729758381844,0.0,0.0,0.27615490555763245
1782779366,687456667,-1.6847761313067835,-0.5895860830890101,-2.2818105856524866,-4.759836022053854,-3.5630391279803675,0.6776015758514404,0.16918529570102692,0.15273335576057434,0.014381070621311665,0.0038109836168587208,0.0,0.2545129954814911
1782779366,695440162,-1.6827972571002405,-0.5884011427508753,-2.2824223677264612,-4.759991828595297,-3.563003126774923,0.6800583600997925,0.3812198042869568,0.25460246205329895,-0.03166232258081436,0.0024687503464519978,0.0,0.432761549949646
1782779366,703423287,-1.6799190680133265,-0.5861132780658167,-2.2823146025287073,-4.759943787251608,-3.562991205845968,0.6837007999420166,0.3327587842941284,0.26811426877975464,-0.02051699347794056,0.0024687503464519978,0.0,0.44805023074150085
1782779366,711457171,-1.6767414251910608,-0.5836222807513636,-2.2821348349200647,-4.7598599831210535,-3.563003126774923,0.6879900097846985,0.4600919783115387,0.35489925742149353,0.03810983523726463,0.0,0.0,0.5842293500900269
1782779366,719461870,-1.673563305531637,-0.5809395948993128,-2.2820866743670862,-4.759764019642965,-3.562979284917013,0.6923998594284058,0.3367215692996979,0.2776888906955719,-0.03238137811422348,0.0,0.0,0.4908355176448822
1782779366,727435791,-1.6715486685382288,-0.5789874235736292,-2.281942669545309,-4.759871904050009,-3.562979284917013,0.6959224343299866,0.23996573686599731,0.21128028631210327,0.028426581993699074,-0.013206616044044495,0.0,0.38570669293403625
1782779366,735436730,-1.668825928364889,-0.5772269407855433,-2.282206360493795,-4.760279361401693,-3.563003126774923,0.699205756187439,0.4415436089038849,0.31031152606010437,-0.002780340379104018,-0.015004250220954418,0.0,0.5141264796257019
1782779366,743443466,-1.6654565970050257,-0.5746281782733362,-2.2820385138141077,-4.75975209871401,-3.562991205845968,0.7033275961875916,0.34520959854125977,0.27575862407684326,-0.016178704798221588,0.0023009711876511574,0.0,0.46174100041389465
1782779366,751557868,-1.6585968176471155,-0.569549862538473,-2.2819789091693323,-4.75977605978121,-3.5630391279803675,0.7120985388755798,0.3707248270511627,0.28892529010772705,-0.03238137811422348,0.005464806687086821,0.0,0.4974827766418457
1782779366,759502382,-1.6585968176471155,-0.569549862538473,-2.2819789091693323,-4.75977605978121,-3.5630391279803675,0.7120985388755798,0.3707248270511627,0.28892529010772705,-0.03238137811422348,0.005464806687086821,0.0,0.4974827766418457
1782779366,767433655,-1.6559589544879358,-0.5673821608172815,-2.2819064299212855,-4.759943787251608,-3.562991205845968,0.7156331539154053,0.25956234335899353,0.2175440490245819,0.03238137811422348,0.0,0.0,0.39097335934638977
1782779366,775447262,-1.6532004515277308,-0.5656574408160608,-2.282278362904684,-4.7600277105914515,-3.563003126774923,0.7190961837768555,0.45400717854499817,0.3066811263561249,-0.01577123999595642,-0.009898969903588295,0.0,0.5222948789596558
1782779366,783507460,-1.6496270338641565,-0.562939469014303,-2.282206360493795,-4.759584371243612,-3.5630391279803675,0.7231577634811401,0.3614186644554138,0.2740328907966614,-0.025909895077347755,0.01176850963383913,0.0,0.44826754927635193
1782779366,791462196,-1.6460655371295374,-0.5605433622943323,-2.282182518635885,-4.759919826184408,-3.5630391279803675,0.7271121740341187,0.5262448787689209,0.3668515086174011,0.03238137811422348,0.005584648810327053,0.0,0.5772497653961182
1782779366,799428284,-1.6418922583209437,-0.557537857686178,-2.282158676777975,-4.759548370038168,-3.562991205845968,0.7318447828292847,0.49027305841445923,0.35601139068603516,-0.03238137811422348,0.017257284373044968,0.0,0.5815321207046509
1782779366,807441927,-1.638510529194967,-0.5547712484942835,-2.2817629019366663,-4.759620253239767,-3.563003126774923,0.7357265949249268,0.26615846157073975,0.23150327801704407,0.01859951764345169,-0.02322542853653431,0.0,0.36975330114364624
1782779366,815572570,-1.635740105305807,-0.5530708471881312,-2.2820027510272425,-4.759967867528097,-3.563075129185812,0.7387462258338928,0.448714941740036,0.29683807492256165,0.030583743005990982,-0.009251821786165237,0.0,0.4777199625968933
1782779366,823434010,-1.6322744528399866,-0.5507591406451624,-2.2818945089923304,-4.759764019642965,-3.5630391279803675,0.7424002885818481,0.3477023243904114,0.251572847366333,-0.03238137811422348,-0.004314321093261242,0.0,0.4080388844013214
1782779366,831430857,-1.6286895910846155,-0.5484598318683069,-2.2821105162249964,-4.759883944188253,-3.5630632082568567,0.7460311055183411,0.504487931728363,0.35064244270324707,0.025909895077347755,-0.002157160546630621,0.0,0.5391175746917725
1782779366,839429353,-1.624972168599264,-0.5457537809955042,-2.2818825880633753,-4.759812060986654,-3.5631230513202112,0.7500566840171814,0.36896073818206787,0.2867521345615387,-0.021595574915409088,-0.002157160546630621,0.0,0.45005717873573303
1782779366,847429440,-1.6222623030291956,-0.5435975233661097,-2.2818225065814417,-4.759823981915609,-3.563087050114767,0.7532917261123657,0.25921720266342163,0.2156265676021576,0.025909895077347755,-0.002157160546630621,0.0,0.3539533019065857
1782779366,855446880,-1.619875733052389,-0.5419686476336878,-2.2821348349200647,-4.76014751592745,-3.563075129185812,0.7561675310134888,0.4256029725074768,0.29412803053855896,0.009251821786165237,-0.0007669904152862728,0.0,0.46653470396995544
1782779366,863424505,-1.6169493834124964,-0.5395620504962366,-2.2820385138141077,-4.7598000208484095,-3.5630512873279017,0.7600373029708862,0.31064391136169434,0.2542828917503357,-0.03238137811422348,-0.0007669904152862728,0.0,0.4250916540622711
1782779366,871447907,-1.6140359083758753,-0.5372265020953577,-2.2819908300982874,-4.759991828595297,-3.5630391279803675,0.7638351917266846,0.4655376076698303,0.3473827540874481,0.043191149830818176,-0.0007669904152862728,0.0,0.5548152923583984
1782779366,879574754,-1.608556095753805,-0.5324958006488245,-2.2816908995257776,-4.759836022053854,-3.563087050114767,0.77141934633255,0.23838062584400177,0.20560456812381744,0.016178704798221588,-0.0007669904152862728,0.0,0.3737799823284149
1782779366,887459027,-1.608556095753805,-0.5324958006488245,-2.2816908995257776,-4.759836022053854,-3.563087050114767,0.77141934633255,0.23838062584400177,0.20560456812381744,0.016178704798221588,-0.0007669904152862728,0.0,0.3737799823284149
1782779366,895423152,-1.6063254515277308,-0.5309627691852015,-2.282074753438131,-4.760327283536093,-3.5630632082568567,0.77451092004776,0.41082563996315,0.28556331992149353,0.004601942375302315,-0.0015100124292075634,0.0,0.4789983034133911
1782779366,903429869,-1.6035197416888636,-0.5287712256060999,-2.282278362904684,-4.759967867528097,-3.5630632082568567,0.7785124778747559,0.30007222294807434,0.23436670005321503,-0.04625910893082619,-0.012319783680140972,0.0,0.43962612748146057
1782779366,911436772,-1.600701634083883,-0.5266159216510218,-2.28217059770693,-4.7600876728640955,-3.5630512873279017,0.7826219797134399,0.4551960229873657,0.341758131980896,0.033364083617925644,0.01764078065752983,0.0,0.5739517211914062
1782779366,919423804,-1.5977872053729456,-0.5242441336261194,-2.2823622862445276,-4.759847942982809,-3.563003126774923,0.7868872284889221,0.3163835406303406,0.2513427436351776,-0.042160503566265106,-0.002205097582191229,0.0,0.4687078297138214
1782779366,927433855,-1.5952218214618128,-0.5221002737628382,-2.28217059770693,-4.759931866322653,-3.563075129185812,0.7908169031143188,0.3298570215702057,0.26917529106140137,0.02389654517173767,-0.002205097582191229,0.0,0.4841243326663971
1782779366,935437165,-1.5923798719989222,-0.5200765768634241,-2.2822426001178187,-4.759931866322653,-3.5630152861224573,0.7946990728378296,0.37930232286453247,0.2858828902244568,-0.002660498023033142,-0.002205097582191229,0.0,0.5015861392021179
1782779366,943442382,-1.5895260016070765,-0.5178373495685022,-2.282182518635885,-4.759919826184408,-3.5630152861224573,0.7985089421272278,0.2824825644493103,0.23551718890666962,-0.0141413863748312,0.0,0.0,0.41234683990478516
1782779366,951466747,-1.5867918173419397,-0.5158613363849085,-2.282158676777975,-4.760003749524252,-3.563003126774923,0.8021150827407837,0.446286141872406,0.3223532736301422,0.025909895077347755,0.0,0.0,0.5305272936820984
1782779366,959430761,-1.583698574696676,-0.5134061018573206,-2.2820385138141077,-4.759668175374166,-3.562991205845968,0.8063203692436218,0.3291794955730438,0.2624896764755249,-0.025909895077347755,0.0,0.0,0.45336803793907166
1782779366,967433423,-1.581372086201803,-0.5114658514605921,-2.28184682527651,-4.759979788457052,-3.5630391279803675,0.8094591498374939,0.2334335297346115,0.1996220350265503,0.024639567360281944,0.0,0.0,0.338242769241333
1782779366,975522436,-1.5760958830462855,-0.5074780623065394,-2.281942669545309,-4.759847942982809,-3.5630152861224573,0.8162283301353455,0.32081931829452515,0.25414228439331055,-0.021595574915409088,-0.0055127437226474285,0.0,0.4074508845806122
1782779366,983501987,-1.5760958830462855,-0.5074780623065394,-2.281942669545309,-4.759847942982809,-3.5630152861224573,0.8162283301353455,0.32081931829452515,0.25414228439331055,-0.021595574915409088,-0.0055127437226474285,0.0,0.4074508845806122
1782779366,991481705,-1.5731104055987757,-0.5053585211383265,-2.282050911580221,-4.760099593793051,-3.562967363988058,0.8199183940887451,0.4693853557109833,0.33052173256874084,0.021595574915409088,-0.003499393817037344,0.0,0.5320228934288025
1782779366,999429959,-1.5697529951678675,-0.5027478376971644,-2.282206360493795,-4.759668175374166,-3.5630152861224573,0.8239918947219849,0.34520959854125977,0.26349955797195435,-0.03233344107866287,0.002972087822854519,0.0,0.44902175664901733
1782779367,7440473,-1.5671752134906214,-0.500580135975973,-2.2819908300982874,-4.759955827389852,-3.563099209462301,0.8270950317382812,0.25471752882003784,0.21185553073883057,0.02653307467699051,-0.02329733408987522,0.0,0.34143856167793274
1782779367,15459375,-1.5644891897784632,-0.49891549745668584,-2.282278362904684,-4.760039750729696,-3.562967363988058,0.8301738500595093,0.43349018692970276,0.28754469752311707,0.005728459917008877,-0.007597998715937138,0.0,0.4687078297138214
1782779367,23424370,-1.5609520117389124,-0.4963768164264124,-2.282266441975729,-4.7600277105914515,-3.5630391279803675,0.8339956998825073,0.4236854910850525,0.30602917075157166,-0.016178704798221588,-0.006159891840070486,0.0,0.4741279184818268
1782779367,31439125,-1.5571392218219202,-0.49363404909242803,-2.28214675584902,-4.759943787251608,-3.563003126774923,0.8381288051605225,0.47206979990005493,0.3424100875854492,0.02804308757185936,0.004026699811220169,0.0,0.5332756638526917
1782779367,39447527,-1.5537098089801233,-0.49115497270693,-2.282206360493795,-4.759883944188253,-3.5630272070514124,0.8421064019203186,0.341195672750473,0.25414228439331055,-0.016945695504546165,0.004026699811220169,0.0,0.4268812835216522
1782779367,47445745,-1.5513470808612269,-0.4892509619342249,-2.2820385138141077,-4.760075632725851,-3.5630632082568567,0.8449938893318176,0.2485688030719757,0.1937417834997177,0.0018455707468092442,-0.01284708920866251,0.0,0.32133063673973083
1782779367,55436999,-1.5488174597369593,-0.48767024675478154,-2.282266441975729,-4.760267440472738,-3.5630512873279017,0.8478929400444031,0.43058842420578003,0.2818050682544708,0.005824333522468805,-0.013206616044044495,0.0,0.44418972730636597
1782779367,63442920,-1.5455802122699183,-0.48527461687196904,-2.2821105162249964,-4.760039750729696,-3.563099209462301,0.8514267802238464,0.3341393768787384,0.24996218085289001,-0.016178704798221588,-0.005632585845887661,0.0,0.39742887020111084
1782779367,71496989,-1.542307202016012,-0.48298770586122686,-2.2819908300982874,-4.760171596203939,-3.5630391279803675,0.8550692200660706,0.47791171073913574,0.338242769241333,0.051364388316869736,0.0011265171924605966,0.0,0.5161845684051514
1782779367,79433947,-1.53886586824526,-0.48048478761781865,-2.2819669882403772,-4.759991828595297,-3.5630632082568567,0.8589745759963989,0.34536299109458923,0.26025262475013733,-0.021595574915409088,0.008628642186522484,0.0,0.4247337281703949
1782779367,87430424,-1.5362399260150355,-0.4785087744342249,-2.2818105856524866,-4.759847942982809,-3.5631230513202112,0.8621373176574707,0.25009000301361084,0.20109210908412933,0.021595574915409088,0.0041705104522407055,0.0,0.3456314504146576
1782779367,95450345,-1.5338175932513636,-0.4769399801837366,-2.282062832509176,-4.760219518338339,-3.5630632082568567,0.8650127649307251,0.4144943952560425,0.2831089496612549,0.004889564123004675,0.0027563718613237143,0.0,0.45417338609695435
1782779367,103468988,-1.5308921972857874,-0.4745448271380823,-2.2820265928851526,-4.75975209871401,-3.5630632082568567,0.8688222765922546,0.3064765930175781,0.24222835898399353,-0.03238137811422348,0.0,0.0,0.4193008840084076
1782779367,111451650,-1.5279668013202112,-0.4723771254168909,-2.2818945089923304,-4.760039750729696,-3.563087050114767,0.8724879026412964,0.44418972730636597,0.3234398663043976,0.043191149830818176,0.014189322479069233,0.0,0.5144076943397522
1782779367,119417312,-1.5249808470355433,-0.4698861281024378,-2.2816670576678675,-4.759692136441366,-3.5630632082568567,0.8765134811401367,0.3115003705024719,0.2517901659011841,-0.0318780392408371,0.005177185405045748,0.0,0.43874406814575195
1782779367,127439307,-1.5228708426104944,-0.46806604066957647,-2.281654659901754,-4.759847942982809,-3.5630152861224573,0.8796402812004089,0.21662366390228271,0.18135488033294678,0.021595574915409088,0.004577974323183298,0.0,0.3410550653934479
1782779367,135540506,-1.5208089987384241,-0.466593090687887,-2.2818825880633753,-4.759907905255453,-3.563075129185812,0.8827067017555237,0.3817311227321625,0.2677052319049835,-0.003187804017215967,-0.002229065867140889,0.0,0.45439067482948303
1782779367,143428909,-1.5182183424579065,-0.4645927588092249,-2.2819669882403772,-4.759704176579611,-3.5630391279803675,0.8863128423690796,0.2800537645816803,0.21889905631542206,-0.03628823533654213,-0.002229065867140889,0.0,0.39644455909729004
1782779367,151441718,-1.5155327955829065,-0.4624851385699671,-2.2819183508502405,-4.760003749524252,-3.563087050114767,0.8898351192474365,0.42267563939094543,0.31359681487083435,0.030344057828187943,-0.002229065867140889,0.0,0.5068400502204895
1782779367,159438436,-1.5128472487079065,-0.46029359499086553,-2.2819669882403772,-4.75972813764681,-3.5630152861224573,0.8936445713043213,0.29222333431243896,0.2309408187866211,-0.0249751266092062,-0.0020373184233903885,0.0,0.422752320766449
1782779367,167434505,-1.5107253233539026,-0.45855695406068975,-2.281858746205465,-4.759907905255453,-3.5630632082568567,0.8966395258903503,0.21027041971683502,0.18308061361312866,0.003499393817037344,0.0,0.0,0.32815685868263245
1782779367,175470630,-1.5087226072894495,-0.4571440855609339,-2.28214675584902,-4.760135594998495,-3.5630512873279017,0.8994786739349365,0.37981364130973816,0.2613903284072876,0.003499393817037344,0.0,0.0,0.43263372778892517
1782779367,183424347,-1.5058334509478968,-0.45504838625063115,-2.2822545210467737,-4.759883944188253,-3.5630632082568567,0.9029285907745361,0.2879026234149933,0.2272464781999588,-0.03238137811422348,-0.003187804017215967,0.0,0.39171478152275085
1782779367,191452842,-1.5030878225909632,-0.45298844972719365,-2.2819669882403772,-4.7600876728640955,-3.562991205845968,0.906390905380249,0.4263060390949249,0.3151308000087738,0.05337774008512497,-0.003187804017215967,0.0,0.4960893988609314
1782779367,199433263,-1.4999826590167444,-0.4507492224322718,-2.2822545210467737,-4.7598599831210535,-3.5630272070514124,0.9101284742355347,0.3120756149291992,0.23413661122322083,-0.055750615894794464,-0.003187804017215967,0.0,0.4134078323841095
1782779367,207439258,-1.49770433107485,-0.44886905351747686,-2.2819302717791956,-4.759955827389852,-3.5630512873279017,0.9131230711936951,0.22426798939704895,0.19686086475849152,0.03554521128535271,-0.0005992112564854324,0.0,0.32815685868263245
1782779367,215438179,-1.4955104033099573,-0.4474437872516077,-2.282206360493795,-4.760111633931295,-3.563003126774923,0.9159266352653503,0.3864225447177887,0.26240020990371704,-0.0037870153319090605,-0.0005992112564854324,0.0,0.43388646841049194
1782779367,223429804,-1.4926326910602015,-0.44520455995668584,-2.2820866743670862,-4.759931866322653,-3.563003126774923,0.9193406105041504,0.29504841566085815,0.2376519739627838,-0.025909895077347755,-0.0005992112564854324,0.0,0.3887490928173065
1782779367,231519373,-1.4898627440081995,-0.44308454195131475,-2.2820146719561976,-4.760111633931295,-3.563087050114767,0.9228025674819946,0.4315088093280792,0.31272757053375244,0.04297543317079544,-0.0005992112564854324,0.0,0.48872628808021545
1782779367,239432517,-1.4868057409869593,-0.44085723558534795,-2.28214675584902,-4.759740058575765,-3.5630391279803675,0.9264686107635498,0.32081931829452515,0.2346351444721222,-0.03887682780623436,0.0,0.0,0.4115159213542938
1782779367,247425956,-1.4845402876483362,-0.4388697783099573,-2.2818825880633753,-4.759979788457052,-3.5630512873279017,0.9294032454490662,0.23019938170909882,0.19112122058868408,0.017904432490468025,0.0,0.0,0.32694244384765625
1782779367,255442896,-1.4822981993304651,-0.4374926725970667,-2.2822306791888636,-4.759979788457052,-3.5630152861224573,0.9322064518928528,0.3893754780292511,0.25673726201057434,0.007430219557136297,0.0,0.0,0.42868372797966003
1782779367,263469798,-1.4792283217059534,-0.4352768103228968,-2.2821224371539515,-4.759847942982809,-3.563075129185812,0.9356208443641663,0.3073969781398773,0.23449453711509705,-0.021595574915409088,0.0,0.0,0.37720587849617004
1782779367,271448238,-1.476147476826803,-0.43307334581484014,-2.2819302717791956,-4.760003749524252,-3.562991205845968,0.9390228390693665,0.4451228976249695,0.3142487406730652,0.03664775937795639,0.0006711166352033615,0.0,0.48213016986846924
1782779367,279412826,-1.4730423132525843,-0.43084603944887334,-2.2819064299212855,-4.75977605978121,-3.563075129185812,0.9425563216209412,0.3155398666858673,0.23610521852970123,-0.0243759136646986,0.0006711166352033615,0.0,0.39918017387390137
1782779367,287454710,-1.470440689717428,-0.4289658705340784,-2.28187066713442,-4.759847942982809,-3.5630632082568567,0.9454078078269958,0.23570893704891205,0.18809162080287933,0.0033316146582365036,0.0,0.0,0.31568047404289246
1782779367,295533816,-1.4681151548968714,-0.4274328390704554,-2.2819183508502405,-4.760015789662496,-3.5630272070514124,0.9481626749038696,0.38482466340065,0.2654426097869873,0.006471481639891863,0.0,0.0,0.41328001022338867
1782779367,303433570,-1.4652493635760706,-0.4254210630999964,-2.2819669882403772,-4.75977605978121,-3.563075129185812,0.9513010382652283,0.2880176901817322,0.21916751563549042,-0.021595574915409088,0.0,0.0,0.3651513457298279
1782779367,311431139,-1.4623358885394495,-0.4233611265765589,-2.281858746205465,-4.7600277105914515,-3.5630152861224573,0.9545356631278992,0.4212566912174225,0.30100539326667786,0.036264266818761826,0.0,0.0,0.46301934123039246
1782779367,319453116,-1.4595187346087855,-0.4210861364947718,-2.2818945089923304,-4.759847942982809,-3.563075129185812,0.9580695033073425,0.29539358615875244,0.23243644833564758,-0.018503643572330475,0.0,0.0,0.39062821865081787
1782779367,327538055,-1.4573968092547815,-0.4194100538836878,-2.2817986647235315,-4.759895865117208,-3.563087050114767,0.9608487486839294,0.20998919010162354,0.1788877248764038,0.01895904541015625,0.0,0.0,0.30503207445144653
1782779367,335445810,-1.455454174672262,-0.4179723898517054,-2.282062832509176,-4.760135594998495,-3.5630632082568567,0.9634717702865601,0.3529050648212433,0.24606330692768097,0.0,-0.0003115898580290377,0.0,0.40950897336006165
1782779367,343422750,-1.4529364744769495,-0.41602069536318,-2.2820027510272425,-4.759812060986654,-3.563099209462301,0.966850221157074,0.26523807644844055,0.2105516493320465,-0.03238137811422348,-0.0003115898580290377,0.0,0.36842384934425354
1782779367,351452152,-1.45038348833193,-0.41404468217958623,-2.2818945089923304,-4.760135594998495,-3.563075129185812,0.9699766039848328,0.3917531371116638,0.2894749641418457,0.04297543317079544,-0.0003115898580290377,0.0,0.4524220824241638
1782779367,361137272,-1.4458630720721644,-0.41029626527895147,-2.2818225065814417,-4.759967867528097,-3.5630152861224573,0.9760979413986206,0.18814274668693542,0.1657082736492157,-0.008844357915222645,0.0,0.0,0.3067961633205414
1782779367,369532933,-1.44399339357485,-0.40902692476381475,-2.28214675584902,-4.760159556065695,-3.5630272070514124,0.9787209630012512,0.32661008834838867,0.22748935222625732,0.003882888937368989,0.0,0.0,0.3934149444103241
1782779367,375438489,-1.44399339357485,-0.40902692476381475,-2.28214675584902,-4.760159556065695,-3.5630272070514124,0.9787209630012512,0.32661008834838867,0.22748935222625732,0.003882888937368989,0.0,0.0,0.3934149444103241
1782779367,383416448,-1.4417031447040003,-0.4071710745440882,-2.2820985952960413,-4.759907905255453,-3.5630391279803675,0.9819312691688538,0.24346832931041718,0.19654129445552826,-0.0342988520860672,-0.0032597093377262354,0.0,0.36113741993904114
1782779367,391447202,-1.439174000416891,-0.4053867498980921,-2.281942669545309,-4.760075632725851,-3.563087050114767,0.9850696325302124,0.3744575083255768,0.2723838686943054,0.034202978014945984,-0.0032597093377262354,0.0,0.4411345422267914
1782779367,399444790,-1.436739746724264,-0.4034822622882288,-2.2820385138141077,-4.7598599831210535,-3.563087050114767,0.9883517622947693,0.24882447719573975,0.19908514618873596,-0.03940413147211075,-0.0032597093377262354,0.0,0.37390783429145813
1782779367,412078919,-1.433479134236471,-0.4007762114154261,-2.2820265928851526,-4.759979788457052,-3.562991205845968,0.993107259273529,0.20857025682926178,0.15205584466457367,-0.002684466540813446,0.0024208135437220335,0.0,0.28042447566986084
1782779367,420812653,-1.4316328207599085,-0.39956647554506475,-2.2820866743670862,-4.760003749524252,-3.563003126774923,0.9955625534057617,0.2765384018421173,0.1960427463054657,-0.01176850963383913,0.0024208135437220335,0.0,0.33117368817329407
1782779367,424290050,-1.4289115110980433,-0.39762717882265264,-2.2820265928851526,-4.759955827389852,-3.562991205845968,0.9987372159957886,0.3994997441768646,0.28209906816482544,-0.004793690051883459,0.002229065867140889,0.0,0.44320541620254517
1782779367,432563619,-1.4260581175433558,-0.39538747469057256,-2.281942669545309,-4.75977605978121,-3.5630632082568567,1.0021867752075195,0.29729825258255005,0.23687221109867096,0.0,0.0005273059359751642,0.0,0.39355555176734924
1782779367,439499784,-1.4260581175433558,-0.39538747469057256,-2.281942669545309,-4.75977605978121,-3.5630632082568567,1.0021867752075195,0.29729825258255005,0.23687221109867096,0.0,0.0005273059359751642,0.0,0.39355555176734924
1782779367,450937769,-1.4206755797015589,-0.3913157621966761,-2.282074753438131,-4.759764019642965,-3.5630632082568567,1.0091825723648071,0.2928752899169922,0.2308768928050995,-0.02250637486577034,0.0005273059359751642,0.0,0.40309181809425354
1782779367,455541274,-1.418445889149801,-0.3894236723529261,-2.2818225065814417,-4.759847942982809,-3.5630632082568567,1.0120214223861694,0.22200536727905273,0.18878190219402313,0.025310683995485306,0.0018216022290289402,0.0,0.3140953481197357
1782779367,463516158,-1.416312042866842,-0.3881185690509241,-2.2820985952960413,-4.760051671658651,-3.563003126774923,1.0146564245224,0.34306201338768005,0.23237252235412598,0.007478156592696905,0.0018216022290289402,0.0,0.38426220417022705
1782779367,471619467,-1.4134462515460413,-0.38610679308046514,-2.2820027510272425,-4.759895865117208,-3.5630632082568567,1.017830729484558,0.341758131980896,0.25095927715301514,-0.010665960609912872,0.0018216022290289402,0.0,0.4004073441028595
1782779367,479615129,-1.4104016462909144,-0.38387948671449834,-2.28187066713442,-4.759943787251608,-3.563111130391256,1.021148920059204,0.3678869605064392,0.27159130573272705,0.02418416738510132,0.0018216022290289402,0.0,0.4169871211051941
1782779367,491358910,-1.4078839460956019,-0.38197547594179326,-2.2819789091693323,-4.759883944188253,-3.563075129185812,1.024143099784851,0.2493741512298584,0.19480277597904205,-0.014524880796670914,0.0017736653098836541,0.0,0.3310586214065552
1782779367,495857489,-1.4060376326190394,-0.3804662863360804,-2.281955067311422,-4.759931866322653,-3.563087050114767,1.0263949632644653,0.18323400616645813,0.14778627455234528,-0.007190535310655832,0.0014381069922819734,0.0,0.2535798251628876
1782779367,503670207,-1.4040716330157679,-0.3792932669269007,-2.282074753438131,-4.760099593793051,-3.5630512873279017,1.0286473035812378,0.31266364455223083,0.2089921087026596,0.0,0.0012223910307511687,0.0,0.3297547399997711
1782779367,511508147,-1.4017580191241663,-0.3774965445147913,-2.2819183508502405,-4.759871904050009,-3.563075129185812,1.0312942266464233,0.2334207445383072,0.18242867290973663,-0.012104067951440811,0.0010546118719503284,0.0,0.29359114170074463
1782779367,519512975,-1.3994205633746546,-0.37579614320863897,-2.2817986647235315,-4.760159556065695,-3.5630391279803675,1.0338454246520996,0.3550654351711273,0.24785295128822327,0.03422694653272629,-0.0007909588748589158,0.0,0.36975330114364624
1782779367,529650909,-1.3994205633746546,-0.37579614320863897,-2.2817986647235315,-4.760159556065695,-3.5630391279803675,1.0338454246520996,0.3550654351711273,0.24785295128822327,0.03422694653272629,-0.0007909588748589158,0.0,0.36975330114364624
1782779367,535462540,-1.3951528708087366,-0.37252742448915654,-2.281750504170553,-4.759907905255453,-3.563087050114767,1.0390675067901611,0.17819744348526,0.14717267453670502,-0.00812530517578125,0.0,0.0,0.2504862844944
1782779367,543511405,-1.3935578505145472,-0.3714373747455042,-2.2820265928851526,-4.760015789662496,-3.5630272070514124,1.0411759614944458,0.2946265935897827,0.19721880555152893,0.0038349521346390247,0.0,0.0,0.32285183668136597
1782779367,551539863,-1.391496483479635,-0.3698685804950159,-2.2819064299212855,-4.759764019642965,-3.563087050114767,1.0437754392623901,0.21244356036186218,0.1663474440574646,-0.016178704798221588,0.0,0.0,0.2907404899597168
1782779367,559526581,-1.3897221724139612,-0.3684313933001917,-2.2818105856524866,-4.759991828595297,-3.5631230513202112,1.0460389852523804,0.225738063454628,0.173736110329628,0.03238137811422348,0.0,0.0,0.27615490555763245
1782779367,569749625,-1.3880437056170862,-0.36724597612489873,-2.281942669545309,-4.759895865117208,-3.5630632082568567,1.0483508110046387,0.24847932159900665,0.17713643610477448,0.010785803198814392,0.0,0.0,0.3051215708255768
1782779367,575560145,-1.3862937132464808,-0.36584502855409795,-2.2817986647235315,-4.759823981915609,-3.5630632082568567,1.050650715827942,0.18231362104415894,0.14822089672088623,-0.008916263468563557,0.0,0.0,0.26182496547698975
1782779367,583572659,-1.3844712416278284,-0.36456376711000615,-2.28184682527651,-4.760003749524252,-3.5630512873279017,1.0530223846435547,0.29534244537353516,0.21113967895507812,0.01318264752626419,0.0,0.0,0.3418092727661133
1782779367,591531432,-1.3826497236834925,-0.3630908171283167,-2.281942669545309,-4.759788099919454,-3.5630391279803675,1.0557652711868286,0.20161621272563934,0.16422542929649353,-0.02269812300801277,0.0,0.0,0.3018362820148468
1782779367,599543575,-1.3806713263141077,-0.36161786714662725,-2.2819302717791956,-4.760039750729696,-3.5630512873279017,1.0584003925323486,0.30822786688804626,0.2278217226266861,0.002181129064410925,0.0,0.0,0.37310248613357544
1782779367,610853375,-1.3785737196551722,-0.35995322862734014,-2.2820027510272425,-4.75977605978121,-3.563075129185812,1.0613110065460205,0.2123412936925888,0.1751806139945984,-0.023680828511714935,0.0,0.0,0.3208448588848114
1782779367,615632602,-1.377195183430807,-0.3586486021624964,-2.281858746205465,-4.759895865117208,-3.563075129185812,1.0635749101638794,0.15187688171863556,0.13853125274181366,-0.011073424480855465,0.0,0.0,0.24727770686149597
1782779367,623590023,-1.3756607214557093,-0.3576424757586878,-2.28214675584902,-4.7600876728640955,-3.5630391279803675,1.0656945705413818,0.258897602558136,0.1811375617980957,-0.003523362334817648,0.0,0.0,0.30983856320381165
1782779367,631595740,-1.3756607214557093,-0.3576424757586878,-2.28214675584902,-4.7600876728640955,-3.5630391279803675,1.0656945705413818,0.258897602558136,0.1811375617980957,-0.003523362334817648,0.0,0.0,0.30983856320381165
1782779367,639520680,-1.3716328779803675,-0.35450488725771123,-2.281942669545309,-4.760111633931295,-3.563087050114767,1.0705815553665161,0.30198970437049866,0.22026686370372772,0.03218962997198105,0.0,0.0,0.33879244327545166
1782779367,648894597,-1.3695347944842737,-0.35293656984438115,-2.282062832509176,-4.759823981915609,-3.5630152861224573,1.0732289552688599,0.21422041952610016,0.1665136218070984,-0.036983318626880646,0.0,0.0,0.2880176901817322
1782779367,655542393,-1.3695347944842737,-0.35293656984438115,-2.282062832509176,-4.759823981915609,-3.5630152861224573,1.0732289552688599,0.21422041952610016,0.1665136218070984,-0.036983318626880646,0.0,0.0,0.2880176901817322
1782779367,663428758,-1.3680365721331995,-0.3516190687762659,-2.281834427510397,-4.760039750729696,-3.5630391279803675,1.0751932859420776,0.15318076312541962,0.13876134157180786,0.018072212114930153,0.0,0.0,0.2227979302406311
1782779367,671493364,-1.3652194182025355,-0.349522892628805,-2.2820146719561976,-4.759967867528097,-3.563087050114767,1.078714370727539,0.21854113042354584,0.15650439262390137,-0.010881676338613033,0.0,0.0,0.24404355883598328
1782779367,679567008,-1.3635895887957972,-0.34826594987978154,-2.2819302717791956,-4.759931866322653,-3.5630512873279017,1.0804508924484253,0.16644969582557678,0.12563303112983704,0.010785803198814392,0.0,0.0,0.19381847977638245
1782779367,687463355,-1.3635895887957972,-0.34826594987978154,-2.2819302717791956,-4.759931866322653,-3.5630512873279017,1.0804508924484253,0.16644969582557678,0.12563303112983704,0.010785803198814392,0.0,0.0,0.19381847977638245
1782779367,695431924,-1.362222973500387,-0.34730750719179326,-2.2819908300982874,-4.759991828595297,-3.5630632082568567,1.0818883180618286,0.17906668782234192,0.12343432009220123,0.0041944789700210094,0.0,0.0,0.18687722086906433
1782779367,703441753,-1.3606165091144007,-0.34625465074648076,-2.2821105162249964,-4.759991828595297,-3.5630632082568567,1.0835177898406982,0.23184841871261597,0.15187688171863556,0.0,0.0,0.0,0.23409825563430786
1782779367,711554581,-1.3560970465289515,-0.3429010550128382,-2.28187066713442,-4.759836022053854,-3.563099209462301,1.0883324146270752,0.23262819647789001,0.1830422580242157,0.0008868326549418271,0.0,0.0,0.29337382316589355
1782779367,719505131,-1.3560970465289515,-0.3429010550128382,-2.28187066713442,-4.759836022053854,-3.563099209462301,1.0883324146270752,0.23262819647789001,0.1830422580242157,0.0008868326549418271,0.0,0.0,0.29337382316589355
1782779367,727459738,-1.3543713728534144,-0.34158355394472295,-2.281834427510397,-4.759931866322653,-3.5630632082568567,1.0906798839569092,0.22647948563098907,0.16891685128211975,0.014165353961288929,0.0,0.0,0.28378644585609436
1782779367,735462233,-1.352560822163717,-0.34030276933778936,-2.2819908300982874,-4.759871904050009,-3.563075129185812,1.092895746231079,0.2374730110168457,0.16988837718963623,0.005872270558029413,0.0,0.0,0.29434534907341003
1782779367,743423728,-1.3506911436664026,-0.3389495054828089,-2.28184682527651,-4.759812060986654,-3.5630632082568567,1.095147728919983,0.1824670135974884,0.1420210599899292,0.002133192028850317,0.0,0.0,0.24732884764671326
1782779367,751447612,-1.3489769140826624,-0.3377879301654261,-2.281942669545309,-4.759979788457052,-3.563003126774923,1.097219467163086,0.2624257802963257,0.1809585988521576,0.002133192028850317,0.0,0.0,0.295470267534256
1782779367,759451107,-1.3470223585711878,-0.33636266389955694,-2.2819789091693323,-4.759847942982809,-3.563099209462301,1.0997227430343628,0.23728126287460327,0.17289242148399353,-0.01589108258485794,0.0,0.0,0.3027183413505554
1782779367,767476862,-1.3453686873065394,-0.33502179781068975,-2.28184682527651,-4.759812060986654,-3.563099209462301,1.1018308401107788,0.1164802759885788,0.11152040213346481,0.002684466540813446,0.0,0.0,0.1995709091424942
1782779367,775554838,-1.3428872267352503,-0.33328515688051397,-2.2820385138141077,-4.759907905255453,-3.5630391279803675,1.1052440404891968,0.14563868939876556,0.11339953541755676,-0.013997575268149376,0.0,0.0,0.20637154579162598
1782779367,783483074,-1.3428872267352503,-0.33328515688051397,-2.2820385138141077,-4.759907905255453,-3.5630391279803675,1.1052440404891968,0.14563868939876556,0.11339953541755676,-0.013997575268149376,0.0,0.0,0.20637154579162598
1782779367,791446606,-1.3412449995623987,-0.33212405840028936,-2.2819302717791956,-4.760039750729696,-3.563099209462301,1.10707688331604,0.23692333698272705,0.17383837699890137,0.026149580255150795,0.0,0.0,0.2641003727912903
1782779367,799508286,-1.3397348562823694,-0.33090240160097295,-2.281955067311422,-4.759847942982809,-3.5630391279803675,1.1091489791870117,0.1609785109758377,0.12905891239643097,0.008484832011163235,0.0,0.0,0.22304080426692963
1782779367,807460300,-1.3385604063617151,-0.3299806753741663,-2.2819302717791956,-4.760003749524252,-3.5630632082568567,1.1106818914413452,0.11710665374994278,0.09886506199836731,0.005177185405045748,0.0,0.0,0.17180585861206055
1782779367,815474443,-1.3374574820147913,-0.32922584215273076,-2.2821105162249964,-4.760075632725851,-3.5630632082568567,1.1121912002563477,0.2032013237476349,0.1391320675611496,-0.0032597093377262354,0.0,0.0,0.22773224115371704
1782779367,823444587,-1.334268871937887,-0.32679492632021123,-2.281955067311422,-4.759991828595297,-3.5630391279803675,1.1161552667617798,0.21185553073883057,0.16451944410800934,0.0032117723021656275,0.0,0.0,0.25933223962783813
1782779367,831492711,-1.334268871937887,-0.32679492632021123,-2.281955067311422,-4.759991828595297,-3.5630391279803675,1.1161552667617798,0.21185553073883057,0.16451944410800934,0.0032117723021656275,0.0,0.0,0.25933223962783813
1782779367,839444873,-1.3329981009112757,-0.3256576696978968,-2.2820146719561976,-4.759883944188253,-3.5630272070514124,1.1180601119995117,0.1381988823413849,0.11901134252548218,0.0055367122404277325,0.0,0.0,0.2134406417608261
1782779367,847467554,-1.3320272604571741,-0.3248189131366175,-2.2819789091693323,-4.759967867528097,-3.5630391279803675,1.1195813417434692,0.1002456471323967,0.0893288180232048,-0.007550062146037817,0.0,0.0,0.15998141467571259
1782779367,855456641,-1.3310802618609827,-0.3241007963763636,-2.2821105162249964,-4.760003749524252,-3.5630632082568567,1.1209583282470703,0.18086911737918854,0.1269369125366211,-0.004314321093261242,0.0,0.0,0.2104877382516861
1782779367,863448099,-1.3297494093524378,-0.32305890718568975,-2.2819908300982874,-4.759812060986654,-3.5631349722491663,1.122611403465271,0.13743190467357635,0.11062557995319366,0.0,0.0,0.0,0.1834513247013092
1782779367,871501687,-1.3286469618426722,-0.32216102281679326,-2.2819669882403772,-4.759955827389852,-3.563075129185812,1.1239885091781616,0.14746668934822083,0.11374467611312866,0.0,0.0,0.0,0.1750144213438034
1782779367,879450330,-1.3274601141559046,-0.32133418718446904,-2.282074753438131,-4.759895865117208,-3.5630152861224573,1.1254618167877197,0.16353513300418854,0.11481846123933792,0.004865595605224371,0.0,0.0,0.19121070206165314
1782779367,887709751,-1.3249791304217737,-0.31949073473085576,-2.2820146719561976,-4.759991828595297,-3.5630272070514124,1.1283841133117676,0.1998521387577057,0.13587234914302826,0.005368933081626892,0.0,0.0,0.2099636197090149
1782779367,895574098,-1.3249791304217737,-0.31949073473085576,-2.2820146719561976,-4.759991828595297,-3.5630272070514124,1.1283841133117676,0.1998521387577057,0.13587234914302826,0.005368933081626892,0.0,0.0,0.2099636197090149
1782779367,903424760,-1.3235042730914515,-0.3184126059161585,-2.2819789091693323,-4.7598599831210535,-3.5630391279803675,1.130061149597168,0.1476200819015503,0.11158432066440582,0.005368933081626892,0.0,0.0,0.1882450133562088
1782779367,911449867,-1.3221500555621546,-0.31738311449159795,-2.2819908300982874,-4.7600277105914515,-3.5630632082568567,1.1316778659820557,0.208928182721138,0.15054742991924286,-0.005057343281805515,0.0,0.0,0.22748935222625732
1782779367,919415640,-1.3206036726581019,-0.31628162065614873,-2.2820027510272425,-4.759883944188253,-3.563099209462301,1.1334624290466309,0.1476200819015503,0.11348901689052582,0.0049375006929039955,0.0,0.0,0.19447042047977448
1782779367,927437857,-1.3194649855243128,-0.3154075781451624,-2.2819183508502405,-4.759907905255453,-3.5630632082568567,1.1348398923873901,0.10570406168699265,0.08890697360038757,0.007430219557136297,0.0,0.0,0.14778627455234528
1782779367,935450667,-1.3185661474811,-0.31477243105043584,-2.282158676777975,-4.760051671658651,-3.5630632082568567,1.135893702507019,0.11949710547924042,0.08218302577733994,0.007430219557136297,0.0,0.0,0.14119015634059906
1782779367,943425940,-1.3174751440631312,-0.3140061537372034,-2.2820027510272425,-4.759943787251608,-3.5630632082568567,1.1371872425079346,0.1407555192708969,0.10041182488203049,0.0024927188642323017,0.0,0.0,0.16161766648292542
1782779367,951433435,-1.316108528767721,-0.3131197134601038,-2.282074753438131,-4.760003749524252,-3.563111130391256,1.13860023021698,0.19735941290855408,0.1366521269083023,0.0024927188642323017,0.0,0.0,0.20808449387550354
1782779367,959435004,-1.3146465460406702,-0.31204253831972295,-2.2819908300982874,-4.759919826184408,-3.563099209462301,1.140289306640625,0.14007800817489624,0.10990972816944122,0.0,0.0,0.0,0.183617502450943
1782779367,967446795,-1.3136633078204554,-0.311228100453512,-2.2819908300982874,-4.7600277105914515,-3.563087050114767,1.1415109634399414,0.09844321757555008,0.07983092218637466,0.0,0.0,0.0,0.1388508379459381
1782779367,975446346,-1.3127759138690394,-0.31064159074892217,-2.2821105162249964,-4.760063711796896,-3.563075129185812,1.1427205801010132,0.1539221853017807,0.10291732847690582,0.0,0.0,0.0,0.17309695482254028
1782779367,983420434,-1.3117697874652308,-0.3097189108477991,-2.2819908300982874,-4.759943787251608,-3.5630512873279017,1.1441099643707275,0.11618626117706299,0.09168092161417007,0.0,0.0,0.0,0.15301458537578583
1782779367,991465836,-1.3105948607074183,-0.3089407126056116,-2.2819908300982874,-4.759991828595297,-3.563111130391256,1.145403504371643,0.16141313314437866,0.11631409823894501,0.0,0.0,0.0,0.18150828778743744
1782779367,999435220,-1.3095877806292933,-0.3081620375262659,-2.2820146719561976,-4.759883944188253,-3.563087050114767,1.1467926502227783,0.10682898014783859,0.0856856107711792,0.0,0.0,0.0,0.15578854084014893
1782779368,7434234,-1.3087847868548792,-0.30748016039003545,-2.281942669545309,-4.759967867528097,-3.563111130391256,1.1478105783462524,0.07797735929489136,0.0688757374882698,0.0,0.0,0.0,0.11508691310882568
1782779368,15445099,-1.3081138769732874,-0.30697709718813115,-2.2821224371539515,-4.759919826184408,-3.563075129185812,1.1488168239593506,0.12417574971914291,0.08586457371711731,0.0,0.0,0.0,0.14854048192501068
1782779368,23427058,-1.30727464357485,-0.30631858507265264,-2.2819302717791956,-4.759836022053854,-3.5630512873279017,1.1499665975570679,0.09242234379053116,0.07653286308050156,0.0,0.0,0.0,0.13198626041412354
1782779368,31441516,-1.3063276449786585,-0.30564767519106084,-2.2820027510272425,-4.759943787251608,-3.5630512873279017,1.1511162519454956,0.13764920830726624,0.10089758783578873,0.0,0.0,0.0,0.16060778498649597
1782779368,39449640,-1.305476490651266,-0.30497724214662725,-2.2820385138141077,-4.7598599831210535,-3.5630391279803675,1.152397871017456,0.09463383257389069,0.07391230762004852,0.0,0.0,0.0,0.13807106018066406
1782779368,47435580,-1.3047698179828089,-0.3043425718890589,-2.281942669545309,-4.759919826184408,-3.5631230513202112,1.1533442735671997,0.06792978197336197,0.06000421568751335,0.0,0.0,0.0,0.10353092104196548
1782779368,55430482,-1.3041699568377894,-0.30391151109804326,-2.2821348349200647,-4.759967867528097,-3.5630512873279017,1.1542543172836304,0.11305438727140427,0.07795178890228271,0.0,0.0,0.0,0.13293221592903137
1782779368,63451866,-1.30333120027651,-0.30324107805360967,-2.281942669545309,-4.7598599831210535,-3.563075129185812,1.1554160118103027,0.08968674391508102,0.07015405595302582,0.0,0.0,0.0,0.11825713515281677
1782779368,71470195,-1.3024442831622522,-0.3026545683490198,-2.2820265928851526,-4.759991828595297,-3.563087050114767,1.156314492225647,0.12328092753887177,0.08863852173089981,0.0,0.0,0.0,0.13672882318496704
1782779368,79461412,-1.3016646544085901,-0.30201942125429326,-2.2820265928851526,-4.759871904050009,-3.563075129185812,1.1574398279190063,0.08683609962463379,0.06629353761672974,0.0,0.0,0.0,0.11678707599639893
1782779368,87429333,-1.3010419050799769,-0.3015406767474573,-2.2819908300982874,-4.759943787251608,-3.5630391279803675,1.1582304239273071,0.06495130807161331,0.05296068638563156,0.0,0.0,0.0,0.08953334391117096
1782779368,95437032,-1.300394360219137,-0.3011096159564417,-2.282074753438131,-4.760003749524252,-3.563099209462301,1.1589970588684082,0.10154952853918076,0.06698382645845413,0.0,0.0,0.0,0.11086846143007278
1782779368,103523508,-1.2996752897845667,-0.30058271089662725,-2.2819908300982874,-4.759943787251608,-3.5630512873279017,1.1599071025848389,0.07989483326673508,0.06064337491989136,0.0,0.0,0.0,0.09745891392230988
1782779368,111461411,-1.2989323774920862,-0.30003148714174444,-2.2820385138141077,-4.760015789662496,-3.5630152861224573,1.1607335805892944,0.10997363924980164,0.077248714864254,0.0,0.0,0.0,0.11628852784633636
1782779368,119423480,-1.2981889883624476,-0.29946881929506475,-2.282074753438131,-4.759967867528097,-3.563087050114767,1.1616556644439697,0.07774726301431656,0.05953123793005943,0.0,0.0,0.0,0.10027121007442474
1782779368,127444420,-1.2976253668414515,-0.2990620771991175,-2.281942669545309,-4.759943787251608,-3.563075129185812,1.1623144149780273,0.0567956380546093,0.04705486074090004,0.0,0.0,0.0,0.07627719640731812
1782779368,135460470,-1.2971938292132776,-0.2987144629107874,-2.2820866743670862,-4.759991828595297,-3.5630391279803675,1.1629492044448853,0.08420276641845703,0.055811334401369095,0.0,0.0,0.0,0.09295924007892609
1782779368,143436669,-1.2965224424945276,-0.2982233206378382,-2.2819789091693323,-4.759907905255453,-3.5630391279803675,1.163739800453186,0.06504078954458237,0.05035291984677315,0.0,0.0,0.0,0.08284774422645569
1782779368,151440424,-1.2959111372577112,-0.29780465761293584,-2.2820385138141077,-4.759991828595297,-3.5630512873279017,1.1643625497817993,0.09023642539978027,0.06467007845640182,0.0,0.0,0.0,0.09407137334346771
1782779368,159440752,-1.295312229787008,-0.2973135153399866,-2.2820265928851526,-4.759931866322653,-3.563075129185812,1.1651052236557007,0.06121861934661865,0.04879337176680565,0.0,0.0,0.0,0.08248981833457947
1782779368,167443358,-1.2948687712298792,-0.2969902197467249,-2.281955067311422,-4.759907905255453,-3.563087050114767,1.1656562089920044,0.04495842009782791,0.0391165092587471,0.0,0.0,0.0,0.061461497098207474
1782779368,175446390,-1.2944615522967737,-0.29667884508241826,-2.2820146719561976,-4.759907905255453,-3.563075129185812,1.1661831140518188,0.06704774498939514,0.04869110882282257,0.0,0.0,0.0,0.07379726320505142
1782779368,183429367,-1.293969456349508,-0.29624778429140264,-2.2820027510272425,-4.759871904050009,-3.5630632082568567,1.166674017906189,0.053101301193237305,0.041545312851667404,0.0,0.0,0.0,0.06597395986318588
1782779368,191458770,-1.2934301535235804,-0.2959244886981409,-2.2820146719561976,-4.759931866322653,-3.5631230513202112,1.1672968864440918,0.07108722627162933,0.05260276049375534,0.0,0.0,0.0,0.07483270019292831
1782779368,199549301,-1.2929628531085413,-0.2955411116229456,-2.2820146719561976,-4.759847942982809,-3.5630272070514124,1.167847752571106,0.049547579139471054,0.03781262785196304,0.0,0.0,0.0,0.06385195255279541
1782779368,207472575,-1.2925313154803675,-0.2952778975116175,-2.2819789091693323,-4.759883944188253,-3.5630512873279017,1.1682548522949219,0.03652152791619301,0.02979757823050022,0.0,0.0,0.0,0.04819256439805031
1782779368,215443903,-1.292231861745016,-0.2950504461871546,-2.2820146719561976,-4.759943787251608,-3.5630632082568567,1.1687219142913818,0.05239822715520859,0.036253079771995544,0.0,0.0,0.0,0.057434797286987305
1782779368,223452231,-1.2918484846698206,-0.29473907152284795,-2.2820146719561976,-4.759943787251608,-3.563087050114767,1.169189214706421,0.0405610091984272,0.028544826433062553,0.0,0.0,0.0,0.05030178651213646
1782779368,231551171,-1.2914651075946253,-0.29445153871645147,-2.2820265928851526,-4.759979788457052,-3.563099209462301,1.169560432434082,0.05138835683465004,0.03759531304240227,0.0,0.0,0.0,0.05728140100836754
1782779368,239436814,-1.2911770979510706,-0.29423600832094365,-2.2820146719561976,-4.759943787251608,-3.563075129185812,1.170039415359497,0.03404159098863602,0.026077674701809883,0.0,0.0,0.0,0.04819256439805031
1782779368,247482383,-1.290889088307516,-0.29408055940736944,-2.2820385138141077,-4.759955827389852,-3.563111130391256,1.1703389883041382,0.02346990630030632,0.020619258284568787,0.0,0.0,0.0,0.034936413168907166
1782779368,255472045,-1.2906973997699183,-0.29390079179872686,-2.2820385138141077,-4.759967867528097,-3.5630632082568567,1.1706262826919556,0.035601139068603516,0.02377670258283615,0.0,0.0,0.0,0.040356479585170746
1782779368,263436189,-1.290433708821432,-0.29373294511903936,-2.2819908300982874,-4.759931866322653,-3.5630632082568567,1.1709853410720825,0.02334207482635975,0.019545473158359528,0.0,0.0,0.0,0.033006154000759125
1782779368,271491720,-1.2902300993548792,-0.29357749620546514,-2.2819908300982874,-4.759991828595297,-3.563099209462301,1.1712011098861694,0.031037544831633568,0.021808093413710594,0.0,0.0,0.0,0.03597185015678406
1782779368,279443623,-1.290002171193258,-0.29333812395204717,-2.2819789091693323,-4.759883944188253,-3.5630272070514124,1.171632170677185,0.010776215232908726,0.012616991996765137,0.0,0.0,0.0,0.018369419500231743
1782779368,287531655,-1.290002171193258,-0.29333812395204717,-2.2819789091693323,-4.759883944188253,-3.5630272070514124,1.171632170677185,0.010776215232908726,0.012616991996765137,0.0,0.0,0.0,0.018369419500231743
1782779368,295460261,-1.2898944059955042,-0.29330188432802373,-2.282074753438131,-4.759919826184408,-3.5630632082568567,1.1718238592147827,0.016145147383213043,0.009408415295183659,0.0,0.0,0.0,0.01895744539797306
