LukePepin/On-Edge/data/archived_logs/deceleration_data_1782664009.csv
timestamp_sec,timestamp_nanosec,shoulder_pan_pos,shoulder_lift_pos,elbow_pos,wrist_1_pos,wrist_2_pos,wrist_3_pos,shoulder_pan_vel,shoulder_lift_vel,elbow_vel,wrist_1_vel,wrist_2_vel,wrist_3_vel
1782664010,299063297,-1.6560905615436,0.12932491302490234,-1.5218337217914026,0.007131362799555063,0.0008033175836317241,0.6744500994682312,0.0,-0.0,0.0,0.0,0.0,0.0
1782664010,315068414,-1.6561387220965784,0.12936115264892578,-1.5218456427203577,0.007143347058445215,0.0008153018425218761,0.674462080001831,0.0,-0.0,0.0,0.0,0.0,0.0
1782664010,323361863,-1.6560667196856897,0.12936115264892578,-1.5217974821673792,0.007179299835115671,0.0007789746159687638,0.6744141578674316,0.0,-0.0,0.0,0.0,0.0,0.0
1782664010,331062403,-1.6560667196856897,0.12933731079101562,-1.5218456427203577,0.007107394747436047,0.0007909588748589158,0.6743901968002319,0.0,-0.0,0.0,0.0,0.0,0.0
1782664010,339074989,-1.6560547987567347,0.12937307357788086,-1.5218575636493128,0.007143347058445215,0.0007909588748589158,0.6744141578674316,0.0,-0.0,0.0,0.0,0.0,0.0
1782664010,347070946,-1.65611440340151,0.12933731079101562,-1.5218094030963343,0.007119379006326199,0.0008033175836317241,0.6744381189346313,0.0,-0.0,0.0,0.0,0.0,0.0
1782664010,355443189,-1.6560547987567347,0.12931299209594727,-1.5218337217914026,0.007143347058445215,0.0008153018425218761,0.6743782162666321,0.0,-0.0,0.0,0.0,0.0,0.0
1782664010,363109063,-1.6560786406146448,0.12932491302490234,-1.5217855612384241,0.007107394747436047,0.0008392703020945191,0.6744381189346313,0.0,-0.0,0.0,0.0,0.0,0.0
1782664010,371065947,-1.6560786406146448,0.1293492317199707,-1.5218094030963343,0.007095410488545895,0.0008153018425218761,0.6744261384010315,0.0,-0.0,0.0,0.0,0.0,0.0
1782664010,387289077,-1.6560667196856897,0.1293492317199707,-1.5218094030963343,0.007131362799555063,0.0008153018425218761,0.6744261384010315,0.0,-0.0,0.0,0.0,0.0,0.0
1782664010,403395970,-1.6560428778277796,0.12933731079101562,-1.5218694845782679,0.007119379006326199,0.0008153018425218761,0.6743901968002319,0.0,-0.0,0.0,0.0,0.0,0.0
1782664010,411067436,-1.6560786406146448,0.12932491302490234,-1.5218213240252894,0.007119379006326199,0.0008272860432043672,0.6744261384010315,0.0,-0.0,0.0,0.0,0.0,0.0
1782664010,419066060,-1.6560786406146448,0.12936115264892578,-1.5217974821673792,0.007119379006326199,0.0007909588748589158,0.6744500994682312,0.0,-0.0,0.0,0.0,0.0,0.0
1782664010,427074091,-1.6560786406146448,0.12932491302490234,-1.5218213240252894,0.007179299835115671,0.0008272860432043672,0.6744500994682312,0.0,-0.0,0.0,0.0,0.0,0.0
1782664010,435096899,-1.6560309568988245,0.12933731079101562,-1.5218694845782679,0.007155331317335367,0.0008153018425218761,0.6744261384010315,0.0,-0.0,0.0,0.0,0.0,0.0
1782664010,443062839,-1.6560786406146448,0.1293492317199707,-1.5218694845782679,0.007167315576225519,0.0008153018425218761,0.6744980216026306,0.0,-0.0,0.0,0.0,0.0,0.0
1782664010,451392620,-1.6560309568988245,0.12931299209594727,-1.5218213240252894,0.007167315576225519,0.0008272860432043672,0.6744141578674316,0.0,-0.0,0.0,0.0,0.0,0.0
1782664010,459251137,-1.6560309568988245,0.12938499450683594,-1.5218456427203577,0.007167315576225519,0.0007909588748589158,0.674462080001831,0.0,-0.0,0.0,0.0,0.0,0.0
1782664010,470102420,-1.656102482472555,0.1293492317199707,-1.5218213240252894,0.007155331317335367,0.0007909588748589158,0.6744740605354309,0.0,-0.0,0.0,0.0,0.0,0.0
1782664010,483102938,-1.656102482472555,0.12932491302490234,-1.5218213240252894,0.007179299835115671,0.0008033175836317241,0.6744500994682312,0.0,-0.0,0.0,0.0,0.0,0.0
1782664010,491029897,-1.6560547987567347,0.1293010711669922,-1.5218456427203577,0.007143347058445215,0.0008033175836317241,0.6743782162666321,0.0,-0.0,0.0,0.0,0.0,0.0
1782664010,499063539,-1.6560667196856897,0.12937307357788086,-1.5217974821673792,0.007143347058445215,0.0008632387034595013,0.6744500994682312,0.0,-0.0,0.0,0.0,0.0,0.0
1782664010,507064310,-1.6560428778277796,0.12936115264892578,-1.5218094030963343,0.007143347058445215,0.0008392703020945191,0.6744021773338318,0.0,-0.0,0.0,0.0,0.0,0.0
1782664010,515101581,-1.655994717274801,0.12933731079101562,-1.5218456427203577,0.007179299835115671,0.0007789746159687638,0.6744860410690308,0.0,-0.0,0.0,0.0,0.0,0.0
1782664010,523076984,-1.656102482472555,0.12937307357788086,-1.5218213240252894,0.007131362799555063,0.0008392703020945191,0.6744021773338318,0.0,-0.0,0.0,0.0,0.0,0.0
1782664010,531057978,-1.6560547987567347,0.1293010711669922,-1.5218337217914026,0.007119379006326199,0.0008272860432043672,0.6744381189346313,0.0,-0.0,0.0,0.0,0.0,0.0
1782664010,539128304,-1.6560428778277796,0.12932491302490234,-1.5218094030963343,0.007119379006326199,0.0008153018425218761,0.6744381189346313,0.0,-0.0,0.0,0.0,0.0,0.0
1782664010,547064559,-1.6560667196856897,0.12933731079101562,-1.5218213240252894,0.007107394747436047,0.0008272860432043672,0.6744860410690308,0.0,-0.0,0.0,0.0,0.0,0.0
1782664010,555073219,-1.656102482472555,0.12933731079101562,-1.5218456427203577,0.007131362799555063,0.0007789746159687638,0.6744141578674316,0.0,-0.0,0.0,0.0,0.0,0.0
1782664010,563078121,-1.6560547987567347,0.12932491302490234,-1.5218213240252894,0.007131362799555063,0.0008033175836317241,0.6744141578674316,0.0,-0.0,0.0,0.0,0.0,0.0
1782664010,571060875,-1.6560185591327112,0.12936115264892578,-1.5217974821673792,0.007167315576225519,0.0008153018425218761,0.6744141578674316,0.0,-0.0,0.0,0.0,0.0,0.0
1782664010,579502708,-1.6560786406146448,0.12933731079101562,-1.5218337217914026,0.007131362799555063,0.0007909588748589158,0.6744740605354309,0.0,-0.0,0.0,0.0,0.0,0.0
1782664010,587324670,-1.6560667196856897,0.1293010711669922,-1.5217974821673792,0.007119379006326199,0.0008153018425218761,0.6744381189346313,0.0,-0.0,0.0,0.0,0.0,0.0
1782664010,595070672,-1.6560547987567347,0.12932491302490234,-1.5218575636493128,0.007131362799555063,0.0008153018425218761,0.6744381189346313,0.0,-0.0,0.0,0.0,0.0,0.0
1782664010,603198495,-1.6560547987567347,0.1293492317199707,-1.5218694845782679,0.007155331317335367,0.0008153018425218761,0.6743782162666321,0.0,-0.0,0.0,0.0,0.0,0.0
1782664010,611089585,-1.6560786406146448,0.12936115264892578,-1.5218575636493128,0.007143347058445215,0.0008272860432043672,0.6744381189346313,0.0,-0.0,0.0,0.0,0.0,0.0
1782664010,619236316,-1.6560428778277796,0.1293492317199707,-1.5218575636493128,0.007119379006326199,0.0008392703020945191,0.6744261384010315,0.0,-0.0,0.0,0.0,0.0,0.0
1782664010,627072278,-1.6560667196856897,0.12937307357788086,-1.5218456427203577,0.007119379006326199,0.0007909588748589158,0.6743901968002319,0.0,-0.0,0.0,0.0,0.0,0.0
1782664010,635418225,-1.6560667196856897,0.12933731079101562,-1.5218213240252894,0.007155331317335367,0.0008272860432043672,0.6743782162666321,0.0,-0.0,0.0,0.0,0.0,0.0
1782664010,645447383,-1.6560547987567347,0.12931299209594727,-1.5217855612384241,0.007155331317335367,0.0007909588748589158,0.6743782162666321,0.0,-0.0,0.0,0.0,0.0,0.0
1782664010,659088291,-1.6560547987567347,0.12932491302490234,-1.5218094030963343,0.007107394747436047,0.0007909588748589158,0.6744740605354309,0.0,-0.0,0.0,0.0,0.0,0.0
1782664010,667078618,-1.6560905615436,0.12927722930908203,-1.5218456427203577,0.007119379006326199,0.0008153018425218761,0.6744381189346313,0.0,-0.0,0.0,0.0,0.0,0.0
1782664010,675115704,-1.6560547987567347,0.12932491302490234,-1.5218337217914026,0.007143347058445215,0.0008153018425218761,0.6744021773338318,0.0,-0.0,0.0,0.0,0.0,0.0
1782664010,683272120,-1.6560667196856897,0.12931299209594727,-1.521881405507223,0.007119379006326199,0.0008153018425218761,0.6744261384010315,0.0,-0.0,0.0,0.0,0.0,0.0
1782664010,701660558,-1.6560309568988245,0.1292891502380371,-1.5218456427203577,0.007107394747436047,0.0007789746159687638,0.6744740605354309,0.0,-0.0,0.0,0.0,0.0,0.0
1782664010,947087023,-1.6560547987567347,0.1292891502380371,-1.5218094030963343,0.007155331317335367,0.0007789746159687638,0.6744500994682312,0.0,-0.0,0.0,0.0,0.0,0.0
1782664010,955104665,-1.6560428778277796,0.12938499450683594,-1.5217974821673792,0.007143347058445215,0.0008392703020945191,0.6744141578674316,0.0,-0.0,0.0,0.0,0.0,0.0
1782664010,963118696,-1.6560667196856897,0.1293492317199707,-1.5218456427203577,0.007143347058445215,0.0008153018425218761,0.6744021773338318,0.0,-0.0,0.0,0.0,0.0,0.0
1782664010,971087728,-1.6560786406146448,0.12931299209594727,-1.5217855612384241,0.007167315576225519,0.0008153018425218761,0.6744381189346313,0.0,-0.0,0.0,0.0,0.0,0.0
1782664010,979063056,-1.656102482472555,0.12931299209594727,-1.5218337217914026,0.007107394747436047,0.0008153018425218761,0.6744381189346313,0.0,-0.0,0.0,0.0,0.0,0.0
1782664010,987106956,-1.6560786406146448,0.1292891502380371,-1.5218213240252894,0.007155331317335367,0.0008033175836317241,0.6744500994682312,0.0,-0.0,0.0,0.0,0.0,0.0
1782664010,995086747,-1.6560905615436,0.1293492317199707,-1.5218337217914026,0.007167315576225519,0.0008272860432043672,0.6744141578674316,0.0,-0.0,0.0,0.0,0.0,0.0
1782664011,3132814,-1.6560905615436,0.12931299209594727,-1.5217974821673792,0.007119379006326199,0.0008153018425218761,0.674462080001831,0.0,-0.0,0.0,0.0,0.0,0.0
1782664011,11065367,-1.6560667196856897,0.1293492317199707,-1.5218094030963343,0.007155331317335367,0.0008392703020945191,0.6744021773338318,0.0,-0.0,0.0,0.0,0.0,0.0
1782664011,19060789,-1.6560667196856897,0.12931299209594727,-1.5218213240252894,0.007167315576225519,0.0008392703020945191,0.6744381189346313,0.0,-0.0,0.0,0.0,0.0,0.0
1782664011,36643809,-1.6560309568988245,0.12932491302490234,-1.5218337217914026,0.007107394747436047,0.0008272860432043672,0.6744141578674316,0.0,-0.0,0.0,0.0,0.0,0.0
1782664011,37622133,-1.6560309568988245,0.12932491302490234,-1.5218337217914026,0.007107394747436047,0.0008272860432043672,0.6744141578674316,0.0,-0.0,0.0,0.0,0.0,0.0
1782664011,43109551,-1.6560786406146448,0.12937307357788086,-1.5218456427203577,0.007143347058445215,0.0007789746159687638,0.6744381189346313,0.0,-0.0,0.0,0.0,0.0,0.0
1782664011,56425507,-1.6560547987567347,0.12931299209594727,-1.5218456427203577,0.007107394747436047,0.0008153018425218761,0.6744381189346313,0.0,-0.0,0.0,0.0,0.0,0.0
1782664011,60622759,-1.6560667196856897,0.12936115264892578,-1.521893326436178,0.007155331317335367,0.0008392703020945191,0.6744261384010315,0.0,-0.0,0.0,0.0,0.0,0.0
1782664011,69298698,-1.6560667196856897,0.12936115264892578,-1.521893326436178,0.007155331317335367,0.0008392703020945191,0.6744261384010315,0.0,-0.0,0.0,0.0,0.0,0.0
1782664011,75365841,-1.65611440340151,0.12932491302490234,-1.5218575636493128,0.007143347058445215,0.0008392703020945191,0.6744141578674316,0.0,-0.0,0.0,0.0,0.0,0.0
1782664011,83422094,-1.6560547987567347,0.12933731079101562,-1.5218337217914026,0.007119379006326199,0.0008153018425218761,0.6744021773338318,0.0,-0.0,0.0,0.0,0.0,0.0
1782664011,91091543,-1.6560667196856897,0.12931299209594727,-1.5218456427203577,0.007119379006326199,0.0007789746159687638,0.6744261384010315,0.0,-0.0,0.0,0.0,0.0,0.0
1782664011,99112556,-1.6560428778277796,0.12931299209594727,-1.5218213240252894,0.007131362799555063,0.0007909588748589158,0.6744500994682312,0.0,-0.0,0.0,0.0,0.0,0.0
1782664011,107066257,-1.6560786406146448,0.1293010711669922,-1.5217974821673792,0.007131362799555063,0.0008272860432043672,0.6744141578674316,0.0,-0.0,0.0,0.0,0.0,0.0
1782664011,123068970,-1.6560905615436,0.1293010711669922,-1.5218094030963343,0.007143347058445215,0.0008392703020945191,0.6744261384010315,0.0,-0.0,0.0,0.0,0.0,0.0
1782664011,131068946,-1.6560428778277796,0.12933731079101562,-1.5218456427203577,0.007167315576225519,0.0007909588748589158,0.6744021773338318,0.0,-0.0,0.0,0.0,0.0,0.0
1782664011,139069035,-1.6560428778277796,0.12931299209594727,-1.5218694845782679,0.007131362799555063,0.0008153018425218761,0.6744261384010315,0.0,-0.0,0.0,0.0,0.0,0.0
1782664011,147126362,-1.65611440340151,0.1293010711669922,-1.5218337217914026,0.007191284094005823,0.0007669904152862728,0.6743901968002319,0.0,-0.0,0.0,0.0,0.0,0.0
1782664011,155147764,-1.6560905615436,0.12933731079101562,-1.5218337217914026,0.007155331317335367,0.0008512545027770102,0.674462080001831,0.0,-0.0,0.0,0.0,0.0,0.0
1782664011,163067225,-1.6560547987567347,0.12933731079101562,-1.5218094030963343,0.007155331317335367,0.0007789746159687638,0.6744381189346313,0.0,-0.0,0.0,0.0,0.0,0.0
1782664011,171078720,-1.6560428778277796,0.12936115264892578,-1.5218694845782679,0.007143347058445215,0.0007909588748589158,0.6744021773338318,0.0,-0.0,0.0,0.0,0.0,0.0
1782664011,179066864,-1.6560185591327112,0.1293492317199707,-1.5218213240252894,0.007167315576225519,0.0008153018425218761,0.6743901968002319,0.0,-0.0,0.0,0.0,0.0,0.0
1782664011,187073507,-1.6560905615436,0.1293010711669922,-1.5218575636493128,0.007119379006326199,0.0008392703020945191,0.6744500994682312,0.0,-0.0,0.0,0.0,0.0,0.0
1782664011,195143797,-1.656102482472555,0.12936115264892578,-1.5218456427203577,0.007119379006326199,0.0008392703020945191,0.6744381189346313,0.0,-0.0,0.0,0.0,0.0,0.0
1782664011,227571951,-1.6560905615436,0.12936115264892578,-1.5218337217914026,0.007131362799555063,0.0008033175836317241,0.6744261384010315,0.0,-0.0,0.0,0.0,0.0,0.0
1782664011,293050002,-1.6560905615436,0.12933731079101562,-1.5218456427203577,0.007155331317335367,0.0008512545027770102,0.6744381189346313,0.0,-0.0,0.0,0.0,0.0,0.0
1782664011,302647619,-1.6560905615436,0.1292891502380371,-1.5218456427203577,0.007143347058445215,0.0008033175836317241,0.6744261384010315,0.0,-0.0,0.0,0.0,0.0,0.0
1782664011,309904691,-1.6560428778277796,0.12932491302490234,-1.5218337217914026,0.007155331317335367,0.0007669904152862728,0.6744500994682312,0.0,-0.0,0.0,0.0,0.0,0.0
1782664011,315122247,-1.6560428778277796,0.12932491302490234,-1.5218337217914026,0.007155331317335367,0.0007669904152862728,0.6744500994682312,0.0,-0.0,0.0,0.0,0.0,0.0
1782664011,323289997,-1.6560667196856897,0.1293010711669922,-1.5218694845782679,0.007167315576225519,0.0007789746159687638,0.6743901968002319,0.0,-0.0,0.0,0.0,0.0,0.0
1782664011,337618906,-1.6560667196856897,0.12937307357788086,-1.5218213240252894,0.007143347058445215,0.0008512545027770102,0.6744141578674316,0.0,-0.0,0.0,0.0,0.0,0.0
1782664011,356670717,-1.6560547987567347,0.12937307357788086,-1.521881405507223,0.007215252611786127,0.0008512545027770102,0.6744261384010315,0.0,-0.0,0.0,0.0,0.0,0.0
1782664011,395899661,-1.6560905615436,0.1293010711669922,-1.5218575636493128,0.007155331317335367,0.0008272860432043672,0.6744500994682312,0.0,-0.0,0.0,0.0,0.0,0.0
1782664011,403151677,-1.6560667196856897,0.12931299209594727,-1.5218694845782679,0.007119379006326199,0.0008033175836317241,0.6744021773338318,0.0,-0.0,0.0,0.0,0.0,0.0
1782664011,419063022,-1.6560428778277796,0.1292891502380371,-1.5218456427203577,0.007155331317335367,0.0008153018425218761,0.6744500994682312,0.0,-0.0,0.0,0.0,0.0,0.0
1782664011,427069610,-1.6560547987567347,0.1293492317199707,-1.5218575636493128,0.007119379006326199,0.0007789746159687638,0.6744141578674316,0.0,-0.0,0.0,0.0,0.0,0.0
1782664011,439540405,-1.6560667196856897,0.12932491302490234,-1.5217974821673792,0.007167315576225519,0.0008392703020945191,0.6744381189346313,0.0,-0.0,0.0,0.0,0.0,0.0
1782664011,443944410,-1.6560667196856897,0.12932491302490234,-1.5217974821673792,0.007167315576225519,0.0008392703020945191,0.6744381189346313,0.0,-0.0,0.0,0.0,0.0,0.0
1782664011,451508029,-1.6561268011676233,0.12936115264892578,-1.5217974821673792,0.007167315576225519,0.0008392703020945191,0.6744141578674316,0.0,-0.0,0.0,0.0,0.0,0.0
1782664011,459070722,-1.6560667196856897,0.12936115264892578,-1.5218337217914026,0.007107394747436047,0.0008392703020945191,0.674462080001831,0.0,-0.0,0.0,0.0,0.0,0.0
1782664011,467389097,-1.6560786406146448,0.12931299209594727,-1.5218337217914026,0.007155331317335367,0.0008153018425218761,0.6744141578674316,0.0,-0.0,0.0,0.0,0.0,0.0
1782664011,475072064,-1.6560667196856897,0.12933731079101562,-1.5218213240252894,0.007143347058445215,0.0007789746159687638,0.6744740605354309,0.0,-0.0,0.0,0.0,0.0,0.0
1782664011,483081670,-1.6560786406146448,0.1293010711669922,-1.5218213240252894,0.007179299835115671,0.0008392703020945191,0.6744381189346313,0.0,-0.0,0.0,0.0,0.0,0.0
1782664011,491067185,-1.6560667196856897,0.12931299209594727,-1.5218337217914026,0.007155331317335367,0.0007909588748589158,0.6744261384010315,0.0,-0.0,0.0,0.0,0.0,0.0
1782664011,499062384,-1.6560309568988245,0.12933731079101562,-1.5218456427203577,0.007131362799555063,0.0008392703020945191,0.6744500994682312,0.0,-0.0,0.0,0.0,0.0,0.0
1782664011,507158914,-1.6560428778277796,0.12932491302490234,-1.5218456427203577,0.007179299835115671,0.0007909588748589158,0.6744381189346313,0.0,-0.0,0.0,0.0,0.0,0.0
1782664011,515270813,-1.6560547987567347,0.1293492317199707,-1.5218694845782679,0.007119379006326199,0.0008512545027770102,0.6744021773338318,0.0,-0.0,0.0,0.0,0.0,0.0
1782664011,523048519,-1.6560428778277796,0.1293010711669922,-1.5218575636493128,0.007119379006326199,0.0008153018425218761,0.6744740605354309,0.0,-0.0,0.0,0.0,0.0,0.0
1782664011,531115605,-1.6560428778277796,0.12932491302490234,-1.5217974821673792,0.007119379006326199,0.0008512545027770102,0.6744500994682312,0.0,-0.0,0.0,0.0,0.0,0.0
1782664011,539084416,-1.6560428778277796,0.12936115264892578,-1.5218456427203577,0.007143347058445215,0.0008153018425218761,0.6743901968002319,0.0,-0.0,0.0,0.0,0.0,0.0
1782664011,547078023,-1.6560905615436,0.1293492317199707,-1.5218575636493128,0.007143347058445215,0.0008272860432043672,0.6743901968002319,0.0,-0.0,0.0,0.0,0.0,0.0
1782664011,555087351,-1.6560905615436,0.1293010711669922,-1.5218456427203577,0.007155331317335367,0.0008272860432043672,0.6744141578674316,0.0,-0.0,0.0,0.0,0.0,0.0
1782664011,563112865,-1.6561268011676233,0.12933731079101562,-1.5217974821673792,0.007095410488545895,0.0007909588748589158,0.6744500994682312,0.0,-0.0,0.0,0.0,0.0,0.0
1782664011,571409074,-1.6560547987567347,0.12931299209594727,-1.5218694845782679,0.007119379006326199,0.0008033175836317241,0.6744381189346313,0.0,-0.0,0.0,0.0,0.0,0.0
1782664011,579077856,-1.6560428778277796,0.12931299209594727,-1.5218094030963343,0.007131362799555063,0.0007789746159687638,0.6744381189346313,0.0,-0.0,0.0,0.0,0.0,0.0
1782664011,589258883,-1.65611440340151,0.12933731079101562,-1.5218456427203577,0.007131362799555063,0.0008153018425218761,0.6743901968002319,0.0,-0.0,0.0,0.0,0.0,0.0
1782664011,596066745,-1.65611440340151,0.12933731079101562,-1.5218456427203577,0.007131362799555063,0.0008153018425218761,0.6743901968002319,0.0,-0.0,0.0,0.0,0.0,0.0
1782664011,603516552,-1.6560667196856897,0.12933731079101562,-1.5218337217914026,0.007107394747436047,0.0007789746159687638,0.6744141578674316,0.0,-0.0,0.0,0.0,0.0,0.0
1782664011,615401030,-1.65611440340151,0.12933731079101562,-1.5218337217914026,0.007167315576225519,0.0008392703020945191,0.6744500994682312,0.0,-0.0,0.0,0.0,0.0,0.0
1782664011,623397878,-1.6560786406146448,0.1292891502380371,-1.5218694845782679,0.007119379006326199,0.0008272860432043672,0.6744381189346313,0.0,-0.0,0.0,0.0,0.0,0.0
1782664011,635405556,-1.6560667196856897,0.12931299209594727,-1.5218456427203577,0.007155331317335367,0.0008392703020945191,0.6744740605354309,0.0,-0.0,0.0,0.0,0.0,0.0
1782664011,636403564,-1.6560667196856897,0.12931299209594727,-1.5218456427203577,0.007155331317335367,0.0008392703020945191,0.6744740605354309,0.0,-0.0,0.0,0.0,0.0,0.0
1782664011,643208890,-1.6560667196856897,0.12931299209594727,-1.5218456427203577,0.007155331317335367,0.0008392703020945191,0.6744740605354309,0.0,-0.0,0.0,0.0,0.0,0.0
1782664011,652561643,-1.6560547987567347,0.12931299209594727,-1.5218213240252894,0.007155331317335367,0.0007669904152862728,0.6744381189346313,0.0,-0.0,0.0,0.0,0.0,0.0
1782664011,663084252,-1.6560547987567347,0.12931299209594727,-1.5218213240252894,0.007155331317335367,0.0007669904152862728,0.6744381189346313,0.0,-0.0,0.0,0.0,0.0,0.0
1782664011,667402519,-1.6560786406146448,0.12933731079101562,-1.5217974821673792,0.007131362799555063,0.0008153018425218761,0.6743901968002319,0.0,-0.0,0.0,0.0,0.0,0.0
1782664011,677239833,-1.6560547987567347,0.12931299209594727,-1.5218575636493128,0.007191284094005823,0.0008272860432043672,0.6744381189346313,0.0,-0.0,0.0,0.0,0.0,0.0
1782664011,691404542,-1.6560309568988245,0.12937307357788086,-1.5218337217914026,0.007155331317335367,0.0008392703020945191,0.6744381189346313,0.0,-0.0,0.0,0.0,0.0,0.0
1782664011,692232648,-1.6560309568988245,0.12937307357788086,-1.5218337217914026,0.007155331317335367,0.0008392703020945191,0.6744381189346313,0.0,-0.0,0.0,0.0,0.0,0.0
1782664011,699201729,-1.6560786406146448,0.12933731079101562,-1.5218094030963343,0.007167315576225519,0.0008033175836317241,0.6744500994682312,0.0,-0.0,0.0,0.0,0.0,0.0
1782664011,707482012,-1.6560905615436,0.1293010711669922,-1.5218094030963343,0.007107394747436047,0.0007909588748589158,0.6744740605354309,0.0,-0.0,0.0,0.0,0.0,0.0
1782664011,723398913,-1.6560786406146448,0.12931299209594727,-1.5218456427203577,0.007179299835115671,0.0008512545027770102,0.6744141578674316,0.0,-0.0,0.0,0.0,0.0,0.0
1782664011,731348002,-1.6560786406146448,0.12931299209594727,-1.5218456427203577,0.007179299835115671,0.0008512545027770102,0.6744141578674316,0.0,-0.0,0.0,0.0,0.0,0.0
1782664011,732150165,-1.6560786406146448,0.1293010711669922,-1.521893326436178,0.007167315576225519,0.0008392703020945191,0.6744740605354309,0.0,-0.0,0.0,0.0,0.0,0.0
1782664011,747399695,-1.6560428778277796,0.12937307357788086,-1.5218213240252894,0.007119379006326199,0.0007789746159687638,0.6744021773338318,0.0,-0.0,0.0,0.0,0.0,0.0
1782664011,751344843,-1.6560428778277796,0.12937307357788086,-1.5218213240252894,0.007119379006326199,0.0007789746159687638,0.6744021773338318,0.0,-0.0,0.0,0.0,0.0,0.0
1782664011,758851315,-1.6560547987567347,0.1292891502380371,-1.5218575636493128,0.007131362799555063,0.0007789746159687638,0.6744141578674316,0.0,-0.0,0.0,0.0,0.0,0.0
1782664011,764581060,-1.6560667196856897,0.12933731079101562,-1.5218094030963343,0.007155331317335367,0.0008153018425218761,0.6744261384010315,0.0,-0.0,0.0,0.0,0.0,0.0
1782664011,779403492,-1.6560428778277796,0.12932491302490234,-1.5218575636493128,0.007095410488545895,0.0007789746159687638,0.6744500994682312,0.0,-0.0,0.0,0.0,0.0,0.0
1782664011,787345526,-1.6560428778277796,0.12932491302490234,-1.5218575636493128,0.007095410488545895,0.0007789746159687638,0.6744500994682312,0.0,-0.0,0.0,0.0,0.0,0.0
1782664011,801969222,-1.656102482472555,0.1293492317199707,-1.521881405507223,0.007131362799555063,0.0007909588748589158,0.6744021773338318,0.0,-0.0,0.0,0.0,0.0,0.0
1782664011,809969940,-1.6560547987567347,0.12937307357788086,-1.5218337217914026,0.007167315576225519,0.0008033175836317241,0.6743901968002319,0.0,-0.0,0.0,0.0,0.0,0.0
1782664011,815772146,-1.6560547987567347,0.12937307357788086,-1.5218337217914026,0.007167315576225519,0.0008033175836317241,0.6743901968002319,0.0,-0.0,0.0,0.0,0.0,0.0
1782664011,822527510,-1.6560786406146448,0.12937307357788086,-1.5218337217914026,0.007131362799555063,0.0008272860432043672,0.6744740605354309,0.0,-0.0,0.0,0.0,0.0,0.0
1782664011,831475627,-1.6560786406146448,0.1293010711669922,-1.5218337217914026,0.007107394747436047,0.0007789746159687638,0.6744740605354309,0.0,-0.0,0.0,0.0,0.0,0.0
1782664011,835443255,-1.6560786406146448,0.1293492317199707,-1.5218337217914026,0.007131362799555063,0.0008033175836317241,0.6744500994682312,0.0,-0.0,0.0,0.0,0.0,0.0
1782664011,843635097,-1.656102482472555,0.12932491302490234,-1.5217974821673792,0.007167315576225519,0.0008033175836317241,0.6744021773338318,0.0,-0.0,0.0,0.0,0.0,0.0
1782664011,851442468,-1.6560667196856897,0.12937307357788086,-1.5218575636493128,0.007107394747436047,0.0007789746159687638,0.6744381189346313,0.0,-0.0,0.0,0.0,0.0,0.0
1782664011,859204711,-1.6560667196856897,0.12937307357788086,-1.5218575636493128,0.007107394747436047,0.0007789746159687638,0.6744381189346313,0.0,-0.0,0.0,0.0,0.0,0.0
1782664011,867091061,-1.6560905615436,0.12932491302490234,-1.5218337217914026,0.007167315576225519,0.0008153018425218761,0.6744500994682312,0.0,-0.0,0.0,0.0,0.0,0.0
1782664011,876353058,-1.6560905615436,0.12932491302490234,-1.5218575636493128,0.007131362799555063,0.0008512545027770102,0.674462080001831,0.0,-0.0,0.0,0.0,0.0,0.0
1782664011,884638897,-1.6560905615436,0.12932491302490234,-1.5218575636493128,0.007131362799555063,0.0008512545027770102,0.674462080001831,0.0,-0.0,0.0,0.0,0.0,0.0
1782664011,891225562,-1.6560905615436,0.12932491302490234,-1.5218575636493128,0.007131362799555063,0.0008512545027770102,0.674462080001831,0.0,-0.0,0.0,0.0,0.0,0.0
1782664011,899120487,-1.6560905615436,0.12932491302490234,-1.5218575636493128,0.007131362799555063,0.0008512545027770102,0.674462080001831,0.0,-0.0,0.0,0.0,0.0,0.0
1782664011,907222942,-1.6560667196856897,0.12936115264892578,-1.5218337217914026,0.007119379006326199,0.0008153018425218761,0.6743782162666321,0.0,-0.0,0.0,0.0,0.0,0.0
1782664011,915068590,-1.656102482472555,0.12931299209594727,-1.5218575636493128,0.007191284094005823,0.0008033175836317241,0.6744141578674316,0.0,-0.0,0.0,0.0,0.0,0.0
1782664011,923107121,-1.656102482472555,0.1293492317199707,-1.5218337217914026,0.007095410488545895,0.0008512545027770102,0.6744261384010315,0.0,-0.0,0.0,0.0,0.0,0.0
1782664011,931074599,-1.6560547987567347,0.12927722930908203,-1.5218213240252894,0.007155331317335367,0.0008272860432043672,0.6744381189346313,0.0,-0.0,0.0,0.0,0.0,0.0
1782664011,939089428,-1.6560905615436,0.12936115264892578,-1.5218094030963343,0.007131362799555063,0.0008153018425218761,0.6744381189346313,0.0,-0.0,0.0,0.0,0.0,0.0
1782664011,947133570,-1.656102482472555,0.12937307357788086,-1.5218337217914026,0.007155331317335367,0.0007909588748589158,0.6743901968002319,0.0,-0.0,0.0,0.0,0.0,0.0
1782664011,955224766,-1.6560786406146448,0.12936115264892578,-1.5218094030963343,0.007191284094005823,0.0008033175836317241,0.6744021773338318,0.0,-0.0,0.0,0.0,0.0,0.0
1782664011,963074544,-1.6560786406146448,0.12936115264892578,-1.5217974821673792,0.007119379006326199,0.0008153018425218761,0.6744740605354309,0.0,-0.0,0.0,0.0,0.0,0.0
1782664011,971147019,-1.6560428778277796,0.1293492317199707,-1.5217974821673792,0.007155331317335367,0.0008272860432043672,0.6744381189346313,0.0,-0.0,0.0,0.0,0.0,0.0
1782664011,979079423,-1.65611440340151,0.12932491302490234,-1.5218456427203577,0.007143347058445215,0.0008153018425218761,0.6744500994682312,0.0,-0.0,0.0,0.0,0.0,0.0
1782664011,987068419,-1.6560547987567347,0.12932491302490234,-1.5218213240252894,0.007167315576225519,0.0008033175836317241,0.6743782162666321,0.0,-0.0,0.0,0.0,0.0,0.0
1782664011,995070563,-1.6560309568988245,0.12936115264892578,-1.5217974821673792,0.007143347058445215,0.0008272860432043672,0.6744021773338318,0.0,-0.0,0.0,0.0,0.0,0.0
1782664012,3150686,-1.6560547987567347,0.12933731079101562,-1.5218337217914026,0.007143347058445215,0.0007909588748589158,0.674462080001831,0.0,-0.0,0.0,0.0,0.0,0.0
1782664012,11075629,-1.6560786406146448,0.12936115264892578,-1.5218213240252894,0.007155331317335367,0.0007909588748589158,0.6744500994682312,0.0,-0.0,0.0,0.0,0.0,0.0
1782664012,19153642,-1.6560428778277796,0.1293010711669922,-1.5218694845782679,0.007167315576225519,0.0008153018425218761,0.6744261384010315,0.0,-0.0,0.0,0.0,0.0,0.0
1782664012,27069326,-1.6560185591327112,0.12932491302490234,-1.5217855612384241,0.007179299835115671,0.0007909588748589158,0.6744261384010315,0.0,-0.0,0.0,0.0,0.0,0.0
1782664012,35070823,-1.6560905615436,0.12932491302490234,-1.5218337217914026,0.007179299835115671,0.0008153018425218761,0.6744141578674316,0.0,-0.0,0.0,0.0,0.0,0.0
1782664012,43064764,-1.6560667196856897,0.1293492317199707,-1.5218456427203577,0.007107394747436047,0.0007909588748589158,0.6744261384010315,0.0,-0.0,0.0,0.0,0.0,0.0
1782664012,51071761,-1.6560667196856897,0.12932491302490234,-1.5218575636493128,0.007155331317335367,0.0008512545027770102,0.6744381189346313,0.0,-0.0,0.0,0.0,0.0,0.0
1782664012,59189643,-1.6560786406146448,0.12932491302490234,-1.521881405507223,0.007155331317335367,0.0007789746159687638,0.6744500994682312,0.0,-0.0,0.0,0.0,0.0,0.0
1782664012,67038755,-1.6560786406146448,0.12936115264892578,-1.5218213240252894,0.007131362799555063,0.0008632387034595013,0.6743901968002319,0.0,-0.0,0.0,0.0,0.0,0.0
1782664012,75071454,-1.6560309568988245,0.12936115264892578,-1.5218456427203577,0.007167315576225519,0.0008272860432043672,0.6744381189346313,0.0,-0.0,0.0,0.0,0.0,0.0
1782664012,83071340,-1.6560547987567347,0.12933731079101562,-1.5218456427203577,0.007167315576225519,0.0007909588748589158,0.6743901968002319,0.0,-0.0,0.0,0.0,0.0,0.0
1782664012,91075411,-1.6560309568988245,0.12936115264892578,-1.5218213240252894,0.007131362799555063,0.0008153018425218761,0.6744381189346313,0.0,-0.0,0.0,0.0,0.0,0.0
1782664012,99068556,-1.6560667196856897,0.12931299209594727,-1.5218337217914026,0.007167315576225519,0.0007909588748589158,0.6744261384010315,0.0,-0.0,0.0,0.0,0.0,0.0
1782664012,107061293,-1.6560905615436,0.12933731079101562,-1.5218337217914026,0.007131362799555063,0.0008272860432043672,0.6744860410690308,0.0,-0.0,0.0,0.0,0.0,0.0
1782664012,115059049,-1.6560667196856897,0.12932491302490234,-1.5218456427203577,0.007095410488545895,0.0008033175836317241,0.6744021773338318,0.0,-0.0,0.0,0.0,0.0,0.0
1782664012,123066620,-1.6560786406146448,0.1293492317199707,-1.5218337217914026,0.007155331317335367,0.0008752229623496532,0.6743901968002319,0.0,-0.0,0.0,0.0,0.0,0.0
1782664012,131074413,-1.656102482472555,0.12931299209594727,-1.5218213240252894,0.007167315576225519,0.0008153018425218761,0.6744500994682312,0.0,-0.0,0.0,0.0,0.0,0.0
1782664012,139081613,-1.6560428778277796,0.12933731079101562,-1.5218213240252894,0.007095410488545895,0.0008272860432043672,0.6744381189346313,0.0,-0.0,0.0,0.0,0.0,0.0
1782664012,147069073,-1.6560667196856897,0.12933731079101562,-1.5218094030963343,0.007119379006326199,0.0008512545027770102,0.6744261384010315,0.0,-0.0,0.0,0.0,0.0,0.0
1782664012,155164234,-1.6560428778277796,0.1293492317199707,-1.5218337217914026,0.007143347058445215,0.0008033175836317241,0.6744021773338318,0.0,-0.0,0.0,0.0,0.0,0.0
1782664012,163127546,-1.65611440340151,0.1293010711669922,-1.5217974821673792,0.007167315576225519,0.0008392703020945191,0.6744141578674316,0.0,-0.0,0.0,0.0,0.0,0.0
1782664012,171120525,-1.6560309568988245,0.12936115264892578,-1.5218575636493128,0.007107394747436047,0.0008392703020945191,0.6744141578674316,0.0,-0.0,0.0,0.0,0.0,0.0
1782664012,179059245,-1.6560667196856897,0.1293010711669922,-1.5218094030963343,0.007167315576225519,0.0008153018425218761,0.6744261384010315,0.0,-0.0,0.0,0.0,0.0,0.0
1782664012,187038465,-1.656102482472555,0.1293010711669922,-1.5218094030963343,0.007131362799555063,0.0007789746159687638,0.6743901968002319,0.0,-0.0,0.0,0.0,0.0,0.0
1782664012,195081979,-1.6560547987567347,0.12932491302490234,-1.5218094030963343,0.007119379006326199,0.0008392703020945191,0.6743782162666321,0.0,-0.0,0.0,0.0,0.0,0.0
1782664012,203058865,-1.6560547987567347,0.12931299209594727,-1.5218213240252894,0.007191284094005823,0.0007909588748589158,0.6744381189346313,0.0,-0.0,0.0,0.0,0.0,0.0
1782664012,211085639,-1.6560667196856897,0.12931299209594727,-1.5218575636493128,0.007131362799555063,0.0008153018425218761,0.674462080001831,0.0,-0.0,0.0,0.0,0.0,0.0
1782664012,219062766,-1.6560667196856897,0.12932491302490234,-1.5218337217914026,0.007155331317335367,0.0008512545027770102,0.6744141578674316,0.0,-0.0,0.0,0.0,0.0,0.0
1782664012,227067374,-1.6560547987567347,0.12933731079101562,-1.5218456427203577,0.007143347058445215,0.0008153018425218761,0.6744381189346313,0.0,-0.0,0.0,0.0,0.0,0.0
1782664012,235062111,-1.6561268011676233,0.12932491302490234,-1.521881405507223,0.007131362799555063,0.0008392703020945191,0.6744740605354309,0.0,-0.0,0.0,0.0,0.0,0.0
1782664012,243109199,-1.6560905615436,0.12933731079101562,-1.5218094030963343,0.007143347058445215,0.0008033175836317241,0.6744381189346313,0.0,-0.0,0.0,0.0,0.0,0.0
1782664012,251078363,-1.6560786406146448,0.12933731079101562,-1.5218337217914026,0.007131362799555063,0.0008153018425218761,0.6744141578674316,0.0,-0.0,0.0,0.0,0.0,0.0
1782664012,259067157,-1.6560547987567347,0.1292891502380371,-1.521905247365133,0.007143347058445215,0.0008392703020945191,0.674462080001831,0.0,-0.0,0.0,0.0,0.0,0.0
1782664012,267114837,-1.6560547987567347,0.12931299209594727,-1.5218337217914026,0.007131362799555063,0.0007909588748589158,0.6744141578674316,0.0,-0.0,0.0,0.0,0.0,0.0
1782664012,275080465,-1.6560185591327112,0.1293492317199707,-1.5218456427203577,0.007131362799555063,0.0008153018425218761,0.6744141578674316,0.0,-0.0,0.0,0.0,0.0,0.0
1782664012,283026389,-1.6560786406146448,0.1293010711669922,-1.5218575636493128,0.007167315576225519,0.0007909588748589158,0.6744500994682312,0.0,-0.0,0.0,0.0,0.0,0.0
1782664012,291032219,-1.6560667196856897,0.12933731079101562,-1.5218213240252894,0.007143347058445215,0.0008272860432043672,0.6744141578674316,0.0,-0.0,0.0,0.0,0.0,0.0
1782664012,299067788,-1.6560786406146448,0.12931299209594727,-1.5218337217914026,0.007143347058445215,0.0008033175836317241,0.6744381189346313,0.0,-0.0,0.0,0.0,0.0,0.0
1782664012,307042786,-1.656102482472555,0.12933731079101562,-1.5218575636493128,0.007083426229655743,0.0008272860432043672,0.6743901968002319,0.0,-0.0,0.0,0.0,0.0,0.0
1782664012,315043838,-1.6560309568988245,0.12933731079101562,-1.5217974821673792,0.007167315576225519,0.0008272860432043672,0.6744740605354309,0.0,-0.0,0.0,0.0,0.0,0.0
1782664012,323058001,-1.6560547987567347,0.1293010711669922,-1.5218213240252894,0.007095410488545895,0.0007909588748589158,0.6744141578674316,0.0,-0.0,0.0,0.0,0.0,0.0
1782664012,331122033,-1.65611440340151,0.12936115264892578,-1.5218094030963343,0.007155331317335367,0.0008392703020945191,0.6744381189346313,0.0,-0.0,0.0,0.0,0.0,0.0
1782664012,339061661,-1.656102482472555,0.1293010711669922,-1.5218213240252894,0.007143347058445215,0.0007669904152862728,0.6744381189346313,0.0,-0.0,0.0,0.0,0.0,0.0
1782664012,347091064,-1.656102482472555,0.1293492317199707,-1.5218456427203577,0.007119379006326199,0.0007669904152862728,0.6744381189346313,0.0,-0.0,0.0,0.0,0.0,0.0
1782664012,355087376,-1.6560309568988245,0.1293492317199707,-1.5218456427203577,0.007119379006326199,0.0007909588748589158,0.6744021773338318,0.0,-0.0,0.0,0.0,0.0,0.0
1782664012,363604154,-1.6560309568988245,0.12933731079101562,-1.5218694845782679,0.007167315576225519,0.0008392703020945191,0.6743901968002319,0.0,-0.0,0.0,0.0,0.0,0.0
1782664012,371090851,-1.6560905615436,0.12937307357788086,-1.5218213240252894,0.007131362799555063,0.0008153018425218761,0.6744141578674316,0.0,-0.0,0.0,0.0,0.0,0.0
1782664012,379067126,-1.6560066382037562,0.12931299209594727,-1.5218456427203577,0.007143347058445215,0.0008632387034595013,0.6744261384010315,0.0,-0.0,0.0,0.0,0.0,0.0
1782664012,387071104,-1.6560428778277796,0.12936115264892578,-1.5217855612384241,0.007155331317335367,0.0008272860432043672,0.6744381189346313,0.0,-0.0,0.0,0.0,0.0,0.0
1782664012,395080915,-1.6560786406146448,0.12936115264892578,-1.5218213240252894,0.007143347058445215,0.0008153018425218761,0.6744500994682312,0.0,-0.0,0.0,0.0,0.0,0.0
1782664012,403147447,-1.6560547987567347,0.12938499450683594,-1.5218337217914026,0.007143347058445215,0.0008512545027770102,0.674462080001831,0.0,-0.0,0.0,0.0,0.0,0.0
1782664012,411078872,-1.6560547987567347,0.1292891502380371,-1.5218213240252894,0.007119379006326199,0.0008392703020945191,0.6744141578674316,0.0,-0.0,0.0,0.0,0.0,0.0
1782664012,419189347,-1.6560547987567347,0.1292891502380371,-1.5218213240252894,0.007119379006326199,0.0008392703020945191,0.6744141578674316,0.0,-0.0,0.0,0.0,0.0,0.0
1782664012,427077365,-1.6560667196856897,0.12937307357788086,-1.5218213240252894,0.007143347058445215,0.0007909588748589158,0.6744021773338318,0.0,-0.0,0.0,0.0,0.0,0.0
1782664012,435139823,-1.6560667196856897,0.12937307357788086,-1.5218213240252894,0.007143347058445215,0.0007909588748589158,0.6744021773338318,0.0,-0.0,0.0,0.0,0.0,0.0
1782664012,443120487,-1.6561387220965784,0.12931299209594727,-1.5218694845782679,0.007143347058445215,0.0008392703020945191,0.6744381189346313,0.0,-0.0,0.0,0.0,0.0,0.0
1782664012,459063649,-1.6560905615436,0.1293492317199707,-1.5218337217914026,0.007155331317335367,0.0008392703020945191,0.6744021773338318,0.0,-0.0,0.0,0.0,0.0,0.0
1782664012,467110477,-1.6560667196856897,0.12932491302490234,-1.5218094030963343,0.007119379006326199,0.0008153018425218761,0.6744141578674316,0.0,-0.0,0.0,0.0,0.0,0.0
1782664012,485138691,-1.656102482472555,0.1292891502380371,-1.5218094030963343,0.007155331317335367,0.0008392703020945191,0.6744740605354309,0.0,-0.0,0.0,0.0,0.0,0.0
1782664012,491145911,-1.656102482472555,0.1292891502380371,-1.5218094030963343,0.007155331317335367,0.0008392703020945191,0.6744740605354309,0.0,-0.0,0.0,0.0,0.0,0.0
1782664012,499093613,-1.656102482472555,0.12932491302490234,-1.5218213240252894,0.007191284094005823,0.0008153018425218761,0.674462080001831,0.0,-0.0,0.0,0.0,0.0,0.0
1782664012,507120201,-1.6560905615436,0.12938499450683594,-1.5218213240252894,0.007191284094005823,0.0008033175836317241,0.674462080001831,0.0,-0.0,0.0,0.0,0.0,0.0
1782664012,515065681,-1.6560547987567347,0.12936115264892578,-1.5218456427203577,0.007155331317335367,0.0008033175836317241,0.6744261384010315,0.0,-0.0,0.0,0.0,0.0,0.0
1782664012,523209766,-1.656102482472555,0.12933731079101562,-1.5218575636493128,0.007167315576225519,0.0008153018425218761,0.6744261384010315,0.0,-0.0,0.0,0.0,0.0,0.0
1782664012,531258632,-1.656102482472555,0.12937307357788086,-1.5218213240252894,0.007191284094005823,0.0008153018425218761,0.6744021773338318,0.0,-0.0,0.0,0.0,0.0,0.0
1782664012,539157243,-1.6560786406146448,0.12936115264892578,-1.5218094030963343,0.007107394747436047,0.0008392703020945191,0.6744381189346313,0.0,-0.0,0.0,0.0,0.0,0.0
1782664012,550432184,-1.656102482472555,0.12937307357788086,-1.5218213240252894,0.007155331317335367,0.0008272860432043672,0.6744261384010315,0.0,-0.0,0.0,0.0,0.0,0.0
1782664012,560636508,-1.6560905615436,0.1293492317199707,-1.5218694845782679,0.007179299835115671,0.0008272860432043672,0.6744021773338318,0.0,-0.0,0.0,0.0,0.0,0.0
1782664012,571110675,-1.6560547987567347,0.1293010711669922,-1.5218337217914026,0.007107394747436047,0.0008632387034595013,0.6744860410690308,0.0,-0.0,0.0,0.0,0.0,0.0
1782664012,581170799,-1.6560667196856897,0.12932491302490234,-1.5218575636493128,0.007143347058445215,0.0008512545027770102,0.6744500994682312,0.0,-0.0,0.0,0.0,0.0,0.0
1782664012,587207796,-1.6560667196856897,0.12932491302490234,-1.5218575636493128,0.007143347058445215,0.0008512545027770102,0.6744500994682312,0.0,-0.0,0.0,0.0,0.0,0.0
1782664012,595067019,-1.6560547987567347,0.12931299209594727,-1.5218456427203577,0.007107394747436047,0.0008153018425218761,0.674462080001831,0.0,-0.0,0.0,0.0,0.0,0.0
1782664012,619076434,-1.6560905615436,0.12933731079101562,-1.5218575636493128,0.007143347058445215,0.0008512545027770102,0.6744500994682312,0.0,-0.0,0.0,0.0,0.0,0.0
1782664012,643067536,-1.6560786406146448,0.12933731079101562,-1.5218337217914026,0.007131362799555063,0.0008153018425218761,0.6744261384010315,0.0,-0.0,0.0,0.0,0.0,0.0
1782664012,651075051,-1.6560786406146448,0.12931299209594727,-1.5218694845782679,0.007155331317335367,0.0008272860432043672,0.674462080001831,0.0,-0.0,0.0,0.0,0.0,0.0
1782664012,659102139,-1.6560667196856897,0.1293492317199707,-1.5218575636493128,0.007155331317335367,0.0007909588748589158,0.6744381189346313,0.0,-0.0,0.0,0.0,0.0,0.0
1782664012,668077812,-1.6560786406146448,0.12931299209594727,-1.5217974821673792,0.007095410488545895,0.0008033175836317241,0.6744500994682312,0.0,-0.0,0.0,0.0,0.0,0.0
1782664012,675079245,-1.6560786406146448,0.12927722930908203,-1.5217974821673792,0.007155331317335367,0.0008392703020945191,0.6743901968002319,0.0,-0.0,0.0,0.0,0.0,0.0
1782664012,683073723,-1.6560667196856897,0.12937307357788086,-1.5218337217914026,0.007203268352895975,0.0008272860432043672,0.6744261384010315,0.0,-0.0,0.0,0.0,0.0,0.0
1782664012,691088793,-1.6560786406146448,0.12936115264892578,-1.5218094030963343,0.007107394747436047,0.0007909588748589158,0.6744381189346313,0.0,-0.0,0.0,0.0,0.0,0.0
1782664012,699075550,-1.6560547987567347,0.1293492317199707,-1.5218456427203577,0.007191284094005823,0.0008033175836317241,0.6744021773338318,0.0,-0.0,0.0,0.0,0.0,0.0
1782664012,707526256,-1.6560547987567347,0.12937307357788086,-1.5218575636493128,0.007143347058445215,0.0008033175836317241,0.6743901968002319,0.0,-0.0,0.0,0.0,0.0,0.0
1782664012,718057940,-1.6560667196856897,0.12933731079101562,-1.5218337217914026,0.007107394747436047,0.0008033175836317241,0.6744381189346313,0.0,-0.0,0.0,0.0,0.0,0.0
1782664012,723986181,-1.6560667196856897,0.12933731079101562,-1.5218337217914026,0.007107394747436047,0.0008033175836317241,0.6744381189346313,0.0,-0.0,0.0,0.0,0.0,0.0
1782664012,731385824,-1.6560547987567347,0.12931299209594727,-1.5217974821673792,0.007191284094005823,0.0008392703020945191,0.6744740605354309,0.0,-0.0,0.0,0.0,0.0,0.0
1782664012,739091570,-1.6560905615436,0.12938499450683594,-1.5218213240252894,0.007131362799555063,0.0008512545027770102,0.674462080001831,0.0,-0.0,0.0,0.0,0.0,0.0
1782664012,747198952,-1.6560309568988245,0.12931299209594727,-1.5217855612384241,0.007167315576225519,0.0008153018425218761,0.6744381189346313,0.0,-0.0,0.0,0.0,0.0,0.0
1782664012,755126192,-1.6560905615436,0.12932491302490234,-1.5218456427203577,0.007155331317335367,0.0008033175836317241,0.6744381189346313,0.0,-0.0,0.0,0.0,0.0,0.0
1782664012,763085764,-1.6560905615436,0.1293492317199707,-1.5218213240252894,0.007095410488545895,0.0007789746159687638,0.6744021773338318,0.0,-0.0,0.0,0.0,0.0,0.0
1782664012,771082298,-1.6560428778277796,0.1293492317199707,-1.5217974821673792,0.007167315576225519,0.0008512545027770102,0.6744740605354309,0.0,-0.0,0.0,0.0,0.0,0.0
1782664012,779065276,-1.6560428778277796,0.12936115264892578,-1.5218337217914026,0.007167315576225519,0.0008272860432043672,0.6744500994682312,0.0,-0.0,0.0,0.0,0.0,0.0
1782664012,787070384,-1.6560905615436,0.12937307357788086,-1.5218575636493128,0.007119379006326199,0.0007909588748589158,0.6744500994682312,0.0,-0.0,0.0,0.0,0.0,0.0
1782664012,795066010,-1.6560667196856897,0.1293492317199707,-1.521881405507223,0.007155331317335367,0.0008033175836317241,0.6744381189346313,0.0,-0.0,0.0,0.0,0.0,0.0
1782664012,803094617,-1.6560786406146448,0.12933731079101562,-1.521893326436178,0.007167315576225519,0.0007669904152862728,0.6744381189346313,0.0,-0.0,0.0,0.0,0.0,0.0
1782664012,811071578,-1.6560547987567347,0.12931299209594727,-1.5218213240252894,0.007131362799555063,0.0007909588748589158,0.6744261384010315,0.0,-0.0,0.0,0.0,0.0,0.0
1782664012,819105814,-1.6560428778277796,0.12936115264892578,-1.5217974821673792,0.007143347058445215,0.0008033175836317241,0.6744021773338318,0.0,-0.0,0.0,0.0,0.0,0.0
1782664012,827066257,-1.6560547987567347,0.12937307357788086,-1.5218213240252894,0.007179299835115671,0.0008512545027770102,0.6743901968002319,0.0,-0.0,0.0,0.0,0.0,0.0
1782664012,835062272,-1.6560428778277796,0.1293492317199707,-1.5218337217914026,0.007167315576225519,0.0007669904152862728,0.6744141578674316,0.0,-0.0,0.0,0.0,0.0,0.0
1782664012,843065509,-1.6560786406146448,0.12932491302490234,-1.5218456427203577,0.007155331317335367,0.0008512545027770102,0.6744500994682312,0.0,-0.0,0.0,0.0,0.0,0.0
1782664012,851065136,-1.6560667196856897,0.12931299209594727,-1.5218575636493128,0.007119379006326199,0.0008153018425218761,0.674462080001831,0.0,-0.0,0.0,0.0,0.0,0.0
1782664012,859082280,-1.6560786406146448,0.12931299209594727,-1.5218456427203577,0.007155331317335367,0.0007909588748589158,0.6744261384010315,0.0,-0.0,0.0,0.0,0.0,0.0
1782664012,867142701,-1.656102482472555,0.12937307357788086,-1.5217974821673792,0.007143347058445215,0.0008153018425218761,0.6744261384010315,0.0,-0.0,0.0,0.0,0.0,0.0
1782664012,875138050,-1.65611440340151,0.12931299209594727,-1.5218213240252894,0.007203268352895975,0.0008033175836317241,0.674462080001831,0.0,-0.0,0.0,0.0,0.0,0.0
1782664012,883120195,-1.6560547987567347,0.12933731079101562,-1.5218694845782679,0.007119379006326199,0.0008153018425218761,0.6744261384010315,0.0,-0.0,0.0,0.0,0.0,0.0
1782664012,891084267,-1.6560428778277796,0.12932491302490234,-1.5218337217914026,0.007155331317335367,0.0008272860432043672,0.6744141578674316,0.0,-0.0,0.0,0.0,0.0,0.0
1782664012,899201408,-1.6560786406146448,0.12937307357788086,-1.5218575636493128,0.007155331317335367,0.0008033175836317241,0.6744980216026306,0.0,-0.0,0.0,0.0,0.0,0.0
1782664012,907065946,-1.65611440340151,0.12932491302490234,-1.5218694845782679,0.007155331317335367,0.0008033175836317241,0.6744381189346313,0.0,-0.0,0.0,0.0,0.0,0.0
1782664012,915065183,-1.6560547987567347,0.1293492317199707,-1.5218456427203577,0.007167315576225519,0.0008392703020945191,0.6744261384010315,0.0,-0.0,0.0,0.0,0.0,0.0
1782664012,923033625,-1.6560786406146448,0.1293010711669922,-1.5218337217914026,0.007131362799555063,0.0008512545027770102,0.6744141578674316,0.0,-0.0,0.0,0.0,0.0,0.0
1782664012,931114953,-1.6560786406146448,0.12932491302490234,-1.5218456427203577,0.007143347058445215,0.0008272860432043672,0.6744021773338318,0.0,-0.0,0.0,0.0,0.0,0.0
1782664012,939099506,-1.6560667196856897,0.12926530838012695,-1.5218213240252894,0.007131362799555063,0.0008272860432043672,0.6744381189346313,0.0,-0.0,0.0,0.0,0.0,0.0
1782664012,947076151,-1.6560667196856897,0.12931299209594727,-1.5218213240252894,0.007131362799555063,0.0007789746159687638,0.6743901968002319,0.0,-0.0,0.0,0.0,0.0,0.0
1782664012,955064574,-1.6560547987567347,0.12932491302490234,-1.521893326436178,0.007143347058445215,0.0007909588748589158,0.6743901968002319,0.0,-0.0,0.0,0.0,0.0,0.0
1782664012,963065793,-1.6560786406146448,0.12932491302490234,-1.5218213240252894,0.007155331317335367,0.0008632387034595013,0.6744740605354309,0.0,-0.0,0.0,0.0,0.0,0.0
1782664012,971021921,-1.6560786406146448,0.12937307357788086,-1.5218456427203577,0.007167315576225519,0.0008392703020945191,0.6744261384010315,0.0,-0.0,0.0,0.0,0.0,0.0
1782664012,979065879,-1.6560667196856897,0.12933731079101562,-1.5218694845782679,0.007179299835115671,0.0008153018425218761,0.6744021773338318,0.0,-0.0,0.0,0.0,0.0,0.0
1782664012,987071413,-1.6560547987567347,0.1293010711669922,-1.5218094030963343,0.007179299835115671,0.0008033175836317241,0.6744381189346313,0.0,-0.0,0.0,0.0,0.0,0.0
1782664012,995068076,-1.656102482472555,0.12931299209594727,-1.5218456427203577,0.007155331317335367,0.0008272860432043672,0.6744021773338318,0.0,-0.0,0.0,0.0,0.0,0.0
1782664013,3074665,-1.6560667196856897,0.12933731079101562,-1.5218337217914026,0.007107394747436047,0.0007909588748589158,0.6744021773338318,0.0,-0.0,0.0,0.0,0.0,0.0
1782664013,11065053,-1.6560905615436,0.12932491302490234,-1.5218575636493128,0.007143347058445215,0.0008392703020945191,0.6744381189346313,0.0,-0.0,0.0,0.0,0.0,0.0
1782664013,19066236,-1.6560786406146448,0.12936115264892578,-1.5218213240252894,0.007167315576225519,0.0008153018425218761,0.6744500994682312,0.0,-0.0,0.0,0.0,0.0,0.0
1782664013,27057271,-1.6560667196856897,0.12937307357788086,-1.5218456427203577,0.007143347058445215,0.0008153018425218761,0.6744500994682312,0.0,-0.0,0.0,0.0,0.0,0.0
1782664013,35064398,-1.6560428778277796,0.12933731079101562,-1.5218456427203577,0.007167315576225519,0.0008153018425218761,0.6744141578674316,0.0,-0.0,0.0,0.0,0.0,0.0
1782664013,43083840,-1.65611440340151,0.12932491302490234,-1.5218456427203577,0.007095410488545895,0.0008033175836317241,0.6744261384010315,0.0,-0.0,0.0,0.0,0.0,0.0
1782664013,51090542,-1.6560547987567347,0.1293492317199707,-1.5218213240252894,0.007143347058445215,0.0008392703020945191,0.6744141578674316,0.0,-0.0,0.0,0.0,0.0,0.0
1782664013,59180445,-1.6560547987567347,0.1293010711669922,-1.5218456427203577,0.007107394747436047,0.0008033175836317241,0.6744500994682312,0.0,-0.0,0.0,0.0,0.0,0.0
1782664013,67101704,-1.6560428778277796,0.1293492317199707,-1.5218337217914026,0.007155331317335367,0.0008632387034595013,0.6743901968002319,0.0,-0.0,0.0,0.0,0.0,0.0
1782664013,75087425,-1.6560905615436,0.12937307357788086,-1.5218456427203577,0.007143347058445215,0.0008153018425218761,0.6744141578674316,0.0,-0.0,0.0,0.0,0.0,0.0
1782664013,83096515,-1.6560547987567347,0.12933731079101562,-1.5218213240252894,0.007131362799555063,0.0007789746159687638,0.674462080001831,0.0,-0.0,0.0,0.0,0.0,0.0
1782664013,91189622,-1.6560428778277796,0.12937307357788086,-1.5217855612384241,0.007167315576225519,0.0008033175836317241,0.6744021773338318,0.0,-0.0,0.0,0.0,0.0,0.0
1782664013,99090937,-1.6560547987567347,0.12932491302490234,-1.5218575636493128,0.007167315576225519,0.0008272860432043672,0.6744381189346313,0.0,-0.0,0.0,0.0,0.0,0.0
1782664013,107223191,-1.6560428778277796,0.12932491302490234,-1.5218337217914026,0.007155331317335367,0.0007909588748589158,0.6744261384010315,0.0,-0.0,0.0,0.0,0.0,0.0
1782664013,115070582,-1.6560905615436,0.1293010711669922,-1.5218694845782679,0.007131362799555063,0.0008512545027770102,0.6744141578674316,0.0,-0.0,0.0,0.0,0.0,0.0
1782664013,123074154,-1.6560905615436,0.12937307357788086,-1.5218456427203577,0.007167315576225519,0.0007669904152862728,0.6743782162666321,0.0,-0.0,0.0,0.0,0.0,0.0
1782664013,131083503,-1.6560667196856897,0.12931299209594727,-1.5218213240252894,0.007131362799555063,0.0007669904152862728,0.6744500994682312,0.0,-0.0,0.0,0.0,0.0,0.0
1782664013,139185980,-1.6560428778277796,0.1293492317199707,-1.5218337217914026,0.007155331317335367,0.0007909588748589158,0.6743782162666321,0.0,-0.0,0.0,0.0,0.0,0.0
1782664013,147083277,-1.6560667196856897,0.1293492317199707,-1.5218213240252894,0.007191284094005823,0.0008033175836317241,0.6744381189346313,0.0,-0.0,0.0,0.0,0.0,0.0
1782664013,155089794,-1.6560667196856897,0.1293492317199707,-1.5217974821673792,0.007155331317335367,0.0008153018425218761,0.6744021773338318,0.0,-0.0,0.0,0.0,0.0,0.0
1782664013,163137383,-1.6560786406146448,0.12933731079101562,-1.5218337217914026,0.007131362799555063,0.0008153018425218761,0.6744141578674316,0.0,-0.0,0.0,0.0,0.0,0.0
1782664013,171073697,-1.6560905615436,0.12936115264892578,-1.5218094030963343,0.007143347058445215,0.0008272860432043672,0.6744381189346313,0.0,-0.0,0.0,0.0,0.0,0.0
1782664013,179095861,-1.6560667196856897,0.12933731079101562,-1.5218456427203577,0.007143347058445215,0.0007909588748589158,0.6744500994682312,0.0,-0.0,0.0,0.0,0.0,0.0
1782664013,187127210,-1.656102482472555,0.12932491302490234,-1.5218213240252894,0.007119379006326199,0.0007909588748589158,0.6744261384010315,0.0,-0.0,0.0,0.0,0.0,0.0
1782664013,195089710,-1.6560786406146448,0.12936115264892578,-1.521881405507223,0.007131362799555063,0.0008153018425218761,0.6744381189346313,0.0,-0.0,0.0,0.0,0.0,0.0
1782664013,203285406,-1.656102482472555,0.1293492317199707,-1.5218337217914026,0.007155331317335367,0.0008272860432043672,0.6744021773338318,0.0,-0.0,0.0,0.0,0.0,0.0
1782664013,211096946,-1.6560905615436,0.12937307357788086,-1.5218213240252894,0.007143347058445215,0.0007909588748589158,0.6744261384010315,0.0,-0.0,0.0,0.0,0.0,0.0
1782664013,219096203,-1.6560547987567347,0.12933731079101562,-1.521881405507223,0.007179299835115671,0.0008033175836317241,0.6744141578674316,0.0,-0.0,0.0,0.0,0.0,0.0
1782664013,227082479,-1.65611440340151,0.12932491302490234,-1.5218337217914026,0.007119379006326199,0.0008392703020945191,0.6744740605354309,0.0,-0.0,0.0,0.0,0.0,0.0
1782664013,235064867,-1.6560786406146448,0.12937307357788086,-1.5218694845782679,0.007131362799555063,0.0007909588748589158,0.6743901968002319,0.0,-0.0,0.0,0.0,0.0,0.0
1782664013,243085994,-1.6561268011676233,0.1293010711669922,-1.5218213240252894,0.007119379006326199,0.0008392703020945191,0.6744021773338318,0.0,-0.0,0.0,0.0,0.0,0.0
1782664013,251217414,-1.6560667196856897,0.12931299209594727,-1.5218337217914026,0.007167315576225519,0.0007909588748589158,0.6743901968002319,0.0,-0.0,0.0,0.0,0.0,0.0
1782664013,259092471,-1.6560786406146448,0.1293492317199707,-1.5218094030963343,0.007083426229655743,0.0008153018425218761,0.6744021773338318,0.0,-0.0,0.0,0.0,0.0,0.0
1782664013,267085581,-1.6560547987567347,0.12931299209594727,-1.5218575636493128,0.007119379006326199,0.0008392703020945191,0.6744261384010315,0.0,-0.0,0.0,0.0,0.0,0.0
1782664013,275105448,-1.6560786406146448,0.12932491302490234,-1.5218575636493128,0.007155331317335367,0.0008153018425218761,0.6744141578674316,0.0,-0.0,0.0,0.0,0.0,0.0
1782664013,283196925,-1.656102482472555,0.12937307357788086,-1.5218456427203577,0.007119379006326199,0.0008632387034595013,0.6744021773338318,0.0,-0.0,0.0,0.0,0.0,0.0
1782664013,291091056,-1.6560786406146448,0.12933731079101562,-1.5218213240252894,0.007155331317335367,0.0008153018425218761,0.6744500994682312,0.0,-0.0,0.0,0.0,0.0,0.0
1782664013,299067943,-1.6560309568988245,0.1293492317199707,-1.5218694845782679,0.007143347058445215,0.0008153018425218761,0.6744141578674316,0.0,-0.0,0.0,0.0,0.0,0.0
1782664013,307082867,-1.6561268011676233,0.12931299209594727,-1.5218337217914026,0.007167315576225519,0.0008153018425218761,0.6744261384010315,0.0,-0.0,0.0,0.0,0.0,0.0
1782664013,315099346,-1.6560905615436,0.1293010711669922,-1.5218337217914026,0.007107394747436047,0.0008272860432043672,0.6744500994682312,0.0,-0.0,0.0,0.0,0.0,0.0
1782664013,323081048,-1.6560667196856897,0.1293492317199707,-1.5218213240252894,0.007167315576225519,0.0007909588748589158,0.6744500994682312,0.0,-0.0,0.0,0.0,0.0,0.0
1782664013,331092787,-1.6560547987567347,0.12937307357788086,-1.5218213240252894,0.007131362799555063,0.0007789746159687638,0.6744021773338318,0.0,-0.0,0.0,0.0,0.0,0.0
1782664013,339080137,-1.6560667196856897,0.12931299209594727,-1.5218213240252894,0.007143347058445215,0.0008632387034595013,0.6744141578674316,0.0,-0.0,0.0,0.0,0.0,0.0
1782664013,347094134,-1.6560547987567347,0.12933731079101562,-1.5218337217914026,0.007155331317335367,0.0008153018425218761,0.6744141578674316,0.0,-0.0,0.0,0.0,0.0,0.0
1782664013,355190963,-1.6560547987567347,0.1293010711669922,-1.5218337217914026,0.007095410488545895,0.0008153018425218761,0.6744381189346313,0.0,-0.0,0.0,0.0,0.0,0.0
1782664013,363108204,-1.6560547987567347,0.12937307357788086,-1.5218213240252894,0.007119379006326199,0.0007909588748589158,0.6744141578674316,0.0,-0.0,0.0,0.0,0.0,0.0
1782664013,371074240,-1.6560309568988245,0.12933731079101562,-1.521773640309469,0.007155331317335367,0.0008153018425218761,0.6744261384010315,0.0,-0.0,0.0,0.0,0.0,0.0
1782664013,379079997,-1.656102482472555,0.12936115264892578,-1.5218337217914026,0.007131362799555063,0.0008392703020945191,0.6744261384010315,0.0,-0.0,0.0,0.0,0.0,0.0
1782664013,387159993,-1.6560905615436,0.12932491302490234,-1.5218456427203577,0.007131362799555063,0.0008033175836317241,0.6744261384010315,0.0,-0.0,0.0,0.0,0.0,0.0
1782664013,395092826,-1.6560905615436,0.12931299209594727,-1.5218575636493128,0.007155331317335367,0.0008033175836317241,0.6744381189346313,0.0,-0.0,0.0,0.0,0.0,0.0
1782664013,403066417,-1.6560428778277796,0.12931299209594727,-1.521773640309469,0.007131362799555063,0.0008033175836317241,0.6744500994682312,0.0,-0.0,0.0,0.0,0.0,0.0
1782664013,411093692,-1.65611440340151,0.12931299209594727,-1.5218456427203577,0.007143347058445215,0.0008392703020945191,0.6744261384010315,0.0,-0.0,0.0,0.0,0.0,0.0
1782664013,419189725,-1.6560428778277796,0.12936115264892578,-1.5218213240252894,0.007143347058445215,0.0007909588748589158,0.6744500994682312,0.0,-0.0,0.0,0.0,0.0,0.0
1782664013,427085559,-1.6560066382037562,0.12933731079101562,-1.5218337217914026,0.007155331317335367,0.0008272860432043672,0.6744381189346313,0.0,-0.0,0.0,0.0,0.0,0.0
1782664013,435072187,-1.6560309568988245,0.12933731079101562,-1.5217974821673792,0.007167315576225519,0.0008153018425218761,0.6744141578674316,0.0,-0.0,0.0,0.0,0.0,0.0
1782664013,443100592,-1.6560428778277796,0.12932491302490234,-1.521881405507223,0.007167315576225519,0.0007909588748589158,0.6744740605354309,0.0,-0.0,0.0,0.0,0.0,0.0
1782664013,451132885,-1.6560905615436,0.12932491302490234,-1.5218456427203577,0.007179299835115671,0.0008392703020945191,0.6744381189346313,0.0,-0.0,0.0,0.0,0.0,0.0
1782664013,459105106,-1.6560667196856897,0.12931299209594727,-1.521773640309469,0.007143347058445215,0.0008512545027770102,0.6744261384010315,0.0,-0.0,0.0,0.0,0.0,0.0
1782664013,467408873,-1.6560066382037562,0.1293492317199707,-1.5218456427203577,0.007155331317335367,0.0007909588748589158,0.6744261384010315,0.0,-0.0,0.0,0.0,0.0,0.0
1782664013,475112750,-1.6560667196856897,0.12931299209594727,-1.5218694845782679,0.007155331317335367,0.0008033175836317241,0.6744261384010315,0.0,-0.0,0.0,0.0,0.0,0.0
1782664013,484104276,-1.6560667196856897,0.12932491302490234,-1.5218456427203577,0.007119379006326199,0.0008272860432043672,0.6744500994682312,0.0,-0.0,0.0,0.0,0.0,0.0
1782664013,491061988,-1.6560547987567347,0.12932491302490234,-1.5218456427203577,0.007179299835115671,0.0008153018425218761,0.6744261384010315,0.0,-0.0,0.0,0.0,0.0,0.0
1782664013,499056283,-1.6560905615436,0.12932491302490234,-1.5218575636493128,0.007155331317335367,0.0008153018425218761,0.674462080001831,0.0,-0.0,0.0,0.0,0.0,0.0
1782664013,507097205,-1.6560309568988245,0.12932491302490234,-1.5218575636493128,0.007119379006326199,0.0008153018425218761,0.6744500994682312,0.0,-0.0,0.0,0.0,0.0,0.0
1782664013,515197701,-1.6560547987567347,0.12938499450683594,-1.5218094030963343,0.007143347058445215,0.0008153018425218761,0.6744141578674316,0.0,-0.0,0.0,0.0,0.0,0.0
1782664013,523087590,-1.6560905615436,0.12936115264892578,-1.5217974821673792,0.007143347058445215,0.0008153018425218761,0.6744500994682312,0.0,-0.0,0.0,0.0,0.0,0.0
1782664013,531081459,-1.65611440340151,0.1293492317199707,-1.5218213240252894,0.007131362799555063,0.0008272860432043672,0.6744500994682312,0.0,-0.0,0.0,0.0,0.0,0.0
1782664013,539091142,-1.656102482472555,0.1293010711669922,-1.5218337217914026,0.007119379006326199,0.0008033175836317241,0.6744500994682312,0.0,-0.0,0.0,0.0,0.0,0.0
1782664013,547121250,-1.6560547987567347,0.1293492317199707,-1.5218337217914026,0.007143347058445215,0.0008153018425218761,0.6744261384010315,0.0,-0.0,0.0,0.0,0.0,0.0
1782664013,555092897,-1.6560309568988245,0.12932491302490234,-1.5218213240252894,0.007119379006326199,0.0008272860432043672,0.6744021773338318,0.0,-0.0,0.0,0.0,0.0,0.0
1782664013,563090951,-1.6560905615436,0.12931299209594727,-1.5217974821673792,0.007167315576225519,0.0007789746159687638,0.6744500994682312,0.0,-0.0,0.0,0.0,0.0,0.0
1782664013,571091449,-1.6560667196856897,0.1293492317199707,-1.5218213240252894,0.007155331317335367,0.0008033175836317241,0.6744141578674316,0.0,-0.0,0.0,0.0,0.0,0.0
1782664013,579123409,-1.6560786406146448,0.12933731079101562,-1.5218094030963343,0.007179299835115671,0.0008153018425218761,0.6744500994682312,0.0,-0.0,0.0,0.0,0.0,0.0
1782664013,587087482,-1.6560786406146448,0.12933731079101562,-1.5218337217914026,0.007155331317335367,0.0008153018425218761,0.6744381189346313,0.0,-0.0,0.0,0.0,0.0,0.0
1782664013,595082591,-1.656102482472555,0.1293010711669922,-1.5218213240252894,0.007143347058445215,0.0008272860432043672,0.6744500994682312,0.0,-0.0,0.0,0.0,0.0,0.0
1782664013,603085867,-1.6560547987567347,0.12932491302490234,-1.5217974821673792,0.007143347058445215,0.0008272860432043672,0.6744381189346313,0.0,-0.0,0.0,0.0,0.0,0.0
1782664013,611086698,-1.6560786406146448,0.12933731079101562,-1.5218456427203577,0.007143347058445215,0.0008392703020945191,0.674462080001831,0.0,-0.0,0.0,0.0,0.0,0.0
1782664013,619096751,-1.6560786406146448,0.1293492317199707,-1.5218337217914026,0.007155331317335367,0.0008033175836317241,0.6744381189346313,0.0,-0.0,0.0,0.0,0.0,0.0
1782664013,627064454,-1.6560428778277796,0.12931299209594727,-1.5218094030963343,0.007179299835115671,0.0007909588748589158,0.6744381189346313,0.0,-0.0,0.0,0.0,0.0,0.0
1782664013,635083396,-1.65611440340151,0.12931299209594727,-1.5218094030963343,0.007167315576225519,0.0008033175836317241,0.6744021773338318,0.0,-0.0,0.0,0.0,0.0,0.0
1782664013,643102745,-1.6560786406146448,0.12932491302490234,-1.5217974821673792,0.007119379006326199,0.0008153018425218761,0.6744021773338318,0.0,-0.0,0.0,0.0,0.0,0.0
1782664013,651098151,-1.6560667196856897,0.1293010711669922,-1.5218456427203577,0.007143347058445215,0.0008033175836317241,0.6744141578674316,0.0,-0.0,0.0,0.0,0.0,0.0
1782664013,659080038,-1.656102482472555,0.1293010711669922,-1.521881405507223,0.007155331317335367,0.0008392703020945191,0.674462080001831,0.0,-0.0,0.0,0.0,0.0,0.0
1782664013,667114776,-1.6560667196856897,0.12933731079101562,-1.5218575636493128,0.007143347058445215,0.0007909588748589158,0.6744141578674316,0.0,-0.0,0.0,0.0,0.0,0.0
1782664013,675082960,-1.6560786406146448,0.12932491302490234,-1.5218337217914026,0.007107394747436047,0.0007909588748589158,0.6744021773338318,0.0,-0.0,0.0,0.0,0.0,0.0
1782664013,683086402,-1.6560428778277796,0.1293492317199707,-1.5218213240252894,0.007143347058445215,0.0008512545027770102,0.6743782162666321,0.0,-0.0,0.0,0.0,0.0,0.0
1782664013,691084826,-1.6560905615436,0.1292891502380371,-1.5218575636493128,0.007131362799555063,0.0007789746159687638,0.6744261384010315,0.0,-0.0,0.0,0.0,0.0,0.0
1782664013,699090972,-1.656102482472555,0.12937307357788086,-1.5218213240252894,0.007143347058445215,0.0008272860432043672,0.6744500994682312,0.0,-0.0,0.0,0.0,0.0,0.0
1782664013,707082063,-1.656102482472555,0.12933731079101562,-1.5218456427203577,0.007119379006326199,0.0007789746159687638,0.6743901968002319,0.0,-0.0,0.0,0.0,0.0,0.0
1782664013,715096357,-1.6560786406146448,0.12933731079101562,-1.5218575636493128,0.007143347058445215,0.0008153018425218761,0.6744381189346313,0.0,-0.0,0.0,0.0,0.0,0.0
1782664013,723136743,-1.65611440340151,0.1293492317199707,-1.5218337217914026,0.007167315576225519,0.0008033175836317241,0.6744381189346313,0.0,-0.0,0.0,0.0,0.0,0.0
1782664013,731090724,-1.6560309568988245,0.12933731079101562,-1.521881405507223,0.007155331317335367,0.0008392703020945191,0.6744860410690308,0.0,-0.0,0.0,0.0,0.0,0.0
1782664013,739073833,-1.6560786406146448,0.1293492317199707,-1.5218213240252894,0.007143347058445215,0.0008272860432043672,0.6743901968002319,0.0,-0.0,0.0,0.0,0.0,0.0
1782664013,747086553,-1.6560905615436,0.1293492317199707,-1.5218575636493128,0.007119379006326199,0.0008392703020945191,0.6744261384010315,0.0,-0.0,0.0,0.0,0.0,0.0
1782664013,755166512,-1.6560667196856897,0.12932491302490234,-1.5218337217914026,0.007143347058445215,0.0008033175836317241,0.6744381189346313,0.0,-0.0,0.0,0.0,0.0,0.0
1782664013,763087660,-1.6560786406146448,0.12932491302490234,-1.5218694845782679,0.007179299835115671,0.0007669904152862728,0.6744021773338318,0.0,-0.0,0.0,0.0,0.0,0.0
1782664013,771074733,-1.6560185591327112,0.12932491302490234,-1.5218094030963343,0.007167315576225519,0.0008512545027770102,0.6744261384010315,0.0,-0.0,0.0,0.0,0.0,0.0
1782664013,779122766,-1.6560786406146448,0.1293010711669922,-1.5218575636493128,0.007119379006326199,0.0008512545027770102,0.6744141578674316,0.0,-0.0,0.0,0.0,0.0,0.0
1782664013,787196318,-1.6560905615436,0.12933731079101562,-1.5218456427203577,0.007167315576225519,0.0008392703020945191,0.6744261384010315,0.0,-0.0,0.0,0.0,0.0,0.0
1782664013,795091782,-1.656102482472555,0.1293010711669922,-1.521893326436178,0.007167315576225519,0.0008392703020945191,0.6744500994682312,0.0,-0.0,0.0,0.0,0.0,0.0
1782664013,803081576,-1.6560905615436,0.12932491302490234,-1.5218456427203577,0.007143347058445215,0.0007789746159687638,0.6744500994682312,0.0,-0.0,0.0,0.0,0.0,0.0
1782664013,811106925,-1.6560786406146448,0.1293010711669922,-1.521761719380514,0.007155331317335367,0.0008272860432043672,0.6744381189346313,0.0,-0.0,0.0,0.0,0.0,0.0
1782664013,819197087,-1.6560786406146448,0.12933731079101562,-1.5218337217914026,0.007155331317335367,0.0008272860432043672,0.6744141578674316,0.0,-0.0,0.0,0.0,0.0,0.0
1782664013,827093107,-1.6560786406146448,0.12932491302490234,-1.5217855612384241,0.007143347058445215,0.0008392703020945191,0.6744141578674316,0.0,-0.0,0.0,0.0,0.0,0.0
1782664013,835076383,-1.6560185591327112,0.12932491302490234,-1.5218456427203577,0.007143347058445215,0.0008272860432043672,0.6743782162666321,0.0,-0.0,0.0,0.0,0.0,0.0
1782664013,843099566,-1.6560786406146448,0.12932491302490234,-1.5218094030963343,0.007167315576225519,0.0008272860432043672,0.6744141578674316,0.0,-0.0,0.0,0.0,0.0,0.0
1782664013,851106915,-1.656102482472555,0.1293010711669922,-1.5218337217914026,0.007155331317335367,0.0008632387034595013,0.6744021773338318,0.0,-0.0,0.0,0.0,0.0,0.0
1782664013,859112228,-1.6560786406146448,0.12936115264892578,-1.5217974821673792,0.007143347058445215,0.0008033175836317241,0.6744500994682312,0.0,-0.0,0.0,0.0,0.0,0.0
1782664013,867064153,-1.6560667196856897,0.12933731079101562,-1.5218213240252894,0.007155331317335367,0.0008272860432043672,0.6744500994682312,0.0,-0.0,0.0,0.0,0.0,0.0
1782664013,875086225,-1.6560786406146448,0.12936115264892578,-1.5218337217914026,0.007155331317335367,0.0007909588748589158,0.6744500994682312,0.0,-0.0,0.0,0.0,0.0,0.0
1782664013,883128573,-1.6560905615436,0.1293492317199707,-1.5218337217914026,0.007119379006326199,0.0008632387034595013,0.6744021773338318,0.0,-0.0,0.0,0.0,0.0,0.0
1782664013,891092943,-1.65611440340151,0.1293492317199707,-1.5218213240252894,0.007167315576225519,0.0007909588748589158,0.6744261384010315,0.0,-0.0,0.0,0.0,0.0,0.0
1782664013,899076904,-1.6561268011676233,0.12936115264892578,-1.5218694845782679,0.007095410488545895,0.0008153018425218761,0.6744500994682312,0.0,-0.0,0.0,0.0,0.0,0.0
1782664013,907123919,-1.6560786406146448,0.12933731079101562,-1.5218694845782679,0.007143347058445215,0.0008153018425218761,0.6744261384010315,0.0,-0.0,0.0,0.0,0.0,0.0
1782664013,915195656,-1.656102482472555,0.1293010711669922,-1.5218337217914026,0.007179299835115671,0.0008153018425218761,0.6743901968002319,0.0,-0.0,0.0,0.0,0.0,0.0
1782664013,923090639,-1.6560547987567347,0.12932491302490234,-1.5217974821673792,0.007119379006326199,0.0008392703020945191,0.6744261384010315,0.0,-0.0,0.0,0.0,0.0,0.0
1782664013,931080489,-1.656102482472555,0.12937307357788086,-1.5218575636493128,0.007143347058445215,0.0007909588748589158,0.6744021773338318,0.0,-0.0,0.0,0.0,0.0,0.0
1782664013,939192854,-1.6560547987567347,0.12931299209594727,-1.5218694845782679,0.007167315576225519,0.0008153018425218761,0.6744381189346313,0.0,-0.0,0.0,0.0,0.0,0.0
1782664013,947123409,-1.6560667196856897,0.12933731079101562,-1.5218094030963343,0.007119379006326199,0.0008153018425218761,0.6744500994682312,0.0,-0.0,0.0,0.0,0.0,0.0
1782664013,955089316,-1.6560547987567347,0.12932491302490234,-1.5218456427203577,0.007155331317335367,0.0007789746159687638,0.6744500994682312,0.0,-0.0,0.0,0.0,0.0,0.0
1782664013,963079425,-1.6560547987567347,0.12933731079101562,-1.5218456427203577,0.007167315576225519,0.0007909588748589158,0.674462080001831,0.0,-0.0,0.0,0.0,0.0,0.0
1782664013,971100423,-1.6560905615436,0.12937307357788086,-1.5218094030963343,0.007107394747436047,0.0008392703020945191,0.6744381189346313,0.0,-0.0,0.0,0.0,0.0,0.0
1782664013,979127772,-1.6560905615436,0.1293492317199707,-1.5218213240252894,0.007143347058445215,0.0008033175836317241,0.674462080001831,0.0,-0.0,0.0,0.0,0.0,0.0
1782664013,987087660,-1.6560905615436,0.1293492317199707,-1.5218213240252894,0.007143347058445215,0.0008033175836317241,0.6744141578674316,0.0,-0.0,0.0,0.0,0.0,0.0
1782664013,995085454,-1.656102482472555,0.1293492317199707,-1.5217974821673792,0.007131362799555063,0.0008033175836317241,0.674462080001831,0.0,-0.0,0.0,0.0,0.0,0.0
1782664014,3090415,-1.656102482472555,0.12932491302490234,-1.5218575636493128,0.007131362799555063,0.0007909588748589158,0.6744261384010315,0.0,-0.0,0.0,0.0,0.0,0.0
1782664014,11128098,-1.6560667196856897,0.1293492317199707,-1.5218094030963343,0.007167315576225519,0.0007909588748589158,0.6744381189346313,0.0,-0.0,0.0,0.0,0.0,0.0
1782664014,19096487,-1.6560309568988245,0.12932491302490234,-1.5218456427203577,0.007179299835115671,0.0007909588748589158,0.6743901968002319,0.0,-0.0,0.0,0.0,0.0,0.0
1782664014,27079154,-1.6560786406146448,0.12933731079101562,-1.5218575636493128,0.007155331317335367,0.0008752229623496532,0.6744021773338318,0.0,-0.0,0.0,0.0,0.0,0.0
1782664014,35091597,-1.6560667196856897,0.12931299209594727,-1.5217974821673792,0.007143347058445215,0.0008033175836317241,0.6744021773338318,0.0,-0.0,0.0,0.0,0.0,0.0
1782664014,43130188,-1.6560066382037562,0.12933731079101562,-1.5217974821673792,0.007191284094005823,0.0007909588748589158,0.6744381189346313,0.0,-0.0,0.0,0.0,0.0,0.0
1782664014,51082077,-1.6560428778277796,0.1293010711669922,-1.5218694845782679,0.007107394747436047,0.0008272860432043672,0.6744500994682312,0.0,-0.0,0.0,0.0,0.0,0.0
1782664014,59089725,-1.6560547987567347,0.12932491302490234,-1.5218456427203577,0.007143347058445215,0.0008272860432043672,0.6744500994682312,0.0,-0.0,0.0,0.0,0.0,0.0
1782664014,67089576,-1.6560786406146448,0.12932491302490234,-1.5218337217914026,0.007167315576225519,0.0008153018425218761,0.6743901968002319,0.0,-0.0,0.0,0.0,0.0,0.0
1782664014,75097390,-1.6560428778277796,0.1293010711669922,-1.5218094030963343,0.007179299835115671,0.0007789746159687638,0.6744021773338318,0.0,-0.0,0.0,0.0,0.0,0.0
1782664014,83092056,-1.6560786406146448,0.12933731079101562,-1.5218337217914026,0.007131362799555063,0.0007909588748589158,0.6744021773338318,0.0,-0.0,0.0,0.0,0.0,0.0
1782664014,91072889,-1.6560667196856897,0.12933731079101562,-1.5218694845782679,0.007167315576225519,0.0008392703020945191,0.6744381189346313,0.0,-0.0,0.0,0.0,0.0,0.0
1782664014,99091054,-1.6560309568988245,0.12933731079101562,-1.5218456427203577,0.007119379006326199,0.0008153018425218761,0.6744500994682312,0.0,-0.0,0.0,0.0,0.0,0.0
1782664014,107130349,-1.65611440340151,0.1293010711669922,-1.521881405507223,0.007167315576225519,0.0008392703020945191,0.6744021773338318,0.0,-0.0,0.0,0.0,0.0,0.0
1782664014,115095849,-1.6560547987567347,0.12931299209594727,-1.5218575636493128,0.007155331317335367,0.0008033175836317241,0.6744021773338318,0.0,-0.0,0.0,0.0,0.0,0.0
1782664014,123074404,-1.65611440340151,0.12936115264892578,-1.5218337217914026,0.007179299835115671,0.0008033175836317241,0.6744021773338318,0.0,-0.0,0.0,0.0,0.0,0.0
1782664014,131091181,-1.6560547987567347,0.12937307357788086,-1.5218456427203577,0.007131362799555063,0.0007789746159687638,0.6743901968002319,0.0,-0.0,0.0,0.0,0.0,0.0
1782664014,139126494,-1.65611440340151,0.1292891502380371,-1.5218094030963343,0.007083426229655743,0.0008272860432043672,0.6744021773338318,0.0,-0.0,0.0,0.0,0.0,0.0
1782664014,147092754,-1.6560905615436,0.12933731079101562,-1.5218213240252894,0.007131362799555063,0.0008392703020945191,0.6744381189346313,0.0,-0.0,0.0,0.0,0.0,0.0
1782664014,155082438,-1.6560547987567347,0.12936115264892578,-1.5218337217914026,0.007131362799555063,0.0008153018425218761,0.6744381189346313,0.0,-0.0,0.0,0.0,0.0,0.0
1782664014,163137399,-1.6560905615436,0.12936115264892578,-1.5218337217914026,0.007107394747436047,0.0008632387034595013,0.6743901968002319,0.0,-0.0,0.0,0.0,0.0,0.0
1782664014,171164620,-1.6560667196856897,0.1293492317199707,-1.5218094030963343,0.007155331317335367,0.0008392703020945191,0.6744381189346313,0.0,-0.0,0.0,0.0,0.0,0.0
1782664014,179091899,-1.6560905615436,0.12933731079101562,-1.521773640309469,0.007143347058445215,0.0008632387034595013,0.6744021773338318,0.0,-0.0,0.0,0.0,0.0,0.0
1782664014,187080454,-1.6560667196856897,0.12931299209594727,-1.5218213240252894,0.007143347058445215,0.0008033175836317241,0.6743662357330322,0.0,-0.0,0.0,0.0,0.0,0.0
1782664014,195076583,-1.6560667196856897,0.1293010711669922,-1.5218337217914026,0.007143347058445215,0.0008272860432043672,0.6743901968002319,0.0,-0.0,0.0,0.0,0.0,0.0
1782664014,203080675,-1.6560309568988245,0.12933731079101562,-1.5218456427203577,0.007143347058445215,0.0008033175836317241,0.6744261384010315,0.0,-0.0,0.0,0.0,0.0,0.0
1782664014,211085933,-1.6560786406146448,0.12933731079101562,-1.5217974821673792,0.007143347058445215,0.0008632387034595013,0.6744141578674316,0.0,-0.0,0.0,0.0,0.0,0.0
1782664014,219067174,-1.6560905615436,0.12932491302490234,-1.5218213240252894,0.007143347058445215,0.0008272860432043672,0.6744261384010315,0.0,-0.0,0.0,0.0,0.0,0.0
1782664014,227082821,-1.6560667196856897,0.12931299209594727,-1.5218694845782679,0.007167315576225519,0.0008153018425218761,0.6744500994682312,0.0,-0.0,0.0,0.0,0.0,0.0
1782664014,235116838,-1.6560786406146448,0.12936115264892578,-1.5218213240252894,0.007131362799555063,0.0007669904152862728,0.6744141578674316,0.0,-0.0,0.0,0.0,0.0,0.0
1782664014,243087356,-1.656102482472555,0.12937307357788086,-1.5218094030963343,0.007155331317335367,0.0008632387034595013,0.6744141578674316,0.0,-0.0,0.0,0.0,0.0,0.0
1782664014,251076115,-1.6560905615436,0.12933731079101562,-1.5218575636493128,0.007119379006326199,0.0008632387034595013,0.6744021773338318,0.0,-0.0,0.0,0.0,0.0,0.0
1782664014,259136631,-1.6560185591327112,0.12933731079101562,-1.5218337217914026,0.007107394747436047,0.0008033175836317241,0.6744021773338318,0.0,-0.0,0.0,0.0,0.0,0.0
1782664014,267117039,-1.6561387220965784,0.12931299209594727,-1.5217974821673792,0.007179299835115671,0.0008272860432043672,0.6744381189346313,0.0,-0.0,0.0,0.0,0.0,0.0
1782664014,275087816,-1.6560185591327112,0.1293492317199707,-1.5218575636493128,0.007119379006326199,0.0008392703020945191,0.6744261384010315,0.0,-0.0,0.0,0.0,0.0,0.0
1782664014,283075260,-1.6560667196856897,0.12931299209594727,-1.5218575636493128,0.007107394747436047,0.0008512545027770102,0.6744261384010315,0.0,-0.0,0.0,0.0,0.0,0.0
1782664014,291082963,-1.656102482472555,0.1293492317199707,-1.5218694845782679,0.007155331317335367,0.0007909588748589158,0.6744021773338318,0.0,-0.0,0.0,0.0,0.0,0.0
1782664014,299178552,-1.6560547987567347,0.1293010711669922,-1.5218337217914026,0.007179299835115671,0.0008272860432043672,0.6744141578674316,0.0,-0.0,0.0,0.0,0.0,0.0
1782664014,307104258,-1.6560667196856897,0.1293010711669922,-1.5218213240252894,0.007131362799555063,0.0008272860432043672,0.6743901968002319,0.0,-0.0,0.0,0.0,0.0,0.0
1782664014,315083480,-1.6560786406146448,0.1292891502380371,-1.5217974821673792,0.007167315576225519,0.0007909588748589158,0.6744021773338318,0.0,-0.0,0.0,0.0,0.0,0.0
1782664014,323083646,-1.6560786406146448,0.12933731079101562,-1.5218337217914026,0.007131362799555063,0.0008392703020945191,0.6744021773338318,0.0,-0.0,0.0,0.0,0.0,0.0
1782664014,331118736,-1.6560428778277796,0.1293492317199707,-1.5218575636493128,0.007107394747436047,0.0008272860432043672,0.6744141578674316,0.0,-0.0,0.0,0.0,0.0,0.0
1782664014,339086940,-1.6560667196856897,0.1292891502380371,-1.5218575636493128,0.007191284094005823,0.0008153018425218761,0.6744021773338318,0.0,-0.0,0.0,0.0,0.0,0.0
1782664014,347090032,-1.656102482472555,0.12938499450683594,-1.5218213240252894,0.007179299835115671,0.0008033175836317241,0.6744021773338318,0.0,-0.0,0.0,0.0,0.0,0.0
1782664014,355075273,-1.6560786406146448,0.12936115264892578,-1.5218213240252894,0.007131362799555063,0.0008272860432043672,0.6744740605354309,0.0,-0.0,0.0,0.0,0.0,0.0
1782664014,363160825,-1.6560905615436,0.12936115264892578,-1.5218694845782679,0.007119379006326199,0.0008153018425218761,0.6744500994682312,0.0,-0.0,0.0,0.0,0.0,0.0
1782664014,371101807,-1.6560905615436,0.12931299209594727,-1.5218337217914026,0.007155331317335367,0.0007789746159687638,0.6744381189346313,0.0,-0.0,0.0,0.0,0.0,0.0
1782664014,379073030,-1.6560428778277796,0.12937307357788086,-1.5218094030963343,0.007191284094005823,0.0008272860432043672,0.6744021773338318,0.0,-0.0,0.0,0.0,0.0,0.0
1782664014,387076603,-1.6560428778277796,0.12933731079101562,-1.5218575636493128,0.007107394747436047,0.0008392703020945191,0.6744381189346313,0.0,-0.0,0.0,0.0,0.0,0.0
1782664014,395165396,-1.6560905615436,0.12932491302490234,-1.5218213240252894,0.007143347058445215,0.0008272860432043672,0.6744381189346313,0.0,-0.0,0.0,0.0,0.0,0.0
1782664014,403094194,-1.656102482472555,0.1293010711669922,-1.5218094030963343,0.007143347058445215,0.0008752229623496532,0.6744141578674316,0.0,-0.0,0.0,0.0,0.0,0.0
1782664014,411081304,-1.6560786406146448,0.12933731079101562,-1.5218213240252894,0.007191284094005823,0.0008272860432043672,0.6744500994682312,0.0,-0.0,0.0,0.0,0.0,0.0
1782664014,419098359,-1.6560786406146448,0.1293010711669922,-1.5218575636493128,0.007107394747436047,0.0008033175836317241,0.6744381189346313,0.0,-0.0,0.0,0.0,0.0,0.0
1782664014,427189837,-1.6560547987567347,0.1293492317199707,-1.5218575636493128,0.007167315576225519,0.0008153018425218761,0.6744381189346313,0.0,-0.0,0.0,0.0,0.0,0.0
1782664014,435087746,-1.6560905615436,0.12938499450683594,-1.5218337217914026,0.007143347058445215,0.0007909588748589158,0.6744860410690308,0.0,-0.0,0.0,0.0,0.0,0.0
1782664014,443080357,-1.6560667196856897,0.12932491302490234,-1.5218337217914026,0.007167315576225519,0.0008632387034595013,0.6744381189346313,0.0,-0.0,0.0,0.0,0.0,0.0
1782664014,451088412,-1.6560547987567347,0.12937307357788086,-1.5218094030963343,0.007143347058445215,0.0007909588748589158,0.6744021773338318,0.0,-0.0,0.0,0.0,0.0,0.0
1782664014,459127169,-1.6560667196856897,0.12927722930908203,-1.5218094030963343,0.007119379006326199,0.0008392703020945191,0.6744141578674316,0.0,-0.0,0.0,0.0,0.0,0.0
1782664014,467087651,-1.6560667196856897,0.12937307357788086,-1.5218213240252894,0.007119379006326199,0.0008272860432043672,0.6743901968002319,0.0,-0.0,0.0,0.0,0.0,0.0
1782664014,475085521,-1.6560786406146448,0.12932491302490234,-1.5218456427203577,0.007143347058445215,0.0008153018425218761,0.6744500994682312,0.0,-0.0,0.0,0.0,0.0,0.0
1782664014,483093298,-1.6560185591327112,0.1293492317199707,-1.5217855612384241,0.007119379006326199,0.0008033175836317241,0.6744141578674316,0.0,-0.0,0.0,0.0,0.0,0.0
1782664014,491124240,-1.6560786406146448,0.12933731079101562,-1.5218213240252894,0.007107394747436047,0.0008392703020945191,0.6744500994682312,0.0,-0.0,0.0,0.0,0.0,0.0
1782664014,499090648,-1.6560786406146448,0.12933731079101562,-1.5218213240252894,0.007095410488545895,0.0008272860432043672,0.6744381189346313,0.0,-0.0,0.0,0.0,0.0,0.0
1782664014,507081592,-1.6560786406146448,0.12931299209594727,-1.5217974821673792,0.007203268352895975,0.0008033175836317241,0.6744500994682312,0.0,-0.0,0.0,0.0,0.0,0.0
1782664014,515210199,-1.6560547987567347,0.1293010711669922,-1.521893326436178,0.007131362799555063,0.0008392703020945191,0.6744500994682312,0.0,-0.0,0.0,0.0,0.0,0.0
1782664014,523122849,-1.6560185591327112,0.1293010711669922,-1.5218694845782679,0.007167315576225519,0.0008033175836317241,0.674462080001831,0.0,-0.0,0.0,0.0,0.0,0.0
1782664014,531088182,-1.6560667196856897,0.12933731079101562,-1.5218694845782679,0.007131362799555063,0.0008033175836317241,0.6744500994682312,0.0,-0.0,0.0,0.0,0.0,0.0
1782664014,539072775,-1.6561268011676233,0.12937307357788086,-1.5218213240252894,0.007143347058445215,0.0008392703020945191,0.6744500994682312,0.0,-0.0,0.0,0.0,0.0,0.0
1782664014,547093514,-1.6560066382037562,0.1293492317199707,-1.521881405507223,0.007143347058445215,0.0008153018425218761,0.6743782162666321,0.0,-0.0,0.0,0.0,0.0,0.0
1782664014,555190288,-1.6560905615436,0.1293010711669922,-1.5218456427203577,0.007155331317335367,0.0008512545027770102,0.6744381189346313,0.0,-0.0,0.0,0.0,0.0,0.0
1782664014,563081569,-1.6560667196856897,0.12933731079101562,-1.5218575636493128,0.007155331317335367,0.0008512545027770102,0.6744141578674316,0.0,-0.0,0.0,0.0,0.0,0.0
1782664014,571070531,-1.6560667196856897,0.12931299209594727,-1.5218094030963343,0.007155331317335367,0.0008392703020945191,0.6744381189346313,0.0,-0.0,0.0,0.0,0.0,0.0
1782664014,579103604,-1.6560547987567347,0.1292891502380371,-1.5217974821673792,0.007143347058445215,0.0008392703020945191,0.6744261384010315,0.0,-0.0,0.0,0.0,0.0,0.0
1782664014,587206026,-1.6560905615436,0.12933731079101562,-1.5218213240252894,0.007179299835115671,0.0008153018425218761,0.6744261384010315,0.0,-0.0,0.0,0.0,0.0,0.0
1782664014,595104584,-1.6560905615436,0.12933731079101562,-1.5218694845782679,0.007179299835115671,0.0008153018425218761,0.674462080001831,0.0,-0.0,0.0,0.0,0.0,0.0
1782664014,603088768,-1.6560905615436,0.12932491302490234,-1.5218094030963343,0.007143347058445215,0.0008512545027770102,0.6744860410690308,0.0,-0.0,0.0,0.0,0.0,0.0
1782664014,611100749,-1.655994717274801,0.1293010711669922,-1.5218337217914026,0.007143347058445215,0.0008033175836317241,0.6744381189346313,0.0,-0.0,0.0,0.0,0.0,0.0
1782664014,619192486,-1.6560786406146448,0.12933731079101562,-1.5218337217914026,0.007155331317335367,0.0008272860432043672,0.674462080001831,0.0,-0.0,0.0,0.0,0.0,0.0
1782664014,627093488,-1.656102482472555,0.12931299209594727,-1.5218456427203577,0.007179299835115671,0.0008153018425218761,0.6744141578674316,0.0,-0.0,0.0,0.0,0.0,0.0
1782664014,635081710,-1.6560428778277796,0.12933731079101562,-1.5218337217914026,0.007143347058445215,0.0008392703020945191,0.6744381189346313,0.0,-0.0,0.0,0.0,0.0,0.0
1782664014,643082765,-1.6560185591327112,0.1293010711669922,-1.5218213240252894,0.007143347058445215,0.0008392703020945191,0.6744261384010315,0.0,-0.0,0.0,0.0,0.0,0.0
1782664014,651113226,-1.656102482472555,0.1293010711669922,-1.5218456427203577,0.007167315576225519,0.0008512545027770102,0.6744021773338318,0.0,-0.0,0.0,0.0,0.0,0.0
1782664014,659095578,-1.6560547987567347,0.1293492317199707,-1.5218337217914026,0.007167315576225519,0.0008272860432043672,0.6744740605354309,0.0,-0.0,0.0,0.0,0.0,0.0
1782664014,667078504,-1.6560667196856897,0.1293010711669922,-1.5218337217914026,0.007155331317335367,0.0007909588748589158,0.6744740605354309,0.0,-0.0,0.0,0.0,0.0,0.0
1782664014,675110706,-1.6560905615436,0.12936115264892578,-1.521893326436178,0.007119379006326199,0.0008392703020945191,0.6743901968002319,0.0,-0.0,0.0,0.0,0.0,0.0
1782664014,683121390,-1.6560905615436,0.1293492317199707,-1.5218694845782679,0.007155331317335367,0.0008632387034595013,0.6744261384010315,0.0,-0.0,0.0,0.0,0.0,0.0
1782664014,691083631,-1.6560786406146448,0.12932491302490234,-1.5218213240252894,0.007143347058445215,0.0007789746159687638,0.6744261384010315,0.0,-0.0,0.0,0.0,0.0,0.0
1782664014,699073594,-1.6560547987567347,0.12931299209594727,-1.5218094030963343,0.007143347058445215,0.0007909588748589158,0.6744381189346313,0.0,-0.0,0.0,0.0,0.0,0.0
1782664014,707094944,-1.6560547987567347,0.1293010711669922,-1.5218337217914026,0.007155331317335367,0.0008153018425218761,0.6744021773338318,0.0,-0.0,0.0,0.0,0.0,0.0
1782664014,715199848,-1.6560786406146448,0.12933731079101562,-1.5218094030963343,0.007143347058445215,0.0008153018425218761,0.6744860410690308,0.0,-0.0,0.0,0.0,0.0,0.0
1782664014,723082647,-1.6560547987567347,0.12931299209594727,-1.5218337217914026,0.007107394747436047,0.0008272860432043672,0.6744141578674316,0.0,-0.0,0.0,0.0,0.0,0.0
1782664014,731080498,-1.6560786406146448,0.12936115264892578,-1.5218575636493128,0.007107394747436047,0.0008033175836317241,0.6744740605354309,0.0,-0.0,0.0,0.0,0.0,0.0
1782664014,739093775,-1.656102482472555,0.12933731079101562,-1.5218094030963343,0.007131362799555063,0.0007789746159687638,0.6744381189346313,0.0,-0.0,0.0,0.0,0.0,0.0
1782664014,747183994,-1.6560905615436,0.1293010711669922,-1.5217855612384241,0.007119379006326199,0.0007789746159687638,0.6744141578674316,0.0,-0.0,0.0,0.0,0.0,0.0
1782664014,755087125,-1.6560185591327112,0.12927722930908203,-1.5218213240252894,0.007131362799555063,0.0007909588748589158,0.6744500994682312,0.0,-0.0,0.0,0.0,0.0,0.0
1782664014,763123605,-1.656102482472555,0.12933731079101562,-1.5218337217914026,0.007191284094005823,0.0008033175836317241,0.6744500994682312,0.0,-0.0,0.0,0.0,0.0,0.0
1782664014,771082068,-1.6560428778277796,0.12931299209594727,-1.5218094030963343,0.007119379006326199,0.0007909588748589158,0.6744381189346313,0.0,-0.0,0.0,0.0,0.0,0.0
1782664014,779088530,-1.65611440340151,0.1293492317199707,-1.5218337217914026,0.007167315576225519,0.0008153018425218761,0.6744500994682312,0.0,-0.0,0.0,0.0,0.0,0.0
1782664014,787088937,-1.6560667196856897,0.1293010711669922,-1.5218575636493128,0.007167315576225519,0.0008272860432043672,0.6744261384010315,0.0,-0.0,0.0,0.0,0.0,0.0
1782664014,795069974,-1.65611440340151,0.1292891502380371,-1.5218575636493128,0.007143347058445215,0.0008392703020945191,0.6744261384010315,0.0,-0.0,0.0,0.0,0.0,0.0
1782664014,803087639,-1.6560547987567347,0.12932491302490234,-1.5218337217914026,0.007119379006326199,0.0008153018425218761,0.674462080001831,0.0,-0.0,0.0,0.0,0.0,0.0
1782664014,811081306,-1.6560185591327112,0.12936115264892578,-1.5218213240252894,0.007167315576225519,0.0008153018425218761,0.6744261384010315,0.0,-0.0,0.0,0.0,0.0,0.0
1782664014,819085657,-1.6560905615436,0.12933731079101562,-1.5217974821673792,0.007131362799555063,0.0007909588748589158,0.6744381189346313,0.0,-0.0,0.0,0.0,0.0,0.0
1782664014,827071675,-1.6560905615436,0.12937307357788086,-1.5218337217914026,0.007167315576225519,0.0008272860432043672,0.674462080001831,0.0,-0.0,0.0,0.0,0.0,0.0
1782664014,835092359,-1.6560428778277796,0.12933731079101562,-1.5217974821673792,0.007167315576225519,0.0008153018425218761,0.6744021773338318,0.0,-0.0,0.0,0.0,0.0,0.0
1782664014,843186540,-1.6560786406146448,0.1293492317199707,-1.521773640309469,0.007083426229655743,0.0008033175836317241,0.6744381189346313,0.0,-0.0,0.0,0.0,0.0,0.0
1782664014,851085080,-1.6560428778277796,0.1293492317199707,-1.5218575636493128,0.007131362799555063,0.0008033175836317241,0.6744500994682312,0.0,-0.0,0.0,0.0,0.0,0.0
1782664014,859070264,-1.6560547987567347,0.1293010711669922,-1.5218456427203577,0.007107394747436047,0.0008153018425218761,0.6744141578674316,0.0,-0.0,0.0,0.0,0.0,0.0
1782664014,867094689,-1.6560786406146448,0.12937307357788086,-1.5218094030963343,0.007119379006326199,0.0007789746159687638,0.6744021773338318,0.0,-0.0,0.0,0.0,0.0,0.0
1782664014,875184260,-1.65611440340151,0.12933731079101562,-1.5218213240252894,0.007119379006326199,0.0008153018425218761,0.6744381189346313,0.0,-0.0,0.0,0.0,0.0,0.0
1782664014,883089003,-1.6560786406146448,0.1293492317199707,-1.5218337217914026,0.007131362799555063,0.0007789746159687638,0.6744381189346313,0.0,-0.0,0.0,0.0,0.0,0.0
1782664014,891066391,-1.6560786406146448,0.12931299209594727,-1.5218337217914026,0.007119379006326199,0.0008392703020945191,0.6744500994682312,0.0,-0.0,0.0,0.0,0.0,0.0
1782664014,899089353,-1.6560905615436,0.1293010711669922,-1.5217974821673792,0.007143347058445215,0.0008153018425218761,0.6743901968002319,0.0,-0.0,0.0,0.0,0.0,0.0
1782664014,907184887,-1.656102482472555,0.12933731079101562,-1.5218456427203577,0.007179299835115671,0.0008033175836317241,0.6744141578674316,0.0,-0.0,0.0,0.0,0.0,0.0
1782664014,915083722,-1.6560428778277796,0.12933731079101562,-1.5218575636493128,0.007167315576225519,0.0008512545027770102,0.6743901968002319,0.0,-0.0,0.0,0.0,0.0,0.0
1782664014,923069277,-1.656102482472555,0.12932491302490234,-1.5218337217914026,0.007131362799555063,0.0008153018425218761,0.6744381189346313,0.0,-0.0,0.0,0.0,0.0,0.0
1782664014,931077425,-1.6560185591327112,0.1293492317199707,-1.5218694845782679,0.007119379006326199,0.0007789746159687638,0.6744141578674316,0.0,-0.0,0.0,0.0,0.0,0.0
1782664014,939081646,-1.6560905615436,0.1293010711669922,-1.5217855612384241,0.007155331317335367,0.0008033175836317241,0.6744021773338318,0.0,-0.0,0.0,0.0,0.0,0.0
1782664014,947083571,-1.6560547987567347,0.12931299209594727,-1.5218575636493128,0.007131362799555063,0.0008272860432043672,0.6744261384010315,0.0,-0.0,0.0,0.0,0.0,0.0
1782664014,955081385,-1.656102482472555,0.12937307357788086,-1.5218456427203577,0.007095410488545895,0.0008632387034595013,0.6744021773338318,0.0,-0.0,0.0,0.0,0.0,0.0
1782664014,963114995,-1.656102482472555,0.12927722930908203,-1.5218213240252894,0.007119379006326199,0.0008272860432043672,0.6744261384010315,0.0,-0.0,0.0,0.0,0.0,0.0
1782664014,971132308,-1.6560547987567347,0.12937307357788086,-1.5217855612384241,0.007119379006326199,0.0008392703020945191,0.6744141578674316,0.0,-0.0,0.0,0.0,0.0,0.0
1782664014,979095660,-1.6560905615436,0.12933731079101562,-1.5218575636493128,0.007107394747436047,0.0008153018425218761,0.6744261384010315,0.0,-0.0,0.0,0.0,0.0,0.0
1782664014,987085660,-1.6560547987567347,0.12933731079101562,-1.5218094030963343,0.007167315576225519,0.0008512545027770102,0.6744860410690308,0.0,-0.0,0.0,0.0,0.0,0.0
1782664014,995095381,-1.6560667196856897,0.12933731079101562,-1.5218094030963343,0.007131362799555063,0.0008272860432043672,0.6744141578674316,0.0,-0.0,0.0,0.0,0.0,0.0
1782664015,3186526,-1.6560309568988245,0.1293010711669922,-1.5218213240252894,0.007119379006326199,0.0008512545027770102,0.674462080001831,0.0,-0.0,0.0,0.0,0.0,0.0
1782664015,11095400,-1.6560309568988245,0.12933731079101562,-1.5218575636493128,0.007179299835115671,0.0008272860432043672,0.6744021773338318,0.0,-0.0,0.0,0.0,0.0,0.0
1782664015,19068846,-1.6560428778277796,0.1293010711669922,-1.5218094030963343,0.007167315576225519,0.0007789746159687638,0.6744021773338318,0.0,-0.0,0.0,0.0,0.0,0.0
1782664015,27093197,-1.656102482472555,0.12933731079101562,-1.5218456427203577,0.007107394747436047,0.0007789746159687638,0.6744381189346313,0.0,-0.0,0.0,0.0,0.0,0.0
1782664015,35087772,-1.6560786406146448,0.12931299209594727,-1.5218094030963343,0.007155331317335367,0.0007909588748589158,0.6744141578674316,0.0,-0.0,0.0,0.0,0.0,0.0
1782664015,43091810,-1.6560786406146448,0.12936115264892578,-1.5218213240252894,0.007131362799555063,0.0007789746159687638,0.6744141578674316,0.0,-0.0,0.0,0.0,0.0,0.0
1782664015,51081385,-1.6560667196856897,0.1293492317199707,-1.5217855612384241,0.007143347058445215,0.0007909588748589158,0.6744381189346313,0.0,-0.0,0.0,0.0,0.0,0.0
1782664015,59049256,-1.656102482472555,0.12933731079101562,-1.5218575636493128,0.007143347058445215,0.0007909588748589158,0.6744381189346313,0.0,-0.0,0.0,0.0,0.0,0.0
1782664015,67124829,-1.6560905615436,0.1293010711669922,-1.5218575636493128,0.007131362799555063,0.0008512545027770102,0.6744141578674316,0.0,-0.0,0.0,0.0,0.0,0.0
1782664015,75081349,-1.6560667196856897,0.12931299209594727,-1.5218456427203577,0.007167315576225519,0.0008033175836317241,0.6744261384010315,0.0,-0.0,0.0,0.0,0.0,0.0
1782664015,83070998,-1.6560786406146448,0.12933731079101562,-1.5217974821673792,0.007167315576225519,0.0008392703020945191,0.6744261384010315,0.0,-0.0,0.0,0.0,0.0,0.0
1782664015,91089369,-1.6560309568988245,0.12933731079101562,-1.5218094030963343,0.007119379006326199,0.0008153018425218761,0.6744021773338318,0.0,-0.0,0.0,0.0,0.0,0.0
1782664015,99080073,-1.6560667196856897,0.1293010711669922,-1.5218337217914026,0.007131362799555063,0.0008153018425218761,0.6743901968002319,0.0,-0.0,0.0,0.0,0.0,0.0
1782664015,107088648,-1.6560428778277796,0.12933731079101562,-1.5218337217914026,0.007119379006326199,0.0007909588748589158,0.6744740605354309,0.0,-0.0,0.0,0.0,0.0,0.0
1782664015,115097963,-1.6560185591327112,0.12933731079101562,-1.521881405507223,0.007131362799555063,0.0008033175836317241,0.6744500994682312,0.0,-0.0,0.0,0.0,0.0,0.0
1782664015,123103408,-1.6560309568988245,0.1293010711669922,-1.5218456427203577,0.007119379006326199,0.0008033175836317241,0.6744141578674316,0.0,-0.0,0.0,0.0,0.0,0.0
1782664015,131107871,-1.6560786406146448,0.12931299209594727,-1.5218094030963343,0.007167315576225519,0.0008392703020945191,0.6744261384010315,0.0,-0.0,0.0,0.0,0.0,0.0
1782664015,139090150,-1.6560185591327112,0.12933731079101562,-1.5217974821673792,0.007167315576225519,0.0008033175836317241,0.6744860410690308,0.0,-0.0,0.0,0.0,0.0,0.0
1782664015,147084225,-1.6560547987567347,0.1293010711669922,-1.5218337217914026,0.007167315576225519,0.0008033175836317241,0.6744381189346313,0.0,-0.0,0.0,0.0,0.0,0.0
1782664015,155087410,-1.6560066382037562,0.12932491302490234,-1.5218094030963343,0.007119379006326199,0.0008392703020945191,0.6744500994682312,0.0,-0.0,0.0,0.0,0.0,0.0
1782664015,163119873,-1.6560309568988245,0.12931299209594727,-1.5218456427203577,0.007143347058445215,0.0008153018425218761,0.6744381189346313,0.0,-0.0,0.0,0.0,0.0,0.0
1782664015,171089226,-1.6560905615436,0.1293492317199707,-1.5218213240252894,0.007179299835115671,0.0008512545027770102,0.6743901968002319,0.0,-0.0,0.0,0.0,0.0,0.0
1782664015,179112078,-1.6560905615436,0.12932491302490234,-1.5218337217914026,0.007167315576225519,0.0008392703020945191,0.6744740605354309,0.0,-0.0,0.0,0.0,0.0,0.0
1782664015,187084116,-1.6560905615436,0.12931299209594727,-1.5218456427203577,0.007131362799555063,0.0008033175836317241,0.6744141578674316,0.0,-0.0,0.0,0.0,0.0,0.0
1782664015,195128708,-1.6560786406146448,0.1293010711669922,-1.5218094030963343,0.007179299835115671,0.0008392703020945191,0.6744261384010315,0.0,-0.0,0.0,0.0,0.0,0.0
1782664015,203093617,-1.6560309568988245,0.12932491302490234,-1.5218213240252894,0.007131362799555063,0.0008392703020945191,0.6743901968002319,0.0,-0.0,0.0,0.0,0.0,0.0
1782664015,211094081,-1.6560667196856897,0.12937307357788086,-1.5217974821673792,0.007143347058445215,0.0008153018425218761,0.6744500994682312,0.0,-0.0,0.0,0.0,0.0,0.0
1782664015,219088507,-1.6560547987567347,0.1293492317199707,-1.5218575636493128,0.007179299835115671,0.0007909588748589158,0.6744261384010315,0.0,-0.0,0.0,0.0,0.0,0.0
1782664015,227129025,-1.6560185591327112,0.12937307357788086,-1.5217855612384241,0.007143347058445215,0.0008033175836317241,0.6744141578674316,0.0,-0.0,0.0,0.0,0.0,0.0
1782664015,235098304,-1.6561268011676233,0.1293010711669922,-1.5218694845782679,0.007155331317335367,0.0008392703020945191,0.6743782162666321,0.0,-0.0,0.0,0.0,0.0,0.0
1782664015,243080194,-1.6560428778277796,0.12933731079101562,-1.521893326436178,0.007119379006326199,0.0008033175836317241,0.6744141578674316,0.0,-0.0,0.0,0.0,0.0,0.0
1782664015,251115824,-1.6560905615436,0.12936115264892578,-1.5218456427203577,0.007155331317335367,0.0008272860432043672,0.6744261384010315,0.0,-0.0,0.0,0.0,0.0,0.0
1782664015,259187044,-1.6560905615436,0.12936115264892578,-1.5218456427203577,0.007119379006326199,0.0008153018425218761,0.674462080001831,0.0,-0.0,0.0,0.0,0.0,0.0
1782664015,267122139,-1.6560547987567347,0.1293492317199707,-1.5218456427203577,0.007155331317335367,0.0008153018425218761,0.6744500994682312,0.0,-0.0,0.0,0.0,0.0,0.0
1782664015,275094696,-1.6560905615436,0.12933731079101562,-1.5218337217914026,0.007179299835115671,0.0008512545027770102,0.6744381189346313,0.0,-0.0,0.0,0.0,0.0,0.0
1782664015,283098511,-1.6560667196856897,0.12927722930908203,-1.5218337217914026,0.007071441970765591,0.0007669904152862728,0.6743782162666321,0.0,-0.0,0.0,0.0,0.0,0.0
1782664015,291095605,-1.6560905615436,0.12936115264892578,-1.5218337217914026,0.007143347058445215,0.0008153018425218761,0.6744500994682312,0.0,-0.0,0.0,0.0,0.0,0.0
1782664015,299162603,-1.6561268011676233,0.12933731079101562,-1.5218337217914026,0.007143347058445215,0.0008272860432043672,0.6744261384010315,0.0,-0.0,0.0,0.0,0.0,0.0
1782664015,307067773,-1.6560428778277796,0.12936115264892578,-1.5218213240252894,0.007155331317335367,0.0007909588748589158,0.6744381189346313,0.0,-0.0,0.0,0.0,0.0,0.0
1782664015,315105236,-1.656102482472555,0.1293492317199707,-1.5218213240252894,0.007167315576225519,0.0008153018425218761,0.6744381189346313,0.0,-0.0,0.0,0.0,0.0,0.0
1782664015,323215289,-1.6560428778277796,0.12937307357788086,-1.5217974821673792,0.007107394747436047,0.0008512545027770102,0.6744500994682312,0.0,-0.0,0.0,0.0,0.0,0.0
1782664015,331103496,-1.6560547987567347,0.1293010711669922,-1.5218337217914026,0.007155331317335367,0.0008512545027770102,0.6743901968002319,0.0,-0.0,0.0,0.0,0.0,0.0
1782664015,339074609,-1.6561268011676233,0.12936115264892578,-1.5218337217914026,0.007167315576225519,0.0008153018425218761,0.6744261384010315,0.0,-0.0,0.0,0.0,0.0,0.0
1782664015,347078665,-1.6560547987567347,0.12937307357788086,-1.5218337217914026,0.007179299835115671,0.0008033175836317241,0.6743782162666321,0.0,-0.0,0.0,0.0,0.0,0.0
1782664015,355191273,-1.65611440340151,0.1292891502380371,-1.5218337217914026,0.007119379006326199,0.0008153018425218761,0.6743901968002319,0.0,-0.0,0.0,0.0,0.0,0.0
1782664015,363097036,-1.6560547987567347,0.12936115264892578,-1.521881405507223,0.007119379006326199,0.0008512545027770102,0.6744021773338318,0.0,-0.0,0.0,0.0,0.0,0.0
1782664015,371073074,-1.6560667196856897,0.12932491302490234,-1.5218094030963343,0.007131362799555063,0.0008392703020945191,0.6744381189346313,0.0,-0.0,0.0,0.0,0.0,0.0
1782664015,379087778,-1.6560905615436,0.12931299209594727,-1.5218337217914026,0.007167315576225519,0.0008033175836317241,0.6744261384010315,0.0,-0.0,0.0,0.0,0.0,0.0
1782664015,387126333,-1.6560786406146448,0.12926530838012695,-1.5218337217914026,0.007167315576225519,0.0008153018425218761,0.6744740605354309,0.0,-0.0,0.0,0.0,0.0,0.0
1782664015,395092131,-1.6560667196856897,0.12932491302490234,-1.5218456427203577,0.007143347058445215,0.0007909588748589158,0.6743901968002319,0.0,-0.0,0.0,0.0,0.0,0.0
1782664015,403077020,-1.6560905615436,0.12937307357788086,-1.5218456427203577,0.007179299835115671,0.0007909588748589158,0.6744500994682312,0.0,-0.0,0.0,0.0,0.0,0.0
1782664015,411102872,-1.6560905615436,0.12932491302490234,-1.5218337217914026,0.007179299835115671,0.0008153018425218761,0.6744740605354309,0.0,-0.0,0.0,0.0,0.0,0.0
1782664015,419128816,-1.6560428778277796,0.1293010711669922,-1.5218337217914026,0.007119379006326199,0.0008033175836317241,0.6744740605354309,0.0,-0.0,0.0,0.0,0.0,0.0
1782664015,427092188,-1.6560786406146448,0.12932491302490234,-1.5218456427203577,0.007131362799555063,0.0007909588748589158,0.6744381189346313,0.0,-0.0,0.0,0.0,0.0,0.0
1782664015,435074949,-1.6560786406146448,0.1293492317199707,-1.5218575636493128,0.007179299835115671,0.0008392703020945191,0.6744500994682312,0.0,-0.0,0.0,0.0,0.0,0.0
1782664015,443084245,-1.6560547987567347,0.12933731079101562,-1.5218694845782679,0.007167315576225519,0.0007909588748589158,0.6743901968002319,0.0,-0.0,0.0,0.0,0.0,0.0
1782664015,451115041,-1.6560428778277796,0.1292891502380371,-1.5218213240252894,0.007155331317335367,0.0007789746159687638,0.6744381189346313,0.0,-0.0,0.0,0.0,0.0,0.0
1782664015,459091228,-1.6560066382037562,0.1293492317199707,-1.5217855612384241,0.007155331317335367,0.0008392703020945191,0.6744740605354309,0.0,-0.0,0.0,0.0,0.0,0.0
1782664015,467088451,-1.6561387220965784,0.12932491302490234,-1.5218213240252894,0.007167315576225519,0.0008512545027770102,0.6744261384010315,0.0,-0.0,0.0,0.0,0.0,0.0
1782664015,475086914,-1.6560667196856897,0.12933731079101562,-1.5218456427203577,0.007119379006326199,0.0008272860432043672,0.6744261384010315,0.0,-0.0,0.0,0.0,0.0,0.0
1782664015,483086952,-1.6560428778277796,0.12932491302490234,-1.5218213240252894,0.007083426229655743,0.0008153018425218761,0.674462080001831,0.0,-0.0,0.0,0.0,0.0,0.0
1782664015,491085267,-1.6560547987567347,0.12933731079101562,-1.5218213240252894,0.007143347058445215,0.0008033175836317241,0.6744261384010315,0.0,-0.0,0.0,0.0,0.0,0.0
1782664015,499090175,-1.6560667196856897,0.1293492317199707,-1.5218337217914026,0.007155331317335367,0.0008153018425218761,0.6744021773338318,0.0,-0.0,0.0,0.0,0.0,0.0
1782664015,507087139,-1.6560667196856897,0.12933731079101562,-1.5218337217914026,0.007083426229655743,0.0008153018425218761,0.6744500994682312,0.0,-0.0,0.0,0.0,0.0,0.0
1782664015,515094398,-1.6560428778277796,0.12932491302490234,-1.5218456427203577,0.007131362799555063,0.0008272860432043672,0.6744740605354309,0.0,-0.0,0.0,0.0,0.0,0.0
1782664015,523101454,-1.656102482472555,0.12937307357788086,-1.5218094030963343,0.007083426229655743,0.0008033175836317241,0.6744261384010315,0.0,-0.0,0.0,0.0,0.0,0.0
1782664015,531074585,-1.6560309568988245,0.12927722930908203,-1.5218337217914026,0.007155331317335367,0.0008033175836317241,0.6744141578674316,0.0,-0.0,0.0,0.0,0.0,0.0
1782664015,539087159,-1.6560428778277796,0.1293492317199707,-1.5218456427203577,0.007119379006326199,0.0007909588748589158,0.6744500994682312,0.0,-0.0,0.0,0.0,0.0,0.0
1782664015,547122566,-1.6560667196856897,0.12933731079101562,-1.5218456427203577,0.007143347058445215,0.0008033175836317241,0.6744500994682312,0.0,-0.0,0.0,0.0,0.0,0.0
1782664015,555090642,-1.6560309568988245,0.12936115264892578,-1.5217855612384241,0.007143347058445215,0.0007909588748589158,0.6744500994682312,0.0,-0.0,0.0,0.0,0.0,0.0
1782664015,563077587,-1.6560667196856897,0.12932491302490234,-1.5218575636493128,0.007119379006326199,0.0008512545027770102,0.6744500994682312,0.0,-0.0,0.0,0.0,0.0,0.0
1782664015,571083569,-1.6560786406146448,0.1292891502380371,-1.5217855612384241,0.007155331317335367,0.0007789746159687638,0.6744141578674316,0.0,-0.0,0.0,0.0,0.0,0.0
