LukePepin/On-Edge/data/archived_logs/deceleration_data_1782664165.csv
timestamp_sec,timestamp_nanosec,shoulder_pan_pos,shoulder_lift_pos,elbow_pos,wrist_1_pos,wrist_2_pos,wrist_3_pos,shoulder_pan_vel,shoulder_lift_vel,elbow_vel,wrist_1_vel,wrist_2_vel,wrist_3_vel
1782664167,165725616,-1.6560905615436,0.12932491302490234,-1.521773640309469,0.007155331317335367,0.0008512545027770102,0.6744740605354309,0.0,-0.0,0.0,0.0,0.0,0.0
1782664167,173758614,-1.6560786406146448,0.1293010711669922,-1.5218575636493128,0.007143347058445215,0.0008632387034595013,0.674462080001831,0.0,-0.0,0.0,0.0,0.0,0.0
1782664167,181701002,-1.65611440340151,0.12933731079101562,-1.5218456427203577,0.007107394747436047,0.0008392703020945191,0.6744980216026306,0.0,-0.0,0.0,0.0,0.0,0.0
1782664167,189710834,-1.6560185591327112,0.12933731079101562,-1.5218337217914026,0.007107394747436047,0.0008392703020945191,0.6745100021362305,0.0,-0.0,0.0,0.0,0.0,0.0
1782664167,197699481,-1.6560428778277796,0.12931299209594727,-1.5218213240252894,0.007131362799555063,0.0008512545027770102,0.6744381189346313,0.0,-0.0,0.0,0.0,0.0,0.0
1782664167,205709516,-1.6560905615436,0.1293010711669922,-1.5218213240252894,0.007131362799555063,0.0008272860432043672,0.6744381189346313,0.0,-0.0,0.0,0.0,0.0,0.0
1782664167,213744014,-1.6560786406146448,0.1293010711669922,-1.5218456427203577,0.007095410488545895,0.0008392703020945191,0.674462080001831,0.0,-0.0,0.0,0.0,0.0,0.0
1782664167,221708958,-1.6560905615436,0.1292891502380371,-1.5218694845782679,0.007107394747436047,0.0008272860432043672,0.6744500994682312,0.0,-0.0,0.0,0.0,0.0,0.0
1782664167,229705956,-1.6560786406146448,0.12925338745117188,-1.5217974821673792,0.007167315576225519,0.0008392703020945191,0.6744740605354309,0.0,-0.0,0.0,0.0,0.0,0.0
1782664167,237708196,-1.6560905615436,0.1292891502380371,-1.521881405507223,0.007131362799555063,0.0008033175836317241,0.6744500994682312,0.0,-0.0,0.0,0.0,0.0,0.0
1782664167,245742194,-1.6560547987567347,0.1293010711669922,-1.5218337217914026,0.007131362799555063,0.0008392703020945191,0.6744860410690308,0.0,-0.0,0.0,0.0,0.0,0.0
1782664167,253710230,-1.6560428778277796,0.12933731079101562,-1.5218575636493128,0.007167315576225519,0.0008153018425218761,0.6744261384010315,0.0,-0.0,0.0,0.0,0.0,0.0
1782664167,261693747,-1.6560786406146448,0.12926530838012695,-1.5218213240252894,0.007167315576225519,0.0008153018425218761,0.6744740605354309,0.0,-0.0,0.0,0.0,0.0,0.0
1782664167,269704079,-1.6560905615436,0.1293010711669922,-1.5218213240252894,0.007215252611786127,0.0007909588748589158,0.6744500994682312,0.0,-0.0,0.0,0.0,0.0,0.0
1782664167,277743151,-1.6560066382037562,0.12931299209594727,-1.5218094030963343,0.007095410488545895,0.0007909588748589158,0.6745100021362305,0.0,-0.0,0.0,0.0,0.0,0.0
1782664167,285707409,-1.6560786406146448,0.1292891502380371,-1.5217855612384241,0.007143347058445215,0.0008392703020945191,0.6744860410690308,0.0,-0.0,0.0,0.0,0.0,0.0
1782664167,293694500,-1.6560428778277796,0.12931299209594727,-1.5218456427203577,0.007143347058445215,0.0007789746159687638,0.674462080001831,0.0,-0.0,0.0,0.0,0.0,0.0
1782664167,301726239,-1.6560547987567347,0.1292891502380371,-1.5218337217914026,0.007131362799555063,0.0008272860432043672,0.6744860410690308,0.0,-0.0,0.0,0.0,0.0,0.0
1782664167,309796607,-1.6561268011676233,0.12925338745117188,-1.5218213240252894,0.007107394747436047,0.0007909588748589158,0.674462080001831,0.0,-0.0,0.0,0.0,0.0,0.0
1782664167,317702273,-1.6560905615436,0.1293010711669922,-1.5217855612384241,0.007143347058445215,0.0007909588748589158,0.6744860410690308,0.0,-0.0,0.0,0.0,0.0,0.0
1782664167,325700179,-1.6560905615436,0.1292891502380371,-1.5218456427203577,0.007119379006326199,0.0008033175836317241,0.6744261384010315,0.0,-0.0,0.0,0.0,0.0,0.0
1782664167,333713307,-1.6560667196856897,0.12931299209594727,-1.5218456427203577,0.007143347058445215,0.0008153018425218761,0.6744860410690308,0.0,-0.0,0.0,0.0,0.0,0.0
1782664167,341805064,-1.6560786406146448,0.12925338745117188,-1.5218337217914026,0.007119379006326199,0.0007789746159687638,0.6745339632034302,0.0,-0.0,0.0,0.0,0.0,0.0
1782664167,349707656,-1.6560786406146448,0.12927722930908203,-1.5218337217914026,0.007107394747436047,0.0007430219557136297,0.6744980216026306,0.0,-0.0,0.0,0.0,0.0,0.0
1782664167,357703914,-1.656102482472555,0.1292891502380371,-1.5218337217914026,0.007155331317335367,0.0008392703020945191,0.6744261384010315,0.0,-0.0,0.0,0.0,0.0,0.0
1782664167,365749394,-1.6561268011676233,0.1293010711669922,-1.5218094030963343,0.007143347058445215,0.0008392703020945191,0.6744261384010315,0.0,-0.0,0.0,0.0,0.0,0.0
1782664167,373780503,-1.6560905615436,0.1292891502380371,-1.5218337217914026,0.007143347058445215,0.0008153018425218761,0.6744500994682312,0.0,-0.0,0.0,0.0,0.0,0.0
1782664167,381698521,-1.6560667196856897,0.12931299209594727,-1.5217974821673792,0.007167315576225519,0.0008632387034595013,0.6744860410690308,0.0,-0.0,0.0,0.0,0.0,0.0
1782664167,389696057,-1.6560547987567347,0.12931299209594727,-1.5218213240252894,0.007143347058445215,0.0008153018425218761,0.6744500994682312,0.0,-0.0,0.0,0.0,0.0,0.0
1782664167,397708870,-1.6560667196856897,0.12931299209594727,-1.5218456427203577,0.007095410488545895,0.0008512545027770102,0.6744860410690308,0.0,-0.0,0.0,0.0,0.0,0.0
1782664167,405759109,-1.6560905615436,0.12926530838012695,-1.521893326436178,0.007167315576225519,0.0007909588748589158,0.6744740605354309,0.0,-0.0,0.0,0.0,0.0,0.0
1782664167,413712478,-1.6560786406146448,0.1292891502380371,-1.5218213240252894,0.007119379006326199,0.0008392703020945191,0.6744860410690308,0.0,-0.0,0.0,0.0,0.0,0.0
1782664167,421700625,-1.6560905615436,0.1292891502380371,-1.5218456427203577,0.007107394747436047,0.0007909588748589158,0.6744740605354309,0.0,-0.0,0.0,0.0,0.0,0.0
1782664167,429718197,-1.6560309568988245,0.12926530838012695,-1.521881405507223,0.007107394747436047,0.0008153018425218761,0.674462080001831,0.0,-0.0,0.0,0.0,0.0,0.0
1782664167,437748918,-1.6560547987567347,0.12931299209594727,-1.5218456427203577,0.007155331317335367,0.0007789746159687638,0.6745219826698303,0.0,-0.0,0.0,0.0,0.0,0.0
1782664167,445708120,-1.6560547987567347,0.12932491302490234,-1.5218213240252894,0.007167315576225519,0.0007669904152862728,0.6744980216026306,0.0,-0.0,0.0,0.0,0.0,0.0
1782664167,453703841,-1.65611440340151,0.12931299209594727,-1.5218213240252894,0.007167315576225519,0.0008512545027770102,0.6744500994682312,0.0,-0.0,0.0,0.0,0.0,0.0
1782664167,461708247,-1.6560667196856897,0.12931299209594727,-1.5218575636493128,0.007143347058445215,0.0008392703020945191,0.6745219826698303,0.0,-0.0,0.0,0.0,0.0,0.0
1782664167,469746486,-1.6560667196856897,0.12933731079101562,-1.5218213240252894,0.007107394747436047,0.0007789746159687638,0.6744860410690308,0.0,-0.0,0.0,0.0,0.0,0.0
1782664167,477713855,-1.656102482472555,0.12932491302490234,-1.5218456427203577,0.007167315576225519,0.0008272860432043672,0.674462080001831,0.0,-0.0,0.0,0.0,0.0,0.0
1782664167,485697687,-1.6560667196856897,0.12931299209594727,-1.5218337217914026,0.007143347058445215,0.0008153018425218761,0.6744381189346313,0.0,-0.0,0.0,0.0,0.0,0.0
1782664167,493701538,-1.656102482472555,0.1292891502380371,-1.5218456427203577,0.007167315576225519,0.0008272860432043672,0.6744381189346313,0.0,-0.0,0.0,0.0,0.0,0.0
1782664167,501734702,-1.6560786406146448,0.12932491302490234,-1.5218456427203577,0.007143347058445215,0.0007909588748589158,0.6744500994682312,0.0,-0.0,0.0,0.0,0.0,0.0
1782664167,509736756,-1.6560667196856897,0.12933731079101562,-1.5218213240252894,0.007143347058445215,0.0008153018425218761,0.6744980216026306,0.0,-0.0,0.0,0.0,0.0,0.0
1782664167,517695829,-1.65611440340151,0.12931299209594727,-1.5218456427203577,0.007119379006326199,0.0008153018425218761,0.6744261384010315,0.0,-0.0,0.0,0.0,0.0,0.0
1782664167,525707995,-1.6560309568988245,0.12933731079101562,-1.5218094030963343,0.007119379006326199,0.0008632387034595013,0.6744500994682312,0.0,-0.0,0.0,0.0,0.0,0.0
1782664167,533741215,-1.6560786406146448,0.12926530838012695,-1.5218337217914026,0.007119379006326199,0.0008033175836317241,0.674462080001831,0.0,-0.0,0.0,0.0,0.0,0.0
1782664167,541724158,-1.6560667196856897,0.12926530838012695,-1.5218694845782679,0.007167315576225519,0.0008153018425218761,0.6744500994682312,0.0,-0.0,0.0,0.0,0.0,0.0
1782664167,549687583,-1.6560185591327112,0.12927722930908203,-1.5218456427203577,0.007143347058445215,0.0008033175836317241,0.6744860410690308,0.0,-0.0,0.0,0.0,0.0,0.0
1782664167,557699581,-1.6560428778277796,0.1293010711669922,-1.5218456427203577,0.007107394747436047,0.0008632387034595013,0.6745100021362305,0.0,-0.0,0.0,0.0,0.0,0.0
1782664167,565708895,-1.6560786406146448,0.12927722930908203,-1.5218337217914026,0.007107394747436047,0.0008392703020945191,0.674462080001831,0.0,-0.0,0.0,0.0,0.0,0.0
1782664167,573713189,-1.6560547987567347,0.1292891502380371,-1.5218694845782679,0.007119379006326199,0.0008153018425218761,0.6744261384010315,0.0,-0.0,0.0,0.0,0.0,0.0
1782664167,581709558,-1.6560786406146448,0.12925338745117188,-1.5218456427203577,0.007131362799555063,0.0008272860432043672,0.6744381189346313,0.0,-0.0,0.0,0.0,0.0,0.0
1782664167,589733927,-1.6560786406146448,0.12932491302490234,-1.5218094030963343,0.007155331317335367,0.0007909588748589158,0.6744381189346313,0.0,-0.0,0.0,0.0,0.0,0.0
1782664167,597741648,-1.6560667196856897,0.1293010711669922,-1.5218456427203577,0.007155331317335367,0.0007909588748589158,0.6744860410690308,0.0,-0.0,0.0,0.0,0.0,0.0
1782664167,605708035,-1.6560667196856897,0.1292891502380371,-1.5218094030963343,0.007167315576225519,0.0008272860432043672,0.6744980216026306,0.0,-0.0,0.0,0.0,0.0,0.0
1782664167,613694404,-1.6560547987567347,0.12933731079101562,-1.5217974821673792,0.007131362799555063,0.0008033175836317241,0.6744740605354309,0.0,-0.0,0.0,0.0,0.0,0.0
1782664167,621712125,-1.656102482472555,0.12931299209594727,-1.5218337217914026,0.007131362799555063,0.0008392703020945191,0.6744500994682312,0.0,-0.0,0.0,0.0,0.0,0.0
1782664167,629805771,-1.6560667196856897,0.12927722930908203,-1.5218575636493128,0.007131362799555063,0.0008153018425218761,0.6745100021362305,0.0,-0.0,0.0,0.0,0.0,0.0
1782664167,637709548,-1.6560786406146448,0.1293010711669922,-1.5218213240252894,0.007179299835115671,0.0007909588748589158,0.6744740605354309,0.0,-0.0,0.0,0.0,0.0,0.0
1782664167,645699065,-1.6560428778277796,0.1293010711669922,-1.5218456427203577,0.007107394747436047,0.0008153018425218761,0.6744141578674316,0.0,-0.0,0.0,0.0,0.0,0.0
1782664167,653715230,-1.6560547987567347,0.1293010711669922,-1.5218456427203577,0.007131362799555063,0.0008272860432043672,0.674462080001831,0.0,-0.0,0.0,0.0,0.0,0.0
1782664167,661805969,-1.65611440340151,0.1293010711669922,-1.5218337217914026,0.007107394747436047,0.0007789746159687638,0.6744500994682312,0.0,-0.0,0.0,0.0,0.0,0.0
1782664167,669710320,-1.6560786406146448,0.12932491302490234,-1.5218213240252894,0.007119379006326199,0.0008632387034595013,0.674462080001831,0.0,-0.0,0.0,0.0,0.0,0.0
1782664167,677739207,-1.6560905615436,0.1293010711669922,-1.5218456427203577,0.007155331317335367,0.0008272860432043672,0.6744980216026306,0.0,-0.0,0.0,0.0,0.0,0.0
1782664167,685718484,-1.6560905615436,0.1292891502380371,-1.5217855612384241,0.007143347058445215,0.0008033175836317241,0.674462080001831,0.0,-0.0,0.0,0.0,0.0,0.0
1782664167,693802481,-1.65611440340151,0.12926530838012695,-1.5218456427203577,0.007143347058445215,0.0008272860432043672,0.6745100021362305,0.0,-0.0,0.0,0.0,0.0,0.0
1782664167,701713240,-1.6560786406146448,0.12931299209594727,-1.5218213240252894,0.007095410488545895,0.0008153018425218761,0.6744860410690308,0.0,-0.0,0.0,0.0,0.0,0.0
1782664167,709694887,-1.656102482472555,0.12931299209594727,-1.521881405507223,0.007119379006326199,0.0008392703020945191,0.674462080001831,0.0,-0.0,0.0,0.0,0.0,0.0
1782664167,717716219,-1.656102482472555,0.12931299209594727,-1.5218337217914026,0.007119379006326199,0.0007909588748589158,0.6744980216026306,0.0,-0.0,0.0,0.0,0.0,0.0
1782664167,725725050,-1.656102482472555,0.1293010711669922,-1.5218213240252894,0.007095410488545895,0.0008392703020945191,0.6744740605354309,0.0,-0.0,0.0,0.0,0.0,0.0
1782664167,733730641,-1.6560428778277796,0.12931299209594727,-1.5218094030963343,0.007119379006326199,0.0007789746159687638,0.674462080001831,0.0,-0.0,0.0,0.0,0.0,0.0
1782664167,741697548,-1.6560309568988245,0.12932491302490234,-1.5218575636493128,0.007155331317335367,0.0007909588748589158,0.674462080001831,0.0,-0.0,0.0,0.0,0.0,0.0
1782664167,749725231,-1.6560309568988245,0.12932491302490234,-1.5218094030963343,0.007179299835115671,0.0008033175836317241,0.674462080001831,0.0,-0.0,0.0,0.0,0.0,0.0
1782664167,757812673,-1.6560786406146448,0.12933731079101562,-1.5218337217914026,0.007119379006326199,0.0008033175836317241,0.6744381189346313,0.0,-0.0,0.0,0.0,0.0,0.0
1782664167,765720858,-1.6560786406146448,0.12927722930908203,-1.5218456427203577,0.007167315576225519,0.0008033175836317241,0.6744740605354309,0.0,-0.0,0.0,0.0,0.0,0.0
1782664167,773699042,-1.6561268011676233,0.12933731079101562,-1.5218213240252894,0.007143347058445215,0.0008392703020945191,0.6744500994682312,0.0,-0.0,0.0,0.0,0.0,0.0
1782664167,781727503,-1.6560905615436,0.12931299209594727,-1.5218213240252894,0.007083426229655743,0.0008512545027770102,0.6745219826698303,0.0,-0.0,0.0,0.0,0.0,0.0
1782664167,789808593,-1.6560428778277796,0.12933731079101562,-1.5218694845782679,0.007131362799555063,0.0008392703020945191,0.6744500994682312,0.0,-0.0,0.0,0.0,0.0,0.0
1782664167,797710037,-1.6560786406146448,0.12932491302490234,-1.5218694845782679,0.007119379006326199,0.0008272860432043672,0.6744860410690308,0.0,-0.0,0.0,0.0,0.0,0.0
1782664167,805708777,-1.6560667196856897,0.12927722930908203,-1.5218094030963343,0.007119379006326199,0.0007669904152862728,0.6745100021362305,0.0,-0.0,0.0,0.0,0.0,0.0
1782664167,813709905,-1.6560905615436,0.12927722930908203,-1.5218694845782679,0.007107394747436047,0.0008272860432043672,0.6744261384010315,0.0,-0.0,0.0,0.0,0.0,0.0
1782664167,821779217,-1.6560786406146448,0.12933731079101562,-1.5218337217914026,0.007131362799555063,0.0008272860432043672,0.6744500994682312,0.0,-0.0,0.0,0.0,0.0,0.0
1782664167,829712217,-1.6560786406146448,0.12927722930908203,-1.5218694845782679,0.007155331317335367,0.0007789746159687638,0.6745100021362305,0.0,-0.0,0.0,0.0,0.0,0.0
1782664167,837705771,-1.6560905615436,0.1293010711669922,-1.5217974821673792,0.007167315576225519,0.0008033175836317241,0.6744980216026306,0.0,-0.0,0.0,0.0,0.0,0.0
1782664167,845712251,-1.6560667196856897,0.12925338745117188,-1.5218575636493128,0.007155331317335367,0.0008033175836317241,0.6744860410690308,0.0,-0.0,0.0,0.0,0.0,0.0
1782664167,853739841,-1.6560786406146448,0.12926530838012695,-1.5218213240252894,0.007143347058445215,0.0008153018425218761,0.6744500994682312,0.0,-0.0,0.0,0.0,0.0,0.0
1782664167,861706192,-1.6560547987567347,0.12926530838012695,-1.5218213240252894,0.007131362799555063,0.0008272860432043672,0.6744141578674316,0.0,-0.0,0.0,0.0,0.0,0.0
1782664167,869697876,-1.6560547987567347,0.12925338745117188,-1.5218094030963343,0.007119379006326199,0.0008392703020945191,0.6744381189346313,0.0,-0.0,0.0,0.0,0.0,0.0
1782664167,877713911,-1.656102482472555,0.12932491302490234,-1.521881405507223,0.007167315576225519,0.0008392703020945191,0.6744860410690308,0.0,-0.0,0.0,0.0,0.0,0.0
1782664167,885801391,-1.6560547987567347,0.1293010711669922,-1.5218337217914026,0.007143347058445215,0.0008033175836317241,0.674462080001831,0.0,-0.0,0.0,0.0,0.0,0.0
1782664167,893715557,-1.6560905615436,0.12931299209594727,-1.5218337217914026,0.007167315576225519,0.0008272860432043672,0.674462080001831,0.0,-0.0,0.0,0.0,0.0,0.0
1782664167,901705018,-1.6560667196856897,0.12926530838012695,-1.5217974821673792,0.007131362799555063,0.0008272860432043672,0.6744500994682312,0.0,-0.0,0.0,0.0,0.0,0.0
1782664167,909702943,-1.656102482472555,0.1293010711669922,-1.5218094030963343,0.007143347058445215,0.0007909588748589158,0.6744860410690308,0.0,-0.0,0.0,0.0,0.0,0.0
1782664167,917737830,-1.6560786406146448,0.12926530838012695,-1.5218575636493128,0.007155331317335367,0.0008272860432043672,0.6745100021362305,0.0,-0.0,0.0,0.0,0.0,0.0
1782664167,925717180,-1.6560905615436,0.1293010711669922,-1.5218094030963343,0.007107394747436047,0.0007909588748589158,0.674462080001831,0.0,-0.0,0.0,0.0,0.0,0.0
1782664167,933717457,-1.6560309568988245,0.1292891502380371,-1.5218213240252894,0.007155331317335367,0.0008632387034595013,0.6744740605354309,0.0,-0.0,0.0,0.0,0.0,0.0
1782664167,941710974,-1.6560428778277796,0.1293010711669922,-1.5218456427203577,0.007179299835115671,0.0007909588748589158,0.674462080001831,0.0,-0.0,0.0,0.0,0.0,0.0
1782664167,949745509,-1.65611440340151,0.12933731079101562,-1.521773640309469,0.007155331317335367,0.0007789746159687638,0.6745100021362305,0.0,-0.0,0.0,0.0,0.0,0.0
1782664167,957719415,-1.6560547987567347,0.12927722930908203,-1.5218213240252894,0.007119379006326199,0.0008272860432043672,0.6744381189346313,0.0,-0.0,0.0,0.0,0.0,0.0
1782664167,965701858,-1.6560786406146448,0.12933731079101562,-1.5218337217914026,0.007167315576225519,0.0008272860432043672,0.674462080001831,0.0,-0.0,0.0,0.0,0.0,0.0
1782664167,973713820,-1.6560905615436,0.12931299209594727,-1.5217855612384241,0.007143347058445215,0.0008153018425218761,0.674462080001831,0.0,-0.0,0.0,0.0,0.0,0.0
1782664167,981764225,-1.6560786406146448,0.12932491302490234,-1.5218575636493128,0.007131362799555063,0.0008153018425218761,0.674462080001831,0.0,-0.0,0.0,0.0,0.0,0.0
1782664167,989704206,-1.6560786406146448,0.1292891502380371,-1.5218337217914026,0.007083426229655743,0.0008033175836317241,0.6744141578674316,0.0,-0.0,0.0,0.0,0.0,0.0
1782664167,997692241,-1.6560905615436,0.12932491302490234,-1.521881405507223,0.007167315576225519,0.0008392703020945191,0.6744261384010315,0.0,-0.0,0.0,0.0,0.0,0.0
1782664168,5705814,-1.6560428778277796,0.1293010711669922,-1.5218337217914026,0.007095410488545895,0.0008153018425218761,0.6744860410690308,0.0,-0.0,0.0,0.0,0.0,0.0
1782664168,13747443,-1.6560667196856897,0.12931299209594727,-1.5218575636493128,0.007143347058445215,0.0007909588748589158,0.6744860410690308,0.0,-0.0,0.0,0.0,0.0,0.0
1782664168,21718868,-1.6560547987567347,0.1293010711669922,-1.5218213240252894,0.007143347058445215,0.0007909588748589158,0.6744860410690308,0.0,-0.0,0.0,0.0,0.0,0.0
1782664168,29701034,-1.6560547987567347,0.1292891502380371,-1.5218337217914026,0.007107394747436047,0.0008033175836317241,0.6744500994682312,0.0,-0.0,0.0,0.0,0.0,0.0
1782664168,37699441,-1.6560547987567347,0.12927722930908203,-1.5218456427203577,0.007155331317335367,0.0008033175836317241,0.6744500994682312,0.0,-0.0,0.0,0.0,0.0,0.0
1782664168,45715181,-1.6560786406146448,0.1292891502380371,-1.5218694845782679,0.007119379006326199,0.0008033175836317241,0.674462080001831,0.0,-0.0,0.0,0.0,0.0,0.0
1782664168,53713698,-1.6560309568988245,0.12931299209594727,-1.5218575636493128,0.007119379006326199,0.0008392703020945191,0.6744860410690308,0.0,-0.0,0.0,0.0,0.0,0.0
1782664168,61702179,-1.6560905615436,0.1292891502380371,-1.5218456427203577,0.007143347058445215,0.0008272860432043672,0.6744860410690308,0.0,-0.0,0.0,0.0,0.0,0.0
1782664168,69705771,-1.6560667196856897,0.12927722930908203,-1.5218456427203577,0.007155331317335367,0.0008392703020945191,0.6744261384010315,0.0,-0.0,0.0,0.0,0.0,0.0
1782664168,77740751,-1.6560786406146448,0.12931299209594727,-1.5218337217914026,0.007131362799555063,0.0008512545027770102,0.6744500994682312,0.0,-0.0,0.0,0.0,0.0,0.0
1782664168,85712195,-1.6560428778277796,0.12931299209594727,-1.5218213240252894,0.007143347058445215,0.0008392703020945191,0.6744500994682312,0.0,-0.0,0.0,0.0,0.0,0.0
1782664168,93725213,-1.6560667196856897,0.12932491302490234,-1.521881405507223,0.007143347058445215,0.0007909588748589158,0.6744500994682312,0.0,-0.0,0.0,0.0,0.0,0.0
1782664168,101717490,-1.6560667196856897,0.1293010711669922,-1.5218575636493128,0.007143347058445215,0.0008392703020945191,0.6744860410690308,0.0,-0.0,0.0,0.0,0.0,0.0
1782664168,109744637,-1.6560905615436,0.12933731079101562,-1.5218575636493128,0.007167315576225519,0.0007909588748589158,0.6744740605354309,0.0,-0.0,0.0,0.0,0.0,0.0
1782664168,117706322,-1.6560786406146448,0.12927722930908203,-1.5218575636493128,0.007155331317335367,0.0008272860432043672,0.6745219826698303,0.0,-0.0,0.0,0.0,0.0,0.0
1782664168,125697581,-1.6560547987567347,0.12931299209594727,-1.5218575636493128,0.007203268352895975,0.0008392703020945191,0.6745219826698303,0.0,-0.0,0.0,0.0,0.0,0.0
1782664168,133717968,-1.6560786406146448,0.12927722930908203,-1.521881405507223,0.007119379006326199,0.0008153018425218761,0.6744500994682312,0.0,-0.0,0.0,0.0,0.0,0.0
1782664168,141803189,-1.6560185591327112,0.12927722930908203,-1.5218213240252894,0.007155331317335367,0.0008512545027770102,0.674462080001831,0.0,-0.0,0.0,0.0,0.0,0.0
1782664168,149705930,-1.6560309568988245,0.1292891502380371,-1.5218337217914026,0.007095410488545895,0.0007909588748589158,0.6744500994682312,0.0,-0.0,0.0,0.0,0.0,0.0
1782664168,157693800,-1.6560547987567347,0.1292891502380371,-1.5218337217914026,0.007131362799555063,0.0008153018425218761,0.6744980216026306,0.0,-0.0,0.0,0.0,0.0,0.0
1782664168,165706058,-1.6560905615436,0.12931299209594727,-1.5218575636493128,0.007143347058445215,0.0008153018425218761,0.6745100021362305,0.0,-0.0,0.0,0.0,0.0,0.0
1782664168,173702150,-1.6560547987567347,0.12931299209594727,-1.5218213240252894,0.007095410488545895,0.0007909588748589158,0.6744261384010315,0.0,-0.0,0.0,0.0,0.0,0.0
1782664168,181772686,-1.6560786406146448,0.1293010711669922,-1.5218456427203577,0.007119379006326199,0.0007909588748589158,0.6744860410690308,0.0,-0.0,0.0,0.0,0.0,0.0
1782664168,189719000,-1.6560547987567347,0.12931299209594727,-1.5218694845782679,0.007143347058445215,0.0008632387034595013,0.6744381189346313,0.0,-0.0,0.0,0.0,0.0,0.0
1782664168,197701500,-1.6560547987567347,0.12926530838012695,-1.5218337217914026,0.007131362799555063,0.0008392703020945191,0.6744740605354309,0.0,-0.0,0.0,0.0,0.0,0.0
1782664168,205715239,-1.6560547987567347,0.1293010711669922,-1.5218337217914026,0.007119379006326199,0.0008153018425218761,0.6744740605354309,0.0,-0.0,0.0,0.0,0.0,0.0
1782664168,213800553,-1.6560905615436,0.12927722930908203,-1.5218456427203577,0.007143347058445215,0.0008392703020945191,0.6744860410690308,0.0,-0.0,0.0,0.0,0.0,0.0
1782664168,221709090,-1.656102482472555,0.1293010711669922,-1.521881405507223,0.007143347058445215,0.0008512545027770102,0.6744141578674316,0.0,-0.0,0.0,0.0,0.0,0.0
1782664168,229701145,-1.6560667196856897,0.12931299209594727,-1.5217974821673792,0.007107394747436047,0.0008272860432043672,0.6744381189346313,0.0,-0.0,0.0,0.0,0.0,0.0
1782664168,237715236,-1.6560786406146448,0.1293492317199707,-1.5218337217914026,0.007095410488545895,0.0008632387034595013,0.674462080001831,0.0,-0.0,0.0,0.0,0.0,0.0
1782664168,245801383,-1.6560547987567347,0.1293010711669922,-1.5218337217914026,0.007155331317335367,0.0008512545027770102,0.674462080001831,0.0,-0.0,0.0,0.0,0.0,0.0
1782664168,253705865,-1.6560547987567347,0.1293010711669922,-1.5218337217914026,0.007143347058445215,0.0008153018425218761,0.6744381189346313,0.0,-0.0,0.0,0.0,0.0,0.0
1782664168,261694086,-1.6560905615436,0.12931299209594727,-1.5218694845782679,0.007119379006326199,0.0008153018425218761,0.6744860410690308,0.0,-0.0,0.0,0.0,0.0,0.0
1782664168,269712826,-1.656102482472555,0.12932491302490234,-1.5218094030963343,0.007179299835115671,0.0008512545027770102,0.6744740605354309,0.0,-0.0,0.0,0.0,0.0,0.0
1782664168,277749121,-1.6560905615436,0.12936115264892578,-1.5218094030963343,0.007095410488545895,0.0008512545027770102,0.6744740605354309,0.0,-0.0,0.0,0.0,0.0,0.0
1782664168,285713028,-1.6560786406146448,0.12926530838012695,-1.5217974821673792,0.007131362799555063,0.0007909588748589158,0.6744740605354309,0.0,-0.0,0.0,0.0,0.0,0.0
1782664168,293702138,-1.6560786406146448,0.12932491302490234,-1.5218337217914026,0.007143347058445215,0.0008153018425218761,0.674462080001831,0.0,-0.0,0.0,0.0,0.0,0.0
1782664168,301699045,-1.6560905615436,0.12931299209594727,-1.5218094030963343,0.007119379006326199,0.0008272860432043672,0.674462080001831,0.0,-0.0,0.0,0.0,0.0,0.0
1782664168,309715118,-1.6560428778277796,0.12931299209594727,-1.5217974821673792,0.007119379006326199,0.0008272860432043672,0.6744500994682312,0.0,-0.0,0.0,0.0,0.0,0.0
1782664168,317711932,-1.6560428778277796,0.12931299209594727,-1.5218337217914026,0.007191284094005823,0.0008272860432043672,0.674462080001831,0.0,-0.0,0.0,0.0,0.0,0.0
1782664168,325697932,-1.6560428778277796,0.1292891502380371,-1.5218694845782679,0.007155331317335367,0.0008392703020945191,0.6744740605354309,0.0,-0.0,0.0,0.0,0.0,0.0
1782664168,333721375,-1.6560786406146448,0.1293010711669922,-1.5218456427203577,0.007107394747436047,0.0008512545027770102,0.674462080001831,0.0,-0.0,0.0,0.0,0.0,0.0
1782664168,341748633,-1.6560547987567347,0.1292891502380371,-1.5218575636493128,0.007155331317335367,0.0007789746159687638,0.6744261384010315,0.0,-0.0,0.0,0.0,0.0,0.0
1782664168,349706281,-1.6560786406146448,0.12926530838012695,-1.5217974821673792,0.007095410488545895,0.0008153018425218761,0.674462080001831,0.0,-0.0,0.0,0.0,0.0,0.0
1782664168,357696781,-1.6560667196856897,0.1293010711669922,-1.5217855612384241,0.007119379006326199,0.0008033175836317241,0.6744860410690308,0.0,-0.0,0.0,0.0,0.0,0.0
1782664168,365732094,-1.65611440340151,0.12926530838012695,-1.5218337217914026,0.007155331317335367,0.0008272860432043672,0.6744141578674316,0.0,-0.0,0.0,0.0,0.0,0.0
1782664168,373746371,-1.65611440340151,0.12925338745117188,-1.5218213240252894,0.007083426229655743,0.0008153018425218761,0.6744740605354309,0.0,-0.0,0.0,0.0,0.0,0.0
1782664168,381715797,-1.6560667196856897,0.12932491302490234,-1.5218337217914026,0.007143347058445215,0.0008512545027770102,0.6744740605354309,0.0,-0.0,0.0,0.0,0.0,0.0
1782664168,389698370,-1.6560428778277796,0.12932491302490234,-1.5218213240252894,0.007107394747436047,0.0008272860432043672,0.6744500994682312,0.0,-0.0,0.0,0.0,0.0,0.0
1782664168,397713295,-1.6560667196856897,0.12933731079101562,-1.5217855612384241,0.007131362799555063,0.0008033175836317241,0.674462080001831,0.0,-0.0,0.0,0.0,0.0,0.0
1782664168,405745831,-1.6560547987567347,0.12933731079101562,-1.5217855612384241,0.007143347058445215,0.0008153018425218761,0.674462080001831,0.0,-0.0,0.0,0.0,0.0,0.0
1782664168,413710016,-1.6560428778277796,0.12933731079101562,-1.5218694845782679,0.007095410488545895,0.0008392703020945191,0.6744141578674316,0.0,-0.0,0.0,0.0,0.0,0.0
1782664168,421697756,-1.6561268011676233,0.12926530838012695,-1.5218456427203577,0.007131362799555063,0.0007909588748589158,0.6744980216026306,0.0,-0.0,0.0,0.0,0.0,0.0
1782664168,429705311,-1.6560547987567347,0.12927722930908203,-1.5218094030963343,0.007203268352895975,0.0007789746159687638,0.6744860410690308,0.0,-0.0,0.0,0.0,0.0,0.0
1782664168,437711569,-1.6560786406146448,0.1292891502380371,-1.5218213240252894,0.007179299835115671,0.0007909588748589158,0.6744500994682312,0.0,-0.0,0.0,0.0,0.0,0.0
1782664168,445706254,-1.6560428778277796,0.12926530838012695,-1.5218094030963343,0.007167315576225519,0.0008272860432043672,0.6744381189346313,0.0,-0.0,0.0,0.0,0.0,0.0
1782664168,453699845,-1.656102482472555,0.12933731079101562,-1.5218337217914026,0.007107394747436047,0.0007789746159687638,0.6745219826698303,0.0,-0.0,0.0,0.0,0.0,0.0
1782664168,461711585,-1.6560905615436,0.12925338745117188,-1.5218337217914026,0.007143347058445215,0.0007909588748589158,0.6744980216026306,0.0,-0.0,0.0,0.0,0.0,0.0
1782664168,469748658,-1.6560185591327112,0.1293010711669922,-1.5218694845782679,0.007155331317335367,0.0008153018425218761,0.6744740605354309,0.0,-0.0,0.0,0.0,0.0,0.0
1782664168,477704769,-1.6560428778277796,0.12933731079101562,-1.521881405507223,0.007119379006326199,0.0008153018425218761,0.6744381189346313,0.0,-0.0,0.0,0.0,0.0,0.0
1782664168,485697713,-1.6560667196856897,0.1293010711669922,-1.5218337217914026,0.007155331317335367,0.0008153018425218761,0.6744860410690308,0.0,-0.0,0.0,0.0,0.0,0.0
1782664168,493703693,-1.6560786406146448,0.1292891502380371,-1.5218456427203577,0.007119379006326199,0.0007909588748589158,0.6744980216026306,0.0,-0.0,0.0,0.0,0.0,0.0
1782664168,501746840,-1.6560428778277796,0.12933731079101562,-1.5217974821673792,0.007095410488545895,0.0008512545027770102,0.6744141578674316,0.0,-0.0,0.0,0.0,0.0,0.0
1782664168,509715933,-1.656102482472555,0.12927722930908203,-1.5218213240252894,0.007155331317335367,0.0008392703020945191,0.6744740605354309,0.0,-0.0,0.0,0.0,0.0,0.0
1782664168,517704506,-1.65611440340151,0.1293010711669922,-1.5218213240252894,0.007167315576225519,0.0007909588748589158,0.6744860410690308,0.0,-0.0,0.0,0.0,0.0,0.0
1782664168,525710431,-1.6560667196856897,0.12926530838012695,-1.5218213240252894,0.007131362799555063,0.0008153018425218761,0.6744980216026306,0.0,-0.0,0.0,0.0,0.0,0.0
1782664168,533956409,-1.65611440340151,0.1293010711669922,-1.5218694845782679,0.007143347058445215,0.0007789746159687638,0.6745219826698303,0.0,-0.0,0.0,0.0,0.0,0.0
1782664168,541712041,-1.6560428778277796,0.1293010711669922,-1.5218456427203577,0.007107394747436047,0.0008272860432043672,0.6744500994682312,0.0,-0.0,0.0,0.0,0.0,0.0
1782664168,549707892,-1.6560905615436,0.1293010711669922,-1.5218213240252894,0.007179299835115671,0.0008033175836317241,0.6745100021362305,0.0,-0.0,0.0,0.0,0.0,0.0
1782664168,557710780,-1.6560905615436,0.12926530838012695,-1.5218694845782679,0.007143347058445215,0.0008033175836317241,0.6744500994682312,0.0,-0.0,0.0,0.0,0.0,0.0
1782664168,565747112,-1.6560547987567347,0.1293010711669922,-1.5218337217914026,0.007167315576225519,0.0008632387034595013,0.6744261384010315,0.0,-0.0,0.0,0.0,0.0,0.0
1782664168,573714408,-1.6560066382037562,0.1293010711669922,-1.5217974821673792,0.007143347058445215,0.0007909588748589158,0.674462080001831,0.0,-0.0,0.0,0.0,0.0,0.0
1782664168,581712241,-1.6560667196856897,0.12933731079101562,-1.521881405507223,0.007143347058445215,0.0008153018425218761,0.6744500994682312,0.0,-0.0,0.0,0.0,0.0,0.0
1782664168,589750369,-1.656102482472555,0.12927722930908203,-1.5218337217914026,0.007143347058445215,0.0008392703020945191,0.6744381189346313,0.0,-0.0,0.0,0.0,0.0,0.0
1782664168,597791423,-1.656102482472555,0.1293492317199707,-1.5218694845782679,0.007143347058445215,0.0008153018425218761,0.6744500994682312,0.0,-0.0,0.0,0.0,0.0,0.0
1782664168,605711127,-1.6560786406146448,0.12931299209594727,-1.5217974821673792,0.007119379006326199,0.0008512545027770102,0.6744740605354309,0.0,-0.0,0.0,0.0,0.0,0.0
1782664168,613695904,-1.6560905615436,0.12933731079101562,-1.5218456427203577,0.007143347058445215,0.0008272860432043672,0.6744381189346313,0.0,-0.0,0.0,0.0,0.0,0.0
1782664168,621709329,-1.6560786406146448,0.12932491302490234,-1.5217974821673792,0.007119379006326199,0.0007669904152862728,0.6744980216026306,0.0,-0.0,0.0,0.0,0.0,0.0
1782664168,629706940,-1.6560667196856897,0.1293492317199707,-1.5218456427203577,0.007155331317335367,0.0007789746159687638,0.6744740605354309,0.0,-0.0,0.0,0.0,0.0,0.0
1782664168,637715161,-1.6560786406146448,0.12927722930908203,-1.5218337217914026,0.007143347058445215,0.0008033175836317241,0.6744500994682312,0.0,-0.0,0.0,0.0,0.0,0.0
1782664168,645702346,-1.6560786406146448,0.1293492317199707,-1.5218575636493128,0.007143347058445215,0.0008033175836317241,0.6744860410690308,0.0,-0.0,0.0,0.0,0.0,0.0
1782664168,653715548,-1.6560667196856897,0.1293010711669922,-1.5218456427203577,0.007131362799555063,0.0008033175836317241,0.6744980216026306,0.0,-0.0,0.0,0.0,0.0,0.0
1782664168,661743770,-1.6560786406146448,0.12927722930908203,-1.5218337217914026,0.007107394747436047,0.0008512545027770102,0.6744740605354309,0.0,-0.0,0.0,0.0,0.0,0.0
1782664168,669712121,-1.656102482472555,0.12927722930908203,-1.5218094030963343,0.007167315576225519,0.0008512545027770102,0.6745100021362305,0.0,-0.0,0.0,0.0,0.0,0.0
1782664168,677711509,-1.656102482472555,0.12932491302490234,-1.5217974821673792,0.007143347058445215,0.0008392703020945191,0.6744381189346313,0.0,-0.0,0.0,0.0,0.0,0.0
1782664168,685754508,-1.6560309568988245,0.1293010711669922,-1.5218456427203577,0.007107394747436047,0.0008033175836317241,0.6744381189346313,0.0,-0.0,0.0,0.0,0.0,0.0
1782664168,693745915,-1.6560667196856897,0.12927722930908203,-1.5218213240252894,0.007143347058445215,0.0008392703020945191,0.6744500994682312,0.0,-0.0,0.0,0.0,0.0,0.0
1782664168,701714192,-1.6560905615436,0.12931299209594727,-1.5218694845782679,0.007167315576225519,0.0007909588748589158,0.674462080001831,0.0,-0.0,0.0,0.0,0.0,0.0
1782664168,709710525,-1.656102482472555,0.1292891502380371,-1.5218456427203577,0.007095410488545895,0.0007909588748589158,0.6744740605354309,0.0,-0.0,0.0,0.0,0.0,0.0
1782664168,717711931,-1.6560786406146448,0.12931299209594727,-1.5218337217914026,0.007143347058445215,0.0008272860432043672,0.6744980216026306,0.0,-0.0,0.0,0.0,0.0,0.0
1782664168,725749467,-1.6560667196856897,0.12927722930908203,-1.5217855612384241,0.007155331317335367,0.0008033175836317241,0.6745100021362305,0.0,-0.0,0.0,0.0,0.0,0.0
1782664168,733708763,-1.6560786406146448,0.12927722930908203,-1.5218575636493128,0.007131362799555063,0.0008272860432043672,0.6745460033416748,0.0,-0.0,0.0,0.0,0.0,0.0
1782664168,741692818,-1.6560786406146448,0.1293010711669922,-1.5218213240252894,0.007119379006326199,0.0007669904152862728,0.6744021773338318,0.0,-0.0,0.0,0.0,0.0,0.0
1782664168,749702039,-1.6560667196856897,0.12932491302490234,-1.5218456427203577,0.007119379006326199,0.0008272860432043672,0.6745219826698303,0.0,-0.0,0.0,0.0,0.0,0.0
1782664168,757804852,-1.6560786406146448,0.12931299209594727,-1.5218337217914026,0.007083426229655743,0.0008153018425218761,0.6744860410690308,0.0,-0.0,0.0,0.0,0.0,0.0
1782664168,765721334,-1.6560428778277796,0.12926530838012695,-1.5218213240252894,0.007155331317335367,0.0008033175836317241,0.6744261384010315,0.0,-0.0,0.0,0.0,0.0,0.0
1782664168,773700130,-1.65611440340151,0.12932491302490234,-1.5218575636493128,0.007095410488545895,0.0008153018425218761,0.674462080001831,0.0,-0.0,0.0,0.0,0.0,0.0
1782664168,781704092,-1.6560667196856897,0.12927722930908203,-1.5218575636493128,0.007119379006326199,0.0008632387034595013,0.6744980216026306,0.0,-0.0,0.0,0.0,0.0,0.0
1782664168,789742331,-1.6560185591327112,0.1293010711669922,-1.5218213240252894,0.007143347058445215,0.0008392703020945191,0.6744381189346313,0.0,-0.0,0.0,0.0,0.0,0.0
1782664168,797717405,-1.6560547987567347,0.12933731079101562,-1.5218213240252894,0.007155331317335367,0.0008512545027770102,0.6744860410690308,0.0,-0.0,0.0,0.0,0.0,0.0
1782664168,805699034,-1.6560667196856897,0.12926530838012695,-1.5218337217914026,0.007131362799555063,0.0008512545027770102,0.6744500994682312,0.0,-0.0,0.0,0.0,0.0,0.0
1782664168,813679070,-1.6560547987567347,0.1292891502380371,-1.5218094030963343,0.007119379006326199,0.0007789746159687638,0.674462080001831,0.0,-0.0,0.0,0.0,0.0,0.0
1782664168,821748199,-1.6560905615436,0.1293010711669922,-1.5218213240252894,0.007155331317335367,0.0007789746159687638,0.6744740605354309,0.0,-0.0,0.0,0.0,0.0,0.0
1782664168,829717402,-1.6560786406146448,0.1292891502380371,-1.5218456427203577,0.007155331317335367,0.0008153018425218761,0.674462080001831,0.0,-0.0,0.0,0.0,0.0,0.0
1782664168,837704790,-1.6560786406146448,0.12931299209594727,-1.5218694845782679,0.007131362799555063,0.0008153018425218761,0.6744980216026306,0.0,-0.0,0.0,0.0,0.0,0.0
1782664168,845740363,-1.6560905615436,0.12931299209594727,-1.5218337217914026,0.007095410488545895,0.0008153018425218761,0.6744500994682312,0.0,-0.0,0.0,0.0,0.0,0.0
1782664168,853723696,-1.65611440340151,0.1293010711669922,-1.5218337217914026,0.007119379006326199,0.0008272860432043672,0.6744740605354309,0.0,-0.0,0.0,0.0,0.0,0.0
1782664168,861710454,-1.6560786406146448,0.12927722930908203,-1.521881405507223,0.007155331317335367,0.0008392703020945191,0.6744021773338318,0.0,-0.0,0.0,0.0,0.0,0.0
1782664168,869699361,-1.6560905615436,0.12933731079101562,-1.5218456427203577,0.007143347058445215,0.0008033175836317241,0.6744141578674316,0.0,-0.0,0.0,0.0,0.0,0.0
1782664168,877710953,-1.6560905615436,0.12933731079101562,-1.5218213240252894,0.007131362799555063,0.0008033175836317241,0.6744980216026306,0.0,-0.0,0.0,0.0,0.0,0.0
1782664168,885742322,-1.6560786406146448,0.12932491302490234,-1.5218456427203577,0.007131362799555063,0.0007909588748589158,0.6744980216026306,0.0,-0.0,0.0,0.0,0.0,0.0
1782664168,893713988,-1.6560667196856897,0.12932491302490234,-1.5218094030963343,0.007131362799555063,0.0008153018425218761,0.6744500994682312,0.0,-0.0,0.0,0.0,0.0,0.0
1782664168,901767265,-1.6560905615436,0.12926530838012695,-1.521881405507223,0.007143347058445215,0.0008153018425218761,0.6745100021362305,0.0,-0.0,0.0,0.0,0.0,0.0
1782664168,909705857,-1.656102482472555,0.12932491302490234,-1.5218575636493128,0.007107394747436047,0.0008153018425218761,0.674462080001831,0.0,-0.0,0.0,0.0,0.0,0.0
1782664168,917738653,-1.6560428778277796,0.12927722930908203,-1.5218575636493128,0.007143347058445215,0.0008392703020945191,0.6744860410690308,0.0,-0.0,0.0,0.0,0.0,0.0
1782664168,925708097,-1.6560667196856897,0.1293492317199707,-1.5218094030963343,0.007131362799555063,0.0008392703020945191,0.6744860410690308,0.0,-0.0,0.0,0.0,0.0,0.0
1782664168,933714911,-1.6560547987567347,0.1293010711669922,-1.5218094030963343,0.007131362799555063,0.0008392703020945191,0.6744740605354309,0.0,-0.0,0.0,0.0,0.0,0.0
1782664168,941703299,-1.6560667196856897,0.12926530838012695,-1.5218694845782679,0.007131362799555063,0.0008033175836317241,0.6744980216026306,0.0,-0.0,0.0,0.0,0.0,0.0
1782664168,949741131,-1.6560667196856897,0.12932491302490234,-1.5218337217914026,0.007131362799555063,0.0008392703020945191,0.6744740605354309,0.0,-0.0,0.0,0.0,0.0,0.0
1782664168,957706705,-1.6560786406146448,0.12927722930908203,-1.5218456427203577,0.007143347058445215,0.0008153018425218761,0.674462080001831,0.0,-0.0,0.0,0.0,0.0,0.0
1782664168,965691167,-1.6560667196856897,0.12932491302490234,-1.5218337217914026,0.007107394747436047,0.0008272860432043672,0.6744500994682312,0.0,-0.0,0.0,0.0,0.0,0.0
1782664168,973707999,-1.6560547987567347,0.1292414665222168,-1.5218337217914026,0.007095410488545895,0.0007909588748589158,0.6744381189346313,0.0,-0.0,0.0,0.0,0.0,0.0
1782664168,981734721,-1.6560667196856897,0.1293010711669922,-1.5217974821673792,0.007143347058445215,0.0008272860432043672,0.6744261384010315,0.0,-0.0,0.0,0.0,0.0,0.0
1782664168,989714609,-1.6560905615436,0.1292891502380371,-1.5217974821673792,0.007155331317335367,0.0008272860432043672,0.6744500994682312,0.0,-0.0,0.0,0.0,0.0,0.0
1782664168,997695738,-1.656102482472555,0.1293492317199707,-1.5218337217914026,0.007143347058445215,0.0008272860432043672,0.6744860410690308,0.0,-0.0,0.0,0.0,0.0,0.0
1782664169,5715904,-1.6560905615436,0.1293010711669922,-1.5218094030963343,0.007131362799555063,0.0008392703020945191,0.6744980216026306,0.0,-0.0,0.0,0.0,0.0,0.0
1782664169,13747274,-1.6560547987567347,0.1293010711669922,-1.5218213240252894,0.007143347058445215,0.0008033175836317241,0.6744980216026306,0.0,-0.0,0.0,0.0,0.0,0.0
1782664169,21708848,-1.6560066382037562,0.1293010711669922,-1.5218337217914026,0.007143347058445215,0.0008512545027770102,0.6744500994682312,0.0,-0.0,0.0,0.0,0.0,0.0
1782664169,29696922,-1.656102482472555,0.1293492317199707,-1.5218213240252894,0.007131362799555063,0.0008512545027770102,0.6744261384010315,0.0,-0.0,0.0,0.0,0.0,0.0
1782664169,37716607,-1.6560428778277796,0.12927722930908203,-1.5218456427203577,0.007095410488545895,0.0007909588748589158,0.6745100021362305,0.0,-0.0,0.0,0.0,0.0,0.0
1782664169,45820662,-1.6560786406146448,0.1293010711669922,-1.5218575636493128,0.007155331317335367,0.0007669904152862728,0.6744860410690308,0.0,-0.0,0.0,0.0,0.0,0.0
1782664169,53707478,-1.6560547987567347,0.12931299209594727,-1.5218094030963343,0.007155331317335367,0.0008392703020945191,0.6744740605354309,0.0,-0.0,0.0,0.0,0.0,0.0
1782664169,61698126,-1.6560667196856897,0.12932491302490234,-1.5218337217914026,0.007167315576225519,0.0007789746159687638,0.6744860410690308,0.0,-0.0,0.0,0.0,0.0,0.0
1782664169,69707477,-1.6560786406146448,0.12933731079101562,-1.5218213240252894,0.007131362799555063,0.0008153018425218761,0.674462080001831,0.0,-0.0,0.0,0.0,0.0,0.0
1782664169,77758977,-1.6560547987567347,0.1293010711669922,-1.5218337217914026,0.007119379006326199,0.0008632387034595013,0.6744261384010315,0.0,-0.0,0.0,0.0,0.0,0.0
1782664169,85713607,-1.65611440340151,0.12927722930908203,-1.5218694845782679,0.007131362799555063,0.0008272860432043672,0.674462080001831,0.0,-0.0,0.0,0.0,0.0,0.0
1782664169,93701385,-1.656102482472555,0.12926530838012695,-1.5218094030963343,0.007143347058445215,0.0008153018425218761,0.674462080001831,0.0,-0.0,0.0,0.0,0.0,0.0
1782664169,101742162,-1.65611440340151,0.12933731079101562,-1.5218575636493128,0.007203268352895975,0.0008392703020945191,0.6744261384010315,0.0,-0.0,0.0,0.0,0.0,0.0
1782664169,109743736,-1.6560667196856897,0.12931299209594727,-1.5217855612384241,0.007191284094005823,0.0007789746159687638,0.674462080001831,0.0,-0.0,0.0,0.0,0.0,0.0
1782664169,117712403,-1.6560428778277796,0.12933731079101562,-1.5217855612384241,0.007143347058445215,0.0008033175836317241,0.6744740605354309,0.0,-0.0,0.0,0.0,0.0,0.0
1782664169,125697699,-1.6560547987567347,0.1293492317199707,-1.5218337217914026,0.007059832103550434,0.0007909588748589158,0.6744500994682312,0.0,-0.0,0.0,0.0,0.0,0.0
1782664169,133720088,-1.6560786406146448,0.12933731079101562,-1.5217974821673792,0.007167315576225519,0.0008392703020945191,0.6744740605354309,0.0,-0.0,0.0,0.0,0.0,0.0
1782664169,141812717,-1.6560905615436,0.1293010711669922,-1.5218094030963343,0.007143347058445215,0.0008392703020945191,0.674462080001831,0.0,-0.0,0.0,0.0,0.0,0.0
1782664169,149713125,-1.6560547987567347,0.12931299209594727,-1.5218337217914026,0.007167315576225519,0.0008512545027770102,0.6744740605354309,0.0,-0.0,0.0,0.0,0.0,0.0
1782664169,157698143,-1.6560786406146448,0.12927722930908203,-1.5218213240252894,0.007143347058445215,0.0008033175836317241,0.6744740605354309,0.0,-0.0,0.0,0.0,0.0,0.0
1782664169,165716847,-1.6560786406146448,0.1293010711669922,-1.5218575636493128,0.007143347058445215,0.0008033175836317241,0.6745100021362305,0.0,-0.0,0.0,0.0,0.0,0.0
1782664169,173827772,-1.6560786406146448,0.1293492317199707,-1.5218094030963343,0.007179299835115671,0.0008153018425218761,0.6744740605354309,0.0,-0.0,0.0,0.0,0.0,0.0
1782664169,181716995,-1.6560786406146448,0.1292891502380371,-1.5218456427203577,0.007143347058445215,0.0008512545027770102,0.6744860410690308,0.0,-0.0,0.0,0.0,0.0,0.0
1782664169,189711847,-1.6560667196856897,0.12931299209594727,-1.5218213240252894,0.007143347058445215,0.0008153018425218761,0.6744860410690308,0.0,-0.0,0.0,0.0,0.0,0.0
1782664169,197707458,-1.6560786406146448,0.1292891502380371,-1.5218094030963343,0.007119379006326199,0.0008153018425218761,0.6744261384010315,0.0,-0.0,0.0,0.0,0.0,0.0
1782664169,205747383,-1.6560905615436,0.1293492317199707,-1.5218094030963343,0.007131362799555063,0.0008512545027770102,0.6744980216026306,0.0,-0.0,0.0,0.0,0.0,0.0
1782664169,213712347,-1.6560547987567347,0.12931299209594727,-1.521893326436178,0.007167315576225519,0.0008512545027770102,0.6744860410690308,0.0,-0.0,0.0,0.0,0.0,0.0
1782664169,221709124,-1.6561268011676233,0.12931299209594727,-1.5218456427203577,0.007131362799555063,0.0008033175836317241,0.6744980216026306,0.0,-0.0,0.0,0.0,0.0,0.0
1782664169,229709680,-1.6560667196856897,0.12925338745117188,-1.5217974821673792,0.007143347058445215,0.0008153018425218761,0.6744860410690308,0.0,-0.0,0.0,0.0,0.0,0.0
1782664169,237738698,-1.6560905615436,0.12933731079101562,-1.5218694845782679,0.007191284094005823,0.0007789746159687638,0.6744500994682312,0.0,-0.0,0.0,0.0,0.0,0.0
1782664169,245711754,-1.6560428778277796,0.12932491302490234,-1.5218213240252894,0.007143347058445215,0.0008153018425218761,0.6744980216026306,0.0,-0.0,0.0,0.0,0.0,0.0
1782664169,253699217,-1.6560309568988245,0.12927722930908203,-1.5218337217914026,0.007203268352895975,0.0008392703020945191,0.6745100021362305,0.0,-0.0,0.0,0.0,0.0,0.0
1782664169,261711420,-1.6560428778277796,0.12932491302490234,-1.521893326436178,0.007155331317335367,0.0007789746159687638,0.6744381189346313,0.0,-0.0,0.0,0.0,0.0,0.0
1782664169,269741105,-1.6560905615436,0.12931299209594727,-1.5218213240252894,0.007143347058445215,0.0008512545027770102,0.6745219826698303,0.0,-0.0,0.0,0.0,0.0,0.0
1782664169,277715457,-1.6560309568988245,0.12931299209594727,-1.5218213240252894,0.007119379006326199,0.0008033175836317241,0.6744980216026306,0.0,-0.0,0.0,0.0,0.0,0.0
1782664169,285701124,-1.6560428778277796,0.12926530838012695,-1.5218337217914026,0.007095410488545895,0.0008272860432043672,0.674462080001831,0.0,-0.0,0.0,0.0,0.0,0.0
1782664169,293718679,-1.6560547987567347,0.1293492317199707,-1.5218456427203577,0.007143347058445215,0.0008153018425218761,0.6744740605354309,0.0,-0.0,0.0,0.0,0.0,0.0
1782664169,301793567,-1.6560428778277796,0.12926530838012695,-1.5218337217914026,0.007083426229655743,0.0008272860432043672,0.6744980216026306,0.0,-0.0,0.0,0.0,0.0,0.0
1782664169,309695698,-1.6560667196856897,0.1293010711669922,-1.5218337217914026,0.007167315576225519,0.0008033175836317241,0.6744740605354309,0.0,-0.0,0.0,0.0,0.0,0.0
1782664169,317696235,-1.6560786406146448,0.1293010711669922,-1.5218213240252894,0.007167315576225519,0.0008392703020945191,0.6744261384010315,0.0,-0.0,0.0,0.0,0.0,0.0
1782664169,325775475,-1.6560185591327112,0.12925338745117188,-1.5218456427203577,0.007179299835115671,0.0008033175836317241,0.6744381189346313,0.0,-0.0,0.0,0.0,0.0,0.0
1782664169,333712975,-1.6560547987567347,0.12931299209594727,-1.5218575636493128,0.007131362799555063,0.0008512545027770102,0.6745100021362305,0.0,-0.0,0.0,0.0,0.0,0.0
1782664169,341692698,-1.6560786406146448,0.1292891502380371,-1.5218337217914026,0.007119379006326199,0.0007909588748589158,0.6745100021362305,0.0,-0.0,0.0,0.0,0.0,0.0
1782664169,349709734,-1.6560547987567347,0.12931299209594727,-1.5218213240252894,0.007119379006326199,0.0007789746159687638,0.6744980216026306,0.0,-0.0,0.0,0.0,0.0,0.0
1782664169,357738864,-1.6560786406146448,0.12931299209594727,-1.5218213240252894,0.007191284094005823,0.0008272860432043672,0.6744500994682312,0.0,-0.0,0.0,0.0,0.0,0.0
1782664169,365705234,-1.6560905615436,0.1293010711669922,-1.5218456427203577,0.007107394747436047,0.0008512545027770102,0.6744740605354309,0.0,-0.0,0.0,0.0,0.0,0.0
1782664169,373691401,-1.65611440340151,0.12932491302490234,-1.5218213240252894,0.007119379006326199,0.0008512545027770102,0.6744740605354309,0.0,-0.0,0.0,0.0,0.0,0.0
1782664169,381706419,-1.6560667196856897,0.12927722930908203,-1.5218456427203577,0.007131362799555063,0.0008392703020945191,0.6744860410690308,0.0,-0.0,0.0,0.0,0.0,0.0
1782664169,389705345,-1.6560786406146448,0.1293010711669922,-1.5217855612384241,0.007107394747436047,0.0008512545027770102,0.6744860410690308,0.0,-0.0,0.0,0.0,0.0,0.0
1782664169,397706956,-1.6560905615436,0.1292891502380371,-1.5218213240252894,0.007119379006326199,0.0008512545027770102,0.6744500994682312,0.0,-0.0,0.0,0.0,0.0,0.0
1782664169,405694234,-1.65611440340151,0.1293010711669922,-1.5218337217914026,0.007107394747436047,0.0008272860432043672,0.6744860410690308,0.0,-0.0,0.0,0.0,0.0,0.0
1782664169,413707734,-1.656102482472555,0.12931299209594727,-1.5218575636493128,0.007143347058445215,0.0008033175836317241,0.6744860410690308,0.0,-0.0,0.0,0.0,0.0,0.0
1782664169,421741808,-1.656102482472555,0.12932491302490234,-1.5218575636493128,0.007143347058445215,0.0008632387034595013,0.6744261384010315,0.0,-0.0,0.0,0.0,0.0,0.0
1782664169,429706974,-1.6560428778277796,0.12931299209594727,-1.5218213240252894,0.007131362799555063,0.0008272860432043672,0.6744021773338318,0.0,-0.0,0.0,0.0,0.0,0.0
1782664169,437701863,-1.6560309568988245,0.12931299209594727,-1.521881405507223,0.007119379006326199,0.0007909588748589158,0.6744980216026306,0.0,-0.0,0.0,0.0,0.0,0.0
1782664169,445708604,-1.6560667196856897,0.1292891502380371,-1.5218337217914026,0.007107394747436047,0.0008272860432043672,0.6744381189346313,0.0,-0.0,0.0,0.0,0.0,0.0
1782664169,453744252,-1.6560786406146448,0.1292414665222168,-1.5218213240252894,0.007131362799555063,0.0008153018425218761,0.6744740605354309,0.0,-0.0,0.0,0.0,0.0,0.0
1782664169,461709511,-1.6560547987567347,0.1292891502380371,-1.5218213240252894,0.007155331317335367,0.0008512545027770102,0.6744500994682312,0.0,-0.0,0.0,0.0,0.0,0.0
1782664169,469701974,-1.6560547987567347,0.12932491302490234,-1.5218456427203577,0.007143347058445215,0.0007909588748589158,0.6745100021362305,0.0,-0.0,0.0,0.0,0.0,0.0
1782664169,477708419,-1.6560786406146448,0.12931299209594727,-1.5218694845782679,0.007155331317335367,0.0008392703020945191,0.6744980216026306,0.0,-0.0,0.0,0.0,0.0,0.0
1782664169,485740937,-1.6560547987567347,0.12927722930908203,-1.5217855612384241,0.007215252611786127,0.0008272860432043672,0.6744381189346313,0.0,-0.0,0.0,0.0,0.0,0.0
1782664169,493713418,-1.6560905615436,0.12927722930908203,-1.5218213240252894,0.007107394747436047,0.0008392703020945191,0.674462080001831,0.0,-0.0,0.0,0.0,0.0,0.0
1782664169,501693900,-1.6560786406146448,0.1293010711669922,-1.5218456427203577,0.007167315576225519,0.0008153018425218761,0.6744740605354309,0.0,-0.0,0.0,0.0,0.0,0.0
1782664169,509713863,-1.6560786406146448,0.12926530838012695,-1.5218213240252894,0.007119379006326199,0.0007909588748589158,0.6745219826698303,0.0,-0.0,0.0,0.0,0.0,0.0
1782664169,517706326,-1.6560667196856897,0.1292891502380371,-1.5217855612384241,0.007179299835115671,0.0008153018425218761,0.6744500994682312,0.0,-0.0,0.0,0.0,0.0,0.0
1782664169,525706418,-1.656102482472555,0.12933731079101562,-1.5218694845782679,0.007143347058445215,0.0008632387034595013,0.6744980216026306,0.0,-0.0,0.0,0.0,0.0,0.0
1782664169,533693048,-1.6560786406146448,0.1293010711669922,-1.5218094030963343,0.007143347058445215,0.0008632387034595013,0.6744860410690308,0.0,-0.0,0.0,0.0,0.0,0.0
1782664169,541701733,-1.6560428778277796,0.12926530838012695,-1.5218337217914026,0.007143347058445215,0.0007909588748589158,0.6744740605354309,0.0,-0.0,0.0,0.0,0.0,0.0
1782664169,549712973,-1.6560905615436,0.12931299209594727,-1.5218456427203577,0.007167315576225519,0.0008272860432043672,0.6744500994682312,0.0,-0.0,0.0,0.0,0.0,0.0
1782664169,557708770,-1.6560428778277796,0.1293010711669922,-1.5218094030963343,0.007191284094005823,0.0008153018425218761,0.6744980216026306,0.0,-0.0,0.0,0.0,0.0,0.0
1782664169,565702029,-1.6560428778277796,0.12927722930908203,-1.5218094030963343,0.007155331317335367,0.0007789746159687638,0.6745100021362305,0.0,-0.0,0.0,0.0,0.0,0.0
1782664169,573735306,-1.6561268011676233,0.1292891502380371,-1.5218337217914026,0.007143347058445215,0.0007789746159687638,0.6744860410690308,0.0,-0.0,0.0,0.0,0.0,0.0
1782664169,581817731,-1.6560667196856897,0.12932491302490234,-1.5218694845782679,0.007143347058445215,0.0008392703020945191,0.6744860410690308,0.0,-0.0,0.0,0.0,0.0,0.0
1782664169,589714603,-1.6560786406146448,0.12931299209594727,-1.5218213240252894,0.007131362799555063,0.0008392703020945191,0.6744740605354309,0.0,-0.0,0.0,0.0,0.0,0.0
1782664169,597697566,-1.65611440340151,0.1293010711669922,-1.5218456427203577,0.007131362799555063,0.0007909588748589158,0.674462080001831,0.0,-0.0,0.0,0.0,0.0,0.0
1782664169,605741639,-1.6560667196856897,0.12931299209594727,-1.5217855612384241,0.007119379006326199,0.0008392703020945191,0.6745100021362305,0.0,-0.0,0.0,0.0,0.0,0.0
1782664169,613749954,-1.6560547987567347,0.12933731079101562,-1.5218456427203577,0.007155331317335367,0.0008272860432043672,0.6745100021362305,0.0,-0.0,0.0,0.0,0.0,0.0
1782664169,621710121,-1.6560667196856897,0.12932491302490234,-1.5218337217914026,0.007155331317335367,0.0008033175836317241,0.6745100021362305,0.0,-0.0,0.0,0.0,0.0,0.0
1782664169,629709954,-1.6560786406146448,0.12931299209594727,-1.5217974821673792,0.007191284094005823,0.0008033175836317241,0.6744740605354309,0.0,-0.0,0.0,0.0,0.0,0.0
1782664169,637717750,-1.656102482472555,0.1293010711669922,-1.5218213240252894,0.007119379006326199,0.0008392703020945191,0.6744980216026306,0.0,-0.0,0.0,0.0,0.0,0.0
1782664169,645720880,-1.6560667196856897,0.12933731079101562,-1.5218456427203577,0.007131362799555063,0.0008153018425218761,0.674462080001831,0.0,-0.0,0.0,0.0,0.0,0.0
1782664169,653715547,-1.6560547987567347,0.1292891502380371,-1.5217974821673792,0.007167315576225519,0.0008272860432043672,0.6744500994682312,0.0,-0.0,0.0,0.0,0.0,0.0
1782664169,661704621,-1.6560905615436,0.12932491302490234,-1.5218094030963343,0.007119379006326199,0.0007789746159687638,0.6745219826698303,0.0,-0.0,0.0,0.0,0.0,0.0
1782664169,669709102,-1.6560547987567347,0.12933731079101562,-1.5218337217914026,0.007143347058445215,0.0008272860432043672,0.6744980216026306,0.0,-0.0,0.0,0.0,0.0,0.0
1782664169,677744472,-1.6560905615436,0.1293492317199707,-1.5218337217914026,0.007119379006326199,0.0008512545027770102,0.6744860410690308,0.0,-0.0,0.0,0.0,0.0,0.0
1782664169,685706176,-1.6560428778277796,0.1293010711669922,-1.5218337217914026,0.007131362799555063,0.0008272860432043672,0.6744860410690308,0.0,-0.0,0.0,0.0,0.0,0.0
1782664169,693696843,-1.6560905615436,0.1292891502380371,-1.5218694845782679,0.007131362799555063,0.0008272860432043672,0.6744980216026306,0.0,-0.0,0.0,0.0,0.0,0.0
1782664169,701723361,-1.6560667196856897,0.12927722930908203,-1.5217974821673792,0.007167315576225519,0.0008272860432043672,0.6744500994682312,0.0,-0.0,0.0,0.0,0.0,0.0
1782664169,709810360,-1.6560667196856897,0.1293010711669922,-1.5218694845782679,0.007167315576225519,0.0008512545027770102,0.6744740605354309,0.0,-0.0,0.0,0.0,0.0,0.0
1782664169,717716009,-1.6560547987567347,0.1293010711669922,-1.5218337217914026,0.007143347058445215,0.0007909588748589158,0.6745219826698303,0.0,-0.0,0.0,0.0,0.0,0.0
1782664169,725698917,-1.6560905615436,0.12931299209594727,-1.5218094030963343,0.007167315576225519,0.0008033175836317241,0.6744980216026306,0.0,-0.0,0.0,0.0,0.0,0.0
1782664169,733706768,-1.6560786406146448,0.12925338745117188,-1.521881405507223,0.007107394747436047,0.0008153018425218761,0.6744740605354309,0.0,-0.0,0.0,0.0,0.0,0.0
1782664169,741813193,-1.6560905615436,0.1293010711669922,-1.5218213240252894,0.007203268352895975,0.0008272860432043672,0.6744860410690308,0.0,-0.0,0.0,0.0,0.0,0.0
1782664169,749714972,-1.656102482472555,0.12926530838012695,-1.5218575636493128,0.007107394747436047,0.0008153018425218761,0.6744381189346313,0.0,-0.0,0.0,0.0,0.0,0.0
1782664169,757700972,-1.6560547987567347,0.1292891502380371,-1.5218094030963343,0.007191284094005823,0.0008392703020945191,0.674462080001831,0.0,-0.0,0.0,0.0,0.0,0.0
1782664169,765719564,-1.6560547987567347,0.12931299209594727,-1.5218456427203577,0.007167315576225519,0.0008272860432043672,0.6745100021362305,0.0,-0.0,0.0,0.0,0.0,0.0
1782664169,773813248,-1.656102482472555,0.12931299209594727,-1.5218213240252894,0.007143347058445215,0.0008153018425218761,0.6744740605354309,0.0,-0.0,0.0,0.0,0.0,0.0
1782664169,781714916,-1.6560428778277796,0.1293010711669922,-1.5218575636493128,0.007191284094005823,0.0008153018425218761,0.6744261384010315,0.0,-0.0,0.0,0.0,0.0,0.0
1782664169,789701805,-1.6560547987567347,0.12931299209594727,-1.5218337217914026,0.007119379006326199,0.0008033175836317241,0.6744500994682312,0.0,-0.0,0.0,0.0,0.0,0.0
1782664169,797708601,-1.6560185591327112,0.1292891502380371,-1.5218456427203577,0.007167315576225519,0.0008153018425218761,0.674462080001831,0.0,-0.0,0.0,0.0,0.0,0.0
1782664169,805743045,-1.6560905615436,0.1293010711669922,-1.5217855612384241,0.007131362799555063,0.0008392703020945191,0.674462080001831,0.0,-0.0,0.0,0.0,0.0,0.0
1782664169,813712082,-1.65611440340151,0.12927722930908203,-1.5218456427203577,0.007203268352895975,0.0008632387034595013,0.6744500994682312,0.0,-0.0,0.0,0.0,0.0,0.0
1782664169,821696564,-1.6560667196856897,0.1293010711669922,-1.5217855612384241,0.007155331317335367,0.0007909588748589158,0.6744980216026306,0.0,-0.0,0.0,0.0,0.0,0.0
1782664169,829697934,-1.6560667196856897,0.12925338745117188,-1.5218575636493128,0.007083426229655743,0.0008033175836317241,0.674462080001831,0.0,-0.0,0.0,0.0,0.0,0.0
1782664169,837812192,-1.6560667196856897,0.12927722930908203,-1.5218337217914026,0.007107394747436047,0.0008153018425218761,0.6744740605354309,0.0,-0.0,0.0,0.0,0.0,0.0
1782664169,845725878,-1.6560428778277796,0.12931299209594727,-1.5218094030963343,0.007119379006326199,0.0008512545027770102,0.6744860410690308,0.0,-0.0,0.0,0.0,0.0,0.0
1782664169,853705434,-1.6560905615436,0.12927722930908203,-1.5217974821673792,0.007155331317335367,0.0008512545027770102,0.6744740605354309,0.0,-0.0,0.0,0.0,0.0,0.0
1782664169,861713508,-1.6560667196856897,0.12927722930908203,-1.5218094030963343,0.007131362799555063,0.0007669904152862728,0.6744980216026306,0.0,-0.0,0.0,0.0,0.0,0.0
1782664169,869747508,-1.6560786406146448,0.12932491302490234,-1.521893326436178,0.007131362799555063,0.0007789746159687638,0.6744740605354309,0.0,-0.0,0.0,0.0,0.0,0.0
1782664169,877717656,-1.6560667196856897,0.12932491302490234,-1.5218213240252894,0.007143347058445215,0.0007789746159687638,0.6745100021362305,0.0,-0.0,0.0,0.0,0.0,0.0
1782664169,885702471,-1.6560667196856897,0.12931299209594727,-1.5217974821673792,0.007191284094005823,0.0008033175836317241,0.6744980216026306,0.0,-0.0,0.0,0.0,0.0,0.0
1782664169,893712082,-1.6560547987567347,0.1292891502380371,-1.5217855612384241,0.007131362799555063,0.0007909588748589158,0.6744860410690308,0.0,-0.0,0.0,0.0,0.0,0.0
1782664169,901746470,-1.6560428778277796,0.12927722930908203,-1.521881405507223,0.007167315576225519,0.0008512545027770102,0.6744740605354309,0.0,-0.0,0.0,0.0,0.0,0.0
1782664169,909711989,-1.6560786406146448,0.12931299209594727,-1.5218456427203577,0.007143347058445215,0.0008033175836317241,0.6744980216026306,0.0,-0.0,0.0,0.0,0.0,0.0
1782664169,917693989,-1.6560309568988245,0.12926530838012695,-1.5218213240252894,0.007095410488545895,0.0008512545027770102,0.6744500994682312,0.0,-0.0,0.0,0.0,0.0,0.0
1782664169,925704433,-1.65611440340151,0.1293010711669922,-1.5218337217914026,0.007119379006326199,0.0008512545027770102,0.6744740605354309,0.0,-0.0,0.0,0.0,0.0,0.0
1782664169,933744877,-1.6560905615436,0.1292891502380371,-1.5218094030963343,0.007167315576225519,0.0007789746159687638,0.6745219826698303,0.0,-0.0,0.0,0.0,0.0,0.0
1782664169,941717878,-1.6560786406146448,0.1293010711669922,-1.5218694845782679,0.007179299835115671,0.0008272860432043672,0.6744860410690308,0.0,-0.0,0.0,0.0,0.0,0.0
1782664169,949703711,-1.65611440340151,0.1292891502380371,-1.5218337217914026,0.007143347058445215,0.0008272860432043672,0.6744980216026306,0.0,-0.0,0.0,0.0,0.0,0.0
1782664169,957722174,-1.6560667196856897,0.1293010711669922,-1.5218213240252894,0.007155331317335367,0.0008033175836317241,0.6744381189346313,0.0,-0.0,0.0,0.0,0.0,0.0
1782664169,965747322,-1.6560547987567347,0.12927722930908203,-1.5218213240252894,0.007131362799555063,0.0007789746159687638,0.6744740605354309,0.0,-0.0,0.0,0.0,0.0,0.0
1782664169,973711729,-1.656102482472555,0.1293010711669922,-1.5217974821673792,0.007119379006326199,0.0008272860432043672,0.6744740605354309,0.0,-0.0,0.0,0.0,0.0,0.0
1782664169,981704489,-1.6560905615436,0.1293010711669922,-1.5218337217914026,0.007191284094005823,0.0008272860432043672,0.6744980216026306,0.0,-0.0,0.0,0.0,0.0,0.0
1782664169,989707914,-1.6560905615436,0.12932491302490234,-1.5218337217914026,0.007143347058445215,0.0008392703020945191,0.6744860410690308,0.0,-0.0,0.0,0.0,0.0,0.0
1782664169,997740488,-1.6560185591327112,0.12931299209594727,-1.5218213240252894,0.007167315576225519,0.0008033175836317241,0.6744980216026306,0.0,-0.0,0.0,0.0,0.0,0.0
1782664170,5716155,-1.65611440340151,0.1292891502380371,-1.5218694845782679,0.007095410488545895,0.0007789746159687638,0.6745100021362305,0.0,-0.0,0.0,0.0,0.0,0.0
1782664170,13705841,-1.65611440340151,0.12931299209594727,-1.5218213240252894,0.007131362799555063,0.0008392703020945191,0.6744980216026306,0.0,-0.0,0.0,0.0,0.0,0.0
1782664170,21713712,-1.6560905615436,0.12931299209594727,-1.5218337217914026,0.007167315576225519,0.0008392703020945191,0.6744500994682312,0.0,-0.0,0.0,0.0,0.0,0.0
1782664170,29742379,-1.6560547987567347,0.1293010711669922,-1.521881405507223,0.007131362799555063,0.0008033175836317241,0.6744141578674316,0.0,-0.0,0.0,0.0,0.0,0.0
1782664170,37714232,-1.6560547987567347,0.12931299209594727,-1.5218694845782679,0.007155331317335367,0.0008392703020945191,0.6744500994682312,0.0,-0.0,0.0,0.0,0.0,0.0
1782664170,45710621,-1.6560547987567347,0.12931299209594727,-1.521881405507223,0.007143347058445215,0.0007909588748589158,0.6744980216026306,0.0,-0.0,0.0,0.0,0.0,0.0
1782664170,53713140,-1.6560309568988245,0.12932491302490234,-1.5218213240252894,0.007119379006326199,0.0007789746159687638,0.6745100021362305,0.0,-0.0,0.0,0.0,0.0,0.0
1782664170,61740956,-1.6561387220965784,0.12927722930908203,-1.521773640309469,0.007155331317335367,0.0008153018425218761,0.6745100021362305,0.0,-0.0,0.0,0.0,0.0,0.0
1782664170,69706290,-1.6560786406146448,0.1292891502380371,-1.5217855612384241,0.007155331317335367,0.0008153018425218761,0.6744740605354309,0.0,-0.0,0.0,0.0,0.0,0.0
1782664170,77696142,-1.6560786406146448,0.1293010711669922,-1.5218213240252894,0.007143347058445215,0.0008632387034595013,0.6744381189346313,0.0,-0.0,0.0,0.0,0.0,0.0
1782664170,85683199,-1.6560547987567347,0.12927722930908203,-1.5218094030963343,0.007095410488545895,0.0008392703020945191,0.6744381189346313,0.0,-0.0,0.0,0.0,0.0,0.0
1782664170,93812865,-1.6560905615436,0.12926530838012695,-1.5218337217914026,0.007131362799555063,0.0008153018425218761,0.6744860410690308,0.0,-0.0,0.0,0.0,0.0,0.0
1782664170,101711052,-1.65611440340151,0.1293010711669922,-1.5218456427203577,0.007131362799555063,0.0007909588748589158,0.674462080001831,0.0,-0.0,0.0,0.0,0.0,0.0
1782664170,109747811,-1.6560667196856897,0.12927722930908203,-1.5218213240252894,0.007179299835115671,0.0008153018425218761,0.674462080001831,0.0,-0.0,0.0,0.0,0.0,0.0
1782664170,117710553,-1.6560547987567347,0.1293010711669922,-1.5218337217914026,0.007143347058445215,0.0008033175836317241,0.6744500994682312,0.0,-0.0,0.0,0.0,0.0,0.0
1782664170,125716794,-1.6560428778277796,0.12927722930908203,-1.521773640309469,0.007155331317335367,0.0008153018425218761,0.6744860410690308,0.0,-0.0,0.0,0.0,0.0,0.0
1782664170,133715647,-1.6560309568988245,0.12931299209594727,-1.5218694845782679,0.007083426229655743,0.0008153018425218761,0.6744860410690308,0.0,-0.0,0.0,0.0,0.0,0.0
1782664170,141696629,-1.65611440340151,0.12932491302490234,-1.5218337217914026,0.007119379006326199,0.0008153018425218761,0.6745339632034302,0.0,-0.0,0.0,0.0,0.0,0.0
1782664170,149708315,-1.6560667196856897,0.12926530838012695,-1.5218694845782679,0.007131362799555063,0.0007909588748589158,0.6745100021362305,0.0,-0.0,0.0,0.0,0.0,0.0
1782664170,157834647,-1.6560547987567347,0.1292891502380371,-1.5218575636493128,0.007167315576225519,0.0008153018425218761,0.6744860410690308,0.0,-0.0,0.0,0.0,0.0,0.0
1782664170,165722186,-1.6560905615436,0.1292891502380371,-1.5218337217914026,0.007167315576225519,0.0007909588748589158,0.6744381189346313,0.0,-0.0,0.0,0.0,0.0,0.0
1782664170,173704742,-1.6560786406146448,0.1292891502380371,-1.5218337217914026,0.007119379006326199,0.0008153018425218761,0.6744980216026306,0.0,-0.0,0.0,0.0,0.0,0.0
1782664170,181697910,-1.6560547987567347,0.12931299209594727,-1.521881405507223,0.007155331317335367,0.0008272860432043672,0.6744500994682312,0.0,-0.0,0.0,0.0,0.0,0.0
1782664170,189784113,-1.6560786406146448,0.12932491302490234,-1.5218213240252894,0.007083426229655743,0.0008033175836317241,0.6744980216026306,0.0,-0.0,0.0,0.0,0.0,0.0
1782664170,197763614,-1.6560667196856897,0.1293492317199707,-1.5218094030963343,0.007167315576225519,0.0007909588748589158,0.6744740605354309,0.0,-0.0,0.0,0.0,0.0,0.0
1782664170,205691578,-1.6560667196856897,0.1292891502380371,-1.5218694845782679,0.007143347058445215,0.0008153018425218761,0.6745219826698303,0.0,-0.0,0.0,0.0,0.0,0.0
1782664170,213697746,-1.6560786406146448,0.1292891502380371,-1.5218337217914026,0.007131362799555063,0.0007909588748589158,0.674462080001831,0.0,-0.0,0.0,0.0,0.0,0.0
1782664170,221763227,-1.6560547987567347,0.12927722930908203,-1.5218694845782679,0.007131362799555063,0.0008392703020945191,0.6744740605354309,0.0,-0.0,0.0,0.0,0.0,0.0
1782664170,229690303,-1.6560667196856897,0.12926530838012695,-1.5218213240252894,0.007119379006326199,0.0008033175836317241,0.6744740605354309,0.0,-0.0,0.0,0.0,0.0,0.0
1782664170,237678933,-1.6560786406146448,0.12931299209594727,-1.5217974821673792,0.007179299835115671,0.0008512545027770102,0.6744860410690308,0.0,-0.0,0.0,0.0,0.0,0.0
1782664170,245691378,-1.656102482472555,0.1293010711669922,-1.5218213240252894,0.007143347058445215,0.0008033175836317241,0.6744740605354309,0.0,-0.0,0.0,0.0,0.0,0.0
1782664170,253726878,-1.6560905615436,0.12932491302490234,-1.5218337217914026,0.007083426229655743,0.0008272860432043672,0.6744740605354309,0.0,-0.0,0.0,0.0,0.0,0.0
1782664170,261698398,-1.6560667196856897,0.1293010711669922,-1.5217855612384241,0.007167315576225519,0.0007909588748589158,0.6745339632034302,0.0,-0.0,0.0,0.0,0.0,0.0
1782664170,269677787,-1.6560905615436,0.1292891502380371,-1.5218213240252894,0.007167315576225519,0.0008033175836317241,0.6745219826698303,0.0,-0.0,0.0,0.0,0.0,0.0
1782664170,277684436,-1.6560905615436,0.12926530838012695,-1.5218337217914026,0.007131362799555063,0.0008153018425218761,0.6744500994682312,0.0,-0.0,0.0,0.0,0.0,0.0
1782664170,285724733,-1.656102482472555,0.1292891502380371,-1.5217974821673792,0.007107394747436047,0.0007789746159687638,0.6744980216026306,0.0,-0.0,0.0,0.0,0.0,0.0
1782664170,293692308,-1.6560428778277796,0.12933731079101562,-1.5218213240252894,0.007143347058445215,0.0008392703020945191,0.6744500994682312,0.0,-0.0,0.0,0.0,0.0,0.0
1782664170,301686716,-1.6560786406146448,0.1293010711669922,-1.5218337217914026,0.007143347058445215,0.0008272860432043672,0.6744740605354309,0.0,-0.0,0.0,0.0,0.0,0.0
1782664170,309689642,-1.6560905615436,0.12933731079101562,-1.5218213240252894,0.007167315576225519,0.0008153018425218761,0.6744500994682312,0.0,-0.0,0.0,0.0,0.0,0.0
1782664170,317719143,-1.6560667196856897,0.12926530838012695,-1.5218094030963343,0.007119379006326199,0.0007909588748589158,0.6744860410690308,0.0,-0.0,0.0,0.0,0.0,0.0
1782664170,325714180,-1.6560905615436,0.1293010711669922,-1.5218694845782679,0.007119379006326199,0.0008512545027770102,0.6744381189346313,0.0,-0.0,0.0,0.0,0.0,0.0
1782664170,333718755,-1.656102482472555,0.12926530838012695,-1.5218456427203577,0.007143347058445215,0.0008392703020945191,0.6744980216026306,0.0,-0.0,0.0,0.0,0.0,0.0
1782664170,341707571,-1.6560547987567347,0.12925338745117188,-1.5218456427203577,0.007119379006326199,0.0007789746159687638,0.6744980216026306,0.0,-0.0,0.0,0.0,0.0,0.0
1782664170,349693053,-1.6560786406146448,0.1293010711669922,-1.5218213240252894,0.007143347058445215,0.0008153018425218761,0.6744500994682312,0.0,-0.0,0.0,0.0,0.0,0.0
1782664170,357690887,-1.6560786406146448,0.1293010711669922,-1.5218094030963343,0.007167315576225519,0.0008033175836317241,0.6744381189346313,0.0,-0.0,0.0,0.0,0.0,0.0
1782664170,365688850,-1.6560309568988245,0.1292891502380371,-1.5218213240252894,0.007119379006326199,0.0008153018425218761,0.6745100021362305,0.0,-0.0,0.0,0.0,0.0,0.0
1782664170,373688925,-1.6560547987567347,0.12927722930908203,-1.5218213240252894,0.007167315576225519,0.0008272860432043672,0.6744860410690308,0.0,-0.0,0.0,0.0,0.0,0.0
1782664170,381698055,-1.6560667196856897,0.1292891502380371,-1.5218456427203577,0.007143347058445215,0.0008272860432043672,0.674462080001831,0.0,-0.0,0.0,0.0,0.0,0.0
1782664170,389691760,-1.6560667196856897,0.12931299209594727,-1.5218094030963343,0.007119379006326199,0.0008512545027770102,0.6744980216026306,0.0,-0.0,0.0,0.0,0.0,0.0
1782664170,397687816,-1.6560428778277796,0.12927722930908203,-1.5218213240252894,0.007179299835115671,0.0008033175836317241,0.6744740605354309,0.0,-0.0,0.0,0.0,0.0,0.0
1782664170,405688205,-1.6560185591327112,0.12926530838012695,-1.5218213240252894,0.007179299835115671,0.0007909588748589158,0.6744860410690308,0.0,-0.0,0.0,0.0,0.0,0.0
1782664170,413703317,-1.6560786406146448,0.12931299209594727,-1.5218456427203577,0.007143347058445215,0.0008033175836317241,0.6744740605354309,0.0,-0.0,0.0,0.0,0.0,0.0
1782664170,421678818,-1.6560547987567347,0.12926530838012695,-1.5218575636493128,0.007119379006326199,0.0007909588748589158,0.6744980216026306,0.0,-0.0,0.0,0.0,0.0,0.0
1782664170,429681133,-1.6560667196856897,0.1293010711669922,-1.5218456427203577,0.007155331317335367,0.0008632387034595013,0.6744980216026306,0.0,-0.0,0.0,0.0,0.0,0.0
1782664170,437681597,-1.656102482472555,0.1293010711669922,-1.5218213240252894,0.007167315576225519,0.0008392703020945191,0.6744980216026306,0.0,-0.0,0.0,0.0,0.0,0.0
1782664170,445683097,-1.656102482472555,0.12926530838012695,-1.5218575636493128,0.007119379006326199,0.0008512545027770102,0.674462080001831,0.0,-0.0,0.0,0.0,0.0,0.0
1782664170,453684117,-1.6560667196856897,0.1293010711669922,-1.5218213240252894,0.007179299835115671,0.0007789746159687638,0.6744980216026306,0.0,-0.0,0.0,0.0,0.0,0.0
1782664170,461683562,-1.6560905615436,0.1292891502380371,-1.5217497984515589,0.007155331317335367,0.0007909588748589158,0.6744980216026306,0.0,-0.0,0.0,0.0,0.0,0.0
1782664170,469687210,-1.6561268011676233,0.12927722930908203,-1.5218213240252894,0.007143347058445215,0.0008512545027770102,0.6744500994682312,0.0,-0.0,0.0,0.0,0.0,0.0
1782664170,477682785,-1.6560667196856897,0.12926530838012695,-1.5218337217914026,0.007155331317335367,0.0007909588748589158,0.6745100021362305,0.0,-0.0,0.0,0.0,0.0,0.0
1782664170,485638305,-1.6560786406146448,0.12931299209594727,-1.5218094030963343,0.007119379006326199,0.0008272860432043672,0.674462080001831,0.0,-0.0,0.0,0.0,0.0,0.0
1782664170,493683990,-1.6560547987567347,0.1292891502380371,-1.5218094030963343,0.007155331317335367,0.0008153018425218761,0.6744500994682312,0.0,-0.0,0.0,0.0,0.0,0.0
1782664170,501682250,-1.656102482472555,0.1292891502380371,-1.5218694845782679,0.007155331317335367,0.0007909588748589158,0.6744381189346313,0.0,-0.0,0.0,0.0,0.0,0.0
1782664170,509959007,-1.6561268011676233,0.12933731079101562,-1.5218456427203577,0.007167315576225519,0.0007909588748589158,0.6744500994682312,0.0,-0.0,0.0,0.0,0.0,0.0
1782664170,517698344,-1.6560786406146448,0.12927722930908203,-1.5218456427203577,0.007131362799555063,0.0007909588748589158,0.6744500994682312,0.0,-0.0,0.0,0.0,0.0,0.0
1782664170,525705122,-1.6560905615436,0.12926530838012695,-1.5218456427203577,0.007155331317335367,0.0008033175836317241,0.6745100021362305,0.0,-0.0,0.0,0.0,0.0,0.0
1782664170,533688141,-1.65611440340151,0.1293010711669922,-1.5218337217914026,0.007131362799555063,0.0008272860432043672,0.6744860410690308,0.0,-0.0,0.0,0.0,0.0,0.0
1782664170,541747882,-1.6560786406146448,0.12932491302490234,-1.5218337217914026,0.007107394747436047,0.0008272860432043672,0.6744500994682312,0.0,-0.0,0.0,0.0,0.0,0.0
1782664170,549688939,-1.6560428778277796,0.1293010711669922,-1.521881405507223,0.007119379006326199,0.0008153018425218761,0.6744860410690308,0.0,-0.0,0.0,0.0,0.0,0.0
1782664170,557687662,-1.6560667196856897,0.12933731079101562,-1.5217855612384241,0.007155331317335367,0.0007909588748589158,0.6744500994682312,0.0,-0.0,0.0,0.0,0.0,0.0
1782664170,565690477,-1.6560667196856897,0.12926530838012695,-1.5218213240252894,0.007095410488545895,0.0008033175836317241,0.674462080001831,0.0,-0.0,0.0,0.0,0.0,0.0
1782664170,573713348,-1.6560786406146448,0.12925338745117188,-1.5218694845782679,0.007131362799555063,0.0008272860432043672,0.674462080001831,0.0,-0.0,0.0,0.0,0.0,0.0
1782664170,581687164,-1.6560905615436,0.12933731079101562,-1.5218094030963343,0.007155331317335367,0.0008272860432043672,0.674462080001831,0.0,-0.0,0.0,0.0,0.0,0.0
1782664170,589687238,-1.6560547987567347,0.12926530838012695,-1.5218456427203577,0.007119379006326199,0.0008512545027770102,0.6744381189346313,0.0,-0.0,0.0,0.0,0.0,0.0
1782664170,597682665,-1.6560667196856897,0.1292891502380371,-1.5218213240252894,0.007179299835115671,0.0008512545027770102,0.6744980216026306,0.0,-0.0,0.0,0.0,0.0,0.0
1782664170,605684721,-1.6560786406146448,0.12932491302490234,-1.5218094030963343,0.007119379006326199,0.0007789746159687638,0.6744500994682312,0.0,-0.0,0.0,0.0,0.0,0.0
1782664170,613722666,-1.6560786406146448,0.1293010711669922,-1.5218456427203577,0.007143347058445215,0.0008632387034595013,0.6744500994682312,0.0,-0.0,0.0,0.0,0.0,0.0
1782664170,621679185,-1.656102482472555,0.1293492317199707,-1.5218213240252894,0.007143347058445215,0.0008392703020945191,0.6744860410690308,0.0,-0.0,0.0,0.0,0.0,0.0
1782664170,629695593,-1.6560905615436,0.12926530838012695,-1.5218213240252894,0.007095410488545895,0.0007909588748589158,0.6744500994682312,0.0,-0.0,0.0,0.0,0.0,0.0
1782664170,637716149,-1.6560547987567347,0.12927722930908203,-1.5218694845782679,0.007179299835115671,0.0008033175836317241,0.6744860410690308,0.0,-0.0,0.0,0.0,0.0,0.0
1782664170,645683113,-1.6560905615436,0.12931299209594727,-1.5218694845782679,0.007107394747436047,0.0007789746159687638,0.6745219826698303,0.0,-0.0,0.0,0.0,0.0,0.0
1782664170,653689447,-1.6560786406146448,0.1293010711669922,-1.5218337217914026,0.007119379006326199,0.0008512545027770102,0.6744980216026306,0.0,-0.0,0.0,0.0,0.0,0.0
1782664170,661690855,-1.65611440340151,0.12931299209594727,-1.5218575636493128,0.007095410488545895,0.0007909588748589158,0.6744500994682312,0.0,-0.0,0.0,0.0,0.0,0.0
1782664170,669709578,-1.6560786406146448,0.1292891502380371,-1.521893326436178,0.007191284094005823,0.0008392703020945191,0.6744860410690308,0.0,-0.0,0.0,0.0,0.0,0.0
1782664170,677688745,-1.6560786406146448,0.1292891502380371,-1.5217855612384241,0.007095410488545895,0.0008033175836317241,0.6745100021362305,0.0,-0.0,0.0,0.0,0.0,0.0
1782664170,685686950,-1.656102482472555,0.1293010711669922,-1.5218456427203577,0.007167315576225519,0.0007909588748589158,0.6744740605354309,0.0,-0.0,0.0,0.0,0.0,0.0
1782664170,693687969,-1.65611440340151,0.1292891502380371,-1.5218456427203577,0.007143347058445215,0.0008392703020945191,0.6744500994682312,0.0,-0.0,0.0,0.0,0.0,0.0
1782664170,701712247,-1.6560547987567347,0.12926530838012695,-1.5218094030963343,0.007107394747436047,0.0008392703020945191,0.6744261384010315,0.0,-0.0,0.0,0.0,0.0,0.0
1782664170,709686415,-1.6560786406146448,0.1293010711669922,-1.5218094030963343,0.007131362799555063,0.0008272860432043672,0.674462080001831,0.0,-0.0,0.0,0.0,0.0,0.0
1782664170,717687341,-1.6560905615436,0.1293492317199707,-1.521881405507223,0.007143347058445215,0.0008153018425218761,0.6744740605354309,0.0,-0.0,0.0,0.0,0.0,0.0
1782664170,725691101,-1.6560667196856897,0.12925338745117188,-1.5218094030963343,0.007119379006326199,0.0007909588748589158,0.6744500994682312,0.0,-0.0,0.0,0.0,0.0,0.0
1782664170,733711990,-1.6560786406146448,0.12927722930908203,-1.5218456427203577,0.007143347058445215,0.0007909588748589158,0.6745100021362305,0.0,-0.0,0.0,0.0,0.0,0.0
1782664170,741691547,-1.6560667196856897,0.12927722930908203,-1.5218213240252894,0.007131362799555063,0.0008512545027770102,0.6744980216026306,0.0,-0.0,0.0,0.0,0.0,0.0
1782664170,749692455,-1.6560428778277796,0.1293010711669922,-1.5218575636493128,0.007119379006326199,0.0008272860432043672,0.6744860410690308,0.0,-0.0,0.0,0.0,0.0,0.0
1782664170,757686326,-1.6560905615436,0.1293010711669922,-1.5218337217914026,0.007119379006326199,0.0007789746159687638,0.6744740605354309,0.0,-0.0,0.0,0.0,0.0,0.0
1782664170,765690900,-1.6560547987567347,0.12926530838012695,-1.5218094030963343,0.007107394747436047,0.0008392703020945191,0.6744500994682312,0.0,-0.0,0.0,0.0,0.0,0.0
1782664170,773684531,-1.6560667196856897,0.12931299209594727,-1.5218575636493128,0.007167315576225519,0.0008272860432043672,0.6744500994682312,0.0,-0.0,0.0,0.0,0.0,0.0
1782664170,781687902,-1.656102482472555,0.12927722930908203,-1.5218337217914026,0.007107394747436047,0.0008512545027770102,0.6744740605354309,0.0,-0.0,0.0,0.0,0.0,0.0
1782664170,789689402,-1.656102482472555,0.12926530838012695,-1.521881405507223,0.007155331317335367,0.0008272860432043672,0.6744860410690308,0.0,-0.0,0.0,0.0,0.0,0.0
1782664170,797713310,-1.6560428778277796,0.1292891502380371,-1.5218575636493128,0.007167315576225519,0.0008153018425218761,0.6744141578674316,0.0,-0.0,0.0,0.0,0.0,0.0
1782664170,805691904,-1.6560905615436,0.12931299209594727,-1.5218575636493128,0.007167315576225519,0.0008272860432043672,0.6744261384010315,0.0,-0.0,0.0,0.0,0.0,0.0
1782664170,813687923,-1.6560786406146448,0.12933731079101562,-1.5218094030963343,0.007119379006326199,0.0008033175836317241,0.6744860410690308,0.0,-0.0,0.0,0.0,0.0,0.0
1782664170,821690979,-1.6560667196856897,0.12932491302490234,-1.521881405507223,0.007143347058445215,0.0008033175836317241,0.6745219826698303,0.0,-0.0,0.0,0.0,0.0,0.0
1782664170,829715831,-1.6560786406146448,0.1292891502380371,-1.5218456427203577,0.007119379006326199,0.0007789746159687638,0.6744860410690308,0.0,-0.0,0.0,0.0,0.0,0.0
1782664170,837691351,-1.6560547987567347,0.1292891502380371,-1.5218575636493128,0.007143347058445215,0.0008272860432043672,0.6744381189346313,0.0,-0.0,0.0,0.0,0.0,0.0
1782664170,845695796,-1.656102482472555,0.1293010711669922,-1.5218094030963343,0.007155331317335367,0.0008033175836317241,0.6744860410690308,0.0,-0.0,0.0,0.0,0.0,0.0
1782664170,853681111,-1.656102482472555,0.1293010711669922,-1.5217855612384241,0.007191284094005823,0.0008033175836317241,0.6744860410690308,0.0,-0.0,0.0,0.0,0.0,0.0
1782664170,861714482,-1.656102482472555,0.1293492317199707,-1.5218213240252894,0.007143347058445215,0.0008033175836317241,0.6744740605354309,0.0,-0.0,0.0,0.0,0.0,0.0
1782664170,869689483,-1.6560428778277796,0.12927722930908203,-1.5218213240252894,0.007191284094005823,0.0008272860432043672,0.6744500994682312,0.0,-0.0,0.0,0.0,0.0,0.0
1782664170,877691539,-1.6561506430255335,0.1293010711669922,-1.5218456427203577,0.007155331317335367,0.0008512545027770102,0.6744500994682312,0.0,-0.0,0.0,0.0,0.0,0.0
1782664170,885776279,-1.6560786406146448,0.1292891502380371,-1.5218094030963343,0.007143347058445215,0.0008512545027770102,0.6744740605354309,0.0,-0.0,0.0,0.0,0.0,0.0
1782664170,893810743,-1.6560667196856897,0.12932491302490234,-1.5218337217914026,0.007143347058445215,0.0008272860432043672,0.6744860410690308,0.0,-0.0,0.0,0.0,0.0,0.0
1782664170,901744855,-1.6560547987567347,0.12931299209594727,-1.5218213240252894,0.007143347058445215,0.0008392703020945191,0.674462080001831,0.0,-0.0,0.0,0.0,0.0,0.0
1782664170,909721319,-1.6560667196856897,0.12926530838012695,-1.5218213240252894,0.007155331317335367,0.0008272860432043672,0.674462080001831,0.0,-0.0,0.0,0.0,0.0,0.0
1782664170,917697172,-1.656102482472555,0.1292891502380371,-1.521881405507223,0.007107394747436047,0.0008033175836317241,0.6745219826698303,0.0,-0.0,0.0,0.0,0.0,0.0
1782664170,925715357,-1.6560667196856897,0.12926530838012695,-1.5218456427203577,0.007143347058445215,0.0008272860432043672,0.6745219826698303,0.0,-0.0,0.0,0.0,0.0,0.0
1782664170,933704617,-1.6560309568988245,0.1293010711669922,-1.5218456427203577,0.007107394747436047,0.0007909588748589158,0.6744980216026306,0.0,-0.0,0.0,0.0,0.0,0.0
1782664170,941684081,-1.656102482472555,0.12931299209594727,-1.5218575636493128,0.007143347058445215,0.0007909588748589158,0.674462080001831,0.0,-0.0,0.0,0.0,0.0,0.0
1782664170,949705526,-1.6560667196856897,0.12931299209594727,-1.5218337217914026,0.007107394747436047,0.0008512545027770102,0.6744860410690308,0.0,-0.0,0.0,0.0,0.0,0.0
1782664170,957707897,-1.6560547987567347,0.1293010711669922,-1.5218094030963343,0.007131362799555063,0.0007909588748589158,0.674462080001831,0.0,-0.0,0.0,0.0,0.0,0.0
1782664170,965733823,-1.65611440340151,0.12932491302490234,-1.5218575636493128,0.007167315576225519,0.0008392703020945191,0.6744860410690308,0.0,-0.0,0.0,0.0,0.0,0.0
1782664170,973674565,-1.6560309568988245,0.12925338745117188,-1.5218337217914026,0.007143347058445215,0.0007789746159687638,0.6744740605354309,0.0,-0.0,0.0,0.0,0.0,0.0
1782664170,981695140,-1.65611440340151,0.12927722930908203,-1.5218694845782679,0.007179299835115671,0.0007909588748589158,0.6744860410690308,0.0,-0.0,0.0,0.0,0.0,0.0
1782664170,989726362,-1.6560786406146448,0.1293010711669922,-1.5218456427203577,0.007167315576225519,0.0008272860432043672,0.6744740605354309,0.0,-0.0,0.0,0.0,0.0,0.0
1782664170,997716418,-1.6560667196856897,0.1292891502380371,-1.5218456427203577,0.007119379006326199,0.0008033175836317241,0.6744500994682312,0.0,-0.0,0.0,0.0,0.0,0.0
1782664171,5684160,-1.65611440340151,0.12932491302490234,-1.5218456427203577,0.007131362799555063,0.0008153018425218761,0.6745100021362305,0.0,-0.0,0.0,0.0,0.0,0.0
1782664171,14106176,-1.6560786406146448,0.12933731079101562,-1.5218337217914026,0.007119379006326199,0.0008392703020945191,0.6744381189346313,0.0,-0.0,0.0,0.0,0.0,0.0
1782664171,21705737,-1.6560428778277796,0.1292891502380371,-1.5218337217914026,0.007191284094005823,0.0008512545027770102,0.6744740605354309,0.0,-0.0,0.0,0.0,0.0,0.0
1782664171,29704516,-1.6560786406146448,0.1292891502380371,-1.5217974821673792,0.007155331317335367,0.0008632387034595013,0.6744740605354309,0.0,-0.0,0.0,0.0,0.0,0.0
1782664171,37681703,-1.6560786406146448,0.1293010711669922,-1.5218213240252894,0.007107394747436047,0.0008272860432043672,0.6745339632034302,0.0,-0.0,0.0,0.0,0.0,0.0
1782664171,45704741,-1.6560547987567347,0.1293010711669922,-1.5217974821673792,0.007131362799555063,0.0008153018425218761,0.6744500994682312,0.0,-0.0,0.0,0.0,0.0,0.0
1782664171,53697594,-1.6560905615436,0.12927722930908203,-1.5218456427203577,0.007131362799555063,0.0008033175836317241,0.674462080001831,0.0,-0.0,0.0,0.0,0.0,0.0
1782664171,61732225,-1.656102482472555,0.1293010711669922,-1.5218337217914026,0.007143347058445215,0.0008272860432043672,0.6744740605354309,0.0,-0.0,0.0,0.0,0.0,0.0
1782664171,69750615,-1.6560786406146448,0.1293010711669922,-1.5218456427203577,0.007155331317335367,0.0008153018425218761,0.674462080001831,0.0,-0.0,0.0,0.0,0.0,0.0
1782664171,77712394,-1.656102482472555,0.12927722930908203,-1.5218213240252894,0.007179299835115671,0.0008392703020945191,0.6744860410690308,0.0,-0.0,0.0,0.0,0.0,0.0
1782664171,85789562,-1.6560428778277796,0.1293010711669922,-1.5218456427203577,0.007167315576225519,0.0008272860432043672,0.6744860410690308,0.0,-0.0,0.0,0.0,0.0,0.0
1782664171,93756082,-1.65611440340151,0.12927722930908203,-1.5217974821673792,0.007143347058445215,0.0008153018425218761,0.6745460033416748,0.0,-0.0,0.0,0.0,0.0,0.0
1782664171,101735379,-1.6560786406146448,0.12926530838012695,-1.5218456427203577,0.007155331317335367,0.0008033175836317241,0.6744500994682312,0.0,-0.0,0.0,0.0,0.0,0.0
1782664171,109699918,-1.656102482472555,0.1292891502380371,-1.5218575636493128,0.007095410488545895,0.0008392703020945191,0.6745100021362305,0.0,-0.0,0.0,0.0,0.0,0.0
1782664171,117840455,-1.6560905615436,0.12931299209594727,-1.5218456427203577,0.007143347058445215,0.0008512545027770102,0.6744860410690308,0.0,-0.0,0.0,0.0,0.0,0.0
1782664171,125721550,-1.6560547987567347,0.12933731079101562,-1.5218094030963343,0.007131362799555063,0.0008392703020945191,0.674462080001831,0.0,-0.0,0.0,0.0,0.0,0.0
1782664171,133683774,-1.6560547987567347,0.12931299209594727,-1.5218694845782679,0.007167315576225519,0.0007789746159687638,0.6745219826698303,0.0,-0.0,0.0,0.0,0.0,0.0
1782664171,141692312,-1.656102482472555,0.1293010711669922,-1.5218575636493128,0.007179299835115671,0.0008033175836317241,0.674462080001831,0.0,-0.0,0.0,0.0,0.0,0.0
1782664171,149746684,-1.6560547987567347,0.1293492317199707,-1.5218213240252894,0.007119379006326199,0.0008153018425218761,0.6744860410690308,0.0,-0.0,0.0,0.0,0.0,0.0
1782664171,157700556,-1.6560547987567347,0.12926530838012695,-1.5218456427203577,0.007167315576225519,0.0007789746159687638,0.6744980216026306,0.0,-0.0,0.0,0.0,0.0,0.0
1782664171,165677131,-1.6560309568988245,0.12932491302490234,-1.5218337217914026,0.007203268352895975,0.0008632387034595013,0.6744980216026306,0.0,-0.0,0.0,0.0,0.0,0.0
1782664171,173736225,-1.6560547987567347,0.12927722930908203,-1.521893326436178,0.007167315576225519,0.0008153018425218761,0.6744860410690308,0.0,-0.0,0.0,0.0,0.0,0.0
1782664171,181725448,-1.6560667196856897,0.1292891502380371,-1.5218456427203577,0.007167315576225519,0.0008033175836317241,0.6745100021362305,0.0,-0.0,0.0,0.0,0.0,0.0
1782664171,189705894,-1.6560786406146448,0.1292891502380371,-1.5218213240252894,0.007143347058445215,0.0007789746159687638,0.6744500994682312,0.0,-0.0,0.0,0.0,0.0,0.0
1782664171,197676137,-1.6560786406146448,0.12931299209594727,-1.521773640309469,0.007131362799555063,0.0007909588748589158,0.674462080001831,0.0,-0.0,0.0,0.0,0.0,0.0
1782664171,205687119,-1.6560905615436,0.12931299209594727,-1.5218456427203577,0.007095410488545895,0.0008512545027770102,0.6744740605354309,0.0,-0.0,0.0,0.0,0.0,0.0
1782664171,213710065,-1.6560786406146448,0.12927722930908203,-1.5218094030963343,0.007167315576225519,0.0008033175836317241,0.6745339632034302,0.0,-0.0,0.0,0.0,0.0,0.0
1782664171,221679215,-1.6560905615436,0.12932491302490234,-1.5218456427203577,0.007179299835115671,0.0008392703020945191,0.6744860410690308,0.0,-0.0,0.0,0.0,0.0,0.0
1782664171,229681179,-1.6560667196856897,0.1292891502380371,-1.5218213240252894,0.007131362799555063,0.0008153018425218761,0.674462080001831,0.0,-0.0,0.0,0.0,0.0,0.0
1782664171,237724198,-1.6560786406146448,0.12931299209594727,-1.5218094030963343,0.007119379006326199,0.0008272860432043672,0.6744980216026306,0.0,-0.0,0.0,0.0,0.0,0.0
1782664171,245740848,-1.6560428778277796,0.1293010711669922,-1.5218456427203577,0.007107394747436047,0.0007909588748589158,0.6744381189346313,0.0,-0.0,0.0,0.0,0.0,0.0
1782664171,253712349,-1.6560547987567347,0.1292891502380371,-1.5218456427203577,0.007131362799555063,0.0008752229623496532,0.6744381189346313,0.0,-0.0,0.0,0.0,0.0,0.0
1782664171,261724036,-1.6560786406146448,0.1292891502380371,-1.521881405507223,0.007083426229655743,0.0008033175836317241,0.6744261384010315,0.0,-0.0,0.0,0.0,0.0,0.0
1782664171,269708759,-1.6560786406146448,0.12933731079101562,-1.5218213240252894,0.007107394747436047,0.0008153018425218761,0.6745219826698303,0.0,-0.0,0.0,0.0,0.0,0.0
1782664171,277830519,-1.6560185591327112,0.12926530838012695,-1.5218213240252894,0.007143347058445215,0.0008153018425218761,0.6744980216026306,0.0,-0.0,0.0,0.0,0.0,0.0
1782664171,285771743,-1.6560547987567347,0.1292891502380371,-1.5217974821673792,0.007131362799555063,0.0008392703020945191,0.6744500994682312,0.0,-0.0,0.0,0.0,0.0,0.0
1782664171,293748356,-1.6560786406146448,0.1292891502380371,-1.5218456427203577,0.007119379006326199,0.0008512545027770102,0.674462080001831,0.0,-0.0,0.0,0.0,0.0,0.0
1782664171,301690024,-1.6560667196856897,0.12931299209594727,-1.5218456427203577,0.007167315576225519,0.0008033175836317241,0.6744860410690308,0.0,-0.0,0.0,0.0,0.0,0.0
1782664171,309771580,-1.6560786406146448,0.1292891502380371,-1.5218456427203577,0.007155331317335367,0.0007550062146037817,0.6744740605354309,0.0,-0.0,0.0,0.0,0.0,0.0
1782664171,317713027,-1.6560667196856897,0.12932491302490234,-1.5218213240252894,0.007095410488545895,0.0007909588748589158,0.6744860410690308,0.0,-0.0,0.0,0.0,0.0,0.0
1782664171,325700417,-1.6560786406146448,0.1293492317199707,-1.5218456427203577,0.007143347058445215,0.0008512545027770102,0.6744381189346313,0.0,-0.0,0.0,0.0,0.0,0.0
1782664171,333683807,-1.6560667196856897,0.1293010711669922,-1.5217974821673792,0.007179299835115671,0.0008033175836317241,0.6744740605354309,0.0,-0.0,0.0,0.0,0.0,0.0
1782664171,341702049,-1.6560667196856897,0.12932491302490234,-1.5218456427203577,0.007143347058445215,0.0008153018425218761,0.6745100021362305,0.0,-0.0,0.0,0.0,0.0,0.0
1782664171,349690551,-1.6560309568988245,0.1292891502380371,-1.5218337217914026,0.007131362799555063,0.0008512545027770102,0.6745219826698303,0.0,-0.0,0.0,0.0,0.0,0.0
1782664171,357693052,-1.656102482472555,0.1293010711669922,-1.5218213240252894,0.007107394747436047,0.0008033175836317241,0.6745100021362305,0.0,-0.0,0.0,0.0,0.0,0.0
1782664171,365690609,-1.656102482472555,0.12933731079101562,-1.5218456427203577,0.007107394747436047,0.0008512545027770102,0.6744740605354309,0.0,-0.0,0.0,0.0,0.0,0.0
1782664171,373672907,-1.6560547987567347,0.12931299209594727,-1.5218456427203577,0.007143347058445215,0.0008272860432043672,0.6744500994682312,0.0,-0.0,0.0,0.0,0.0,0.0
1782664171,381682926,-1.65611440340151,0.1293010711669922,-1.5218575636493128,0.007131362799555063,0.0008272860432043672,0.6744860410690308,0.0,-0.0,0.0,0.0,0.0,0.0
1782664171,389689557,-1.6560309568988245,0.12927722930908203,-1.5217974821673792,0.007119379006326199,0.0008272860432043672,0.6744740605354309,0.0,-0.0,0.0,0.0,0.0,0.0
1782664171,397726447,-1.6560786406146448,0.1293010711669922,-1.5218337217914026,0.007167315576225519,0.0008392703020945191,0.6744860410690308,0.0,-0.0,0.0,0.0,0.0,0.0
1782664171,405721411,-1.6560547987567347,0.1293010711669922,-1.5218575636493128,0.007155331317335367,0.0007909588748589158,0.6744740605354309,0.0,-0.0,0.0,0.0,0.0,0.0
1782664171,413722542,-1.656102482472555,0.12932491302490234,-1.5218213240252894,0.007143347058445215,0.0008033175836317241,0.674462080001831,0.0,-0.0,0.0,0.0,0.0,0.0
1782664171,421712618,-1.6560905615436,0.1293010711669922,-1.5218694845782679,0.007119379006326199,0.0008033175836317241,0.6744860410690308,0.0,-0.0,0.0,0.0,0.0,0.0
1782664171,429717101,-1.6560667196856897,0.12931299209594727,-1.5218456427203577,0.007167315576225519,0.0007789746159687638,0.6745219826698303,0.0,-0.0,0.0,0.0,0.0,0.0
1782664171,437754028,-1.6560667196856897,0.12926530838012695,-1.5218213240252894,0.007119379006326199,0.0008272860432043672,0.6744980216026306,0.0,-0.0,0.0,0.0,0.0,0.0
1782664171,445720844,-1.6560905615436,0.12931299209594727,-1.5217855612384241,0.007119379006326199,0.0008512545027770102,0.674462080001831,0.0,-0.0,0.0,0.0,0.0,0.0
1782664171,453720864,-1.6560786406146448,0.1292891502380371,-1.5217974821673792,0.007143347058445215,0.0008512545027770102,0.6744500994682312,0.0,-0.0,0.0,0.0,0.0,0.0
1782664171,461738143,-1.656102482472555,0.12927722930908203,-1.5218213240252894,0.007107394747436047,0.0007669904152862728,0.6744500994682312,0.0,-0.0,0.0,0.0,0.0,0.0
1782664171,469758662,-1.6560428778277796,0.1292891502380371,-1.5217974821673792,0.007143347058445215,0.0008392703020945191,0.674462080001831,0.0,-0.0,0.0,0.0,0.0,0.0
1782664171,477738053,-1.6560786406146448,0.12931299209594727,-1.5218213240252894,0.007071441970765591,0.0008153018425218761,0.674462080001831,0.0,-0.0,0.0,0.0,0.0,0.0
1782664171,485717684,-1.6561268011676233,0.12933731079101562,-1.5218694845782679,0.007179299835115671,0.0007789746159687638,0.6744860410690308,0.0,-0.0,0.0,0.0,0.0,0.0
1782664171,493782981,-1.65611440340151,0.1293010711669922,-1.5218456427203577,0.007143347058445215,0.0007909588748589158,0.6744860410690308,0.0,-0.0,0.0,0.0,0.0,0.0
1782664171,501837445,-1.6560547987567347,0.12931299209594727,-1.5218094030963343,0.007179299835115671,0.0008153018425218761,0.6745100021362305,0.0,-0.0,0.0,0.0,0.0,0.0
1782664171,509763725,-1.6561268011676233,0.12932491302490234,-1.5218213240252894,0.007155331317335367,0.0008632387034595013,0.6744860410690308,0.0,-0.0,0.0,0.0,0.0,0.0
1782664171,517698652,-1.6560667196856897,0.12931299209594727,-1.5218213240252894,0.007179299835115671,0.0008033175836317241,0.6744860410690308,0.0,-0.0,0.0,0.0,0.0,0.0
1782664171,525725876,-1.6560428778277796,0.12926530838012695,-1.5218694845782679,0.007167315576225519,0.0008153018425218761,0.674462080001831,0.0,-0.0,0.0,0.0,0.0,0.0
1782664171,533765895,-1.6560905615436,0.12933731079101562,-1.5218337217914026,0.007179299835115671,0.0007669904152862728,0.6744860410690308,0.0,-0.0,0.0,0.0,0.0,0.0
1782664171,541694027,-1.6560905615436,0.12932491302490234,-1.5218213240252894,0.007131362799555063,0.0008153018425218761,0.6744381189346313,0.0,-0.0,0.0,0.0,0.0,0.0
1782664171,549692213,-1.6560786406146448,0.1292891502380371,-1.521881405507223,0.007143347058445215,0.0008392703020945191,0.6744500994682312,0.0,-0.0,0.0,0.0,0.0,0.0
1782664171,557690344,-1.6560547987567347,0.1292414665222168,-1.5218694845782679,0.007143347058445215,0.0008392703020945191,0.6744740605354309,0.0,-0.0,0.0,0.0,0.0,0.0
1782664171,565751178,-1.6560547987567347,0.12926530838012695,-1.5218213240252894,0.007083426229655743,0.0007909588748589158,0.6744740605354309,0.0,-0.0,0.0,0.0,0.0,0.0
1782664171,573720865,-1.6560786406146448,0.12927722930908203,-1.5218337217914026,0.007155331317335367,0.0008272860432043672,0.6744381189346313,0.0,-0.0,0.0,0.0,0.0,0.0
1782664171,581678997,-1.6560905615436,0.12931299209594727,-1.5218456427203577,0.007155331317335367,0.0007909588748589158,0.6745219826698303,0.0,-0.0,0.0,0.0,0.0,0.0
1782664171,589706868,-1.6560667196856897,0.12931299209594727,-1.5218094030963343,0.007155331317335367,0.0008512545027770102,0.6744860410690308,0.0,-0.0,0.0,0.0,0.0,0.0
1782664171,597694814,-1.6560428778277796,0.12926530838012695,-1.5218094030963343,0.007119379006326199,0.0008272860432043672,0.674462080001831,0.0,-0.0,0.0,0.0,0.0,0.0
1782664171,605711852,-1.6560905615436,0.1292891502380371,-1.5218094030963343,0.007143347058445215,0.0008392703020945191,0.6744860410690308,0.0,-0.0,0.0,0.0,0.0,0.0
1782664171,613677835,-1.6560905615436,0.12932491302490234,-1.5217974821673792,0.007143347058445215,0.0008272860432043672,0.6744740605354309,0.0,-0.0,0.0,0.0,0.0,0.0
1782664171,621729151,-1.6560667196856897,0.1292891502380371,-1.5218213240252894,0.007143347058445215,0.0008153018425218761,0.6744980216026306,0.0,-0.0,0.0,0.0,0.0,0.0
1782664171,629706338,-1.6560786406146448,0.12932491302490234,-1.5218213240252894,0.007143347058445215,0.0008153018425218761,0.674462080001831,0.0,-0.0,0.0,0.0,0.0,0.0
1782664171,637690506,-1.6560905615436,0.12927722930908203,-1.5218456427203577,0.007203268352895975,0.0008392703020945191,0.6745219826698303,0.0,-0.0,0.0,0.0,0.0,0.0
1782664171,645716340,-1.6560667196856897,0.1293010711669922,-1.5218337217914026,0.007071441970765591,0.0007789746159687638,0.6744860410690308,0.0,-0.0,0.0,0.0,0.0,0.0
1782664171,653705138,-1.6560786406146448,0.1293010711669922,-1.5218213240252894,0.007143347058445215,0.0008512545027770102,0.6744500994682312,0.0,-0.0,0.0,0.0,0.0,0.0
1782664171,661707361,-1.656102482472555,0.1292414665222168,-1.5218213240252894,0.007179299835115671,0.0007909588748589158,0.6745100021362305,0.0,-0.0,0.0,0.0,0.0,0.0
1782664171,669766510,-1.6560667196856897,0.12933731079101562,-1.5218694845782679,0.007143347058445215,0.0008392703020945191,0.6744980216026306,0.0,-0.0,0.0,0.0,0.0,0.0
1782664171,677691160,-1.6560786406146448,0.12933731079101562,-1.5218575636493128,0.007119379006326199,0.0007909588748589158,0.6745100021362305,0.0,-0.0,0.0,0.0,0.0,0.0
1782664171,685719180,-1.6560786406146448,0.12931299209594727,-1.5218337217914026,0.007107394747436047,0.0008632387034595013,0.6744740605354309,0.0,-0.0,0.0,0.0,0.0,0.0
1782664171,693708126,-1.6560428778277796,0.1292414665222168,-1.5218094030963343,0.007107394747436047,0.0007789746159687638,0.6744500994682312,0.0,-0.0,0.0,0.0,0.0,0.0
1782664171,701745905,-1.6560309568988245,0.1293010711669922,-1.5217855612384241,0.007155331317335367,0.0008272860432043672,0.6744980216026306,0.0,-0.0,0.0,0.0,0.0,0.0
1782664171,709819553,-1.6560547987567347,0.12933731079101562,-1.5217974821673792,0.007155331317335367,0.0007789746159687638,0.674462080001831,0.0,-0.0,0.0,0.0,0.0,0.0
1782664171,717710778,-1.6560547987567347,0.1292891502380371,-1.5218456427203577,0.007095410488545895,0.0008392703020945191,0.6745100021362305,0.0,-0.0,0.0,0.0,0.0,0.0
1782664171,725714576,-1.656102482472555,0.1293010711669922,-1.5218213240252894,0.007095410488545895,0.0008153018425218761,0.6744740605354309,0.0,-0.0,0.0,0.0,0.0,0.0
1782664171,733739003,-1.6560786406146448,0.1293010711669922,-1.5218694845782679,0.007119379006326199,0.0008033175836317241,0.6744860410690308,0.0,-0.0,0.0,0.0,0.0,0.0
1782664171,741702412,-1.6560786406146448,0.1293010711669922,-1.5218575636493128,0.007179299835115671,0.0008392703020945191,0.6744261384010315,0.0,-0.0,0.0,0.0,0.0,0.0
1782664171,749715894,-1.65611440340151,0.1292414665222168,-1.5218337217914026,0.007143347058445215,0.0008272860432043672,0.6744860410690308,0.0,-0.0,0.0,0.0,0.0,0.0
1782664171,757684507,-1.6560905615436,0.1293010711669922,-1.5218337217914026,0.007191284094005823,0.0007789746159687638,0.674462080001831,0.0,-0.0,0.0,0.0,0.0,0.0
1782664171,765689971,-1.656102482472555,0.1293010711669922,-1.5218456427203577,0.007107394747436047,0.0008153018425218761,0.6745100021362305,0.0,-0.0,0.0,0.0,0.0,0.0
1782664171,773683713,-1.6560428778277796,0.1292891502380371,-1.5218456427203577,0.007131362799555063,0.0008272860432043672,0.6744740605354309,0.0,-0.0,0.0,0.0,0.0,0.0
1782664171,781701733,-1.65611440340151,0.12933731079101562,-1.5218694845782679,0.007167315576225519,0.0008512545027770102,0.674462080001831,0.0,-0.0,0.0,0.0,0.0,0.0
1782664171,789709197,-1.6560667196856897,0.12932491302490234,-1.5218456427203577,0.007119379006326199,0.0008033175836317241,0.6744261384010315,0.0,-0.0,0.0,0.0,0.0,0.0
1782664171,797761680,-1.6560786406146448,0.1293010711669922,-1.5218456427203577,0.007131362799555063,0.0008153018425218761,0.6744141578674316,0.0,-0.0,0.0,0.0,0.0,0.0
1782664171,805710681,-1.6560667196856897,0.12931299209594727,-1.5217974821673792,0.007191284094005823,0.0007909588748589158,0.6744381189346313,0.0,-0.0,0.0,0.0,0.0,0.0
1782664171,813718461,-1.6560786406146448,0.12933731079101562,-1.5218213240252894,0.007143347058445215,0.0008033175836317241,0.6744500994682312,0.0,-0.0,0.0,0.0,0.0,0.0
1782664171,821711388,-1.6560905615436,0.12931299209594727,-1.5218094030963343,0.007083426229655743,0.0007909588748589158,0.6744860410690308,0.0,-0.0,0.0,0.0,0.0,0.0
1782664171,829743667,-1.6560309568988245,0.12927722930908203,-1.5218337217914026,0.007119379006326199,0.0008033175836317241,0.6744860410690308,0.0,-0.0,0.0,0.0,0.0,0.0
1782664171,837712742,-1.6560667196856897,0.1293010711669922,-1.5218337217914026,0.007143347058445215,0.0008392703020945191,0.6744500994682312,0.0,-0.0,0.0,0.0,0.0,0.0
1782664171,845825928,-1.6560185591327112,0.12932491302490234,-1.5218213240252894,0.007143347058445215,0.0008632387034595013,0.6744860410690308,0.0,-0.0,0.0,0.0,0.0,0.0
1782664171,853716967,-1.6560667196856897,0.12933731079101562,-1.5218337217914026,0.007107394747436047,0.0008512545027770102,0.6745100021362305,0.0,-0.0,0.0,0.0,0.0,0.0
1782664171,861727672,-1.6560905615436,0.1292891502380371,-1.5218094030963343,0.007167315576225519,0.0008392703020945191,0.6745219826698303,0.0,-0.0,0.0,0.0,0.0,0.0
1782664171,869713525,-1.6560905615436,0.12926530838012695,-1.5218456427203577,0.007143347058445215,0.0008632387034595013,0.6745339632034302,0.0,-0.0,0.0,0.0,0.0,0.0
1782664171,877708101,-1.6560667196856897,0.1293010711669922,-1.5218094030963343,0.007119379006326199,0.0008153018425218761,0.6745100021362305,0.0,-0.0,0.0,0.0,0.0,0.0
1782664171,885711028,-1.6560786406146448,0.1293010711669922,-1.5218456427203577,0.007167315576225519,0.0008272860432043672,0.6745100021362305,0.0,-0.0,0.0,0.0,0.0,0.0
1782664171,893737455,-1.6560786406146448,0.12931299209594727,-1.5218213240252894,0.007119379006326199,0.0008033175836317241,0.6744860410690308,0.0,-0.0,0.0,0.0,0.0,0.0
1782664171,901701068,-1.6560667196856897,0.12927722930908203,-1.5218094030963343,0.007143347058445215,0.0008632387034595013,0.6744980216026306,0.0,-0.0,0.0,0.0,0.0,0.0
1782664171,909717513,-1.6560786406146448,0.12927722930908203,-1.5218456427203577,0.007167315576225519,0.0008392703020945191,0.6744860410690308,0.0,-0.0,0.0,0.0,0.0,0.0
1782664171,917712330,-1.6560905615436,0.12927722930908203,-1.5218575636493128,0.007167315576225519,0.0008272860432043672,0.674462080001831,0.0,-0.0,0.0,0.0,0.0,0.0
1782664171,925729053,-1.656102482472555,0.12932491302490234,-1.5218094030963343,0.007155331317335367,0.0008153018425218761,0.6744860410690308,0.0,-0.0,0.0,0.0,0.0,0.0
1782664171,933691407,-1.6560428778277796,0.12931299209594727,-1.5218575636493128,0.007083426229655743,0.0007909588748589158,0.674462080001831,0.0,-0.0,0.0,0.0,0.0,0.0
1782664171,941752333,-1.6560667196856897,0.12933731079101562,-1.5217855612384241,0.007131362799555063,0.0008272860432043672,0.6744980216026306,0.0,-0.0,0.0,0.0,0.0,0.0
