LukePepin/On-Edge/data/archived_logs/deceleration_data_1782664394.csv
timestamp_sec,timestamp_nanosec,shoulder_pan_pos,shoulder_lift_pos,elbow_pos,wrist_1_pos,wrist_2_pos,wrist_3_pos,shoulder_pan_vel,shoulder_lift_vel,elbow_vel,wrist_1_vel,wrist_2_vel,wrist_3_vel
1782664395,279448963,-1.6560905615436,0.12926530838012695,-1.5218337217914026,0.007167315576225519,0.0008153018425218761,0.6744381189346313,0.0,-0.0,0.0,0.0,0.0,0.0
1782664395,283917980,-1.65611440340151,0.12933731079101562,-1.5217974821673792,0.007143347058445215,0.0008272860432043672,0.6744500994682312,0.0,-0.0,0.0,0.0,0.0,0.0
1782664395,291875122,-1.6561506430255335,0.12927722930908203,-1.5218575636493128,0.007143347058445215,0.0008392703020945191,0.6744261384010315,0.0,-0.0,0.0,0.0,0.0,0.0
1782664395,299887115,-1.6560905615436,0.1292891502380371,-1.5218337217914026,0.007131362799555063,0.0008153018425218761,0.6744261384010315,0.0,-0.0,0.0,0.0,0.0,0.0
1782664395,307905220,-1.65611440340151,0.12931299209594727,-1.5218094030963343,0.007203268352895975,0.0007909588748589158,0.6744261384010315,0.0,-0.0,0.0,0.0,0.0,0.0
1782664395,315907047,-1.65611440340151,0.12931299209594727,-1.5218456427203577,0.007179299835115671,0.0008272860432043672,0.6744500994682312,0.0,-0.0,0.0,0.0,0.0,0.0
1782664395,323896540,-1.6561268011676233,0.12932491302490234,-1.5218337217914026,0.007203268352895975,0.0008272860432043672,0.6744500994682312,0.0,-0.0,0.0,0.0,0.0,0.0
1782664395,331899756,-1.6561625639544886,0.12927722930908203,-1.5217974821673792,0.007143347058445215,0.0007909588748589158,0.6744740605354309,0.0,-0.0,0.0,0.0,0.0,0.0
1782664395,339890731,-1.65611440340151,0.1293010711669922,-1.5218575636493128,0.007143347058445215,0.0008153018425218761,0.6744381189346313,0.0,-0.0,0.0,0.0,0.0,0.0
1782664395,348104244,-1.656102482472555,0.1292414665222168,-1.5217974821673792,0.007131362799555063,0.0008392703020945191,0.674462080001831,0.0,-0.0,0.0,0.0,0.0,0.0
1782664395,355914496,-1.65611440340151,0.1293010711669922,-1.5218094030963343,0.007119379006326199,0.0008392703020945191,0.6744500994682312,0.0,-0.0,0.0,0.0,0.0,0.0
1782664395,363891360,-1.65611440340151,0.12927722930908203,-1.521881405507223,0.007167315576225519,0.0008033175836317241,0.674462080001831,0.0,-0.0,0.0,0.0,0.0,0.0
1782664395,371893539,-1.6561268011676233,0.12926530838012695,-1.5218456427203577,0.007179299835115671,0.0008512545027770102,0.674462080001831,0.0,-0.0,0.0,0.0,0.0,0.0
1782664395,379907069,-1.6561268011676233,0.12926530838012695,-1.5218456427203577,0.007131362799555063,0.0008153018425218761,0.6744141578674316,0.0,-0.0,0.0,0.0,0.0,0.0
1782664395,387904026,-1.656102482472555,0.12926530838012695,-1.5218456427203577,0.007143347058445215,0.0008272860432043672,0.6744740605354309,0.0,-0.0,0.0,0.0,0.0,0.0
1782664395,395907667,-1.6560905615436,0.1292891502380371,-1.5218213240252894,0.007143347058445215,0.0008153018425218761,0.6745100021362305,0.0,-0.0,0.0,0.0,0.0,0.0
1782664395,403902402,-1.6561387220965784,0.12931299209594727,-1.5218337217914026,0.007143347058445215,0.0008272860432043672,0.6744740605354309,0.0,-0.0,0.0,0.0,0.0,0.0
1782664395,411909358,-1.656102482472555,0.12926530838012695,-1.5218094030963343,0.007155331317335367,0.0008392703020945191,0.6744381189346313,0.0,-0.0,0.0,0.0,0.0,0.0
1782664395,419911092,-1.6561387220965784,0.1293010711669922,-1.5218575636493128,0.007107394747436047,0.0008153018425218761,0.6744740605354309,0.0,-0.0,0.0,0.0,0.0,0.0
1782664395,427910475,-1.6561506430255335,0.12926530838012695,-1.5218575636493128,0.007143347058445215,0.0008272860432043672,0.6744261384010315,0.0,-0.0,0.0,0.0,0.0,0.0
1782664395,435903653,-1.6560786406146448,0.12927722930908203,-1.5218456427203577,0.007143347058445215,0.0008392703020945191,0.6744381189346313,0.0,-0.0,0.0,0.0,0.0,0.0
1782664395,443905258,-1.6561506430255335,0.12925338745117188,-1.5218337217914026,0.007131362799555063,0.0008033175836317241,0.6744141578674316,0.0,-0.0,0.0,0.0,0.0,0.0
1782664395,451907029,-1.65611440340151,0.1292891502380371,-1.521881405507223,0.007143347058445215,0.0008033175836317241,0.6744381189346313,0.0,-0.0,0.0,0.0,0.0,0.0
1782664395,459908097,-1.656102482472555,0.1293010711669922,-1.5217855612384241,0.007167315576225519,0.0008632387034595013,0.6744500994682312,0.0,-0.0,0.0,0.0,0.0,0.0
1782664395,467900554,-1.6561268011676233,0.1292414665222168,-1.5218213240252894,0.007143347058445215,0.0008153018425218761,0.6744500994682312,0.0,-0.0,0.0,0.0,0.0,0.0
1782664395,475898436,-1.6561506430255335,0.12925338745117188,-1.5218213240252894,0.007167315576225519,0.0008272860432043672,0.6744500994682312,0.0,-0.0,0.0,0.0,0.0,0.0
1782664395,483907374,-1.656102482472555,0.12925338745117188,-1.5218213240252894,0.007143347058445215,0.0008033175836317241,0.6744261384010315,0.0,-0.0,0.0,0.0,0.0,0.0
1782664395,491909405,-1.6561268011676233,0.12932491302490234,-1.5218456427203577,0.007179299835115671,0.0007669904152862728,0.6744261384010315,0.0,-0.0,0.0,0.0,0.0,0.0
1782664395,499895509,-1.6561268011676233,0.1292891502380371,-1.5218094030963343,0.007143347058445215,0.0008392703020945191,0.6744261384010315,0.0,-0.0,0.0,0.0,0.0,0.0
1782664395,507907447,-1.656102482472555,0.1293010711669922,-1.5218337217914026,0.007131362799555063,0.0008272860432043672,0.6744500994682312,0.0,-0.0,0.0,0.0,0.0,0.0
1782664395,515912496,-1.6561625639544886,0.12926530838012695,-1.5218094030963343,0.007155331317335367,0.0007789746159687638,0.6744261384010315,0.0,-0.0,0.0,0.0,0.0,0.0
1782664395,523907582,-1.6561506430255335,0.1292891502380371,-1.5218456427203577,0.007155331317335367,0.0008392703020945191,0.6744381189346313,0.0,-0.0,0.0,0.0,0.0,0.0
1782664395,531894817,-1.6560905615436,0.12931299209594727,-1.5218337217914026,0.007119379006326199,0.0008392703020945191,0.6744500994682312,0.0,-0.0,0.0,0.0,0.0,0.0
1782664395,540179182,-1.65611440340151,0.12927722930908203,-1.5218575636493128,0.007143347058445215,0.0008272860432043672,0.6744381189346313,0.0,-0.0,0.0,0.0,0.0,0.0
1782664395,547913970,-1.6560786406146448,0.12927722930908203,-1.5218575636493128,0.007131362799555063,0.0007789746159687638,0.6744261384010315,0.0,-0.0,0.0,0.0,0.0,0.0
1782664395,555925964,-1.6561387220965784,0.12925338745117188,-1.5218094030963343,0.007167315576225519,0.0008153018425218761,0.6744740605354309,0.0,-0.0,0.0,0.0,0.0,0.0
1782664395,563913957,-1.656102482472555,0.12927722930908203,-1.5218213240252894,0.007167315576225519,0.0008272860432043672,0.6744500994682312,0.0,-0.0,0.0,0.0,0.0,0.0
1782664395,571910562,-1.6560905615436,0.12927722930908203,-1.5218456427203577,0.007107394747436047,0.0007909588748589158,0.6744500994682312,0.0,-0.0,0.0,0.0,0.0,0.0
1782664395,579998389,-1.65611440340151,0.12931299209594727,-1.5218575636493128,0.007167315576225519,0.0008392703020945191,0.6743901968002319,0.0,-0.0,0.0,0.0,0.0,0.0
1782664395,587899401,-1.65611440340151,0.12926530838012695,-1.5218094030963343,0.007131362799555063,0.0008033175836317241,0.6744500994682312,0.0,-0.0,0.0,0.0,0.0,0.0
1782664395,595893617,-1.6561268011676233,0.12921714782714844,-1.5217974821673792,0.007083426229655743,0.0008272860432043672,0.6744381189346313,0.0,-0.0,0.0,0.0,0.0,0.0
1782664395,603917166,-1.6560786406146448,0.12926530838012695,-1.5218337217914026,0.007095410488545895,0.0007909588748589158,0.6744261384010315,0.0,-0.0,0.0,0.0,0.0,0.0
1782664395,612007956,-1.6561625639544886,0.1292891502380371,-1.5218213240252894,0.007143347058445215,0.0008392703020945191,0.6744860410690308,0.0,-0.0,0.0,0.0,0.0,0.0
1782664395,619911968,-1.65611440340151,0.1293010711669922,-1.5218337217914026,0.007143347058445215,0.0008632387034595013,0.6744021773338318,0.0,-0.0,0.0,0.0,0.0,0.0
1782664395,627895295,-1.6560786406146448,0.1293010711669922,-1.5218213240252894,0.007107394747436047,0.0008272860432043672,0.6744021773338318,0.0,-0.0,0.0,0.0,0.0,0.0
1782664395,635907770,-1.65611440340151,0.1292414665222168,-1.5218456427203577,0.007119379006326199,0.0007789746159687638,0.6744381189346313,0.0,-0.0,0.0,0.0,0.0,0.0
1782664395,643952467,-1.6561506430255335,0.12926530838012695,-1.5218456427203577,0.007119379006326199,0.0008153018425218761,0.6744500994682312,0.0,-0.0,0.0,0.0,0.0,0.0
1782664395,651905183,-1.6560786406146448,0.12926530838012695,-1.5218094030963343,0.007143347058445215,0.0008272860432043672,0.6744381189346313,0.0,-0.0,0.0,0.0,0.0,0.0
1782664395,659905491,-1.65611440340151,0.12926530838012695,-1.5218337217914026,0.007143347058445215,0.0008153018425218761,0.6744021773338318,0.0,-0.0,0.0,0.0,0.0,0.0
1782664395,667895540,-1.6560905615436,0.1292891502380371,-1.5218694845782679,0.007107394747436047,0.0008153018425218761,0.6744021773338318,0.0,-0.0,0.0,0.0,0.0,0.0
1782664395,675941256,-1.6561387220965784,0.1292414665222168,-1.5218456427203577,0.007143347058445215,0.0007789746159687638,0.6744500994682312,0.0,-0.0,0.0,0.0,0.0,0.0
1782664395,683912879,-1.6561387220965784,0.1293010711669922,-1.5218575636493128,0.007131362799555063,0.0008392703020945191,0.6744261384010315,0.0,-0.0,0.0,0.0,0.0,0.0
1782664395,691894132,-1.65611440340151,0.12927722930908203,-1.5218213240252894,0.007155331317335367,0.0007909588748589158,0.6744500994682312,0.0,-0.0,0.0,0.0,0.0,0.0
1782664395,699902922,-1.6560786406146448,0.1292891502380371,-1.5218694845782679,0.007143347058445215,0.0008392703020945191,0.6744740605354309,0.0,-0.0,0.0,0.0,0.0,0.0
1782664395,707938526,-1.6561268011676233,0.12925338745117188,-1.5218694845782679,0.007143347058445215,0.0007789746159687638,0.6744021773338318,0.0,-0.0,0.0,0.0,0.0,0.0
1782664395,715901835,-1.6560667196856897,0.1293010711669922,-1.5218456427203577,0.007107394747436047,0.0008272860432043672,0.6744381189346313,0.0,-0.0,0.0,0.0,0.0,0.0
1782664395,723904180,-1.656102482472555,0.12925338745117188,-1.5218094030963343,0.007131362799555063,0.0008392703020945191,0.6744740605354309,0.0,-0.0,0.0,0.0,0.0,0.0
1782664395,731906285,-1.6561387220965784,0.12925338745117188,-1.5218694845782679,0.007143347058445215,0.0008272860432043672,0.6744381189346313,0.0,-0.0,0.0,0.0,0.0,0.0
1782664395,739910408,-1.65611440340151,0.12932491302490234,-1.5218694845782679,0.007131362799555063,0.0008033175836317241,0.6744500994682312,0.0,-0.0,0.0,0.0,0.0,0.0
1782664395,747891179,-1.6561268011676233,0.12926530838012695,-1.5218337217914026,0.007131362799555063,0.0007789746159687638,0.674462080001831,0.0,-0.0,0.0,0.0,0.0,0.0
1782664395,755886543,-1.6561625639544886,0.12931299209594727,-1.5218094030963343,0.007167315576225519,0.0008153018425218761,0.6744381189346313,0.0,-0.0,0.0,0.0,0.0,0.0
1782664395,763934481,-1.6561387220965784,0.12927722930908203,-1.5218575636493128,0.007143347058445215,0.0007669904152862728,0.674462080001831,0.0,-0.0,0.0,0.0,0.0,0.0
1782664395,771917474,-1.6560786406146448,0.1292891502380371,-1.5218694845782679,0.007071441970765591,0.0008392703020945191,0.6744261384010315,0.0,-0.0,0.0,0.0,0.0,0.0
1782664395,779906024,-1.6560905615436,0.1292891502380371,-1.5218456427203577,0.007143347058445215,0.0007909588748589158,0.6744021773338318,0.0,-0.0,0.0,0.0,0.0,0.0
1782664395,787886610,-1.6561387220965784,0.12926530838012695,-1.5218456427203577,0.007095410488545895,0.0008512545027770102,0.6744500994682312,0.0,-0.0,0.0,0.0,0.0,0.0
1782664395,795896881,-1.6561387220965784,0.12931299209594727,-1.5218337217914026,0.007203268352895975,0.0008392703020945191,0.6744860410690308,0.0,-0.0,0.0,0.0,0.0,0.0
1782664395,803982671,-1.6561625639544886,0.12925338745117188,-1.5218094030963343,0.007131362799555063,0.0008512545027770102,0.6743901968002319,0.0,-0.0,0.0,0.0,0.0,0.0
1782664395,811892572,-1.6561744848834437,0.12926530838012695,-1.5217974821673792,0.007143347058445215,0.0008272860432043672,0.6744021773338318,0.0,-0.0,0.0,0.0,0.0,0.0
1782664395,819906084,-1.6561387220965784,0.1292891502380371,-1.521881405507223,0.007095410488545895,0.0008272860432043672,0.674462080001831,0.0,-0.0,0.0,0.0,0.0,0.0
1782664395,827900892,-1.6561268011676233,0.1293010711669922,-1.5218694845782679,0.007131362799555063,0.0008392703020945191,0.6744021773338318,0.0,-0.0,0.0,0.0,0.0,0.0
1782664395,835901108,-1.6561387220965784,0.12926530838012695,-1.5218575636493128,0.007155331317335367,0.0008272860432043672,0.6744021773338318,0.0,-0.0,0.0,0.0,0.0,0.0
1782664395,843899064,-1.6561387220965784,0.1292891502380371,-1.5218337217914026,0.007143347058445215,0.0008632387034595013,0.6744500994682312,0.0,-0.0,0.0,0.0,0.0,0.0
1782664395,851895354,-1.6561387220965784,0.12927722930908203,-1.5218456427203577,0.007179299835115671,0.0008392703020945191,0.6744860410690308,0.0,-0.0,0.0,0.0,0.0,0.0
1782664395,859987848,-1.6561387220965784,0.1292891502380371,-1.5218694845782679,0.007083426229655743,0.0008033175836317241,0.6744261384010315,0.0,-0.0,0.0,0.0,0.0,0.0
1782664395,867917823,-1.656102482472555,0.12931299209594727,-1.5217974821673792,0.007119379006326199,0.0008272860432043672,0.6744500994682312,0.0,-0.0,0.0,0.0,0.0,0.0
1782664395,875921002,-1.6561268011676233,0.12925338745117188,-1.5218694845782679,0.007119379006326199,0.0008153018425218761,0.6744141578674316,0.0,-0.0,0.0,0.0,0.0,0.0
1782664395,883902199,-1.65611440340151,0.1293010711669922,-1.5218456427203577,0.007155331317335367,0.0007789746159687638,0.6744860410690308,0.0,-0.0,0.0,0.0,0.0,0.0
1782664395,891935081,-1.6560667196856897,0.12925338745117188,-1.5218094030963343,0.007167315576225519,0.0008033175836317241,0.6744261384010315,0.0,-0.0,0.0,0.0,0.0,0.0
1782664395,899924741,-1.65611440340151,0.1293010711669922,-1.5218337217914026,0.007119379006326199,0.0007909588748589158,0.674462080001831,0.0,-0.0,0.0,0.0,0.0,0.0
1782664395,907908327,-1.6560905615436,0.1292891502380371,-1.5218456427203577,0.007119379006326199,0.0007669904152862728,0.674462080001831,0.0,-0.0,0.0,0.0,0.0,0.0
1782664395,915898876,-1.6561506430255335,0.12925338745117188,-1.5218694845782679,0.007119379006326199,0.0007789746159687638,0.6744860410690308,0.0,-0.0,0.0,0.0,0.0,0.0
1782664395,923917500,-1.6561387220965784,0.12925338745117188,-1.5218575636493128,0.007143347058445215,0.0008153018425218761,0.6744141578674316,0.0,-0.0,0.0,0.0,0.0,0.0
1782664395,931921327,-1.656102482472555,0.12925338745117188,-1.5218213240252894,0.007155331317335367,0.0008153018425218761,0.6744500994682312,0.0,-0.0,0.0,0.0,0.0,0.0
1782664395,939918653,-1.6560786406146448,0.12927722930908203,-1.5217974821673792,0.007155331317335367,0.0008512545027770102,0.6744500994682312,0.0,-0.0,0.0,0.0,0.0,0.0
1782664395,947897517,-1.65611440340151,0.12927722930908203,-1.5218456427203577,0.007107394747436047,0.0007909588748589158,0.674462080001831,0.0,-0.0,0.0,0.0,0.0,0.0
1782664395,955925381,-1.6560905615436,0.1292891502380371,-1.521881405507223,0.007107394747436047,0.0007789746159687638,0.6744261384010315,0.0,-0.0,0.0,0.0,0.0,0.0
1782664395,963922801,-1.6560786406146448,0.12926530838012695,-1.5218094030963343,0.007203268352895975,0.0008033175836317241,0.6745100021362305,0.0,-0.0,0.0,0.0,0.0,0.0
1782664395,971913109,-1.6561268011676233,0.12922906875610352,-1.5218456427203577,0.007179299835115671,0.0008153018425218761,0.6744740605354309,0.0,-0.0,0.0,0.0,0.0,0.0
1782664395,979897547,-1.6560786406146448,0.12922906875610352,-1.5218337217914026,0.007107394747436047,0.0008752229623496532,0.6744261384010315,0.0,-0.0,0.0,0.0,0.0,0.0
1782664395,987916096,-1.65611440340151,0.12925338745117188,-1.5218575636493128,0.007191284094005823,0.0008632387034595013,0.6744740605354309,0.0,-0.0,0.0,0.0,0.0,0.0
1782664395,995913719,-1.65611440340151,0.1292414665222168,-1.5218694845782679,0.007119379006326199,0.0008392703020945191,0.6744141578674316,0.0,-0.0,0.0,0.0,0.0,0.0
1782664396,3905398,-1.6561387220965784,0.12926530838012695,-1.5218213240252894,0.007083426229655743,0.0007909588748589158,0.6744500994682312,0.0,-0.0,0.0,0.0,0.0,0.0
1782664396,11898188,-1.6561387220965784,0.12926530838012695,-1.5218456427203577,0.007155331317335367,0.0007909588748589158,0.6744740605354309,0.0,-0.0,0.0,0.0,0.0,0.0
1782664396,19903904,-1.6561268011676233,0.12926530838012695,-1.5218456427203577,0.007095410488545895,0.0008272860432043672,0.6744500994682312,0.0,-0.0,0.0,0.0,0.0,0.0
1782664396,27938731,-1.65611440340151,0.12927722930908203,-1.521881405507223,0.007155331317335367,0.0008153018425218761,0.674462080001831,0.0,-0.0,0.0,0.0,0.0,0.0
1782664396,35926188,-1.65611440340151,0.12926530838012695,-1.5218337217914026,0.007167315576225519,0.0007909588748589158,0.674462080001831,0.0,-0.0,0.0,0.0,0.0,0.0
1782664396,43897274,-1.6561744848834437,0.12932491302490234,-1.5218694845782679,0.007131362799555063,0.0007789746159687638,0.6744261384010315,0.0,-0.0,0.0,0.0,0.0,0.0
1782664396,51899935,-1.6561268011676233,0.1292891502380371,-1.5218456427203577,0.007131362799555063,0.0008153018425218761,0.6744261384010315,0.0,-0.0,0.0,0.0,0.0,0.0
1782664396,59989077,-1.6560905615436,0.12922906875610352,-1.5218694845782679,0.007131362799555063,0.0008512545027770102,0.6744261384010315,0.0,-0.0,0.0,0.0,0.0,0.0
1782664396,67903552,-1.6561268011676233,0.12932491302490234,-1.5218456427203577,0.007095410488545895,0.0008272860432043672,0.6744021773338318,0.0,-0.0,0.0,0.0,0.0,0.0
1782664396,75893972,-1.6560547987567347,0.1293010711669922,-1.5218337217914026,0.007143347058445215,0.0008033175836317241,0.6744740605354309,0.0,-0.0,0.0,0.0,0.0,0.0
1782664396,83917392,-1.6561506430255335,0.12931299209594727,-1.5218575636493128,0.007119379006326199,0.0008392703020945191,0.6744500994682312,0.0,-0.0,0.0,0.0,0.0,0.0
1782664396,92005404,-1.6561387220965784,0.12926530838012695,-1.5218694845782679,0.007143347058445215,0.0008033175836317241,0.6744141578674316,0.0,-0.0,0.0,0.0,0.0,0.0
1782664396,99906694,-1.6561268011676233,0.1292414665222168,-1.5218337217914026,0.007155331317335367,0.0008033175836317241,0.6744740605354309,0.0,-0.0,0.0,0.0,0.0,0.0
1782664396,107889336,-1.6561268011676233,0.12925338745117188,-1.5218337217914026,0.007107394747436047,0.0008632387034595013,0.6744261384010315,0.0,-0.0,0.0,0.0,0.0,0.0
1782664396,115910608,-1.6561268011676233,0.12925338745117188,-1.5218337217914026,0.007119379006326199,0.0008272860432043672,0.6744740605354309,0.0,-0.0,0.0,0.0,0.0,0.0
1782664396,123920657,-1.656102482472555,0.12925338745117188,-1.5218213240252894,0.007143347058445215,0.0008033175836317241,0.6744261384010315,0.0,-0.0,0.0,0.0,0.0,0.0
1782664396,131904373,-1.6561387220965784,0.12931299209594727,-1.5218337217914026,0.007131362799555063,0.0008272860432043672,0.6744381189346313,0.0,-0.0,0.0,0.0,0.0,0.0
1782664396,139893478,-1.6561268011676233,0.12925338745117188,-1.5217974821673792,0.007071441970765591,0.0008153018425218761,0.6744141578674316,0.0,-0.0,0.0,0.0,0.0,0.0
1782664396,147955213,-1.656102482472555,0.1293010711669922,-1.5218213240252894,0.007143347058445215,0.0008272860432043672,0.6744381189346313,0.0,-0.0,0.0,0.0,0.0,0.0
1782664396,156002762,-1.6560905615436,0.12926530838012695,-1.5218694845782679,0.007167315576225519,0.0008272860432043672,0.6744860410690308,0.0,-0.0,0.0,0.0,0.0,0.0
1782664396,163912737,-1.6561387220965784,0.1293010711669922,-1.5218213240252894,0.007143347058445215,0.0008033175836317241,0.6744381189346313,0.0,-0.0,0.0,0.0,0.0,0.0
1782664396,171896453,-1.65611440340151,0.1293010711669922,-1.5218337217914026,0.007131362799555063,0.0008272860432043672,0.6744141578674316,0.0,-0.0,0.0,0.0,0.0,0.0
1782664396,179906669,-1.6561387220965784,0.1293010711669922,-1.5218094030963343,0.007107394747436047,0.0008153018425218761,0.6744141578674316,0.0,-0.0,0.0,0.0,0.0,0.0
1782664396,187901182,-1.6560786406146448,0.12926530838012695,-1.5218094030963343,0.007143347058445215,0.0007909588748589158,0.6744381189346313,0.0,-0.0,0.0,0.0,0.0,0.0
1782664396,195911916,-1.656102482472555,0.1293010711669922,-1.5218094030963343,0.007119379006326199,0.0008392703020945191,0.6744381189346313,0.0,-0.0,0.0,0.0,0.0,0.0
1782664396,203891429,-1.6561506430255335,0.12926530838012695,-1.5218575636493128,0.007131362799555063,0.0008272860432043672,0.6744500994682312,0.0,-0.0,0.0,0.0,0.0,0.0
1782664396,211900700,-1.6561268011676233,0.1293010711669922,-1.5218575636493128,0.007131362799555063,0.0008033175836317241,0.6744021773338318,0.0,-0.0,0.0,0.0,0.0,0.0
1782664396,219935953,-1.6560547987567347,0.1293010711669922,-1.521881405507223,0.007131362799555063,0.0008153018425218761,0.6744740605354309,0.0,-0.0,0.0,0.0,0.0,0.0
1782664396,227907706,-1.6561506430255335,0.12927722930908203,-1.5218337217914026,0.007119379006326199,0.0008272860432043672,0.6744141578674316,0.0,-0.0,0.0,0.0,0.0,0.0
1782664396,235895385,-1.6561268011676233,0.12927722930908203,-1.5218094030963343,0.007155331317335367,0.0008033175836317241,0.674462080001831,0.0,-0.0,0.0,0.0,0.0,0.0
1782664396,243907009,-1.656102482472555,0.12927722930908203,-1.5218094030963343,0.007191284094005823,0.0008272860432043672,0.6744860410690308,0.0,-0.0,0.0,0.0,0.0,0.0
1782664396,251938151,-1.6561506430255335,0.12932491302490234,-1.5218094030963343,0.007167315576225519,0.0008033175836317241,0.6744860410690308,0.0,-0.0,0.0,0.0,0.0,0.0
1782664396,259906663,-1.6561387220965784,0.1292891502380371,-1.5217855612384241,0.007191284094005823,0.0008632387034595013,0.6744381189346313,0.0,-0.0,0.0,0.0,0.0,0.0
1782664396,267886935,-1.6561864058123987,0.12926530838012695,-1.5218456427203577,0.007143347058445215,0.0008272860432043672,0.6744261384010315,0.0,-0.0,0.0,0.0,0.0,0.0
1782664396,275910243,-1.6561506430255335,0.12927722930908203,-1.5218094030963343,0.007203268352895975,0.0008512545027770102,0.6744381189346313,0.0,-0.0,0.0,0.0,0.0,0.0
1782664396,283913237,-1.6561506430255335,0.12925338745117188,-1.5217974821673792,0.007119379006326199,0.0008392703020945191,0.6744381189346313,0.0,-0.0,0.0,0.0,0.0,0.0
1782664396,291903176,-1.6561268011676233,0.1293010711669922,-1.5218694845782679,0.007131362799555063,0.0008153018425218761,0.6744500994682312,0.0,-0.0,0.0,0.0,0.0,0.0
1782664396,299895577,-1.656102482472555,0.12926530838012695,-1.5218337217914026,0.007167315576225519,0.0008153018425218761,0.6744381189346313,0.0,-0.0,0.0,0.0,0.0,0.0
1782664396,307910163,-1.6561268011676233,0.1292414665222168,-1.5218575636493128,0.007107394747436047,0.0008392703020945191,0.674462080001831,0.0,-0.0,0.0,0.0,0.0,0.0
1782664396,315912250,-1.6561268011676233,0.1292414665222168,-1.5218094030963343,0.007107394747436047,0.0008512545027770102,0.6744500994682312,0.0,-0.0,0.0,0.0,0.0,0.0
1782664396,323905503,-1.6561268011676233,0.1293010711669922,-1.5218337217914026,0.007155331317335367,0.0008272860432043672,0.6744021773338318,0.0,-0.0,0.0,0.0,0.0,0.0
1782664396,331896533,-1.6560905615436,0.1292414665222168,-1.5218337217914026,0.007155331317335367,0.0008272860432043672,0.6744021773338318,0.0,-0.0,0.0,0.0,0.0,0.0
1782664396,339910157,-1.6560905615436,0.1292891502380371,-1.5218094030963343,0.007143347058445215,0.0008272860432043672,0.6743901968002319,0.0,-0.0,0.0,0.0,0.0,0.0
1782664396,347944355,-1.656102482472555,0.1292891502380371,-1.5217974821673792,0.007119379006326199,0.0008272860432043672,0.6744500994682312,0.0,-0.0,0.0,0.0,0.0,0.0
1782664396,355910996,-1.65611440340151,0.1293010711669922,-1.5218094030963343,0.007119379006326199,0.0007909588748589158,0.6744500994682312,0.0,-0.0,0.0,0.0,0.0,0.0
1782664396,363889509,-1.6561268011676233,0.12925338745117188,-1.5218575636493128,0.007179299835115671,0.0008392703020945191,0.6744500994682312,0.0,-0.0,0.0,0.0,0.0,0.0
1782664396,371906762,-1.6561387220965784,0.12926530838012695,-1.5218337217914026,0.007119379006326199,0.0008392703020945191,0.674462080001831,0.0,-0.0,0.0,0.0,0.0,0.0
1782664396,379945404,-1.6561268011676233,0.1292891502380371,-1.5218337217914026,0.007107394747436047,0.0008153018425218761,0.6744381189346313,0.0,-0.0,0.0,0.0,0.0,0.0
1782664396,387910231,-1.65611440340151,0.12927722930908203,-1.5218575636493128,0.007095410488545895,0.0008153018425218761,0.674462080001831,0.0,-0.0,0.0,0.0,0.0,0.0
1782664396,395901632,-1.65611440340151,0.12927722930908203,-1.5218337217914026,0.007095410488545895,0.0008153018425218761,0.6744261384010315,0.0,-0.0,0.0,0.0,0.0,0.0
1782664396,403911293,-1.65611440340151,0.1293010711669922,-1.5218213240252894,0.007107394747436047,0.0008272860432043672,0.6744500994682312,0.0,-0.0,0.0,0.0,0.0,0.0
1782664396,411912416,-1.65611440340151,0.12927722930908203,-1.5218694845782679,0.007119379006326199,0.0007909588748589158,0.6744500994682312,0.0,-0.0,0.0,0.0,0.0,0.0
1782664396,419908466,-1.6561625639544886,0.1293010711669922,-1.5217974821673792,0.007155331317335367,0.0008153018425218761,0.674462080001831,0.0,-0.0,0.0,0.0,0.0,0.0
1782664396,427892774,-1.65611440340151,0.1292891502380371,-1.5218575636493128,0.007107394747436047,0.0008272860432043672,0.6744740605354309,0.0,-0.0,0.0,0.0,0.0,0.0
1782664396,435904546,-1.65611440340151,0.12925338745117188,-1.5218213240252894,0.007179299835115671,0.0008392703020945191,0.6744261384010315,0.0,-0.0,0.0,0.0,0.0,0.0
1782664396,443905447,-1.656102482472555,0.12925338745117188,-1.5218094030963343,0.007191284094005823,0.0008033175836317241,0.6744141578674316,0.0,-0.0,0.0,0.0,0.0,0.0
1782664396,451902348,-1.65611440340151,0.12927722930908203,-1.5217974821673792,0.007167315576225519,0.0008153018425218761,0.6744021773338318,0.0,-0.0,0.0,0.0,0.0,0.0
1782664396,459906972,-1.65611440340151,0.12927722930908203,-1.5218456427203577,0.007143347058445215,0.0008033175836317241,0.6744381189346313,0.0,-0.0,0.0,0.0,0.0,0.0
1782664396,467911169,-1.6560905615436,0.12926530838012695,-1.521893326436178,0.007131362799555063,0.0008033175836317241,0.6744261384010315,0.0,-0.0,0.0,0.0,0.0,0.0
1782664396,475912774,-1.6560905615436,0.12933731079101562,-1.521905247365133,0.007203268352895975,0.0008153018425218761,0.6744500994682312,0.0,-0.0,0.0,0.0,0.0,0.0
1782664396,483900472,-1.6561268011676233,0.12926530838012695,-1.5218213240252894,0.007119379006326199,0.0008033175836317241,0.6744740605354309,0.0,-0.0,0.0,0.0,0.0,0.0
1782664396,491892502,-1.65611440340151,0.1293010711669922,-1.5217974821673792,0.007155331317335367,0.0007909588748589158,0.674462080001831,0.0,-0.0,0.0,0.0,0.0,0.0
1782664396,499909496,-1.656102482472555,0.12926530838012695,-1.5217974821673792,0.007179299835115671,0.0008272860432043672,0.6744381189346313,0.0,-0.0,0.0,0.0,0.0,0.0
1782664396,507913342,-1.6561268011676233,0.12925338745117188,-1.5217974821673792,0.007119379006326199,0.0008033175836317241,0.6744261384010315,0.0,-0.0,0.0,0.0,0.0,0.0
1782664396,515904651,-1.6561387220965784,0.1293010711669922,-1.5218213240252894,0.007119379006326199,0.0008033175836317241,0.6744500994682312,0.0,-0.0,0.0,0.0,0.0,0.0
1782664396,523898422,-1.6560905615436,0.12926530838012695,-1.5217974821673792,0.007143347058445215,0.0008033175836317241,0.6744500994682312,0.0,-0.0,0.0,0.0,0.0,0.0
1782664396,531917694,-1.6560786406146448,0.1293010711669922,-1.5218337217914026,0.007143347058445215,0.0007669904152862728,0.6744261384010315,0.0,-0.0,0.0,0.0,0.0,0.0
1782664396,539922003,-1.65611440340151,0.12925338745117188,-1.5218337217914026,0.007143347058445215,0.0007789746159687638,0.674462080001831,0.0,-0.0,0.0,0.0,0.0,0.0
1782664396,547905589,-1.65611440340151,0.12927722930908203,-1.5218694845782679,0.007143347058445215,0.0007909588748589158,0.674462080001831,0.0,-0.0,0.0,0.0,0.0,0.0
1782664396,555897564,-1.6561268011676233,0.1293010711669922,-1.5218337217914026,0.007179299835115671,0.0007909588748589158,0.6744381189346313,0.0,-0.0,0.0,0.0,0.0,0.0
1782664396,563943873,-1.65611440340151,0.1292891502380371,-1.5218456427203577,0.007155331317335367,0.0008392703020945191,0.6744500994682312,0.0,-0.0,0.0,0.0,0.0,0.0
1782664396,571904404,-1.6560905615436,0.12926530838012695,-1.5218213240252894,0.007179299835115671,0.0008272860432043672,0.6743901968002319,0.0,-0.0,0.0,0.0,0.0,0.0
1782664396,579913620,-1.6561387220965784,0.12927722930908203,-1.5218694845782679,0.007143347058445215,0.0007909588748589158,0.6743782162666321,0.0,-0.0,0.0,0.0,0.0,0.0
1782664396,587902873,-1.65611440340151,0.12925338745117188,-1.5218094030963343,0.007083426229655743,0.0008033175836317241,0.674462080001831,0.0,-0.0,0.0,0.0,0.0,0.0
1782664396,595898570,-1.65611440340151,0.1292891502380371,-1.5218694845782679,0.007167315576225519,0.0008392703020945191,0.6744261384010315,0.0,-0.0,0.0,0.0,0.0,0.0
1782664396,603942453,-1.6560905615436,0.12925338745117188,-1.5218694845782679,0.007107394747436047,0.0008272860432043672,0.6744860410690308,0.0,-0.0,0.0,0.0,0.0,0.0
1782664396,611907632,-1.65611440340151,0.12927722930908203,-1.5218456427203577,0.007143347058445215,0.0007909588748589158,0.6744381189346313,0.0,-0.0,0.0,0.0,0.0,0.0
1782664396,619904885,-1.6561387220965784,0.1292891502380371,-1.5218456427203577,0.007119379006326199,0.0008392703020945191,0.6744141578674316,0.0,-0.0,0.0,0.0,0.0,0.0
1782664396,627902638,-1.656102482472555,0.1293010711669922,-1.5218575636493128,0.007167315576225519,0.0008153018425218761,0.6744500994682312,0.0,-0.0,0.0,0.0,0.0,0.0
1782664396,635904836,-1.65611440340151,0.1293010711669922,-1.5218456427203577,0.007131362799555063,0.0008033175836317241,0.6744021773338318,0.0,-0.0,0.0,0.0,0.0,0.0
1782664396,643904237,-1.6561387220965784,0.12926530838012695,-1.5218575636493128,0.007155331317335367,0.0008392703020945191,0.6744141578674316,0.0,-0.0,0.0,0.0,0.0,0.0
1782664396,651897009,-1.6560905615436,0.12927722930908203,-1.5218337217914026,0.007143347058445215,0.0008153018425218761,0.6744261384010315,0.0,-0.0,0.0,0.0,0.0,0.0
1782664396,659905206,-1.6561506430255335,0.12932491302490234,-1.5218213240252894,0.007131362799555063,0.0008272860432043672,0.6744381189346313,0.0,-0.0,0.0,0.0,0.0,0.0
1782664396,667940904,-1.6560667196856897,0.12927722930908203,-1.5218337217914026,0.007119379006326199,0.0008153018425218761,0.6744381189346313,0.0,-0.0,0.0,0.0,0.0,0.0
1782664396,675904083,-1.6561268011676233,0.1293010711669922,-1.5218337217914026,0.007095410488545895,0.0007909588748589158,0.6744261384010315,0.0,-0.0,0.0,0.0,0.0,0.0
1782664396,683893687,-1.656102482472555,0.12931299209594727,-1.5218575636493128,0.007107394747436047,0.0008272860432043672,0.6744141578674316,0.0,-0.0,0.0,0.0,0.0,0.0
1782664396,691900792,-1.656102482472555,0.12927722930908203,-1.5218213240252894,0.007155331317335367,0.0008272860432043672,0.6744021773338318,0.0,-0.0,0.0,0.0,0.0,0.0
1782664396,699939712,-1.656102482472555,0.12926530838012695,-1.5218456427203577,0.007155331317335367,0.0008033175836317241,0.6744381189346313,0.0,-0.0,0.0,0.0,0.0,0.0
1782664396,707906688,-1.656102482472555,0.12932491302490234,-1.5218456427203577,0.007119379006326199,0.0008153018425218761,0.6744021773338318,0.0,-0.0,0.0,0.0,0.0,0.0
1782664396,715894255,-1.6561387220965784,0.1293010711669922,-1.5218694845782679,0.007143347058445215,0.0008512545027770102,0.6744860410690308,0.0,-0.0,0.0,0.0,0.0,0.0
1782664396,723901416,-1.656102482472555,0.12931299209594727,-1.521881405507223,0.007107394747436047,0.0008632387034595013,0.6744381189346313,0.0,-0.0,0.0,0.0,0.0,0.0
1782664396,731899465,-1.656102482472555,0.1293010711669922,-1.5218213240252894,0.007119379006326199,0.0008272860432043672,0.6744381189346313,0.0,-0.0,0.0,0.0,0.0,0.0
1782664396,739903237,-1.6561387220965784,0.12931299209594727,-1.5218213240252894,0.007119379006326199,0.0008272860432043672,0.6744261384010315,0.0,-0.0,0.0,0.0,0.0,0.0
1782664396,747902971,-1.65611440340151,0.1292414665222168,-1.521881405507223,0.007179299835115671,0.0008033175836317241,0.6744261384010315,0.0,-0.0,0.0,0.0,0.0,0.0
1782664396,755904687,-1.6561625639544886,0.12925338745117188,-1.5218213240252894,0.007143347058445215,0.0007909588748589158,0.6744141578674316,0.0,-0.0,0.0,0.0,0.0,0.0
1782664396,763898792,-1.6561268011676233,0.1292414665222168,-1.5218337217914026,0.007119379006326199,0.0008272860432043672,0.6744740605354309,0.0,-0.0,0.0,0.0,0.0,0.0
1782664396,771895120,-1.6561268011676233,0.1292891502380371,-1.5218094030963343,0.007119379006326199,0.0007909588748589158,0.6744261384010315,0.0,-0.0,0.0,0.0,0.0,0.0
1782664396,779863428,-1.656102482472555,0.12922906875610352,-1.5218694845782679,0.007155331317335367,0.0008033175836317241,0.6744381189346313,0.0,-0.0,0.0,0.0,0.0,0.0
1782664396,787904015,-1.65611440340151,0.1292891502380371,-1.5218575636493128,0.007143347058445215,0.0008033175836317241,0.6744381189346313,0.0,-0.0,0.0,0.0,0.0,0.0
1782664396,795987361,-1.65611440340151,0.12927722930908203,-1.521881405507223,0.007131362799555063,0.0008632387034595013,0.6744141578674316,0.0,-0.0,0.0,0.0,0.0,0.0
1782664396,803893076,-1.65611440340151,0.12927722930908203,-1.5218575636493128,0.007155331317335367,0.0008033175836317241,0.6744141578674316,0.0,-0.0,0.0,0.0,0.0,0.0
1782664396,811880681,-1.65611440340151,0.1292891502380371,-1.5218094030963343,0.007179299835115671,0.0008272860432043672,0.6744381189346313,0.0,-0.0,0.0,0.0,0.0,0.0
1782664396,819898157,-1.656102482472555,0.1293010711669922,-1.5218456427203577,0.007095410488545895,0.0007909588748589158,0.6744740605354309,0.0,-0.0,0.0,0.0,0.0,0.0
1782664396,827936910,-1.6561625639544886,0.12927722930908203,-1.5218456427203577,0.007155331317335367,0.0008272860432043672,0.6744500994682312,0.0,-0.0,0.0,0.0,0.0,0.0
1782664396,835907144,-1.6561268011676233,0.12931299209594727,-1.5217974821673792,0.007167315576225519,0.0008153018425218761,0.6744381189346313,0.0,-0.0,0.0,0.0,0.0,0.0
1782664396,843889045,-1.6561387220965784,0.12931299209594727,-1.5218094030963343,0.007143347058445215,0.0008033175836317241,0.6744021773338318,0.0,-0.0,0.0,0.0,0.0,0.0
1782664396,851904391,-1.6561387220965784,0.1292414665222168,-1.5217974821673792,0.007155331317335367,0.0008392703020945191,0.6744141578674316,0.0,-0.0,0.0,0.0,0.0,0.0
1782664396,860007237,-1.6561744848834437,0.1292891502380371,-1.521881405507223,0.007119379006326199,0.0007909588748589158,0.674462080001831,0.0,-0.0,0.0,0.0,0.0,0.0
1782664396,867907582,-1.6561268011676233,0.1292891502380371,-1.5218337217914026,0.007119379006326199,0.0008153018425218761,0.6744021773338318,0.0,-0.0,0.0,0.0,0.0,0.0
1782664396,875888724,-1.656102482472555,0.1293010711669922,-1.5218575636493128,0.007155331317335367,0.0008272860432043672,0.6744261384010315,0.0,-0.0,0.0,0.0,0.0,0.0
1782664396,883912589,-1.6560786406146448,0.12926530838012695,-1.5218337217914026,0.007143347058445215,0.0008272860432043672,0.6744021773338318,0.0,-0.0,0.0,0.0,0.0,0.0
1782664396,891926471,-1.656102482472555,0.1292414665222168,-1.5218575636493128,0.007131362799555063,0.0008153018425218761,0.6744860410690308,0.0,-0.0,0.0,0.0,0.0,0.0
1782664396,899908650,-1.6561506430255335,0.12925338745117188,-1.5218213240252894,0.007131362799555063,0.0008272860432043672,0.6744381189346313,0.0,-0.0,0.0,0.0,0.0,0.0
1782664396,907904329,-1.656102482472555,0.1292414665222168,-1.5218094030963343,0.007095410488545895,0.0008392703020945191,0.6744021773338318,0.0,-0.0,0.0,0.0,0.0,0.0
1782664396,915893156,-1.6560905615436,0.12925338745117188,-1.5218213240252894,0.007155331317335367,0.0007909588748589158,0.674462080001831,0.0,-0.0,0.0,0.0,0.0,0.0
1782664396,923899539,-1.6561387220965784,0.1293010711669922,-1.5218337217914026,0.007143347058445215,0.0008153018425218761,0.6744021773338318,0.0,-0.0,0.0,0.0,0.0,0.0
1782664396,931907515,-1.656102482472555,0.12932491302490234,-1.5218694845782679,0.007119379006326199,0.0008512545027770102,0.6744261384010315,0.0,-0.0,0.0,0.0,0.0,0.0
1782664396,939888842,-1.65611440340151,0.1293010711669922,-1.5218575636493128,0.007119379006326199,0.0008153018425218761,0.6744500994682312,0.0,-0.0,0.0,0.0,0.0,0.0
1782664396,947910724,-1.6561387220965784,0.1292891502380371,-1.5218213240252894,0.007083426229655743,0.0007909588748589158,0.6744740605354309,0.0,-0.0,0.0,0.0,0.0,0.0
1782664396,955908459,-1.6560667196856897,0.12926530838012695,-1.5218694845782679,0.007155331317335367,0.0007789746159687638,0.6744860410690308,0.0,-0.0,0.0,0.0,0.0,0.0
1782664396,963901675,-1.6561506430255335,0.1293010711669922,-1.5218694845782679,0.007131362799555063,0.0008392703020945191,0.6744261384010315,0.0,-0.0,0.0,0.0,0.0,0.0
1782664396,971891150,-1.6561387220965784,0.12926530838012695,-1.5218575636493128,0.007155331317335367,0.0008033175836317241,0.6744740605354309,0.0,-0.0,0.0,0.0,0.0,0.0
1782664396,979931718,-1.6561506430255335,0.1293010711669922,-1.5218213240252894,0.007131362799555063,0.0008153018425218761,0.6744381189346313,0.0,-0.0,0.0,0.0,0.0,0.0
1782664396,987937471,-1.656102482472555,0.12931299209594727,-1.5218575636493128,0.007119379006326199,0.0008392703020945191,0.6744141578674316,0.0,-0.0,0.0,0.0,0.0,0.0
1782664396,995897669,-1.6560905615436,0.1293010711669922,-1.5217974821673792,0.007167315576225519,0.0008392703020945191,0.6744381189346313,0.0,-0.0,0.0,0.0,0.0,0.0
1782664397,3893551,-1.6561268011676233,0.1292891502380371,-1.5218337217914026,0.007179299835115671,0.0008392703020945191,0.6744500994682312,0.0,-0.0,0.0,0.0,0.0,0.0
1782664397,11988676,-1.6560905615436,0.12932491302490234,-1.5218694845782679,0.007131362799555063,0.0008033175836317241,0.6744500994682312,0.0,-0.0,0.0,0.0,0.0,0.0
1782664397,19904243,-1.6561506430255335,0.1292414665222168,-1.5218456427203577,0.007167315576225519,0.0007909588748589158,0.6744500994682312,0.0,-0.0,0.0,0.0,0.0,0.0
1782664397,27901738,-1.6561506430255335,0.1293010711669922,-1.5218694845782679,0.007143347058445215,0.0008033175836317241,0.6744381189346313,0.0,-0.0,0.0,0.0,0.0,0.0
1782664397,35904083,-1.65611440340151,0.1292891502380371,-1.5217974821673792,0.007119379006326199,0.0008153018425218761,0.6744740605354309,0.0,-0.0,0.0,0.0,0.0,0.0
1782664397,43891226,-1.6561268011676233,0.1293010711669922,-1.5218456427203577,0.007179299835115671,0.0008153018425218761,0.6744500994682312,0.0,-0.0,0.0,0.0,0.0,0.0
1782664397,51967831,-1.656102482472555,0.12926530838012695,-1.521893326436178,0.007143347058445215,0.0008153018425218761,0.6744500994682312,0.0,-0.0,0.0,0.0,0.0,0.0
1782664397,59915325,-1.656102482472555,0.1292891502380371,-1.5218456427203577,0.007107394747436047,0.0007789746159687638,0.6744500994682312,0.0,-0.0,0.0,0.0,0.0,0.0
1782664397,67930116,-1.6561268011676233,0.12925338745117188,-1.5217974821673792,0.007107394747436047,0.0008153018425218761,0.6744381189346313,0.0,-0.0,0.0,0.0,0.0,0.0
1782664397,75900443,-1.6561387220965784,0.12926530838012695,-1.5218694845782679,0.007143347058445215,0.0008512545027770102,0.6744980216026306,0.0,-0.0,0.0,0.0,0.0,0.0
1782664397,83904437,-1.656102482472555,0.12926530838012695,-1.5218456427203577,0.007131362799555063,0.0007789746159687638,0.6744261384010315,0.0,-0.0,0.0,0.0,0.0,0.0
1782664397,91948616,-1.65611440340151,0.1292414665222168,-1.5218575636493128,0.007131362799555063,0.0007909588748589158,0.6744500994682312,0.0,-0.0,0.0,0.0,0.0,0.0
1782664397,99885481,-1.6561387220965784,0.12926530838012695,-1.5218213240252894,0.007071441970765591,0.0007909588748589158,0.6744500994682312,0.0,-0.0,0.0,0.0,0.0,0.0
1782664397,107872901,-1.6561387220965784,0.12926530838012695,-1.5218213240252894,0.007167315576225519,0.0008392703020945191,0.6744381189346313,0.0,-0.0,0.0,0.0,0.0,0.0
1782664397,115948228,-1.6560905615436,0.12927722930908203,-1.5218456427203577,0.007095410488545895,0.0008153018425218761,0.6744860410690308,0.0,-0.0,0.0,0.0,0.0,0.0
1782664397,123914704,-1.6561625639544886,0.1293010711669922,-1.5218456427203577,0.007143347058445215,0.0008033175836317241,0.6744860410690308,0.0,-0.0,0.0,0.0,0.0,0.0
1782664397,131894383,-1.6561387220965784,0.12931299209594727,-1.5218337217914026,0.007095410488545895,0.0007909588748589158,0.674462080001831,0.0,-0.0,0.0,0.0,0.0,0.0
1782664397,139892785,-1.6561268011676233,0.1293010711669922,-1.521881405507223,0.007119379006326199,0.0007909588748589158,0.6744381189346313,0.0,-0.0,0.0,0.0,0.0,0.0
1782664397,148005964,-1.65611440340151,0.12927722930908203,-1.5218456427203577,0.007179299835115671,0.0008272860432043672,0.674462080001831,0.0,-0.0,0.0,0.0,0.0,0.0
1782664397,155905606,-1.6561268011676233,0.12927722930908203,-1.5218456427203577,0.007155331317335367,0.0007909588748589158,0.674462080001831,0.0,-0.0,0.0,0.0,0.0,0.0
1782664397,164260694,-1.6561387220965784,0.12931299209594727,-1.5218094030963343,0.007143347058445215,0.0008272860432043672,0.6744021773338318,0.0,-0.0,0.0,0.0,0.0,0.0
1782664397,171889280,-1.6561744848834437,0.12925338745117188,-1.5218337217914026,0.007131362799555063,0.0008392703020945191,0.6744021773338318,0.0,-0.0,0.0,0.0,0.0,0.0
1782664397,179904144,-1.65611440340151,0.12931299209594727,-1.5218337217914026,0.007131362799555063,0.0008272860432043672,0.6744021773338318,0.0,-0.0,0.0,0.0,0.0,0.0
1782664397,187899434,-1.6561387220965784,0.1293010711669922,-1.5218337217914026,0.007119379006326199,0.0008272860432043672,0.6744500994682312,0.0,-0.0,0.0,0.0,0.0,0.0
1782664397,195901206,-1.6561506430255335,0.1293010711669922,-1.5218337217914026,0.007107394747436047,0.0007909588748589158,0.6744500994682312,0.0,-0.0,0.0,0.0,0.0,0.0
1782664397,203901108,-1.6561387220965784,0.1293010711669922,-1.5218694845782679,0.007167315576225519,0.0008153018425218761,0.674462080001831,0.0,-0.0,0.0,0.0,0.0,0.0
1782664397,211937343,-1.65611440340151,0.1292891502380371,-1.5218337217914026,0.007167315576225519,0.0007909588748589158,0.6744381189346313,0.0,-0.0,0.0,0.0,0.0,0.0
1782664397,219905448,-1.6561268011676233,0.1292891502380371,-1.5218456427203577,0.007155331317335367,0.0007789746159687638,0.6744381189346313,0.0,-0.0,0.0,0.0,0.0,0.0
1782664397,227886275,-1.65611440340151,0.1292414665222168,-1.5218213240252894,0.007119379006326199,0.0008392703020945191,0.6744141578674316,0.0,-0.0,0.0,0.0,0.0,0.0
1782664397,235897177,-1.65611440340151,0.1292891502380371,-1.5218213240252894,0.007095410488545895,0.0008153018425218761,0.6744381189346313,0.0,-0.0,0.0,0.0,0.0,0.0
1782664397,243898801,-1.6561506430255335,0.1293010711669922,-1.5218094030963343,0.007107394747436047,0.0007789746159687638,0.6744740605354309,0.0,-0.0,0.0,0.0,0.0,0.0
1782664397,251901924,-1.65611440340151,0.12921714782714844,-1.5218337217914026,0.007191284094005823,0.0007669904152862728,0.6744980216026306,0.0,-0.0,0.0,0.0,0.0,0.0
1782664397,259903807,-1.65611440340151,0.12926530838012695,-1.5218213240252894,0.007155331317335367,0.0008392703020945191,0.6744740605354309,0.0,-0.0,0.0,0.0,0.0,0.0
1782664397,267893820,-1.6561268011676233,0.1292414665222168,-1.5218213240252894,0.007143347058445215,0.0008033175836317241,0.6744141578674316,0.0,-0.0,0.0,0.0,0.0,0.0
1782664397,275972963,-1.65611440340151,0.12925338745117188,-1.5218694845782679,0.007119379006326199,0.0008632387034595013,0.6744381189346313,0.0,-0.0,0.0,0.0,0.0,0.0
1782664397,283904882,-1.65611440340151,0.12927722930908203,-1.5218094030963343,0.007143347058445215,0.0008392703020945191,0.674462080001831,0.0,-0.0,0.0,0.0,0.0,0.0
1782664397,291894913,-1.6560786406146448,0.12926530838012695,-1.5217974821673792,0.007155331317335367,0.0008272860432043672,0.6744860410690308,0.0,-0.0,0.0,0.0,0.0,0.0
1782664397,299890500,-1.6561387220965784,0.12931299209594727,-1.5217974821673792,0.007107394747436047,0.0007789746159687638,0.6744381189346313,0.0,-0.0,0.0,0.0,0.0,0.0
1782664397,307901698,-1.656102482472555,0.1293010711669922,-1.5218575636493128,0.007131362799555063,0.0008512545027770102,0.6744021773338318,0.0,-0.0,0.0,0.0,0.0,0.0
1782664397,315896322,-1.6561268011676233,0.12927722930908203,-1.5218456427203577,0.007119379006326199,0.0007909588748589158,0.6744500994682312,0.0,-0.0,0.0,0.0,0.0,0.0
1782664397,323909575,-1.656102482472555,0.12926530838012695,-1.5218456427203577,0.007119379006326199,0.0008153018425218761,0.6744500994682312,0.0,-0.0,0.0,0.0,0.0,0.0
1782664397,331906532,-1.65611440340151,0.12925338745117188,-1.5218575636493128,0.007119379006326199,0.0008153018425218761,0.6744141578674316,0.0,-0.0,0.0,0.0,0.0,0.0
1782664397,339897785,-1.6561268011676233,0.12925338745117188,-1.5218213240252894,0.007131362799555063,0.0008272860432043672,0.6744500994682312,0.0,-0.0,0.0,0.0,0.0,0.0
1782664397,347906872,-1.656102482472555,0.1292891502380371,-1.5218337217914026,0.007179299835115671,0.0008153018425218761,0.6744500994682312,0.0,-0.0,0.0,0.0,0.0,0.0
1782664397,355888144,-1.6561268011676233,0.12926530838012695,-1.5218337217914026,0.007107394747436047,0.0007909588748589158,0.6744381189346313,0.0,-0.0,0.0,0.0,0.0,0.0
1782664397,363913953,-1.6561506430255335,0.1292891502380371,-1.5218694845782679,0.007119379006326199,0.0007909588748589158,0.6744500994682312,0.0,-0.0,0.0,0.0,0.0,0.0
1782664397,371927299,-1.65611440340151,0.1292891502380371,-1.5218575636493128,0.007155331317335367,0.0008153018425218761,0.6744740605354309,0.0,-0.0,0.0,0.0,0.0,0.0
1782664397,379912441,-1.6561387220965784,0.1293010711669922,-1.521881405507223,0.007167315576225519,0.0007909588748589158,0.6744500994682312,0.0,-0.0,0.0,0.0,0.0,0.0
1782664397,387886231,-1.6561268011676233,0.1293010711669922,-1.5218694845782679,0.007131362799555063,0.0008033175836317241,0.6744500994682312,0.0,-0.0,0.0,0.0,0.0,0.0
1782664397,396400598,-1.656102482472555,0.12926530838012695,-1.5218575636493128,0.007131362799555063,0.0008512545027770102,0.674462080001831,0.0,-0.0,0.0,0.0,0.0,0.0
1782664397,403915849,-1.6561268011676233,0.1292891502380371,-1.5218213240252894,0.007167315576225519,0.0008512545027770102,0.6744381189346313,0.0,-0.0,0.0,0.0,0.0,0.0
1782664397,411892381,-1.6561268011676233,0.1292414665222168,-1.5218213240252894,0.007119379006326199,0.0008033175836317241,0.6744500994682312,0.0,-0.0,0.0,0.0,0.0,0.0
1782664397,419881004,-1.6561625639544886,0.12931299209594727,-1.5218456427203577,0.007131362799555063,0.0008153018425218761,0.6744740605354309,0.0,-0.0,0.0,0.0,0.0,0.0
1782664397,427906943,-1.656102482472555,0.12926530838012695,-1.5218213240252894,0.007191284094005823,0.0008033175836317241,0.6744860410690308,0.0,-0.0,0.0,0.0,0.0,0.0
1782664397,435901030,-1.6560905615436,0.12932491302490234,-1.5218456427203577,0.007131362799555063,0.0008392703020945191,0.6744381189346313,0.0,-0.0,0.0,0.0,0.0,0.0
1782664397,443904209,-1.6561268011676233,0.12927722930908203,-1.5218094030963343,0.007167315576225519,0.0008392703020945191,0.6744021773338318,0.0,-0.0,0.0,0.0,0.0,0.0
1782664397,451904333,-1.65611440340151,0.1293010711669922,-1.5218575636493128,0.007155331317335367,0.0007550062146037817,0.6744500994682312,0.0,-0.0,0.0,0.0,0.0,0.0
1782664397,459900975,-1.6561268011676233,0.12927722930908203,-1.521881405507223,0.007119379006326199,0.0008512545027770102,0.6744141578674316,0.0,-0.0,0.0,0.0,0.0,0.0
1782664397,467910710,-1.6560786406146448,0.12931299209594727,-1.5218694845782679,0.007155331317335367,0.0008153018425218761,0.6744261384010315,0.0,-0.0,0.0,0.0,0.0,0.0
1782664397,475899352,-1.6561268011676233,0.12927722930908203,-1.5218213240252894,0.007191284094005823,0.0008033175836317241,0.6744261384010315,0.0,-0.0,0.0,0.0,0.0,0.0
1782664397,483927976,-1.6561268011676233,0.12926530838012695,-1.5218456427203577,0.007179299835115671,0.0008392703020945191,0.6744141578674316,0.0,-0.0,0.0,0.0,0.0,0.0
1782664397,491901155,-1.65611440340151,0.12925338745117188,-1.5218694845782679,0.007095410488545895,0.0008153018425218761,0.6744740605354309,0.0,-0.0,0.0,0.0,0.0,0.0
1782664397,499904186,-1.6560905615436,0.12927722930908203,-1.5217974821673792,0.007107394747436047,0.0008272860432043672,0.674462080001831,0.0,-0.0,0.0,0.0,0.0,0.0
1782664397,507904865,-1.6561268011676233,0.12927722930908203,-1.5218094030963343,0.007143347058445215,0.0008033175836317241,0.6744381189346313,0.0,-0.0,0.0,0.0,0.0,0.0
1782664397,515895045,-1.6561268011676233,0.12927722930908203,-1.5218575636493128,0.007143347058445215,0.0007909588748589158,0.6744021773338318,0.0,-0.0,0.0,0.0,0.0,0.0
1782664397,523902076,-1.65611440340151,0.12926530838012695,-1.5218456427203577,0.007191284094005823,0.0007909588748589158,0.6744740605354309,0.0,-0.0,0.0,0.0,0.0,0.0
1782664397,531905070,-1.65611440340151,0.1292414665222168,-1.5218094030963343,0.007155331317335367,0.0008272860432043672,0.6744381189346313,0.0,-0.0,0.0,0.0,0.0,0.0
1782664397,539903675,-1.65611440340151,0.1292891502380371,-1.521881405507223,0.007155331317335367,0.0008272860432043672,0.6744381189346313,0.0,-0.0,0.0,0.0,0.0,0.0
1782664397,547904206,-1.6561268011676233,0.12925338745117188,-1.5218213240252894,0.007167315576225519,0.0008153018425218761,0.6744500994682312,0.0,-0.0,0.0,0.0,0.0,0.0
1782664397,555895719,-1.656102482472555,0.12927722930908203,-1.5218575636493128,0.007155331317335367,0.0007909588748589158,0.6744021773338318,0.0,-0.0,0.0,0.0,0.0,0.0
1782664397,563972602,-1.6561387220965784,0.12922906875610352,-1.5218694845782679,0.007167315576225519,0.0008033175836317241,0.6744141578674316,0.0,-0.0,0.0,0.0,0.0,0.0
1782664397,571921652,-1.6561268011676233,0.12927722930908203,-1.5218575636493128,0.007167315576225519,0.0008153018425218761,0.6744381189346313,0.0,-0.0,0.0,0.0,0.0,0.0
1782664397,579878609,-1.65611440340151,0.1293010711669922,-1.5218456427203577,0.007107394747436047,0.0008153018425218761,0.6744261384010315,0.0,-0.0,0.0,0.0,0.0,0.0
1782664397,587882121,-1.6560786406146448,0.12926530838012695,-1.5218575636493128,0.007119379006326199,0.0008272860432043672,0.6744500994682312,0.0,-0.0,0.0,0.0,0.0,0.0
1782664397,595896245,-1.6561268011676233,0.1292891502380371,-1.5218337217914026,0.007107394747436047,0.0008272860432043672,0.674462080001831,0.0,-0.0,0.0,0.0,0.0,0.0
1782664397,603881165,-1.656102482472555,0.12926530838012695,-1.5218337217914026,0.007155331317335367,0.0007669904152862728,0.6744381189346313,0.0,-0.0,0.0,0.0,0.0,0.0
1782664397,611888085,-1.65611440340151,0.12925338745117188,-1.5217974821673792,0.007119379006326199,0.0008033175836317241,0.6744740605354309,0.0,-0.0,0.0,0.0,0.0,0.0
1782664397,619895598,-1.6561268011676233,0.12925338745117188,-1.5218456427203577,0.007119379006326199,0.0007789746159687638,0.6744381189346313,0.0,-0.0,0.0,0.0,0.0,0.0
1782664397,627890518,-1.6561625639544886,0.12926530838012695,-1.5218337217914026,0.007167315576225519,0.0008033175836317241,0.6744381189346313,0.0,-0.0,0.0,0.0,0.0,0.0
1782664397,635897290,-1.6561506430255335,0.12931299209594727,-1.5218094030963343,0.007119379006326199,0.0008392703020945191,0.6744261384010315,0.0,-0.0,0.0,0.0,0.0,0.0
1782664397,643873395,-1.6561387220965784,0.12927722930908203,-1.5218694845782679,0.007143347058445215,0.0008153018425218761,0.6744381189346313,0.0,-0.0,0.0,0.0,0.0,0.0
1782664397,651884815,-1.65611440340151,0.1292891502380371,-1.5218094030963343,0.007167315576225519,0.0008272860432043672,0.6744860410690308,0.0,-0.0,0.0,0.0,0.0,0.0
1782664397,659881605,-1.6561625639544886,0.12927722930908203,-1.5218337217914026,0.007143347058445215,0.0007789746159687638,0.6743901968002319,0.0,-0.0,0.0,0.0,0.0,0.0
1782664397,667887896,-1.6561268011676233,0.12925338745117188,-1.5217974821673792,0.007155331317335367,0.0007909588748589158,0.6744500994682312,0.0,-0.0,0.0,0.0,0.0,0.0
1782664397,675881575,-1.6561268011676233,0.1292891502380371,-1.5218094030963343,0.007143347058445215,0.0008512545027770102,0.6744740605354309,0.0,-0.0,0.0,0.0,0.0,0.0
1782664397,683876717,-1.656102482472555,0.1293010711669922,-1.5218456427203577,0.007155331317335367,0.0007789746159687638,0.6744141578674316,0.0,-0.0,0.0,0.0,0.0,0.0
1782664397,691889008,-1.65611440340151,0.12922906875610352,-1.5218213240252894,0.007131362799555063,0.0007909588748589158,0.6744381189346313,0.0,-0.0,0.0,0.0,0.0,0.0
1782664397,699882687,-1.6560905615436,0.12927722930908203,-1.5218337217914026,0.007179299835115671,0.0008033175836317241,0.6744740605354309,0.0,-0.0,0.0,0.0,0.0,0.0
1782664397,707884144,-1.6561744848834437,0.1292891502380371,-1.5218094030963343,0.007179299835115671,0.0008512545027770102,0.6744261384010315,0.0,-0.0,0.0,0.0,0.0,0.0
1782664397,715882008,-1.6561387220965784,0.1293010711669922,-1.5218213240252894,0.007095410488545895,0.0008153018425218761,0.6744500994682312,0.0,-0.0,0.0,0.0,0.0,0.0
1782664397,723878336,-1.6561268011676233,0.1292414665222168,-1.5218094030963343,0.007155331317335367,0.0007789746159687638,0.6744261384010315,0.0,-0.0,0.0,0.0,0.0,0.0
1782664397,731960960,-1.6560547987567347,0.12926530838012695,-1.5218575636493128,0.007119379006326199,0.0008033175836317241,0.6744261384010315,0.0,-0.0,0.0,0.0,0.0,0.0
1782664397,739892713,-1.65611440340151,0.1293010711669922,-1.5218575636493128,0.007107394747436047,0.0008033175836317241,0.6744261384010315,0.0,-0.0,0.0,0.0,0.0,0.0
1782664397,747884781,-1.6561506430255335,0.12926530838012695,-1.5218575636493128,0.007155331317335367,0.0008153018425218761,0.6744381189346313,0.0,-0.0,0.0,0.0,0.0,0.0
1782664397,755877849,-1.6561387220965784,0.12926530838012695,-1.5218337217914026,0.007167315576225519,0.0008512545027770102,0.6744381189346313,0.0,-0.0,0.0,0.0,0.0,0.0
1782664397,763884992,-1.656102482472555,0.1292891502380371,-1.5218694845782679,0.007071441970765591,0.0007789746159687638,0.6744261384010315,0.0,-0.0,0.0,0.0,0.0,0.0
1782664397,771992171,-1.6561268011676233,0.12931299209594727,-1.521893326436178,0.007131362799555063,0.0008272860432043672,0.674462080001831,0.0,-0.0,0.0,0.0,0.0,0.0
1782664397,779880313,-1.65611440340151,0.12927722930908203,-1.5218575636493128,0.007143347058445215,0.0008033175836317241,0.6744141578674316,0.0,-0.0,0.0,0.0,0.0,0.0
1782664397,787881566,-1.656102482472555,0.12926530838012695,-1.5218694845782679,0.007155331317335367,0.0008153018425218761,0.6743901968002319,0.0,-0.0,0.0,0.0,0.0,0.0
1782664397,795877968,-1.656102482472555,0.12926530838012695,-1.5217855612384241,0.007179299835115671,0.0008392703020945191,0.6744381189346313,0.0,-0.0,0.0,0.0,0.0,0.0
1782664397,803877444,-1.65611440340151,0.12927722930908203,-1.5218456427203577,0.007155331317335367,0.0007909588748589158,0.6744500994682312,0.0,-0.0,0.0,0.0,0.0,0.0
1782664397,811888512,-1.6561268011676233,0.1293010711669922,-1.5217974821673792,0.007155331317335367,0.0007909588748589158,0.6744021773338318,0.0,-0.0,0.0,0.0,0.0,0.0
1782664397,819884154,-1.6560905615436,0.1293010711669922,-1.5218213240252894,0.007107394747436047,0.0008392703020945191,0.6744740605354309,0.0,-0.0,0.0,0.0,0.0,0.0
1782664397,827882963,-1.6561268011676233,0.12926530838012695,-1.5218456427203577,0.007119379006326199,0.0008392703020945191,0.6744021773338318,0.0,-0.0,0.0,0.0,0.0,0.0
1782664397,835888439,-1.6561268011676233,0.1292891502380371,-1.5218456427203577,0.007107394747436047,0.0008392703020945191,0.6744500994682312,0.0,-0.0,0.0,0.0,0.0,0.0
1782664397,843879377,-1.656102482472555,0.1293010711669922,-1.5217855612384241,0.007095410488545895,0.0007789746159687638,0.6744141578674316,0.0,-0.0,0.0,0.0,0.0,0.0
1782664397,851883186,-1.6561864058123987,0.12931299209594727,-1.5218575636493128,0.007179299835115671,0.0008512545027770102,0.674462080001831,0.0,-0.0,0.0,0.0,0.0,0.0
1782664397,859882236,-1.6561387220965784,0.12927722930908203,-1.5217974821673792,0.007155331317335367,0.0007909588748589158,0.6744021773338318,0.0,-0.0,0.0,0.0,0.0,0.0
1782664397,867888785,-1.65611440340151,0.1292891502380371,-1.5217974821673792,0.007143347058445215,0.0007909588748589158,0.6744261384010315,0.0,-0.0,0.0,0.0,0.0,0.0
1782664397,875889187,-1.656102482472555,0.12926530838012695,-1.521881405507223,0.007119379006326199,0.0008033175836317241,0.6744021773338318,0.0,-0.0,0.0,0.0,0.0,0.0
1782664397,883886348,-1.65611440340151,0.1292891502380371,-1.5218575636493128,0.007155331317335367,0.0007909588748589158,0.674462080001831,0.0,-0.0,0.0,0.0,0.0,0.0
1782664397,891888749,-1.6561268011676233,0.1292891502380371,-1.5218213240252894,0.007131362799555063,0.0008033175836317241,0.6744381189346313,0.0,-0.0,0.0,0.0,0.0,0.0
1782664397,899881243,-1.65611440340151,0.12932491302490234,-1.5218694845782679,0.007143347058445215,0.0008153018425218761,0.6744261384010315,0.0,-0.0,0.0,0.0,0.0,0.0
1782664397,907914441,-1.6561268011676233,0.12926530838012695,-1.5218094030963343,0.007143347058445215,0.0008033175836317241,0.6744021773338318,0.0,-0.0,0.0,0.0,0.0,0.0
1782664397,915894269,-1.6560905615436,0.12931299209594727,-1.5218337217914026,0.007203268352895975,0.0008392703020945191,0.674462080001831,0.0,-0.0,0.0,0.0,0.0,0.0
1782664397,923885188,-1.6561268011676233,0.1292891502380371,-1.5218694845782679,0.007131362799555063,0.0008153018425218761,0.6744500994682312,0.0,-0.0,0.0,0.0,0.0,0.0
1782664397,931937831,-1.6561268011676233,0.12926530838012695,-1.521881405507223,0.007119379006326199,0.0007909588748589158,0.6744740605354309,0.0,-0.0,0.0,0.0,0.0,0.0
1782664397,939885677,-1.6560905615436,0.1292891502380371,-1.5218094030963343,0.007143347058445215,0.0008153018425218761,0.6744141578674316,0.0,-0.0,0.0,0.0,0.0,0.0
1782664397,947891800,-1.656102482472555,0.12925338745117188,-1.5218213240252894,0.007119379006326199,0.0008632387034595013,0.674462080001831,0.0,-0.0,0.0,0.0,0.0,0.0
1782664397,955879628,-1.6560547987567347,0.12925338745117188,-1.5218094030963343,0.007119379006326199,0.0008392703020945191,0.674462080001831,0.0,-0.0,0.0,0.0,0.0,0.0
1782664397,963914548,-1.65611440340151,0.12926530838012695,-1.5218337217914026,0.007119379006326199,0.0007909588748589158,0.6743901968002319,0.0,-0.0,0.0,0.0,0.0,0.0
1782664397,971883098,-1.65611440340151,0.12926530838012695,-1.5218094030963343,0.007179299835115671,0.0007909588748589158,0.6743901968002319,0.0,-0.0,0.0,0.0,0.0,0.0
1782664397,979884851,-1.65611440340151,0.12927722930908203,-1.5218213240252894,0.007107394747436047,0.0008153018425218761,0.6744381189346313,0.0,-0.0,0.0,0.0,0.0,0.0
1782664397,987924456,-1.65611440340151,0.1292414665222168,-1.5218337217914026,0.007119379006326199,0.0008392703020945191,0.6744500994682312,0.0,-0.0,0.0,0.0,0.0,0.0
1782664397,995902432,-1.6561268011676233,0.1292891502380371,-1.5218094030963343,0.007155331317335367,0.0008153018425218761,0.6743782162666321,0.0,-0.0,0.0,0.0,0.0,0.0
1782664398,3880963,-1.65611440340151,0.12932491302490234,-1.5218456427203577,0.007131362799555063,0.0008153018425218761,0.6744021773338318,0.0,-0.0,0.0,0.0,0.0,0.0
1782664398,11885865,-1.65611440340151,0.12927722930908203,-1.5218337217914026,0.007143347058445215,0.0008033175836317241,0.674462080001831,0.0,-0.0,0.0,0.0,0.0,0.0
1782664398,19889304,-1.6560905615436,0.12927722930908203,-1.5218213240252894,0.007131362799555063,0.0008153018425218761,0.6744021773338318,0.0,-0.0,0.0,0.0,0.0,0.0
1782664398,27886946,-1.6560786406146448,0.12925338745117188,-1.5218456427203577,0.007191284094005823,0.0008392703020945191,0.6744740605354309,0.0,-0.0,0.0,0.0,0.0,0.0
1782664398,35886255,-1.656102482472555,0.12933731079101562,-1.5218094030963343,0.007059832103550434,0.0008272860432043672,0.6744021773338318,0.0,-0.0,0.0,0.0,0.0,0.0
1782664398,43886157,-1.6561387220965784,0.12926530838012695,-1.5218575636493128,0.007155331317335367,0.0008512545027770102,0.6744381189346313,0.0,-0.0,0.0,0.0,0.0,0.0
1782664398,51891874,-1.6561268011676233,0.1292891502380371,-1.5218337217914026,0.007107394747436047,0.0008153018425218761,0.6744860410690308,0.0,-0.0,0.0,0.0,0.0,0.0
1782664398,59935091,-1.6561387220965784,0.1292414665222168,-1.5218094030963343,0.007143347058445215,0.0008512545027770102,0.6744500994682312,0.0,-0.0,0.0,0.0,0.0,0.0
1782664398,67886363,-1.6561387220965784,0.1292414665222168,-1.5218694845782679,0.007119379006326199,0.0008153018425218761,0.6744740605354309,0.0,-0.0,0.0,0.0,0.0,0.0
1782664398,75932320,-1.6561744848834437,0.12932491302490234,-1.5218337217914026,0.007179299835115671,0.0008512545027770102,0.6744141578674316,0.0,-0.0,0.0,0.0,0.0,0.0
1782664398,83890222,-1.6561268011676233,0.1293010711669922,-1.5218094030963343,0.007155331317335367,0.0008033175836317241,0.674462080001831,0.0,-0.0,0.0,0.0,0.0,0.0
1782664398,91889623,-1.6560905615436,0.12927722930908203,-1.5218456427203577,0.007131362799555063,0.0008153018425218761,0.6744381189346313,0.0,-0.0,0.0,0.0,0.0,0.0
1782664398,99886173,-1.65611440340151,0.12926530838012695,-1.5218337217914026,0.007131362799555063,0.0008272860432043672,0.6744381189346313,0.0,-0.0,0.0,0.0,0.0,0.0
1782664398,107886001,-1.65611440340151,0.12932491302490234,-1.5218575636493128,0.007119379006326199,0.0008512545027770102,0.6744500994682312,0.0,-0.0,0.0,0.0,0.0,0.0
1782664398,115893625,-1.656102482472555,0.12931299209594727,-1.5218575636493128,0.007179299835115671,0.0008033175836317241,0.6744261384010315,0.0,-0.0,0.0,0.0,0.0,0.0
1782664398,123892379,-1.6561268011676233,0.12933731079101562,-1.5218337217914026,0.007095410488545895,0.0007909588748589158,0.674462080001831,0.0,-0.0,0.0,0.0,0.0,0.0
1782664398,131894244,-1.6561387220965784,0.12922906875610352,-1.5218337217914026,0.007143347058445215,0.0008512545027770102,0.674462080001831,0.0,-0.0,0.0,0.0,0.0,0.0
1782664398,139896368,-1.6561268011676233,0.12927722930908203,-1.5218575636493128,0.007131362799555063,0.0008153018425218761,0.6744980216026306,0.0,-0.0,0.0,0.0,0.0,0.0
1782664398,147890195,-1.6561506430255335,0.1292891502380371,-1.5218337217914026,0.007167315576225519,0.0008153018425218761,0.6744500994682312,0.0,-0.0,0.0,0.0,0.0,0.0
1782664398,155898764,-1.6561387220965784,0.1292414665222168,-1.5218575636493128,0.007155331317335367,0.0007909588748589158,0.6744261384010315,0.0,-0.0,0.0,0.0,0.0,0.0
1782664398,163882832,-1.6560786406146448,0.1293010711669922,-1.521893326436178,0.007131362799555063,0.0008153018425218761,0.6744261384010315,0.0,-0.0,0.0,0.0,0.0,0.0
1782664398,171880586,-1.6561268011676233,0.1292891502380371,-1.5218337217914026,0.007191284094005823,0.0008033175836317241,0.6744141578674316,0.0,-0.0,0.0,0.0,0.0,0.0
1782664398,179881414,-1.6561625639544886,0.12927722930908203,-1.5218456427203577,0.007131362799555063,0.0008392703020945191,0.6744261384010315,0.0,-0.0,0.0,0.0,0.0,0.0
1782664398,187881908,-1.6561387220965784,0.12925338745117188,-1.5218213240252894,0.007131362799555063,0.0008033175836317241,0.6744261384010315,0.0,-0.0,0.0,0.0,0.0,0.0
1782664398,195875643,-1.65611440340151,0.12927722930908203,-1.521881405507223,0.007119379006326199,0.0008033175836317241,0.674462080001831,0.0,-0.0,0.0,0.0,0.0,0.0
1782664398,203876360,-1.6561268011676233,0.1293010711669922,-1.5218213240252894,0.007143347058445215,0.0008033175836317241,0.6744381189346313,0.0,-0.0,0.0,0.0,0.0,0.0
1782664398,211901169,-1.656102482472555,0.12931299209594727,-1.5218213240252894,0.007203268352895975,0.0008392703020945191,0.6744500994682312,0.0,-0.0,0.0,0.0,0.0,0.0
1782664398,219881663,-1.6561387220965784,0.12927722930908203,-1.5218213240252894,0.007131362799555063,0.0007669904152862728,0.6744021773338318,0.0,-0.0,0.0,0.0,0.0,0.0
1782664398,227880158,-1.65611440340151,0.12925338745117188,-1.5218456427203577,0.007143347058445215,0.0008392703020945191,0.6744141578674316,0.0,-0.0,0.0,0.0,0.0,0.0
1782664398,235881060,-1.6561268011676233,0.12927722930908203,-1.5218456427203577,0.007131362799555063,0.0008033175836317241,0.6744381189346313,0.0,-0.0,0.0,0.0,0.0,0.0
1782664398,243892313,-1.65611440340151,0.12925338745117188,-1.5218337217914026,0.007131362799555063,0.0008153018425218761,0.674462080001831,0.0,-0.0,0.0,0.0,0.0,0.0
1782664398,251878863,-1.65611440340151,0.12927722930908203,-1.5218213240252894,0.007107394747436047,0.0008033175836317241,0.6744860410690308,0.0,-0.0,0.0,0.0,0.0,0.0
1782664398,259883413,-1.65611440340151,0.12927722930908203,-1.5218337217914026,0.007143347058445215,0.0007789746159687638,0.674462080001831,0.0,-0.0,0.0,0.0,0.0,0.0
1782664398,267886389,-1.65611440340151,0.1293010711669922,-1.5218456427203577,0.007131362799555063,0.0007909588748589158,0.6744381189346313,0.0,-0.0,0.0,0.0,0.0,0.0
1782664398,275893828,-1.6561268011676233,0.12932491302490234,-1.5218456427203577,0.007143347058445215,0.0008272860432043672,0.674462080001831,0.0,-0.0,0.0,0.0,0.0,0.0
1782664398,283880989,-1.6561387220965784,0.1293010711669922,-1.5217855612384241,0.007119379006326199,0.0007789746159687638,0.6744381189346313,0.0,-0.0,0.0,0.0,0.0,0.0
1782664398,291880317,-1.656102482472555,0.1293010711669922,-1.5218456427203577,0.007143347058445215,0.0008272860432043672,0.6744381189346313,0.0,-0.0,0.0,0.0,0.0,0.0
1782664398,299880144,-1.6561506430255335,0.1293010711669922,-1.5218694845782679,0.007155331317335367,0.0008033175836317241,0.6744021773338318,0.0,-0.0,0.0,0.0,0.0,0.0
1782664398,307885176,-1.6560786406146448,0.12931299209594727,-1.5218337217914026,0.007179299835115671,0.0007789746159687638,0.6744860410690308,0.0,-0.0,0.0,0.0,0.0,0.0
1782664398,315880874,-1.65611440340151,0.12926530838012695,-1.5218337217914026,0.007191284094005823,0.0008153018425218761,0.6744740605354309,0.0,-0.0,0.0,0.0,0.0,0.0
1782664398,323884998,-1.6560905615436,0.12925338745117188,-1.5218094030963343,0.007107394747436047,0.0007909588748589158,0.6744381189346313,0.0,-0.0,0.0,0.0,0.0,0.0
1782664398,331890252,-1.6561387220965784,0.1292891502380371,-1.5218094030963343,0.007179299835115671,0.0008153018425218761,0.6744381189346313,0.0,-0.0,0.0,0.0,0.0,0.0
1782664398,339910857,-1.6561387220965784,0.12926530838012695,-1.5218337217914026,0.007167315576225519,0.0007789746159687638,0.6744261384010315,0.0,-0.0,0.0,0.0,0.0,0.0
1782664398,347885518,-1.6561387220965784,0.12926530838012695,-1.5218337217914026,0.007155331317335367,0.0008512545027770102,0.674462080001831,0.0,-0.0,0.0,0.0,0.0,0.0
1782664398,355882975,-1.6561268011676233,0.12931299209594727,-1.5218337217914026,0.007179299835115671,0.0008392703020945191,0.6743901968002319,0.0,-0.0,0.0,0.0,0.0,0.0
1782664398,363883118,-1.6561268011676233,0.12925338745117188,-1.5218575636493128,0.007131362799555063,0.0008392703020945191,0.6744261384010315,0.0,-0.0,0.0,0.0,0.0,0.0
1782664398,371884205,-1.65611440340151,0.12927722930908203,-1.5217855612384241,0.007143347058445215,0.0008033175836317241,0.6744141578674316,0.0,-0.0,0.0,0.0,0.0,0.0
1782664398,379888236,-1.6560905615436,0.12931299209594727,-1.5217855612384241,0.007179299835115671,0.0008033175836317241,0.6744740605354309,0.0,-0.0,0.0,0.0,0.0,0.0
1782664398,387883453,-1.6561268011676233,0.12926530838012695,-1.5218575636493128,0.007155331317335367,0.0008272860432043672,0.6744141578674316,0.0,-0.0,0.0,0.0,0.0,0.0
1782664398,395879836,-1.656102482472555,0.12926530838012695,-1.5218575636493128,0.007167315576225519,0.0008632387034595013,0.6744500994682312,0.0,-0.0,0.0,0.0,0.0,0.0
1782664398,403908016,-1.6560905615436,0.1293010711669922,-1.5218337217914026,0.007131362799555063,0.0008272860432043672,0.6744261384010315,0.0,-0.0,0.0,0.0,0.0,0.0
1782664398,411887973,-1.6561268011676233,0.12926530838012695,-1.5218337217914026,0.007167315576225519,0.0008272860432043672,0.6744021773338318,0.0,-0.0,0.0,0.0,0.0,0.0
1782664398,419884208,-1.6561506430255335,0.1293010711669922,-1.5218456427203577,0.007143347058445215,0.0007909588748589158,0.6744381189346313,0.0,-0.0,0.0,0.0,0.0,0.0
1782664398,427882999,-1.6561268011676233,0.1293010711669922,-1.5218337217914026,0.007131362799555063,0.0007909588748589158,0.6744021773338318,0.0,-0.0,0.0,0.0,0.0,0.0
1782664398,435881845,-1.656102482472555,0.12931299209594727,-1.5218456427203577,0.007167315576225519,0.0008153018425218761,0.6744740605354309,0.0,-0.0,0.0,0.0,0.0,0.0
1782664398,443886229,-1.6560905615436,0.12926530838012695,-1.5218094030963343,0.007119379006326199,0.0008033175836317241,0.6744500994682312,0.0,-0.0,0.0,0.0,0.0,0.0
1782664398,451883482,-1.6561268011676233,0.12926530838012695,-1.5218337217914026,0.007143347058445215,0.0008153018425218761,0.6744381189346313,0.0,-0.0,0.0,0.0,0.0,0.0
1782664398,459884532,-1.6561268011676233,0.1293010711669922,-1.5218213240252894,0.007143347058445215,0.0008033175836317241,0.6744740605354309,0.0,-0.0,0.0,0.0,0.0,0.0
1782664398,467925212,-1.6561506430255335,0.1293010711669922,-1.521893326436178,0.007119379006326199,0.0008272860432043672,0.6744261384010315,0.0,-0.0,0.0,0.0,0.0,0.0
1782664398,475889688,-1.656102482472555,0.1292891502380371,-1.5218456427203577,0.007107394747436047,0.0008033175836317241,0.6744500994682312,0.0,-0.0,0.0,0.0,0.0,0.0
1782664398,483887423,-1.65611440340151,0.12927722930908203,-1.5218213240252894,0.007119379006326199,0.0008153018425218761,0.6744500994682312,0.0,-0.0,0.0,0.0,0.0,0.0
1782664398,491926380,-1.65611440340151,0.1293010711669922,-1.521905247365133,0.007107394747436047,0.0008033175836317241,0.6744740605354309,0.0,-0.0,0.0,0.0,0.0,0.0
1782664398,499881449,-1.656102482472555,0.12927722930908203,-1.5218575636493128,0.007167315576225519,0.0008272860432043672,0.6744860410690308,0.0,-0.0,0.0,0.0,0.0,0.0
1782664398,507889610,-1.6561506430255335,0.12926530838012695,-1.5218575636493128,0.007107394747436047,0.0008153018425218761,0.6744381189346313,0.0,-0.0,0.0,0.0,0.0,0.0
1782664398,515884752,-1.6560905615436,0.1293010711669922,-1.5218337217914026,0.007131362799555063,0.0008153018425218761,0.6744261384010315,0.0,-0.0,0.0,0.0,0.0,0.0
1782664398,523887895,-1.656102482472555,0.12926530838012695,-1.5218094030963343,0.007155331317335367,0.0008272860432043672,0.6744141578674316,0.0,-0.0,0.0,0.0,0.0,0.0
1782664398,531898019,-1.6560905615436,0.12931299209594727,-1.5218575636493128,0.007143347058445215,0.0008153018425218761,0.674462080001831,0.0,-0.0,0.0,0.0,0.0,0.0
1782664398,539885995,-1.65611440340151,0.1292414665222168,-1.521881405507223,0.007095410488545895,0.0008033175836317241,0.6744141578674316,0.0,-0.0,0.0,0.0,0.0,0.0
1782664398,547893211,-1.65611440340151,0.12927722930908203,-1.5218694845782679,0.007107394747436047,0.0008153018425218761,0.6744500994682312,0.0,-0.0,0.0,0.0,0.0,0.0
1782664398,555899891,-1.656102482472555,0.12927722930908203,-1.5218094030963343,0.007131362799555063,0.0008392703020945191,0.6744261384010315,0.0,-0.0,0.0,0.0,0.0,0.0
1782664398,563874626,-1.6560905615436,0.1292891502380371,-1.5218213240252894,0.007179299835115671,0.0008033175836317241,0.6744500994682312,0.0,-0.0,0.0,0.0,0.0,0.0
1782664398,571875787,-1.6561506430255335,0.1293010711669922,-1.5218456427203577,0.007119379006326199,0.0008272860432043672,0.6744261384010315,0.0,-0.0,0.0,0.0,0.0,0.0
1782664398,579884337,-1.656102482472555,0.12931299209594727,-1.5218213240252894,0.007119379006326199,0.0008512545027770102,0.6744261384010315,0.0,-0.0,0.0,0.0,0.0,0.0
1782664398,587887646,-1.6560905615436,0.12925338745117188,-1.5218094030963343,0.007179299835115671,0.0007909588748589158,0.6744261384010315,0.0,-0.0,0.0,0.0,0.0,0.0
1782664398,595921233,-1.6561268011676233,0.12926530838012695,-1.5218694845782679,0.007131362799555063,0.0008272860432043672,0.6744860410690308,0.0,-0.0,0.0,0.0,0.0,0.0
1782664398,603883468,-1.656102482472555,0.1293010711669922,-1.5218456427203577,0.007131362799555063,0.0008272860432043672,0.6743901968002319,0.0,-0.0,0.0,0.0,0.0,0.0
1782664398,611889129,-1.656102482472555,0.12927722930908203,-1.5218694845782679,0.007155331317335367,0.0008752229623496532,0.6744021773338318,0.0,-0.0,0.0,0.0,0.0,0.0
1782664398,619898476,-1.65611440340151,0.12926530838012695,-1.5218213240252894,0.007143347058445215,0.0008272860432043672,0.6744141578674316,0.0,-0.0,0.0,0.0,0.0,0.0
1782664398,627890063,-1.65611440340151,0.12926530838012695,-1.5218456427203577,0.007131362799555063,0.0008272860432043672,0.6744261384010315,0.0,-0.0,0.0,0.0,0.0,0.0
1782664398,635890316,-1.6560905615436,0.1292414665222168,-1.5218456427203577,0.007179299835115671,0.0008153018425218761,0.6744381189346313,0.0,-0.0,0.0,0.0,0.0,0.0
1782664398,643891496,-1.6560786406146448,0.12926530838012695,-1.5218456427203577,0.007119379006326199,0.0008392703020945191,0.6744141578674316,0.0,-0.0,0.0,0.0,0.0,0.0
1782664398,651895712,-1.656102482472555,0.12926530838012695,-1.5218575636493128,0.007131362799555063,0.0008153018425218761,0.6744860410690308,0.0,-0.0,0.0,0.0,0.0,0.0
1782664398,659957596,-1.656102482472555,0.12927722930908203,-1.5218213240252894,0.007179299835115671,0.0008392703020945191,0.6744141578674316,0.0,-0.0,0.0,0.0,0.0,0.0
1782664398,667892183,-1.6561387220965784,0.1292891502380371,-1.5218337217914026,0.007119379006326199,0.0008392703020945191,0.6744021773338318,0.0,-0.0,0.0,0.0,0.0,0.0
1782664398,675902288,-1.6560786406146448,0.12926530838012695,-1.5218575636493128,0.007107394747436047,0.0008153018425218761,0.6744500994682312,0.0,-0.0,0.0,0.0,0.0,0.0
1782664398,683881968,-1.6561506430255335,0.12932491302490234,-1.5218337217914026,0.007107394747436047,0.0008153018425218761,0.6744381189346313,0.0,-0.0,0.0,0.0,0.0,0.0
1782664398,691906203,-1.65611440340151,0.12931299209594727,-1.5218575636493128,0.007179299835115671,0.0007789746159687638,0.6744381189346313,0.0,-0.0,0.0,0.0,0.0,0.0
1782664398,699897123,-1.6560905615436,0.12926530838012695,-1.5217974821673792,0.007167315576225519,0.0008033175836317241,0.6744381189346313,0.0,-0.0,0.0,0.0,0.0,0.0
1782664398,707893506,-1.6561268011676233,0.12925338745117188,-1.521881405507223,0.007107394747436047,0.0008272860432043672,0.6744141578674316,0.0,-0.0,0.0,0.0,0.0,0.0
1782664398,715886149,-1.6560786406146448,0.12927722930908203,-1.5218575636493128,0.007179299835115671,0.0008033175836317241,0.6744261384010315,0.0,-0.0,0.0,0.0,0.0,0.0
1782664398,723897643,-1.6561506430255335,0.12926530838012695,-1.5218094030963343,0.007131362799555063,0.0008512545027770102,0.6744381189346313,0.0,-0.0,0.0,0.0,0.0,0.0
1782664398,731902582,-1.6560905615436,0.12927722930908203,-1.5218094030963343,0.007107394747436047,0.0008153018425218761,0.6744141578674316,0.0,-0.0,0.0,0.0,0.0,0.0
1782664398,739889910,-1.6561506430255335,0.12926530838012695,-1.5218456427203577,0.007143347058445215,0.0008153018425218761,0.6744381189346313,0.0,-0.0,0.0,0.0,0.0,0.0
1782664398,747885904,-1.65611440340151,0.12931299209594727,-1.5218575636493128,0.007155331317335367,0.0008632387034595013,0.6744381189346313,0.0,-0.0,0.0,0.0,0.0,0.0
1782664398,755890917,-1.656102482472555,0.12925338745117188,-1.5218213240252894,0.007119379006326199,0.0008153018425218761,0.6744021773338318,0.0,-0.0,0.0,0.0,0.0,0.0
1782664398,763947245,-1.6560905615436,0.1292414665222168,-1.5218456427203577,0.007143347058445215,0.0008033175836317241,0.6744261384010315,0.0,-0.0,0.0,0.0,0.0,0.0
1782664398,771883554,-1.6560667196856897,0.12927722930908203,-1.5218456427203577,0.007143347058445215,0.0007909588748589158,0.6744141578674316,0.0,-0.0,0.0,0.0,0.0,0.0
1782664398,779885030,-1.6560786406146448,0.1292891502380371,-1.5218694845782679,0.007179299835115671,0.0008153018425218761,0.6744500994682312,0.0,-0.0,0.0,0.0,0.0,0.0
1782664398,787897487,-1.6560786406146448,0.12931299209594727,-1.5218213240252894,0.007191284094005823,0.0008392703020945191,0.6744740605354309,0.0,-0.0,0.0,0.0,0.0,0.0
1782664398,795892926,-1.65611440340151,0.12932491302490234,-1.5218337217914026,0.007155331317335367,0.0008512545027770102,0.6744021773338318,0.0,-0.0,0.0,0.0,0.0,0.0
1782664398,803888513,-1.656102482472555,0.12931299209594727,-1.5218213240252894,0.007167315576225519,0.0008033175836317241,0.6744500994682312,0.0,-0.0,0.0,0.0,0.0,0.0
1782664398,811897100,-1.65611440340151,0.12932491302490234,-1.5218456427203577,0.007143347058445215,0.0008033175836317241,0.6744261384010315,0.0,-0.0,0.0,0.0,0.0,0.0
1782664398,819884613,-1.6561268011676233,0.12926530838012695,-1.5218337217914026,0.007167315576225519,0.0008033175836317241,0.6744500994682312,0.0,-0.0,0.0,0.0,0.0,0.0
1782664398,827891219,-1.6561268011676233,0.12925338745117188,-1.5218213240252894,0.007119379006326199,0.0007550062146037817,0.6744860410690308,0.0,-0.0,0.0,0.0,0.0,0.0
1782664398,835891639,-1.6561268011676233,0.12927722930908203,-1.5218337217914026,0.007119379006326199,0.0008512545027770102,0.6744381189346313,0.0,-0.0,0.0,0.0,0.0,0.0
1782664398,843881411,-1.6560905615436,0.12925338745117188,-1.5218213240252894,0.007119379006326199,0.0008392703020945191,0.6744141578674316,0.0,-0.0,0.0,0.0,0.0,0.0
1782664398,851889369,-1.6561506430255335,0.1292414665222168,-1.5218213240252894,0.007167315576225519,0.0008272860432043672,0.6744860410690308,0.0,-0.0,0.0,0.0,0.0,0.0
1782664398,859882900,-1.6561387220965784,0.1293010711669922,-1.5218213240252894,0.007143347058445215,0.0008632387034595013,0.6744381189346313,0.0,-0.0,0.0,0.0,0.0,0.0
1782664398,867883135,-1.65611440340151,0.1293010711669922,-1.5218575636493128,0.007155331317335367,0.0008153018425218761,0.6744381189346313,0.0,-0.0,0.0,0.0,0.0,0.0
1782664398,875887852,-1.65611440340151,0.1293010711669922,-1.521893326436178,0.007119379006326199,0.0008272860432043672,0.6744141578674316,0.0,-0.0,0.0,0.0,0.0,0.0
1782664398,883887957,-1.6561625639544886,0.12922906875610352,-1.5218456427203577,0.007095410488545895,0.0007909588748589158,0.6744500994682312,0.0,-0.0,0.0,0.0,0.0,0.0
1782664398,891907266,-1.6561625639544886,0.1293010711669922,-1.5218213240252894,0.007143347058445215,0.0008272860432043672,0.674462080001831,0.0,-0.0,0.0,0.0,0.0,0.0
1782664398,899888409,-1.65611440340151,0.12933731079101562,-1.5218456427203577,0.007119379006326199,0.0008512545027770102,0.6744261384010315,0.0,-0.0,0.0,0.0,0.0,0.0
1782664398,907906718,-1.65611440340151,0.12927722930908203,-1.5218094030963343,0.007119379006326199,0.0008512545027770102,0.6744381189346313,0.0,-0.0,0.0,0.0,0.0,0.0
1782664398,915891231,-1.656102482472555,0.1292414665222168,-1.5218575636493128,0.007143347058445215,0.0007909588748589158,0.6744261384010315,0.0,-0.0,0.0,0.0,0.0,0.0
1782664398,924003207,-1.6561268011676233,0.12925338745117188,-1.5218337217914026,0.007131362799555063,0.0007789746159687638,0.6744381189346313,0.0,-0.0,0.0,0.0,0.0,0.0
1782664398,931891349,-1.6560905615436,0.12931299209594727,-1.5218694845782679,0.007131362799555063,0.0008153018425218761,0.6744381189346313,0.0,-0.0,0.0,0.0,0.0,0.0
1782664398,939891844,-1.656102482472555,0.12926530838012695,-1.5218337217914026,0.007131362799555063,0.0007909588748589158,0.6744261384010315,0.0,-0.0,0.0,0.0,0.0,0.0
1782664398,947899783,-1.656102482472555,0.1292414665222168,-1.5218694845782679,0.007167315576225519,0.0008392703020945191,0.6744381189346313,0.0,-0.0,0.0,0.0,0.0,0.0
1782664398,955886814,-1.65611440340151,0.12925338745117188,-1.5218456427203577,0.007131362799555063,0.0008272860432043672,0.6744381189346313,0.0,-0.0,0.0,0.0,0.0,0.0
1782664398,963882234,-1.6561387220965784,0.12926530838012695,-1.5218094030963343,0.007107394747436047,0.0008153018425218761,0.6744261384010315,0.0,-0.0,0.0,0.0,0.0,0.0
1782664398,971889192,-1.656102482472555,0.12926530838012695,-1.5218456427203577,0.007155331317335367,0.0008272860432043672,0.6744141578674316,0.0,-0.0,0.0,0.0,0.0,0.0
1782664398,979897445,-1.65611440340151,0.12931299209594727,-1.5218694845782679,0.007119379006326199,0.0007909588748589158,0.6744860410690308,0.0,-0.0,0.0,0.0,0.0,0.0
1782664398,987905310,-1.6561387220965784,0.12922906875610352,-1.5218575636493128,0.007167315576225519,0.0007789746159687638,0.6744261384010315,0.0,-0.0,0.0,0.0,0.0,0.0
1782664398,995940305,-1.6561506430255335,0.12927722930908203,-1.5218094030963343,0.007143347058445215,0.0008392703020945191,0.6744500994682312,0.0,-0.0,0.0,0.0,0.0,0.0
1782664399,3890503,-1.65611440340151,0.1293010711669922,-1.5218456427203577,0.007179299835115671,0.0008033175836317241,0.6743782162666321,0.0,-0.0,0.0,0.0,0.0,0.0
1782664399,11888997,-1.6560905615436,0.1292891502380371,-1.5218094030963343,0.007155331317335367,0.0008153018425218761,0.6744261384010315,0.0,-0.0,0.0,0.0,0.0,0.0
1782664399,19940955,-1.6561387220965784,0.12927722930908203,-1.5218337217914026,0.007155331317335367,0.0007909588748589158,0.6744021773338318,0.0,-0.0,0.0,0.0,0.0,0.0
1782664399,27880524,-1.6561268011676233,0.12931299209594727,-1.5218456427203577,0.007143347058445215,0.0008153018425218761,0.6744141578674316,0.0,-0.0,0.0,0.0,0.0,0.0
1782664399,35945537,-1.6560905615436,0.1293010711669922,-1.5218337217914026,0.007119379006326199,0.0008153018425218761,0.6744141578674316,0.0,-0.0,0.0,0.0,0.0,0.0
1782664399,43883272,-1.6561625639544886,0.12927722930908203,-1.5218213240252894,0.007143347058445215,0.0008272860432043672,0.6744500994682312,0.0,-0.0,0.0,0.0,0.0,0.0
1782664399,51904341,-1.6561625639544886,0.1292891502380371,-1.521881405507223,0.007131362799555063,0.0008153018425218761,0.6744500994682312,0.0,-0.0,0.0,0.0,0.0,0.0
1782664399,59888188,-1.65611440340151,0.12927722930908203,-1.5217974821673792,0.007155331317335367,0.0008033175836317241,0.6744500994682312,0.0,-0.0,0.0,0.0,0.0,0.0
1782664399,67888923,-1.6561268011676233,0.12927722930908203,-1.5218694845782679,0.007167315576225519,0.0007909588748589158,0.6744261384010315,0.0,-0.0,0.0,0.0,0.0,0.0
1782664399,75891362,-1.65611440340151,0.12925338745117188,-1.5218094030963343,0.007131362799555063,0.0007909588748589158,0.6744141578674316,0.0,-0.0,0.0,0.0,0.0,0.0
1782664399,83902912,-1.6560905615436,0.1292891502380371,-1.5218094030963343,0.007107394747436047,0.0008512545027770102,0.6744381189346313,0.0,-0.0,0.0,0.0,0.0,0.0
1782664399,91888907,-1.6561506430255335,0.1293010711669922,-1.5218694845782679,0.007107394747436047,0.0008153018425218761,0.6744261384010315,0.0,-0.0,0.0,0.0,0.0,0.0
1782664399,99895254,-1.65611440340151,0.12926530838012695,-1.5218694845782679,0.007155331317335367,0.0007909588748589158,0.674462080001831,0.0,-0.0,0.0,0.0,0.0,0.0
1782664399,107890452,-1.6561387220965784,0.12927722930908203,-1.5218575636493128,0.007107394747436047,0.0008392703020945191,0.6744261384010315,0.0,-0.0,0.0,0.0,0.0,0.0
1782664399,115890669,-1.6561268011676233,0.1293010711669922,-1.5218694845782679,0.007155331317335367,0.0008272860432043672,0.6744381189346313,0.0,-0.0,0.0,0.0,0.0,0.0
1782664399,123891978,-1.65611440340151,0.12925338745117188,-1.5218213240252894,0.007131362799555063,0.0008153018425218761,0.6744141578674316,0.0,-0.0,0.0,0.0,0.0,0.0
1782664399,131886936,-1.6561268011676233,0.1292891502380371,-1.5218575636493128,0.007119379006326199,0.0008392703020945191,0.674462080001831,0.0,-0.0,0.0,0.0,0.0,0.0
1782664399,139917968,-1.6560905615436,0.1293010711669922,-1.5218456427203577,0.007095410488545895,0.0008392703020945191,0.6744381189346313,0.0,-0.0,0.0,0.0,0.0,0.0
1782664399,147891574,-1.6560905615436,0.12927722930908203,-1.5218337217914026,0.007119379006326199,0.0008153018425218761,0.6743901968002319,0.0,-0.0,0.0,0.0,0.0,0.0
1782664399,155882420,-1.6561268011676233,0.1292891502380371,-1.5218094030963343,0.007143347058445215,0.0008512545027770102,0.6744500994682312,0.0,-0.0,0.0,0.0,0.0,0.0
1782664399,163885118,-1.6561268011676233,0.12927722930908203,-1.5218575636493128,0.007131362799555063,0.0008272860432043672,0.6744021773338318,0.0,-0.0,0.0,0.0,0.0,0.0
1782664399,171891021,-1.6561268011676233,0.1292414665222168,-1.5218575636493128,0.007107394747436047,0.0008153018425218761,0.6744381189346313,0.0,-0.0,0.0,0.0,0.0,0.0
1782664399,179891923,-1.6561506430255335,0.1292414665222168,-1.5218213240252894,0.007119379006326199,0.0008153018425218761,0.6744261384010315,0.0,-0.0,0.0,0.0,0.0,0.0
1782664399,187893121,-1.6560786406146448,0.1292891502380371,-1.5218213240252894,0.007119379006326199,0.0008512545027770102,0.6744381189346313,0.0,-0.0,0.0,0.0,0.0,0.0
1782664399,195893634,-1.6561268011676233,0.12927722930908203,-1.5218575636493128,0.007131362799555063,0.0008153018425218761,0.6744261384010315,0.0,-0.0,0.0,0.0,0.0,0.0
1782664399,203921314,-1.656102482472555,0.1293010711669922,-1.5218213240252894,0.007119379006326199,0.0008272860432043672,0.6744021773338318,0.0,-0.0,0.0,0.0,0.0,0.0
1782664399,211894605,-1.6561625639544886,0.1292414665222168,-1.5217974821673792,0.007179299835115671,0.0008512545027770102,0.6744740605354309,0.0,-0.0,0.0,0.0,0.0,0.0
1782664399,219893729,-1.656102482472555,0.1292891502380371,-1.5218213240252894,0.007143347058445215,0.0008392703020945191,0.6744860410690308,0.0,-0.0,0.0,0.0,0.0,0.0
1782664399,227891539,-1.6561387220965784,0.12926530838012695,-1.5218456427203577,0.007131362799555063,0.0008392703020945191,0.6744381189346313,0.0,-0.0,0.0,0.0,0.0,0.0
1782664399,235886663,-1.6561268011676233,0.1292891502380371,-1.5218456427203577,0.007131362799555063,0.0008752229623496532,0.6744141578674316,0.0,-0.0,0.0,0.0,0.0,0.0
1782664399,243887973,-1.6561506430255335,0.12926530838012695,-1.5218337217914026,0.007155331317335367,0.0008272860432043672,0.6744500994682312,0.0,-0.0,0.0,0.0,0.0,0.0
1782664399,251889986,-1.6561625639544886,0.12925338745117188,-1.5218094030963343,0.007107394747436047,0.0007909588748589158,0.6744740605354309,0.0,-0.0,0.0,0.0,0.0,0.0
1782664399,259890647,-1.65611440340151,0.12927722930908203,-1.5218575636493128,0.007167315576225519,0.0008033175836317241,0.674462080001831,0.0,-0.0,0.0,0.0,0.0,0.0
1782664399,267904975,-1.65611440340151,0.1292891502380371,-1.5218337217914026,0.007095410488545895,0.0008392703020945191,0.6744381189346313,0.0,-0.0,0.0,0.0,0.0,0.0
1782664399,276381472,-1.6561387220965784,0.12931299209594727,-1.5218337217914026,0.007179299835115671,0.0008153018425218761,0.6744980216026306,0.0,-0.0,0.0,0.0,0.0,0.0
1782664399,283889020,-1.6560905615436,0.1292891502380371,-1.5218337217914026,0.007095410488545895,0.0008153018425218761,0.6744500994682312,0.0,-0.0,0.0,0.0,0.0,0.0
1782664399,291896293,-1.6560786406146448,0.12927722930908203,-1.5218694845782679,0.007131362799555063,0.0007909588748589158,0.6744141578674316,0.0,-0.0,0.0,0.0,0.0,0.0
1782664399,299916250,-1.6561387220965784,0.12926530838012695,-1.5218694845782679,0.007143347058445215,0.0008632387034595013,0.6744381189346313,0.0,-0.0,0.0,0.0,0.0,0.0
1782664399,307887300,-1.6561625639544886,0.12926530838012695,-1.5218094030963343,0.007143347058445215,0.0008392703020945191,0.6744740605354309,0.0,-0.0,0.0,0.0,0.0,0.0
1782664399,315878240,-1.65611440340151,0.12926530838012695,-1.5218456427203577,0.007107394747436047,0.0008512545027770102,0.6744381189346313,0.0,-0.0,0.0,0.0,0.0,0.0
1782664399,323884901,-1.6561387220965784,0.1292414665222168,-1.5218694845782679,0.007179299835115671,0.0007789746159687638,0.6744500994682312,0.0,-0.0,0.0,0.0,0.0,0.0
1782664399,331901359,-1.6561625639544886,0.12925338745117188,-1.5218094030963343,0.007095410488545895,0.0008153018425218761,0.6744261384010315,0.0,-0.0,0.0,0.0,0.0,0.0
1782664399,341468859,-1.6560905615436,0.12925338745117188,-1.5218337217914026,0.007179299835115671,0.0008153018425218761,0.6744261384010315,0.0,-0.0,0.0,0.0,0.0,0.0
1782664399,350647507,-1.656102482472555,0.1293010711669922,-1.5218456427203577,0.007131362799555063,0.0008512545027770102,0.6744381189346313,0.0,-0.0,0.0,0.0,0.0,0.0
1782664399,356106010,-1.6561268011676233,0.12931299209594727,-1.5218213240252894,0.007179299835115671,0.0008392703020945191,0.6744381189346313,0.0,-0.0,0.0,0.0,0.0,0.0
1782664399,363999356,-1.65611440340151,0.12927722930908203,-1.5218575636493128,0.007167315576225519,0.0007789746159687638,0.6744860410690308,0.0,-0.0,0.0,0.0,0.0,0.0
1782664399,384003269,-1.6560905615436,0.1292891502380371,-1.5217974821673792,0.007191284094005823,0.0008153018425218761,0.6744021773338318,0.0,-0.0,0.0,0.0,0.0,0.0
1782664399,443930729,-1.65611440340151,0.1292891502380371,-1.5218456427203577,0.007143347058445215,0.0008153018425218761,0.6744740605354309,0.0,-0.0,0.0,0.0,0.0,0.0
1782664399,451892779,-1.6561744848834437,0.1292891502380371,-1.5218094030963343,0.007119379006326199,0.0008033175836317241,0.674462080001831,0.0,-0.0,0.0,0.0,0.0,0.0
1782664399,459891977,-1.656102482472555,0.12927722930908203,-1.5218094030963343,0.007131362799555063,0.0007789746159687638,0.674462080001831,0.0,-0.0,0.0,0.0,0.0,0.0
1782664399,468002306,-1.656102482472555,0.12927722930908203,-1.5218094030963343,0.007131362799555063,0.0007789746159687638,0.674462080001831,0.0,-0.0,0.0,0.0,0.0,0.0
1782664399,475892263,-1.6561268011676233,0.12927722930908203,-1.5217974821673792,0.007143347058445215,0.0008033175836317241,0.6744381189346313,0.0,-0.0,0.0,0.0,0.0,0.0
1782664399,483893980,-1.65611440340151,0.1292414665222168,-1.5218094030963343,0.007143347058445215,0.0008272860432043672,0.6744021773338318,0.0,-0.0,0.0,0.0,0.0,0.0
1782664399,491888215,-1.6560905615436,0.12927722930908203,-1.5218337217914026,0.007155331317335367,0.0008512545027770102,0.6744261384010315,0.0,-0.0,0.0,0.0,0.0,0.0
1782664399,499936284,-1.6560905615436,0.12925338745117188,-1.5218456427203577,0.007131362799555063,0.0008392703020945191,0.6744021773338318,0.0,-0.0,0.0,0.0,0.0,0.0
1782664399,507893464,-1.6561387220965784,0.12926530838012695,-1.5218575636493128,0.007131362799555063,0.0008392703020945191,0.6744381189346313,0.0,-0.0,0.0,0.0,0.0,0.0
1782664399,515883292,-1.6561506430255335,0.12927722930908203,-1.5218694845782679,0.007167315576225519,0.0008033175836317241,0.674462080001831,0.0,-0.0,0.0,0.0,0.0,0.0
1782664399,523902527,-1.6560905615436,0.1292414665222168,-1.5218456427203577,0.007167315576225519,0.0008033175836317241,0.6743901968002319,0.0,-0.0,0.0,0.0,0.0,0.0
1782664399,531898374,-1.6561268011676233,0.12925338745117188,-1.5218094030963343,0.007119379006326199,0.0008033175836317241,0.6744381189346313,0.0,-0.0,0.0,0.0,0.0,0.0
1782664399,539893165,-1.6560786406146448,0.1292414665222168,-1.5217974821673792,0.007131362799555063,0.0008033175836317241,0.6744381189346313,0.0,-0.0,0.0,0.0,0.0,0.0
1782664399,547923826,-1.6561506430255335,0.1292891502380371,-1.5218094030963343,0.007155331317335367,0.0008272860432043672,0.6744500994682312,0.0,-0.0,0.0,0.0,0.0,0.0
1782664399,555890580,-1.6560905615436,0.12927722930908203,-1.5218213240252894,0.007107394747436047,0.0007789746159687638,0.6744500994682312,0.0,-0.0,0.0,0.0,0.0,0.0
1782664399,563890445,-1.6561387220965784,0.12927722930908203,-1.5218337217914026,0.007107394747436047,0.0008153018425218761,0.6744261384010315,0.0,-0.0,0.0,0.0,0.0,0.0
1782664399,571884199,-1.6561387220965784,0.12926530838012695,-1.5217974821673792,0.007155331317335367,0.0008632387034595013,0.6744261384010315,0.0,-0.0,0.0,0.0,0.0,0.0
1782664399,587895336,-1.6561506430255335,0.12925338745117188,-1.521893326436178,0.007119379006326199,0.0007789746159687638,0.6743782162666321,0.0,-0.0,0.0,0.0,0.0,0.0
1782664399,595885183,-1.6561506430255335,0.12927722930908203,-1.5218575636493128,0.007119379006326199,0.0008153018425218761,0.674462080001831,0.0,-0.0,0.0,0.0,0.0,0.0
1782664399,603880715,-1.6561387220965784,0.12926530838012695,-1.5218337217914026,0.007143347058445215,0.0008153018425218761,0.6744141578674316,0.0,-0.0,0.0,0.0,0.0,0.0
1782664399,611934043,-1.6560905615436,0.12926530838012695,-1.5218575636493128,0.007119379006326199,0.0008512545027770102,0.6744381189346313,0.0,-0.0,0.0,0.0,0.0,0.0
1782664399,619893315,-1.6560786406146448,0.1292891502380371,-1.521773640309469,0.007131362799555063,0.0008272860432043672,0.6744500994682312,0.0,-0.0,0.0,0.0,0.0,0.0
1782664399,627891754,-1.6561268011676233,0.12927722930908203,-1.5218213240252894,0.007131362799555063,0.0008153018425218761,0.6744141578674316,0.0,-0.0,0.0,0.0,0.0,0.0
1782664399,635895249,-1.6560786406146448,0.1293010711669922,-1.5218694845782679,0.007143347058445215,0.0008033175836317241,0.6744261384010315,0.0,-0.0,0.0,0.0,0.0,0.0
1782664399,643887743,-1.656102482472555,0.1292414665222168,-1.5218337217914026,0.007143347058445215,0.0007909588748589158,0.6743782162666321,0.0,-0.0,0.0,0.0,0.0,0.0
1782664399,651890627,-1.65611440340151,0.1292414665222168,-1.521881405507223,0.007131362799555063,0.0007789746159687638,0.6744500994682312,0.0,-0.0,0.0,0.0,0.0,0.0
1782664399,659950437,-1.656102482472555,0.1292414665222168,-1.5218094030963343,0.007155331317335367,0.0007789746159687638,0.6744500994682312,0.0,-0.0,0.0,0.0,0.0,0.0
1782664399,667889598,-1.6561268011676233,0.12925338745117188,-1.5218456427203577,0.007179299835115671,0.0008033175836317241,0.6744381189346313,0.0,-0.0,0.0,0.0,0.0,0.0
1782664399,676193612,-1.656102482472555,0.1292891502380371,-1.5218456427203577,0.007143347058445215,0.0008153018425218761,0.6744141578674316,0.0,-0.0,0.0,0.0,0.0,0.0
1782664399,683900735,-1.6561506430255335,0.1293010711669922,-1.5218456427203577,0.007143347058445215,0.0008033175836317241,0.6744021773338318,0.0,-0.0,0.0,0.0,0.0,0.0
1782664399,691956434,-1.6561268011676233,0.1292414665222168,-1.5218094030963343,0.007143347058445215,0.0008153018425218761,0.6744740605354309,0.0,-0.0,0.0,0.0,0.0,0.0
1782664399,700028133,-1.6561268011676233,0.1292414665222168,-1.5218213240252894,0.007143347058445215,0.0007909588748589158,0.674462080001831,0.0,-0.0,0.0,0.0,0.0,0.0
1782664399,708048405,-1.6561506430255335,0.12927722930908203,-1.5218094030963343,0.007119379006326199,0.0008033175836317241,0.6744261384010315,0.0,-0.0,0.0,0.0,0.0,0.0
1782664399,716275827,-1.6561625639544886,0.1293010711669922,-1.5218337217914026,0.007131362799555063,0.0008033175836317241,0.6744261384010315,0.0,-0.0,0.0,0.0,0.0,0.0
1782664399,724600619,-1.6561268011676233,0.12927722930908203,-1.5218694845782679,0.007107394747436047,0.0007909588748589158,0.6744381189346313,0.0,-0.0,0.0,0.0,0.0,0.0
1782664399,731910092,-1.6561268011676233,0.12925338745117188,-1.5218337217914026,0.007155331317335367,0.0008392703020945191,0.6744860410690308,0.0,-0.0,0.0,0.0,0.0,0.0
1782664399,740106255,-1.65611440340151,0.12927722930908203,-1.5218575636493128,0.007179299835115671,0.0008392703020945191,0.6744381189346313,0.0,-0.0,0.0,0.0,0.0,0.0
1782664399,747891915,-1.6561268011676233,0.1292891502380371,-1.5218094030963343,0.007143347058445215,0.0008392703020945191,0.6744261384010315,0.0,-0.0,0.0,0.0,0.0,0.0
1782664399,755884169,-1.65611440340151,0.12926530838012695,-1.521881405507223,0.007107394747436047,0.0007909588748589158,0.6744500994682312,0.0,-0.0,0.0,0.0,0.0,0.0
1782664399,763898979,-1.656102482472555,0.1293010711669922,-1.5218694845782679,0.007119379006326199,0.0008153018425218761,0.6744500994682312,0.0,-0.0,0.0,0.0,0.0,0.0
1782664399,771945992,-1.6561268011676233,0.12925338745117188,-1.5218094030963343,0.007119379006326199,0.0008153018425218761,0.6744500994682312,0.0,-0.0,0.0,0.0,0.0,0.0
1782664399,780002913,-1.6561268011676233,0.1292891502380371,-1.5218575636493128,0.007143347058445215,0.0007909588748589158,0.6744500994682312,0.0,-0.0,0.0,0.0,0.0,0.0
1782664399,788099297,-1.6560905615436,0.12925338745117188,-1.5218094030963343,0.007155331317335367,0.0008392703020945191,0.6744500994682312,0.0,-0.0,0.0,0.0,0.0,0.0
1782664399,795885031,-1.6561744848834437,0.12925338745117188,-1.5218575636493128,0.007095410488545895,0.0008153018425218761,0.6744021773338318,0.0,-0.0,0.0,0.0,0.0,0.0
1782664399,803918989,-1.65611440340151,0.12927722930908203,-1.5218694845782679,0.007107394747436047,0.0008272860432043672,0.6744381189346313,0.0,-0.0,0.0,0.0,0.0,0.0
1782664399,812026892,-1.6560905615436,0.12931299209594727,-1.5218213240252894,0.007131362799555063,0.0008153018425218761,0.6744500994682312,0.0,-0.0,0.0,0.0,0.0,0.0
1782664399,819896497,-1.6561625639544886,0.1292891502380371,-1.5218456427203577,0.007143347058445215,0.0008392703020945191,0.6744381189346313,0.0,-0.0,0.0,0.0,0.0,0.0
1782664399,827905788,-1.6561268011676233,0.1292414665222168,-1.5218094030963343,0.007167315576225519,0.0008153018425218761,0.6744980216026306,0.0,-0.0,0.0,0.0,0.0,0.0
1782664399,835887431,-1.656102482472555,0.12932491302490234,-1.5218337217914026,0.007095410488545895,0.0008392703020945191,0.674462080001831,0.0,-0.0,0.0,0.0,0.0,0.0
1782664399,843934833,-1.6561268011676233,0.1293010711669922,-1.5218337217914026,0.007167315576225519,0.0008153018425218761,0.6743782162666321,0.0,-0.0,0.0,0.0,0.0,0.0
1782664399,852064791,-1.656102482472555,0.12925338745117188,-1.5218456427203577,0.007119379006326199,0.0008272860432043672,0.6744381189346313,0.0,-0.0,0.0,0.0,0.0,0.0
1782664399,859987248,-1.656102482472555,0.12925338745117188,-1.5218456427203577,0.007119379006326199,0.0008272860432043672,0.6744381189346313,0.0,-0.0,0.0,0.0,0.0,0.0
1782664399,867892372,-1.656102482472555,0.1293010711669922,-1.5218337217914026,0.007131362799555063,0.0007789746159687638,0.6744860410690308,0.0,-0.0,0.0,0.0,0.0,0.0
1782664399,875898126,-1.6561387220965784,0.1292891502380371,-1.5218694845782679,0.007095410488545895,0.0008512545027770102,0.6744740605354309,0.0,-0.0,0.0,0.0,0.0,0.0
1782664399,883937510,-1.6561387220965784,0.1292891502380371,-1.5218694845782679,0.007095410488545895,0.0008512545027770102,0.6744740605354309,0.0,-0.0,0.0,0.0,0.0,0.0
1782664399,891897097,-1.656102482472555,0.1293010711669922,-1.5218694845782679,0.007119379006326199,0.0008153018425218761,0.6743782162666321,0.0,-0.0,0.0,0.0,0.0,0.0
1782664399,899885444,-1.6561268011676233,0.12920522689819336,-1.5218456427203577,0.007119379006326199,0.0008392703020945191,0.6744500994682312,0.0,-0.0,0.0,0.0,0.0,0.0
1782664399,907889605,-1.6561506430255335,0.12926530838012695,-1.5217974821673792,0.007155331317335367,0.0008153018425218761,0.6744261384010315,0.0,-0.0,0.0,0.0,0.0,0.0
1782664399,915921544,-1.6560667196856897,0.12931299209594727,-1.5218456427203577,0.007167315576225519,0.0008512545027770102,0.6744021773338318,0.0,-0.0,0.0,0.0,0.0,0.0
1782664399,923924317,-1.656102482472555,0.12927722930908203,-1.5218213240252894,0.007155331317335367,0.0008033175836317241,0.6744021773338318,0.0,-0.0,0.0,0.0,0.0,0.0
1782664399,932006441,-1.656102482472555,0.12927722930908203,-1.5218213240252894,0.007155331317335367,0.0008033175836317241,0.6744021773338318,0.0,-0.0,0.0,0.0,0.0,0.0
1782664399,939883750,-1.6561268011676233,0.1292414665222168,-1.5218337217914026,0.007167315576225519,0.0008033175836317241,0.6744381189346313,0.0,-0.0,0.0,0.0,0.0,0.0
1782664399,947885504,-1.6561387220965784,0.12927722930908203,-1.5217974821673792,0.007155331317335367,0.0008392703020945191,0.6744381189346313,0.0,-0.0,0.0,0.0,0.0,0.0
1782664399,955932277,-1.6560786406146448,0.12927722930908203,-1.5218213240252894,0.007131362799555063,0.0007909588748589158,0.6744261384010315,0.0,-0.0,0.0,0.0,0.0,0.0
1782664399,964285977,-1.6561625639544886,0.1292414665222168,-1.5217974821673792,0.007107394747436047,0.0007909588748589158,0.6744381189346313,0.0,-0.0,0.0,0.0,0.0,0.0
1782664399,979880557,-1.6561387220965784,0.12927722930908203,-1.5218213240252894,0.007119379006326199,0.0008153018425218761,0.6744500994682312,0.0,-0.0,0.0,0.0,0.0,0.0
1782664399,987990885,-1.656102482472555,0.12931299209594727,-1.5218094030963343,0.007095410488545895,0.0008153018425218761,0.6744381189346313,0.0,-0.0,0.0,0.0,0.0,0.0
1782664399,995988473,-1.6561268011676233,0.12925338745117188,-1.5218694845782679,0.007179299835115671,0.0008272860432043672,0.6744021773338318,0.0,-0.0,0.0,0.0,0.0,0.0
1782664400,4075357,-1.6561268011676233,0.12927722930908203,-1.5218694845782679,0.007119379006326199,0.0008153018425218761,0.6744141578674316,0.0,-0.0,0.0,0.0,0.0,0.0
1782664400,19932272,-1.6561387220965784,0.1293010711669922,-1.5218337217914026,0.007131362799555063,0.0007909588748589158,0.674462080001831,0.0,-0.0,0.0,0.0,0.0,0.0
1782664400,35912114,-1.65611440340151,0.12926530838012695,-1.5218575636493128,0.007131362799555063,0.0007909588748589158,0.6744500994682312,0.0,-0.0,0.0,0.0,0.0,0.0
1782664400,43909071,-1.65611440340151,0.12927722930908203,-1.521881405507223,0.007131362799555063,0.0007909588748589158,0.6744261384010315,0.0,-0.0,0.0,0.0,0.0,0.0
1782664400,51970881,-1.6560667196856897,0.12926530838012695,-1.5218337217914026,0.007167315576225519,0.0008272860432043672,0.6744500994682312,0.0,-0.0,0.0,0.0,0.0,0.0
1782664400,59883135,-1.6561268011676233,0.1293010711669922,-1.5218337217914026,0.007131362799555063,0.0007669904152862728,0.6744261384010315,0.0,-0.0,0.0,0.0,0.0,0.0
1782664400,67878964,-1.6561387220965784,0.12922906875610352,-1.5218094030963343,0.007143347058445215,0.0008272860432043672,0.6744500994682312,0.0,-0.0,0.0,0.0,0.0,0.0
1782664400,75878625,-1.65611440340151,0.1292891502380371,-1.5218213240252894,0.007095410488545895,0.0008392703020945191,0.6744381189346313,0.0,-0.0,0.0,0.0,0.0,0.0
1782664400,83878787,-1.6560905615436,0.1293010711669922,-1.5217974821673792,0.007119379006326199,0.0008153018425218761,0.6744261384010315,0.0,-0.0,0.0,0.0,0.0,0.0
1782664400,91941060,-1.65611440340151,0.12927722930908203,-1.5218575636493128,0.007107394747436047,0.0008512545027770102,0.6744500994682312,0.0,-0.0,0.0,0.0,0.0,0.0
1782664400,99878869,-1.6561268011676233,0.1292891502380371,-1.5218694845782679,0.007155331317335367,0.0007909588748589158,0.6744021773338318,0.0,-0.0,0.0,0.0,0.0,0.0
1782664400,107874901,-1.6561268011676233,0.12922906875610352,-1.5218456427203577,0.007119379006326199,0.0008033175836317241,0.6744740605354309,0.0,-0.0,0.0,0.0,0.0,0.0
1782664400,115881211,-1.65611440340151,0.12926530838012695,-1.5218213240252894,0.007119379006326199,0.0008512545027770102,0.6744021773338318,0.0,-0.0,0.0,0.0,0.0,0.0
1782664400,123878151,-1.656102482472555,0.1292891502380371,-1.5218575636493128,0.007107394747436047,0.0008272860432043672,0.6744500994682312,0.0,-0.0,0.0,0.0,0.0,0.0
1782664400,131881608,-1.6561268011676233,0.12931299209594727,-1.5218456427203577,0.007155331317335367,0.0007909588748589158,0.6744261384010315,0.0,-0.0,0.0,0.0,0.0,0.0
1782664400,139887511,-1.6561268011676233,0.1293010711669922,-1.5217974821673792,0.007155331317335367,0.0008392703020945191,0.6744381189346313,0.0,-0.0,0.0,0.0,0.0,0.0
1782664400,147886432,-1.656102482472555,0.1292414665222168,-1.5218337217914026,0.007131362799555063,0.0008272860432043672,0.6744141578674316,0.0,-0.0,0.0,0.0,0.0,0.0
1782664400,155875019,-1.65611440340151,0.1292891502380371,-1.5218094030963343,0.007131362799555063,0.0007909588748589158,0.6744021773338318,0.0,-0.0,0.0,0.0,0.0,0.0
