LukePepin/On-Edge/data/archived_logs/deceleration_data_1782664737.csv
timestamp_sec,timestamp_nanosec,shoulder_pan_pos,shoulder_lift_pos,elbow_pos,wrist_1_pos,wrist_2_pos,wrist_3_pos,shoulder_pan_vel,shoulder_lift_vel,elbow_vel,wrist_1_vel,wrist_2_vel,wrist_3_vel
1782664737,426436560,-1.65611440340151,0.1293492317199707,-1.5218337217914026,0.00703586358577013,0.0008272860432043672,0.6744021773338318,0.0,-0.0,0.0,0.0,0.0,0.0
1782664737,431771691,-1.65611440340151,0.1293492317199707,-1.5218337217914026,0.00703586358577013,0.0008272860432043672,0.6744021773338318,0.0,-0.0,0.0,0.0,0.0,0.0
1782664737,438715413,-1.6562226454364222,0.1292891502380371,-1.521881405507223,0.007119379006326199,0.0008512545027770102,0.6743901968002319,0.0,-0.0,0.0,0.0,0.0,0.0
1782664737,446567014,-1.6561864058123987,0.1293010711669922,-1.5218337217914026,0.007071441970765591,0.0007909588748589158,0.6743901968002319,0.0,-0.0,0.0,0.0,0.0,0.0
1782664737,454392986,-1.6561864058123987,0.1293010711669922,-1.5218694845782679,0.007095410488545895,0.0008153018425218761,0.6744021773338318,0.0,-0.0,0.0,0.0,0.0,0.0
1782664737,462412664,-1.6561744848834437,0.12926530838012695,-1.5218456427203577,0.007071441970765591,0.0008153018425218761,0.6743901968002319,0.0,-0.0,0.0,0.0,0.0,0.0
1782664737,470404934,-1.6561744848834437,0.12932491302490234,-1.5217974821673792,0.007059832103550434,0.0007789746159687638,0.6743542551994324,0.0,-0.0,0.0,0.0,0.0,0.0
1782664737,478411371,-1.6561983267413538,0.1293492317199707,-1.5218094030963343,0.007083426229655743,0.0008272860432043672,0.6744021773338318,0.0,-0.0,0.0,0.0,0.0,0.0
1782664737,486404641,-1.6561625639544886,0.1293492317199707,-1.5218694845782679,0.007083426229655743,0.0008392703020945191,0.6743662357330322,0.0,-0.0,0.0,0.0,0.0,0.0
1782664737,494438856,-1.6561268011676233,0.1293492317199707,-1.5218575636493128,0.007083426229655743,0.0008512545027770102,0.6743542551994324,0.0,-0.0,0.0,0.0,0.0,0.0
1782664737,502402626,-1.6561983267413538,0.1293010711669922,-1.5218575636493128,0.00703586358577013,0.0007909588748589158,0.6743662357330322,0.0,-0.0,0.0,0.0,0.0,0.0
1782664737,510400025,-1.6561983267413538,0.12932491302490234,-1.5218456427203577,0.007059832103550434,0.0008033175836317241,0.6743662357330322,0.0,-0.0,0.0,0.0,0.0,0.0
1782664737,518394740,-1.6561625639544886,0.1292891502380371,-1.5218575636493128,0.007083426229655743,0.0008512545027770102,0.6743901968002319,0.0,-0.0,0.0,0.0,0.0,0.0
1782664737,526422695,-1.6561983267413538,0.12933731079101562,-1.5218456427203577,0.007047847844660282,0.0008512545027770102,0.674318253993988,0.0,-0.0,0.0,0.0,0.0,0.0
1782664737,534383243,-1.6561625639544886,0.12927722930908203,-1.5218575636493128,0.007131362799555063,0.0007909588748589158,0.674318253993988,0.0,-0.0,0.0,0.0,0.0,0.0
1782664737,542411254,-1.6561864058123987,0.1293010711669922,-1.5219176451312464,0.007059832103550434,0.0008033175836317241,0.6744141578674316,0.0,-0.0,0.0,0.0,0.0,0.0
1782664737,550388931,-1.6561744848834437,0.12927722930908203,-1.5218337217914026,0.007071441970765591,0.0007789746159687638,0.6743782162666321,0.0,-0.0,0.0,0.0,0.0,0.0
1782664737,558417368,-1.6561744848834437,0.12926530838012695,-1.5218575636493128,0.007047847844660282,0.0008153018425218761,0.6743422150611877,0.0,-0.0,0.0,0.0,0.0,0.0
1782664737,566382045,-1.6561268011676233,0.12931299209594727,-1.521881405507223,0.007083426229655743,0.0007789746159687638,0.6744021773338318,0.0,-0.0,0.0,0.0,0.0,0.0
1782664737,574393112,-1.6561625639544886,0.12931299209594727,-1.5218337217914026,0.007059832103550434,0.0008033175836317241,0.6743662357330322,0.0,-0.0,0.0,0.0,0.0,0.0
1782664737,582385623,-1.6561387220965784,0.12932491302490234,-1.5218694845782679,0.007083426229655743,0.0007909588748589158,0.6743422150611877,0.0,-0.0,0.0,0.0,0.0,0.0
1782664737,590381967,-1.6561864058123987,0.12931299209594727,-1.5218694845782679,0.007059832103550434,0.0008512545027770102,0.674318253993988,0.0,-0.0,0.0,0.0,0.0,0.0
1782664737,598381237,-1.6561744848834437,0.1292891502380371,-1.5218694845782679,0.007011895067989826,0.0008272860432043672,0.6743782162666321,0.0,-0.0,0.0,0.0,0.0,0.0
1782664737,606388229,-1.6561983267413538,0.1293010711669922,-1.5218694845782679,0.007095410488545895,0.0007909588748589158,0.6743062734603882,0.0,-0.0,0.0,0.0,0.0,0.0
1782664737,614390462,-1.6561864058123987,0.12932491302490234,-1.521893326436178,0.007059832103550434,0.0007909588748589158,0.6743422150611877,0.0,-0.0,0.0,0.0,0.0,0.0
1782664737,622390954,-1.6561625639544886,0.1292891502380371,-1.5218213240252894,0.00703586358577013,0.0007909588748589158,0.6743542551994324,0.0,-0.0,0.0,0.0,0.0,0.0
1782664737,630374891,-1.6561387220965784,0.12931299209594727,-1.5217974821673792,0.0069999112747609615,0.0008272860432043672,0.6743901968002319,0.0,-0.0,0.0,0.0,0.0,0.0
1782664737,638403513,-1.6561268011676233,0.1292891502380371,-1.521893326436178,0.007071441970765591,0.0008153018425218761,0.6743782162666321,0.0,-0.0,0.0,0.0,0.0,0.0
1782664737,646390468,-1.656210724507467,0.12927722930908203,-1.5218456427203577,0.007095410488545895,0.0008033175836317241,0.6743901968002319,0.0,-0.0,0.0,0.0,0.0,0.0
1782664737,654403553,-1.6561506430255335,0.1292891502380371,-1.521773640309469,0.007107394747436047,0.0008272860432043672,0.6744021773338318,0.0,-0.0,0.0,0.0,0.0,0.0
1782664737,662388397,-1.6562226454364222,0.1293010711669922,-1.5218337217914026,0.007023879326879978,0.0007909588748589158,0.6743542551994324,0.0,-0.0,0.0,0.0,0.0,0.0
1782664737,670399945,-1.6561387220965784,0.12927722930908203,-1.5218575636493128,0.007059832103550434,0.0008512545027770102,0.6744141578674316,0.0,-0.0,0.0,0.0,0.0,0.0
1782664737,678401271,-1.6561625639544886,0.12933731079101562,-1.5218694845782679,0.00703586358577013,0.0008392703020945191,0.6743542551994324,0.0,-0.0,0.0,0.0,0.0,0.0
1782664737,686386004,-1.6561625639544886,0.12933731079101562,-1.5218456427203577,0.007047847844660282,0.0008272860432043672,0.6744261384010315,0.0,-0.0,0.0,0.0,0.0,0.0
1782664737,694422145,-1.6561864058123987,0.12933731079101562,-1.5218337217914026,0.007023879326879978,0.0008153018425218761,0.6743542551994324,0.0,-0.0,0.0,0.0,0.0,0.0
1782664737,702410693,-1.6561744848834437,0.1293010711669922,-1.5218456427203577,0.007071441970765591,0.0008033175836317241,0.6743782162666321,0.0,-0.0,0.0,0.0,0.0,0.0
1782664737,710391814,-1.6561268011676233,0.12932491302490234,-1.5218456427203577,0.007059832103550434,0.0007909588748589158,0.6743422150611877,0.0,-0.0,0.0,0.0,0.0,0.0
1782664737,718378306,-1.6561983267413538,0.1293010711669922,-1.5218094030963343,0.007047847844660282,0.0008033175836317241,0.6743901968002319,0.0,-0.0,0.0,0.0,0.0,0.0
1782664737,726421484,-1.6561506430255335,0.1293010711669922,-1.5218694845782679,0.00703586358577013,0.0008272860432043672,0.6743542551994324,0.0,-0.0,0.0,0.0,0.0,0.0
1782664737,734373680,-1.6561506430255335,0.12933731079101562,-1.5218694845782679,0.007059832103550434,0.0007789746159687638,0.6743901968002319,0.0,-0.0,0.0,0.0,0.0,0.0
1782664737,742489173,-1.6561625639544886,0.12926530838012695,-1.5218694845782679,0.007071441970765591,0.0008272860432043672,0.6743662357330322,0.0,-0.0,0.0,0.0,0.0,0.0
1782664737,751367934,-1.6561387220965784,0.12931299209594727,-1.521905247365133,0.007071441970765591,0.0008153018425218761,0.6743901968002319,0.0,-0.0,0.0,0.0,0.0,0.0
1782664737,761374059,-1.6561864058123987,0.12932491302490234,-1.5218213240252894,0.007071441970765591,0.0008272860432043672,0.6743782162666321,0.0,-0.0,0.0,0.0,0.0,0.0
1782664737,790450664,-1.6561744848834437,0.12933731079101562,-1.5218456427203577,0.007047847844660282,0.0008512545027770102,0.6743782162666321,0.0,-0.0,0.0,0.0,0.0,0.0
1782664737,798460767,-1.6561744848834437,0.12927722930908203,-1.5218337217914026,0.00703586358577013,0.0008392703020945191,0.6743901968002319,0.0,-0.0,0.0,0.0,0.0,0.0
1782664737,822815693,-1.6561864058123987,0.1293010711669922,-1.5218213240252894,0.007047847844660282,0.0008033175836317241,0.6743782162666321,0.0,-0.0,0.0,0.0,0.0,0.0
1782664737,833549010,-1.6561625639544886,0.12933731079101562,-1.5218575636493128,0.007083426229655743,0.0008392703020945191,0.6743901968002319,0.0,-0.0,0.0,0.0,0.0,0.0
1782664737,846383683,-1.6561625639544886,0.12931299209594727,-1.5217974821673792,0.007071441970765591,0.0008392703020945191,0.6743662357330322,0.0,-0.0,0.0,0.0,0.0,0.0
1782664737,862382464,-1.6561625639544886,0.12933731079101562,-1.5218575636493128,0.007083426229655743,0.0007909588748589158,0.6743782162666321,0.0,-0.0,0.0,0.0,0.0,0.0
1782664737,870530403,-1.6561268011676233,0.12926530838012695,-1.5218456427203577,0.007059832103550434,0.0008033175836317241,0.6743422150611877,0.0,-0.0,0.0,0.0,0.0,0.0
1782664737,878373375,-1.6561625639544886,0.12926530838012695,-1.5218575636493128,0.00703586358577013,0.0007909588748589158,0.6744141578674316,0.0,-0.0,0.0,0.0,0.0,0.0
1782664737,887761474,-1.6561506430255335,0.12931299209594727,-1.5218213240252894,0.007059832103550434,0.0008272860432043672,0.6744141578674316,0.0,-0.0,0.0,0.0,0.0,0.0
1782664737,894362656,-1.6561625639544886,0.1293010711669922,-1.5218094030963343,0.007083426229655743,0.0008632387034595013,0.6743662357330322,0.0,-0.0,0.0,0.0,0.0,0.0
1782664737,902386574,-1.6561625639544886,0.1292891502380371,-1.5217855612384241,0.007095410488545895,0.0008632387034595013,0.6743422150611877,0.0,-0.0,0.0,0.0,0.0,0.0
1782664737,918635339,-1.6562226454364222,0.12931299209594727,-1.5217974821673792,0.007059832103550434,0.0008033175836317241,0.6743422150611877,0.0,-0.0,0.0,0.0,0.0,0.0
1782664737,934442970,-1.6561625639544886,0.12926530838012695,-1.521893326436178,0.007071441970765591,0.0008153018425218761,0.6743782162666321,0.0,-0.0,0.0,0.0,0.0,0.0
1782664737,942393036,-1.65611440340151,0.12927722930908203,-1.5218575636493128,0.007095410488545895,0.0008153018425218761,0.6743662357330322,0.0,-0.0,0.0,0.0,0.0,0.0
1782664737,950391602,-1.6561387220965784,0.12931299209594727,-1.5218575636493128,0.007059832103550434,0.0008512545027770102,0.6743782162666321,0.0,-0.0,0.0,0.0,0.0,0.0
1782664737,958381168,-1.6561506430255335,0.12932491302490234,-1.5218337217914026,0.007059832103550434,0.0008272860432043672,0.6743662357330322,0.0,-0.0,0.0,0.0,0.0,0.0
1782664737,969058504,-1.6561625639544886,0.1293010711669922,-1.5218575636493128,0.007059832103550434,0.0008033175836317241,0.6743782162666321,0.0,-0.0,0.0,0.0,0.0,0.0
1782664737,974404190,-1.6561268011676233,0.12932491302490234,-1.5217974821673792,0.007023879326879978,0.0007909588748589158,0.6744261384010315,0.0,-0.0,0.0,0.0,0.0,0.0
1782664737,982389127,-1.6561268011676233,0.1293010711669922,-1.5218337217914026,0.007047847844660282,0.0008632387034595013,0.6743901968002319,0.0,-0.0,0.0,0.0,0.0,0.0
1782664738,7766544,-1.6561625639544886,0.1293010711669922,-1.521905247365133,0.007059832103550434,0.0008153018425218761,0.6744021773338318,0.0,-0.0,0.0,0.0,0.0,0.0
1782664738,14376300,-1.6561625639544886,0.1293010711669922,-1.5218456427203577,0.007023879326879978,0.0008033175836317241,0.674318253993988,0.0,-0.0,0.0,0.0,0.0,0.0
1782664738,22576868,-1.6561864058123987,0.1293010711669922,-1.5218213240252894,0.007095410488545895,0.0008512545027770102,0.6743662357330322,0.0,-0.0,0.0,0.0,0.0,0.0
1782664738,30387618,-1.6561625639544886,0.12932491302490234,-1.5218575636493128,0.007059832103550434,0.0008153018425218761,0.6743542551994324,0.0,-0.0,0.0,0.0,0.0,0.0
1782664738,38388258,-1.6561864058123987,0.1293010711669922,-1.5218575636493128,0.007047847844660282,0.0008632387034595013,0.6744141578674316,0.0,-0.0,0.0,0.0,0.0,0.0
1782664738,46392510,-1.6561387220965784,0.1293010711669922,-1.5218575636493128,0.007083426229655743,0.0008033175836317241,0.6744021773338318,0.0,-0.0,0.0,0.0,0.0,0.0
1782664738,54406466,-1.6561506430255335,0.12927722930908203,-1.521881405507223,0.007071441970765591,0.0008272860432043672,0.6743901968002319,0.0,-0.0,0.0,0.0,0.0,0.0
1782664738,62467181,-1.6561268011676233,0.12927722930908203,-1.5218456427203577,0.007083426229655743,0.0008153018425218761,0.6743422150611877,0.0,-0.0,0.0,0.0,0.0,0.0
1782664738,70380080,-1.6561744848834437,0.12927722930908203,-1.5218456427203577,0.007059832103550434,0.0008033175836317241,0.6743782162666321,0.0,-0.0,0.0,0.0,0.0,0.0
1782664738,78603537,-1.6561744848834437,0.1292891502380371,-1.5218094030963343,0.007083426229655743,0.0007909588748589158,0.6743782162666321,0.0,-0.0,0.0,0.0,0.0,0.0
1782664738,86484473,-1.6561387220965784,0.1292891502380371,-1.5218575636493128,0.007059832103550434,0.0008272860432043672,0.6743302345275879,0.0,-0.0,0.0,0.0,0.0,0.0
1782664738,94382946,-1.6561864058123987,0.12931299209594727,-1.5218694845782679,0.007059832103550434,0.0008272860432043672,0.6743782162666321,0.0,-0.0,0.0,0.0,0.0,0.0
1782664738,102376308,-1.6561744848834437,0.12927722930908203,-1.521905247365133,0.00703586358577013,0.0008272860432043672,0.6743542551994324,0.0,-0.0,0.0,0.0,0.0,0.0
1782664738,110752897,-1.6561744848834437,0.12936115264892578,-1.5218094030963343,0.007047847844660282,0.0007789746159687638,0.6743901968002319,0.0,-0.0,0.0,0.0,0.0,0.0
1782664738,118543202,-1.6561625639544886,0.1293010711669922,-1.5218337217914026,0.007047847844660282,0.0007789746159687638,0.6743662357330322,0.0,-0.0,0.0,0.0,0.0,0.0
1782664738,126376786,-1.6561506430255335,0.1293010711669922,-1.5218456427203577,0.007071441970765591,0.0008272860432043672,0.6743662357330322,0.0,-0.0,0.0,0.0,0.0,0.0
1782664738,134371167,-1.6561625639544886,0.1293010711669922,-1.5218694845782679,0.007071441970765591,0.0007909588748589158,0.6744261384010315,0.0,-0.0,0.0,0.0,0.0,0.0
1782664738,142383437,-1.6562226454364222,0.12932491302490234,-1.5218337217914026,0.00703586358577013,0.0008033175836317241,0.6743901968002319,0.0,-0.0,0.0,0.0,0.0,0.0
1782664738,150561246,-1.6561744848834437,0.12933731079101562,-1.5218213240252894,0.007071441970765591,0.0008392703020945191,0.6743542551994324,0.0,-0.0,0.0,0.0,0.0,0.0
1782664738,158385163,-1.6561744848834437,0.12926530838012695,-1.5218456427203577,0.007071441970765591,0.0008153018425218761,0.6743662357330322,0.0,-0.0,0.0,0.0,0.0,0.0
1782664738,166378396,-1.6561625639544886,0.12933731079101562,-1.5218575636493128,0.007083426229655743,0.0008153018425218761,0.6743782162666321,0.0,-0.0,0.0,0.0,0.0,0.0
1782664738,174378370,-1.65611440340151,0.12927722930908203,-1.521893326436178,0.007083426229655743,0.0008033175836317241,0.6743542551994324,0.0,-0.0,0.0,0.0,0.0,0.0
1782664738,190400892,-1.6561983267413538,0.12933731079101562,-1.5218337217914026,0.007107394747436047,0.0008392703020945191,0.6743422150611877,0.0,-0.0,0.0,0.0,0.0,0.0
1782664738,198386013,-1.6561744848834437,0.12925338745117188,-1.5218575636493128,0.007083426229655743,0.0008153018425218761,0.6744021773338318,0.0,-0.0,0.0,0.0,0.0,0.0
1782664738,206507433,-1.6561744848834437,0.12931299209594727,-1.5218456427203577,0.007083426229655743,0.0008153018425218761,0.6744381189346313,0.0,-0.0,0.0,0.0,0.0,0.0
1782664738,214409961,-1.6561983267413538,0.12931299209594727,-1.5218575636493128,0.007071441970765591,0.0008392703020945191,0.6743542551994324,0.0,-0.0,0.0,0.0,0.0,0.0
1782664738,222381120,-1.6561268011676233,0.1293010711669922,-1.5218456427203577,0.007047847844660282,0.0007909588748589158,0.6743901968002319,0.0,-0.0,0.0,0.0,0.0,0.0
1782664738,230419854,-1.6561744848834437,0.1293492317199707,-1.5218456427203577,0.00703586358577013,0.0008153018425218761,0.6743662357330322,0.0,-0.0,0.0,0.0,0.0,0.0
1782664738,238389049,-1.6561625639544886,0.1293010711669922,-1.5218337217914026,0.007023879326879978,0.0008272860432043672,0.6743662357330322,0.0,-0.0,0.0,0.0,0.0,0.0
1782664738,246543081,-1.6562345663653772,0.1293010711669922,-1.5218094030963343,0.007023879326879978,0.0008033175836317241,0.6743422150611877,0.0,-0.0,0.0,0.0,0.0,0.0
1782664738,254370293,-1.6561744848834437,0.12927722930908203,-1.5218694845782679,0.007071441970765591,0.0008033175836317241,0.6743782162666321,0.0,-0.0,0.0,0.0,0.0,0.0
1782664738,262377045,-1.6561506430255335,0.12927722930908203,-1.5218337217914026,0.007071441970765591,0.0008272860432043672,0.6743542551994324,0.0,-0.0,0.0,0.0,0.0,0.0
1782664738,270399019,-1.6561506430255335,0.1293492317199707,-1.5218213240252894,0.007083426229655743,0.0008392703020945191,0.674318253993988,0.0,-0.0,0.0,0.0,0.0,0.0
1782664738,278369882,-1.6561625639544886,0.12932491302490234,-1.5218337217914026,0.007059832103550434,0.0008512545027770102,0.6743542551994324,0.0,-0.0,0.0,0.0,0.0,0.0
1782664738,286584691,-1.6561744848834437,0.12931299209594727,-1.5218694845782679,0.00703586358577013,0.0008153018425218761,0.6744021773338318,0.0,-0.0,0.0,0.0,0.0,0.0
1782664738,294578035,-1.6561625639544886,0.1292891502380371,-1.5218337217914026,0.007083426229655743,0.0007909588748589158,0.6743782162666321,0.0,-0.0,0.0,0.0,0.0,0.0
1782664738,302417230,-1.6561268011676233,0.1293010711669922,-1.5218694845782679,0.007083426229655743,0.0008392703020945191,0.6743662357330322,0.0,-0.0,0.0,0.0,0.0,0.0
1782664738,310488130,-1.6561983267413538,0.12933731079101562,-1.521893326436178,0.007059832103550434,0.0008153018425218761,0.6743542551994324,0.0,-0.0,0.0,0.0,0.0,0.0
1782664738,318375436,-1.6561506430255335,0.1293010711669922,-1.5218456427203577,0.00703586358577013,0.0008033175836317241,0.6743901968002319,0.0,-0.0,0.0,0.0,0.0,0.0
1782664738,326369947,-1.65611440340151,0.12927722930908203,-1.5218575636493128,0.007071441970765591,0.0008033175836317241,0.6744141578674316,0.0,-0.0,0.0,0.0,0.0,0.0
1782664738,334423310,-1.6561625639544886,0.1293492317199707,-1.5218694845782679,0.007059832103550434,0.0008153018425218761,0.6743422150611877,0.0,-0.0,0.0,0.0,0.0,0.0
1782664738,342370265,-1.6561983267413538,0.12931299209594727,-1.5218337217914026,0.007095410488545895,0.0008153018425218761,0.6743662357330322,0.0,-0.0,0.0,0.0,0.0,0.0
1782664738,350377906,-1.6561387220965784,0.1292891502380371,-1.5218213240252894,0.007023879326879978,0.0007909588748589158,0.6743422150611877,0.0,-0.0,0.0,0.0,0.0,0.0
1782664738,358379046,-1.6561268011676233,0.12925338745117188,-1.5218213240252894,0.007047847844660282,0.0008392703020945191,0.6744021773338318,0.0,-0.0,0.0,0.0,0.0,0.0
1782664738,366465188,-1.6561744848834437,0.1292891502380371,-1.521893326436178,0.00703586358577013,0.0008272860432043672,0.6743542551994324,0.0,-0.0,0.0,0.0,0.0,0.0
1782664738,374443143,-1.6561268011676233,0.12931299209594727,-1.5218213240252894,0.00703586358577013,0.0007909588748589158,0.6743422150611877,0.0,-0.0,0.0,0.0,0.0,0.0
1782664738,382442950,-1.6561268011676233,0.12932491302490234,-1.521881405507223,0.007023879326879978,0.0007789746159687638,0.6744381189346313,0.0,-0.0,0.0,0.0,0.0,0.0
1782664738,390378182,-1.6561625639544886,0.12931299209594727,-1.5218337217914026,0.007083426229655743,0.0008272860432043672,0.6743901968002319,0.0,-0.0,0.0,0.0,0.0,0.0
1782664738,398384749,-1.6561864058123987,0.12931299209594727,-1.521893326436178,0.007083426229655743,0.0007909588748589158,0.6743422150611877,0.0,-0.0,0.0,0.0,0.0,0.0
1782664738,406393704,-1.6561387220965784,0.1293010711669922,-1.5218456427203577,0.007107394747436047,0.0008272860432043672,0.674318253993988,0.0,-0.0,0.0,0.0,0.0,0.0
1782664738,414374326,-1.6561387220965784,0.1293010711669922,-1.5218694845782679,0.007071441970765591,0.0008392703020945191,0.6744141578674316,0.0,-0.0,0.0,0.0,0.0,0.0
1782664738,422381041,-1.6561983267413538,0.1293010711669922,-1.5218575636493128,0.007119379006326199,0.0007909588748589158,0.6744141578674316,0.0,-0.0,0.0,0.0,0.0,0.0
1782664738,430374237,-1.6561625639544886,0.1292891502380371,-1.5218213240252894,0.007011895067989826,0.0008272860432043672,0.6744021773338318,0.0,-0.0,0.0,0.0,0.0,0.0
1782664738,438376044,-1.6561864058123987,0.12931299209594727,-1.5218575636493128,0.007131362799555063,0.0008392703020945191,0.6743302345275879,0.0,-0.0,0.0,0.0,0.0,0.0
1782664738,446374611,-1.6561744848834437,0.1292891502380371,-1.5218456427203577,0.007107394747436047,0.0007909588748589158,0.6744021773338318,0.0,-0.0,0.0,0.0,0.0,0.0
1782664738,454575994,-1.6562345663653772,0.12931299209594727,-1.5218575636493128,0.007059832103550434,0.0007669904152862728,0.6743901968002319,0.0,-0.0,0.0,0.0,0.0,0.0
1782664738,462697099,-1.6561744848834437,0.12933731079101562,-1.5218456427203577,0.007059832103550434,0.0007909588748589158,0.6743542551994324,0.0,-0.0,0.0,0.0,0.0,0.0
1782664738,470483478,-1.65611440340151,0.12927722930908203,-1.5217855612384241,0.007059832103550434,0.0008153018425218761,0.6743901968002319,0.0,-0.0,0.0,0.0,0.0,0.0
1782664738,478711176,-1.6561625639544886,0.1293010711669922,-1.5217855612384241,0.007119379006326199,0.0008512545027770102,0.6743782162666321,0.0,-0.0,0.0,0.0,0.0,0.0
1782664738,486636538,-1.6561387220965784,0.12932491302490234,-1.5218337217914026,0.007071441970765591,0.0008392703020945191,0.6743542551994324,0.0,-0.0,0.0,0.0,0.0,0.0
1782664738,494417732,-1.6561506430255335,0.12926530838012695,-1.521881405507223,0.007083426229655743,0.0007909588748589158,0.6743302345275879,0.0,-0.0,0.0,0.0,0.0,0.0
1782664738,502373465,-1.6561744848834437,0.12932491302490234,-1.5218456427203577,0.007071441970765591,0.0007669904152862728,0.6743782162666321,0.0,-0.0,0.0,0.0,0.0,0.0
1782664738,510375161,-1.6561268011676233,0.12931299209594727,-1.5218456427203577,0.007059832103550434,0.0008033175836317241,0.6743901968002319,0.0,-0.0,0.0,0.0,0.0,0.0
1782664738,518602878,-1.6561506430255335,0.12932491302490234,-1.5218456427203577,0.007083426229655743,0.0007909588748589158,0.6743542551994324,0.0,-0.0,0.0,0.0,0.0,0.0
1782664738,526374849,-1.6561864058123987,0.1293010711669922,-1.5218337217914026,0.007083426229655743,0.0007909588748589158,0.6743542551994324,0.0,-0.0,0.0,0.0,0.0,0.0
1782664738,534371249,-1.6561387220965784,0.1293010711669922,-1.5218575636493128,0.007023879326879978,0.0008392703020945191,0.6743422150611877,0.0,-0.0,0.0,0.0,0.0,0.0
1782664738,542588595,-1.6561625639544886,0.12926530838012695,-1.5218213240252894,0.007059832103550434,0.0008272860432043672,0.6743542551994324,0.0,-0.0,0.0,0.0,0.0,0.0
1782664738,550370049,-1.6561268011676233,0.12927722930908203,-1.5218337217914026,0.007023879326879978,0.0008033175836317241,0.6744141578674316,0.0,-0.0,0.0,0.0,0.0,0.0
1782664738,558451783,-1.6561506430255335,0.12927722930908203,-1.5218456427203577,0.007059832103550434,0.0008392703020945191,0.6744141578674316,0.0,-0.0,0.0,0.0,0.0,0.0
1782664738,574588695,-1.6561744848834437,0.1292891502380371,-1.5218575636493128,0.007047847844660282,0.0008392703020945191,0.6743542551994324,0.0,-0.0,0.0,0.0,0.0,0.0
1782664738,584162630,-1.6561506430255335,0.1293010711669922,-1.5218213240252894,0.007059832103550434,0.0008153018425218761,0.6743662357330322,0.0,-0.0,0.0,0.0,0.0,0.0
1782664738,592343142,-1.6561864058123987,0.12932491302490234,-1.5218094030963343,0.007071441970765591,0.0008033175836317241,0.6743782162666321,0.0,-0.0,0.0,0.0,0.0,0.0
1782664738,598586672,-1.6561744848834437,0.1292891502380371,-1.5218456427203577,0.007071441970765591,0.0008392703020945191,0.6743542551994324,0.0,-0.0,0.0,0.0,0.0,0.0
1782664738,606743555,-1.6561983267413538,0.12933731079101562,-1.5218694845782679,0.007071441970765591,0.0008153018425218761,0.6743302345275879,0.0,-0.0,0.0,0.0,0.0,0.0
1782664738,614587657,-1.6561864058123987,0.1293010711669922,-1.5218575636493128,0.007083426229655743,0.0008272860432043672,0.6743901968002319,0.0,-0.0,0.0,0.0,0.0,0.0
1782664738,623259730,-1.6561744848834437,0.1293010711669922,-1.5218575636493128,0.007047847844660282,0.0008153018425218761,0.6743422150611877,0.0,-0.0,0.0,0.0,0.0,0.0
1782664738,632632626,-1.6561268011676233,0.12932491302490234,-1.5218575636493128,0.007023879326879978,0.0008512545027770102,0.6743662357330322,0.0,-0.0,0.0,0.0,0.0,0.0
1782664738,641831890,-1.6561864058123987,0.12932491302490234,-1.5218575636493128,0.007023879326879978,0.0008033175836317241,0.6743782162666321,0.0,-0.0,0.0,0.0,0.0,0.0
1782664738,646418939,-1.656210724507467,0.1292891502380371,-1.5218337217914026,0.007059832103550434,0.0007909588748589158,0.6744141578674316,0.0,-0.0,0.0,0.0,0.0,0.0
1782664738,654570822,-1.6561744848834437,0.12926530838012695,-1.521893326436178,0.007059832103550434,0.0008033175836317241,0.6743782162666321,0.0,-0.0,0.0,0.0,0.0,0.0
1782664738,662366979,-1.6561506430255335,0.1293492317199707,-1.5218213240252894,0.007059832103550434,0.0007789746159687638,0.6743901968002319,0.0,-0.0,0.0,0.0,0.0,0.0
1782664738,670381249,-1.6561864058123987,0.1293492317199707,-1.5218694845782679,0.007047847844660282,0.0008153018425218761,0.6743662357330322,0.0,-0.0,0.0,0.0,0.0,0.0
1782664738,678378112,-1.656210724507467,0.12933731079101562,-1.5218575636493128,0.007047847844660282,0.0007909588748589158,0.6743901968002319,0.0,-0.0,0.0,0.0,0.0,0.0
1782664738,686390493,-1.6561625639544886,0.1293010711669922,-1.5218575636493128,0.00703586358577013,0.0008392703020945191,0.6743782162666321,0.0,-0.0,0.0,0.0,0.0,0.0
1782664738,694388856,-1.6561983267413538,0.1292891502380371,-1.5218213240252894,0.007011895067989826,0.0008272860432043672,0.6743662357330322,0.0,-0.0,0.0,0.0,0.0,0.0
1782664738,702405108,-1.6561268011676233,0.12932491302490234,-1.5218456427203577,0.007083426229655743,0.0008153018425218761,0.6743422150611877,0.0,-0.0,0.0,0.0,0.0,0.0
1782664738,710424915,-1.65611440340151,0.12926530838012695,-1.5218575636493128,0.007083426229655743,0.0008392703020945191,0.6743422150611877,0.0,-0.0,0.0,0.0,0.0,0.0
1782664738,718397648,-1.6561506430255335,0.1293010711669922,-1.5218337217914026,0.007071441970765591,0.0008153018425218761,0.6743662357330322,0.0,-0.0,0.0,0.0,0.0,0.0
1782664738,726431289,-1.6561506430255335,0.12931299209594727,-1.5217974821673792,0.0069999112747609615,0.0007789746159687638,0.6743662357330322,0.0,-0.0,0.0,0.0,0.0,0.0
1782664738,734439744,-1.6561506430255335,0.12931299209594727,-1.521881405507223,0.007071441970765591,0.0008153018425218761,0.6743422150611877,0.0,-0.0,0.0,0.0,0.0,0.0
1782664738,742378014,-1.6561864058123987,0.12931299209594727,-1.521881405507223,0.007083426229655743,0.0007789746159687638,0.6743782162666321,0.0,-0.0,0.0,0.0,0.0,0.0
1782664738,761660108,-1.6561625639544886,0.12925338745117188,-1.5218337217914026,0.007071441970765591,0.0008272860432043672,0.6743422150611877,0.0,-0.0,0.0,0.0,0.0,0.0
1782664738,765453074,-1.6561625639544886,0.12931299209594727,-1.5218575636493128,0.007071441970765591,0.0008272860432043672,0.6743782162666321,0.0,-0.0,0.0,0.0,0.0,0.0
1782664738,770437349,-1.6561625639544886,0.12931299209594727,-1.5218575636493128,0.007071441970765591,0.0008272860432043672,0.6743782162666321,0.0,-0.0,0.0,0.0,0.0,0.0
1782664738,774443577,-1.656210724507467,0.12931299209594727,-1.5218575636493128,0.007071441970765591,0.0008153018425218761,0.6743782162666321,0.0,-0.0,0.0,0.0,0.0,0.0
1782664738,782371272,-1.6561268011676233,0.12932491302490234,-1.5218337217914026,0.00703586358577013,0.0008153018425218761,0.6743782162666321,0.0,-0.0,0.0,0.0,0.0,0.0
1782664738,790426858,-1.65611440340151,0.1293010711669922,-1.5218456427203577,0.00703586358577013,0.0007909588748589158,0.6744021773338318,0.0,-0.0,0.0,0.0,0.0,0.0
1782664738,798389016,-1.6561983267413538,0.12927722930908203,-1.5218575636493128,0.007059832103550434,0.0008392703020945191,0.6743782162666321,0.0,-0.0,0.0,0.0,0.0,0.0
1782664738,806381583,-1.6561506430255335,0.1293492317199707,-1.5218456427203577,0.007023879326879978,0.0008033175836317241,0.6743901968002319,0.0,-0.0,0.0,0.0,0.0,0.0
1782664738,814462780,-1.6561506430255335,0.12931299209594727,-1.5218456427203577,0.007083426229655743,0.0008512545027770102,0.6743302345275879,0.0,-0.0,0.0,0.0,0.0,0.0
1782664738,822535402,-1.6561983267413538,0.12926530838012695,-1.5218575636493128,0.007023879326879978,0.0007789746159687638,0.6743542551994324,0.0,-0.0,0.0,0.0,0.0,0.0
1782664738,830396634,-1.6561983267413538,0.12932491302490234,-1.5218213240252894,0.007059832103550434,0.0008153018425218761,0.6743782162666321,0.0,-0.0,0.0,0.0,0.0,0.0
1782664738,838382978,-1.6561625639544886,0.1293010711669922,-1.5218337217914026,0.007071441970765591,0.0008272860432043672,0.6743662357330322,0.0,-0.0,0.0,0.0,0.0,0.0
1782664738,846398323,-1.6561387220965784,0.1293010711669922,-1.5218575636493128,0.007107394747436047,0.0008153018425218761,0.6743662357330322,0.0,-0.0,0.0,0.0,0.0,0.0
1782664738,854402500,-1.6561864058123987,0.1293010711669922,-1.5218213240252894,0.007095410488545895,0.0008632387034595013,0.6744021773338318,0.0,-0.0,0.0,0.0,0.0,0.0
1782664738,862393455,-1.6561506430255335,0.1292891502380371,-1.521881405507223,0.007083426229655743,0.0008153018425218761,0.6743302345275879,0.0,-0.0,0.0,0.0,0.0,0.0
1782664738,870377151,-1.6561268011676233,0.12931299209594727,-1.5218456427203577,0.007059832103550434,0.0008153018425218761,0.6743662357330322,0.0,-0.0,0.0,0.0,0.0,0.0
1782664738,878389199,-1.6561864058123987,0.12933731079101562,-1.5218337217914026,0.007071441970765591,0.0008512545027770102,0.6743782162666321,0.0,-0.0,0.0,0.0,0.0,0.0
1782664738,886427803,-1.6561625639544886,0.12927722930908203,-1.521881405507223,0.007071441970765591,0.0008272860432043672,0.6743542551994324,0.0,-0.0,0.0,0.0,0.0,0.0
1782664738,894391351,-1.6561983267413538,0.12932491302490234,-1.5218094030963343,0.007071441970765591,0.0008153018425218761,0.6743422150611877,0.0,-0.0,0.0,0.0,0.0,0.0
1782664738,902390232,-1.6561864058123987,0.1293010711669922,-1.5218094030963343,0.007083426229655743,0.0008153018425218761,0.6744021773338318,0.0,-0.0,0.0,0.0,0.0,0.0
1782664738,910390280,-1.6561268011676233,0.12931299209594727,-1.5218337217914026,0.007083426229655743,0.0008392703020945191,0.6743782162666321,0.0,-0.0,0.0,0.0,0.0,0.0
1782664738,918422069,-1.6561744848834437,0.1293010711669922,-1.5218337217914026,0.007047847844660282,0.0008033175836317241,0.6743542551994324,0.0,-0.0,0.0,0.0,0.0,0.0
1782664738,926389691,-1.6562226454364222,0.12933731079101562,-1.5218694845782679,0.007131362799555063,0.0008033175836317241,0.6743662357330322,0.0,-0.0,0.0,0.0,0.0,0.0
1782664738,934384702,-1.6561506430255335,0.1292891502380371,-1.5218456427203577,0.007083426229655743,0.0008033175836317241,0.6743422150611877,0.0,-0.0,0.0,0.0,0.0,0.0
1782664738,942399713,-1.6561625639544886,0.1293010711669922,-1.5218456427203577,0.007047847844660282,0.0008512545027770102,0.6743901968002319,0.0,-0.0,0.0,0.0,0.0,0.0
1782664738,950491910,-1.6561983267413538,0.12931299209594727,-1.5218337217914026,0.007047847844660282,0.0008033175836317241,0.674318253993988,0.0,-0.0,0.0,0.0,0.0,0.0
1782664738,958393697,-1.6561625639544886,0.1292891502380371,-1.521881405507223,0.007095410488545895,0.0008033175836317241,0.6743422150611877,0.0,-0.0,0.0,0.0,0.0,0.0
1782664738,966377652,-1.6561983267413538,0.12932491302490234,-1.5218456427203577,0.007083426229655743,0.0007909588748589158,0.6743662357330322,0.0,-0.0,0.0,0.0,0.0,0.0
1782664738,974398497,-1.6561625639544886,0.1293010711669922,-1.5218213240252894,0.007071441970765591,0.0008392703020945191,0.6743782162666321,0.0,-0.0,0.0,0.0,0.0,0.0
1782664738,982485249,-1.6561387220965784,0.12927722930908203,-1.5218575636493128,0.00703586358577013,0.0007669904152862728,0.6744381189346313,0.0,-0.0,0.0,0.0,0.0,0.0
1782664738,990394148,-1.6561864058123987,0.1293492317199707,-1.5218094030963343,0.007071441970765591,0.0008033175836317241,0.6743901968002319,0.0,-0.0,0.0,0.0,0.0,0.0
1782664738,998379974,-1.6561506430255335,0.1292891502380371,-1.5218694845782679,0.007071441970765591,0.0008153018425218761,0.6744021773338318,0.0,-0.0,0.0,0.0,0.0,0.0
1782664739,6391263,-1.6561268011676233,0.12931299209594727,-1.5218575636493128,0.007023879326879978,0.0008272860432043672,0.6743422150611877,0.0,-0.0,0.0,0.0,0.0,0.0
1782664739,14428626,-1.65611440340151,0.1293010711669922,-1.5218694845782679,0.007023879326879978,0.0008272860432043672,0.6743782162666321,0.0,-0.0,0.0,0.0,0.0,0.0
1782664739,22390674,-1.6561864058123987,0.1293010711669922,-1.5217974821673792,0.007071441970765591,0.0008153018425218761,0.6743542551994324,0.0,-0.0,0.0,0.0,0.0,0.0
1782664739,30376907,-1.6561744848834437,0.12926530838012695,-1.5218575636493128,0.00703586358577013,0.0008153018425218761,0.6743782162666321,0.0,-0.0,0.0,0.0,0.0,0.0
1782664739,38399381,-1.6561625639544886,0.12931299209594727,-1.5218575636493128,0.007071441970765591,0.0008153018425218761,0.6743422150611877,0.0,-0.0,0.0,0.0,0.0,0.0
1782664739,46429855,-1.6561506430255335,0.12932491302490234,-1.521881405507223,0.007071441970765591,0.0008512545027770102,0.6743901968002319,0.0,-0.0,0.0,0.0,0.0,0.0
1782664739,54394977,-1.6561983267413538,0.12931299209594727,-1.5218694845782679,0.007083426229655743,0.0008272860432043672,0.6743542551994324,0.0,-0.0,0.0,0.0,0.0,0.0
1782664739,62401562,-1.6561268011676233,0.12931299209594727,-1.5218694845782679,0.007059832103550434,0.0008512545027770102,0.6744021773338318,0.0,-0.0,0.0,0.0,0.0,0.0
1782664739,70391591,-1.6561864058123987,0.1292891502380371,-1.5218213240252894,0.007047847844660282,0.0008272860432043672,0.6743662357330322,0.0,-0.0,0.0,0.0,0.0,0.0
1782664739,78421991,-1.6561744848834437,0.1293010711669922,-1.5218694845782679,0.007107394747436047,0.0007909588748589158,0.6743782162666321,0.0,-0.0,0.0,0.0,0.0,0.0
1782664739,86394576,-1.6561983267413538,0.12932491302490234,-1.5218575636493128,0.007047847844660282,0.0008272860432043672,0.6743422150611877,0.0,-0.0,0.0,0.0,0.0,0.0
1782664739,94379180,-1.6561387220965784,0.1293010711669922,-1.5218694845782679,0.007059832103550434,0.0008033175836317241,0.6743542551994324,0.0,-0.0,0.0,0.0,0.0,0.0
1782664739,102390876,-1.6561983267413538,0.12931299209594727,-1.5218456427203577,0.007071441970765591,0.0008392703020945191,0.6743662357330322,0.0,-0.0,0.0,0.0,0.0,0.0
1782664739,110427202,-1.6561744848834437,0.12927722930908203,-1.5218694845782679,0.007023879326879978,0.0008153018425218761,0.6743302345275879,0.0,-0.0,0.0,0.0,0.0,0.0
1782664739,118391565,-1.656210724507467,0.1293010711669922,-1.5218337217914026,0.007083426229655743,0.0008153018425218761,0.6743782162666321,0.0,-0.0,0.0,0.0,0.0,0.0
1782664739,126398279,-1.6561387220965784,0.12925338745117188,-1.5218575636493128,0.007095410488545895,0.0008512545027770102,0.6743782162666321,0.0,-0.0,0.0,0.0,0.0,0.0
1782664739,134396883,-1.6561744848834437,0.1293492317199707,-1.5218337217914026,0.007059832103550434,0.0008033175836317241,0.6743782162666321,0.0,-0.0,0.0,0.0,0.0,0.0
1782664739,142490673,-1.6561506430255335,0.1292891502380371,-1.5218456427203577,0.007059832103550434,0.0008272860432043672,0.6743422150611877,0.0,-0.0,0.0,0.0,0.0,0.0
1782664739,150428109,-1.6561387220965784,0.12925338745117188,-1.5218213240252894,0.007023879326879978,0.0008153018425218761,0.6743542551994324,0.0,-0.0,0.0,0.0,0.0,0.0
1782664739,158383990,-1.6561268011676233,0.12933731079101562,-1.5218456427203577,0.007059832103550434,0.0008392703020945191,0.6744141578674316,0.0,-0.0,0.0,0.0,0.0,0.0
1782664739,166391797,-1.6561864058123987,0.12926530838012695,-1.5218456427203577,0.007047847844660282,0.0007909588748589158,0.6744021773338318,0.0,-0.0,0.0,0.0,0.0,0.0
1782664739,174475476,-1.6561864058123987,0.12932491302490234,-1.5218456427203577,0.007083426229655743,0.0008153018425218761,0.6743542551994324,0.0,-0.0,0.0,0.0,0.0,0.0
1782664739,182405912,-1.6561506430255335,0.1293010711669922,-1.5218456427203577,0.00703586358577013,0.0008272860432043672,0.6743901968002319,0.0,-0.0,0.0,0.0,0.0,0.0
1782664739,190383774,-1.6561864058123987,0.12927722930908203,-1.5218575636493128,0.007059832103550434,0.0008752229623496532,0.6744021773338318,0.0,-0.0,0.0,0.0,0.0,0.0
1782664739,198388934,-1.6561387220965784,0.12927722930908203,-1.5218694845782679,0.00703586358577013,0.0008512545027770102,0.6744021773338318,0.0,-0.0,0.0,0.0,0.0,0.0
1782664739,206423852,-1.656210724507467,0.12932491302490234,-1.521893326436178,0.007083426229655743,0.0008153018425218761,0.6743542551994324,0.0,-0.0,0.0,0.0,0.0,0.0
1782664739,214394993,-1.6561506430255335,0.1292891502380371,-1.5218337217914026,0.007083426229655743,0.0008272860432043672,0.6744021773338318,0.0,-0.0,0.0,0.0,0.0,0.0
1782664739,222386485,-1.6561744848834437,0.1292891502380371,-1.5218094030963343,0.007071441970765591,0.0007909588748589158,0.6743422150611877,0.0,-0.0,0.0,0.0,0.0,0.0
1782664739,230389033,-1.6562226454364222,0.12926530838012695,-1.5218456427203577,0.007023879326879978,0.0008392703020945191,0.6743542551994324,0.0,-0.0,0.0,0.0,0.0,0.0
1782664739,238469323,-1.6561983267413538,0.1293010711669922,-1.521881405507223,0.007047847844660282,0.0008153018425218761,0.6743901968002319,0.0,-0.0,0.0,0.0,0.0,0.0
1782664739,246385555,-1.6561744848834437,0.12927722930908203,-1.5218213240252894,0.0069999112747609615,0.0008392703020945191,0.6743542551994324,0.0,-0.0,0.0,0.0,0.0,0.0
1782664739,254382584,-1.6562345663653772,0.1293010711669922,-1.5218213240252894,0.007047847844660282,0.0007909588748589158,0.6743542551994324,0.0,-0.0,0.0,0.0,0.0,0.0
1782664739,262391966,-1.6561387220965784,0.12932491302490234,-1.5218456427203577,0.007071441970765591,0.0008272860432043672,0.6743901968002319,0.0,-0.0,0.0,0.0,0.0,0.0
1782664739,270505237,-1.6561864058123987,0.12927722930908203,-1.5218456427203577,0.007083426229655743,0.0007909588748589158,0.6743901968002319,0.0,-0.0,0.0,0.0,0.0,0.0
1782664739,278385043,-1.6561983267413538,0.12931299209594727,-1.5218694845782679,0.00703586358577013,0.0008153018425218761,0.6744261384010315,0.0,-0.0,0.0,0.0,0.0,0.0
1782664739,286371461,-1.6561506430255335,0.12932491302490234,-1.5218575636493128,0.007023879326879978,0.0008153018425218761,0.6743302345275879,0.0,-0.0,0.0,0.0,0.0,0.0
1782664739,294392491,-1.6561506430255335,0.12932491302490234,-1.5218456427203577,0.007095410488545895,0.0008272860432043672,0.6743782162666321,0.0,-0.0,0.0,0.0,0.0,0.0
1782664739,302438540,-1.6561625639544886,0.1292891502380371,-1.5218337217914026,0.007023879326879978,0.0007669904152862728,0.6743901968002319,0.0,-0.0,0.0,0.0,0.0,0.0
1782664739,310389346,-1.6561864058123987,0.12926530838012695,-1.5218575636493128,0.007095410488545895,0.0008752229623496532,0.6743422150611877,0.0,-0.0,0.0,0.0,0.0,0.0
1782664739,318397395,-1.6561387220965784,0.12927722930908203,-1.5218456427203577,0.0069999112747609615,0.0008392703020945191,0.6744021773338318,0.0,-0.0,0.0,0.0,0.0,0.0
1782664739,326394406,-1.6561625639544886,0.12927722930908203,-1.5218213240252894,0.007119379006326199,0.0007909588748589158,0.6743542551994324,0.0,-0.0,0.0,0.0,0.0,0.0
1782664739,334440991,-1.6561387220965784,0.12931299209594727,-1.521905247365133,0.007023879326879978,0.0008033175836317241,0.6743901968002319,0.0,-0.0,0.0,0.0,0.0,0.0
1782664739,342388798,-1.6561744848834437,0.12931299209594727,-1.5218213240252894,0.00703586358577013,0.0008153018425218761,0.6743542551994324,0.0,-0.0,0.0,0.0,0.0,0.0
1782664739,350379105,-1.6561625639544886,0.1293010711669922,-1.5218575636493128,0.007047847844660282,0.0007789746159687638,0.6743662357330322,0.0,-0.0,0.0,0.0,0.0,0.0
1782664739,358389320,-1.6561625639544886,0.12933731079101562,-1.5218456427203577,0.007059832103550434,0.0008632387034595013,0.6743662357330322,0.0,-0.0,0.0,0.0,0.0,0.0
1782664739,366423424,-1.6561864058123987,0.12932491302490234,-1.5217974821673792,0.007095410488545895,0.0008512545027770102,0.6743901968002319,0.0,-0.0,0.0,0.0,0.0,0.0
1782664739,374389416,-1.6561744848834437,0.12926530838012695,-1.5217974821673792,0.00703586358577013,0.0008033175836317241,0.6744261384010315,0.0,-0.0,0.0,0.0,0.0,0.0
1782664739,382373352,-1.6561744848834437,0.12931299209594727,-1.5218456427203577,0.007071441970765591,0.0008033175836317241,0.6743422150611877,0.0,-0.0,0.0,0.0,0.0,0.0
1782664739,390390512,-1.6561864058123987,0.1293010711669922,-1.521881405507223,0.007059832103550434,0.0008392703020945191,0.6744021773338318,0.0,-0.0,0.0,0.0,0.0,0.0
1782664739,398430301,-1.6561625639544886,0.12932491302490234,-1.521881405507223,0.007047847844660282,0.0008153018425218761,0.6743782162666321,0.0,-0.0,0.0,0.0,0.0,0.0
1782664739,406388904,-1.6561744848834437,0.12933731079101562,-1.5218575636493128,0.007059832103550434,0.0008153018425218761,0.6743542551994324,0.0,-0.0,0.0,0.0,0.0,0.0
1782664739,414376489,-1.6561268011676233,0.12931299209594727,-1.5218337217914026,0.00703586358577013,0.0008392703020945191,0.6744021773338318,0.0,-0.0,0.0,0.0,0.0,0.0
1782664739,422389556,-1.6561744848834437,0.1293010711669922,-1.5218337217914026,0.007023879326879978,0.0008272860432043672,0.6744021773338318,0.0,-0.0,0.0,0.0,0.0,0.0
1782664739,430425030,-1.6561864058123987,0.12927722930908203,-1.5218337217914026,0.007083426229655743,0.0008033175836317241,0.6743302345275879,0.0,-0.0,0.0,0.0,0.0,0.0
1782664739,438407356,-1.6561625639544886,0.1292891502380371,-1.521881405507223,0.007059832103550434,0.0008153018425218761,0.6744021773338318,0.0,-0.0,0.0,0.0,0.0,0.0
1782664739,446396737,-1.6561387220965784,0.12926530838012695,-1.5218213240252894,0.007059832103550434,0.0008033175836317241,0.6743542551994324,0.0,-0.0,0.0,0.0,0.0,0.0
1782664739,454389618,-1.6561744848834437,0.12932491302490234,-1.5218213240252894,0.00703586358577013,0.0008033175836317241,0.6743542551994324,0.0,-0.0,0.0,0.0,0.0,0.0
1782664739,462381703,-1.6561387220965784,0.12927722930908203,-1.5218213240252894,0.0069999112747609615,0.0008153018425218761,0.6743542551994324,0.0,-0.0,0.0,0.0,0.0,0.0
1782664739,470400825,-1.6561625639544886,0.1293010711669922,-1.521881405507223,0.00703586358577013,0.0008392703020945191,0.6743662357330322,0.0,-0.0,0.0,0.0,0.0,0.0
1782664739,478377225,-1.6561268011676233,0.12927722930908203,-1.5218575636493128,0.007059832103550434,0.0008272860432043672,0.6743782162666321,0.0,-0.0,0.0,0.0,0.0,0.0
1782664739,486500737,-1.6561625639544886,0.12925338745117188,-1.5218694845782679,0.007059832103550434,0.0008512545027770102,0.6743662357330322,0.0,-0.0,0.0,0.0,0.0,0.0
1782664739,494410840,-1.6561744848834437,0.12926530838012695,-1.521881405507223,0.007059832103550434,0.0008153018425218761,0.6743542551994324,0.0,-0.0,0.0,0.0,0.0,0.0
1782664739,502395740,-1.6561625639544886,0.1292891502380371,-1.5218213240252894,0.007119379006326199,0.0008392703020945191,0.6743422150611877,0.0,-0.0,0.0,0.0,0.0,0.0
1782664739,510384936,-1.656210724507467,0.1292891502380371,-1.5218575636493128,0.007059832103550434,0.0008033175836317241,0.6743901968002319,0.0,-0.0,0.0,0.0,0.0,0.0
1782664739,518392891,-1.6561744848834437,0.12932491302490234,-1.5218456427203577,0.007071441970765591,0.0007909588748589158,0.6743542551994324,0.0,-0.0,0.0,0.0,0.0,0.0
1782664739,526420662,-1.6561506430255335,0.12933731079101562,-1.5218337217914026,0.00703586358577013,0.0008033175836317241,0.6743422150611877,0.0,-0.0,0.0,0.0,0.0,0.0
1782664739,534388598,-1.6561983267413538,0.12926530838012695,-1.5218575636493128,0.007059832103550434,0.0008272860432043672,0.6743662357330322,0.0,-0.0,0.0,0.0,0.0,0.0
1782664739,542371072,-1.6561506430255335,0.12933731079101562,-1.5218456427203577,0.007059832103550434,0.0008033175836317241,0.6743542551994324,0.0,-0.0,0.0,0.0,0.0,0.0
1782664739,550393824,-1.6561506430255335,0.12931299209594727,-1.521881405507223,0.007107394747436047,0.0008392703020945191,0.6743782162666321,0.0,-0.0,0.0,0.0,0.0,0.0
1782664739,558421854,-1.6561268011676233,0.12927722930908203,-1.5218094030963343,0.007023879326879978,0.0008512545027770102,0.6743662357330322,0.0,-0.0,0.0,0.0,0.0,0.0
1782664739,566387772,-1.6561506430255335,0.1293010711669922,-1.521881405507223,0.007083426229655743,0.0008392703020945191,0.6743662357330322,0.0,-0.0,0.0,0.0,0.0,0.0
1782664739,574373801,-1.6561744848834437,0.1293010711669922,-1.5218575636493128,0.00703586358577013,0.0007909588748589158,0.6743542551994324,0.0,-0.0,0.0,0.0,0.0,0.0
1782664739,582400942,-1.6561625639544886,0.12932491302490234,-1.5217974821673792,0.007059832103550434,0.0008153018425218761,0.6743662357330322,0.0,-0.0,0.0,0.0,0.0,0.0
1782664739,590489676,-1.6561625639544886,0.12927722930908203,-1.5218575636493128,0.007023879326879978,0.0008632387034595013,0.6743782162666321,0.0,-0.0,0.0,0.0,0.0,0.0
1782664739,598394501,-1.6561506430255335,0.1293010711669922,-1.5218694845782679,0.007059832103550434,0.0007909588748589158,0.674318253993988,0.0,-0.0,0.0,0.0,0.0,0.0
1782664739,606402531,-1.6561625639544886,0.1293010711669922,-1.5218213240252894,0.00703586358577013,0.0007909588748589158,0.6743901968002319,0.0,-0.0,0.0,0.0,0.0,0.0
1782664739,614391393,-1.6561387220965784,0.12926530838012695,-1.5218337217914026,0.00703586358577013,0.0008512545027770102,0.6743782162666321,0.0,-0.0,0.0,0.0,0.0,0.0
1782664739,622429979,-1.6561744848834437,0.1293010711669922,-1.5218337217914026,0.007047847844660282,0.0008033175836317241,0.6743901968002319,0.0,-0.0,0.0,0.0,0.0,0.0
1782664739,630397489,-1.6561268011676233,0.12931299209594727,-1.521881405507223,0.007047847844660282,0.0008392703020945191,0.6743782162666321,0.0,-0.0,0.0,0.0,0.0,0.0
1782664739,638377556,-1.6561387220965784,0.1293010711669922,-1.5218575636493128,0.007011895067989826,0.0008392703020945191,0.6743901968002319,0.0,-0.0,0.0,0.0,0.0,0.0
1782664739,646391382,-1.6561744848834437,0.12932491302490234,-1.521893326436178,0.007059832103550434,0.0008153018425218761,0.6743901968002319,0.0,-0.0,0.0,0.0,0.0,0.0
1782664739,654475616,-1.6561506430255335,0.12931299209594727,-1.5218456427203577,0.007059832103550434,0.0007909588748589158,0.6743782162666321,0.0,-0.0,0.0,0.0,0.0,0.0
1782664739,662398126,-1.6561864058123987,0.12925338745117188,-1.5218456427203577,0.007071441970765591,0.0008033175836317241,0.6743782162666321,0.0,-0.0,0.0,0.0,0.0,0.0
1782664739,670384600,-1.6561744848834437,0.1293492317199707,-1.5218694845782679,0.007023879326879978,0.0008272860432043672,0.6743662357330322,0.0,-0.0,0.0,0.0,0.0,0.0
1782664739,678379055,-1.6561506430255335,0.12931299209594727,-1.5218575636493128,0.007083426229655743,0.0008153018425218761,0.6744021773338318,0.0,-0.0,0.0,0.0,0.0,0.0
1782664739,686452493,-1.6561387220965784,0.12926530838012695,-1.5218456427203577,0.007059832103550434,0.0008632387034595013,0.6743542551994324,0.0,-0.0,0.0,0.0,0.0,0.0
1782664739,694389336,-1.6561864058123987,0.12931299209594727,-1.5218094030963343,0.007059832103550434,0.0008033175836317241,0.6743782162666321,0.0,-0.0,0.0,0.0,0.0,0.0
1782664739,702388514,-1.656210724507467,0.12932491302490234,-1.5218213240252894,0.007083426229655743,0.0008272860432043672,0.6744021773338318,0.0,-0.0,0.0,0.0,0.0,0.0
1782664739,710387803,-1.6561864058123987,0.12926530838012695,-1.5218575636493128,0.007023879326879978,0.0008392703020945191,0.6743662357330322,0.0,-0.0,0.0,0.0,0.0,0.0
1782664739,718396406,-1.6561506430255335,0.12927722930908203,-1.5218337217914026,0.007047847844660282,0.0008033175836317241,0.6743542551994324,0.0,-0.0,0.0,0.0,0.0,0.0
1782664739,726387769,-1.6561864058123987,0.12931299209594727,-1.5218694845782679,0.007083426229655743,0.0008392703020945191,0.6744021773338318,0.0,-0.0,0.0,0.0,0.0,0.0
1782664739,734376965,-1.6561983267413538,0.1292891502380371,-1.521881405507223,0.00703586358577013,0.0008153018425218761,0.6743422150611877,0.0,-0.0,0.0,0.0,0.0,0.0
1782664739,742533793,-1.6561744848834437,0.12931299209594727,-1.5218337217914026,0.0069999112747609615,0.0008153018425218761,0.6743782162666321,0.0,-0.0,0.0,0.0,0.0,0.0
1782664739,750403876,-1.6561983267413538,0.12931299209594727,-1.5217855612384241,0.00703586358577013,0.0008153018425218761,0.6744021773338318,0.0,-0.0,0.0,0.0,0.0,0.0
1782664739,758408869,-1.6562226454364222,0.12931299209594727,-1.5218094030963343,0.007011895067989826,0.0008272860432043672,0.6744021773338318,0.0,-0.0,0.0,0.0,0.0,0.0
1782664739,766374861,-1.6561625639544886,0.12933731079101562,-1.521881405507223,0.007011895067989826,0.0007909588748589158,0.6744021773338318,0.0,-0.0,0.0,0.0,0.0,0.0
1782664739,774396650,-1.656210724507467,0.12936115264892578,-1.5218456427203577,0.007011895067989826,0.0008272860432043672,0.6744141578674316,0.0,-0.0,0.0,0.0,0.0,0.0
1782664739,782606848,-1.6561625639544886,0.1293010711669922,-1.5218337217914026,0.007107394747436047,0.0008153018425218761,0.6743901968002319,0.0,-0.0,0.0,0.0,0.0,0.0
1782664739,790402598,-1.6561864058123987,0.1292891502380371,-1.5218575636493128,0.007047847844660282,0.0008512545027770102,0.6743302345275879,0.0,-0.0,0.0,0.0,0.0,0.0
1782664739,798386442,-1.6561506430255335,0.12932491302490234,-1.5218575636493128,0.007059832103550434,0.0008153018425218761,0.6743782162666321,0.0,-0.0,0.0,0.0,0.0,0.0
1782664739,806390620,-1.6561864058123987,0.1293492317199707,-1.5218456427203577,0.00703586358577013,0.0008392703020945191,0.6743901968002319,0.0,-0.0,0.0,0.0,0.0,0.0
1782664739,814427020,-1.6561506430255335,0.12927722930908203,-1.5217974821673792,0.0069999112747609615,0.0008272860432043672,0.6743542551994324,0.0,-0.0,0.0,0.0,0.0,0.0
1782664739,822391771,-1.65611440340151,0.12931299209594727,-1.5218575636493128,0.007059832103550434,0.0007909588748589158,0.6743422150611877,0.0,-0.0,0.0,0.0,0.0,0.0
1782664739,830388541,-1.6561983267413538,0.12927722930908203,-1.5218213240252894,0.007095410488545895,0.0008392703020945191,0.6743422150611877,0.0,-0.0,0.0,0.0,0.0,0.0
1782664739,838377071,-1.6561983267413538,0.12933731079101562,-1.5218337217914026,0.007071441970765591,0.0008033175836317241,0.6743302345275879,0.0,-0.0,0.0,0.0,0.0,0.0
1782664739,846415323,-1.6561744848834437,0.12932491302490234,-1.5218575636493128,0.007059832103550434,0.0007909588748589158,0.6743542551994324,0.0,-0.0,0.0,0.0,0.0,0.0
1782664739,854379741,-1.6561268011676233,0.1293010711669922,-1.521881405507223,0.0069879270158708096,0.0008033175836317241,0.6743662357330322,0.0,-0.0,0.0,0.0,0.0,0.0
1782664739,862386326,-1.6561506430255335,0.12926530838012695,-1.5218456427203577,0.007107394747436047,0.0008512545027770102,0.6744021773338318,0.0,-0.0,0.0,0.0,0.0,0.0
1782664739,870386096,-1.6561864058123987,0.12926530838012695,-1.5218694845782679,0.00703586358577013,0.0008272860432043672,0.6743901968002319,0.0,-0.0,0.0,0.0,0.0,0.0
1782664739,878390422,-1.6561268011676233,0.12926530838012695,-1.5218456427203577,0.007059832103550434,0.0008512545027770102,0.6744381189346313,0.0,-0.0,0.0,0.0,0.0,0.0
1782664739,886388877,-1.6561744848834437,0.12931299209594727,-1.5218337217914026,0.007047847844660282,0.0007909588748589158,0.6743782162666321,0.0,-0.0,0.0,0.0,0.0,0.0
1782664739,894386314,-1.6561506430255335,0.12931299209594727,-1.5218456427203577,0.007023879326879978,0.0008632387034595013,0.6743542551994324,0.0,-0.0,0.0,0.0,0.0,0.0
1782664739,902388770,-1.656210724507467,0.12926530838012695,-1.5218694845782679,0.007059832103550434,0.0008153018425218761,0.6743542551994324,0.0,-0.0,0.0,0.0,0.0,0.0
1782664739,910453189,-1.6561625639544886,0.12927722930908203,-1.5218337217914026,0.007047847844660282,0.0008272860432043672,0.6744021773338318,0.0,-0.0,0.0,0.0,0.0,0.0
1782664739,918398644,-1.6561268011676233,0.1293010711669922,-1.5218575636493128,0.007059832103550434,0.0008153018425218761,0.6743901968002319,0.0,-0.0,0.0,0.0,0.0,0.0
1782664739,926372191,-1.6561864058123987,0.12932491302490234,-1.5218337217914026,0.007047847844660282,0.0008272860432043672,0.6743542551994324,0.0,-0.0,0.0,0.0,0.0,0.0
1782664739,934389906,-1.6561864058123987,0.1293010711669922,-1.521893326436178,0.007011895067989826,0.0008272860432043672,0.6743422150611877,0.0,-0.0,0.0,0.0,0.0,0.0
1782664739,942426529,-1.6561744848834437,0.12933731079101562,-1.5218575636493128,0.007083426229655743,0.0008512545027770102,0.6744261384010315,0.0,-0.0,0.0,0.0,0.0,0.0
1782664739,950387021,-1.6561744848834437,0.12932491302490234,-1.5218575636493128,0.007047847844660282,0.0008392703020945191,0.674318253993988,0.0,-0.0,0.0,0.0,0.0,0.0
1782664739,958375365,-1.656210724507467,0.12932491302490234,-1.5218337217914026,0.007095410488545895,0.0007789746159687638,0.6743901968002319,0.0,-0.0,0.0,0.0,0.0,0.0
1782664739,966392543,-1.6561506430255335,0.12933731079101562,-1.521881405507223,0.007059832103550434,0.0007909588748589158,0.6743782162666321,0.0,-0.0,0.0,0.0,0.0,0.0
1782664739,974481740,-1.6561983267413538,0.12931299209594727,-1.5218575636493128,0.007083426229655743,0.0008153018425218761,0.6743901968002319,0.0,-0.0,0.0,0.0,0.0,0.0
1782664739,982388676,-1.6561387220965784,0.1292891502380371,-1.5218456427203577,0.007047847844660282,0.0008153018425218761,0.6743901968002319,0.0,-0.0,0.0,0.0,0.0,0.0
1782664739,990383353,-1.6561387220965784,0.1293010711669922,-1.5218456427203577,0.007071441970765591,0.0007909588748589158,0.6743542551994324,0.0,-0.0,0.0,0.0,0.0,0.0
1782664739,998390013,-1.6561983267413538,0.12926530838012695,-1.521881405507223,0.007059832103550434,0.0007909588748589158,0.6743302345275879,0.0,-0.0,0.0,0.0,0.0,0.0
1782664740,6419542,-1.6561625639544886,0.1292891502380371,-1.5218575636493128,0.007059832103550434,0.0008272860432043672,0.6743422150611877,0.0,-0.0,0.0,0.0,0.0,0.0
1782664740,14398924,-1.6561864058123987,0.12931299209594727,-1.5218456427203577,0.007071441970765591,0.0007789746159687638,0.6743901968002319,0.0,-0.0,0.0,0.0,0.0,0.0
1782664740,22390435,-1.6561625639544886,0.12926530838012695,-1.5218337217914026,0.007047847844660282,0.0008153018425218761,0.6743662357330322,0.0,-0.0,0.0,0.0,0.0,0.0
1782664740,30397724,-1.65611440340151,0.12932491302490234,-1.5218213240252894,0.007047847844660282,0.0007909588748589158,0.6743422150611877,0.0,-0.0,0.0,0.0,0.0,0.0
1782664740,38467587,-1.6561625639544886,0.12927722930908203,-1.5218575636493128,0.00703586358577013,0.0008153018425218761,0.6743662357330322,0.0,-0.0,0.0,0.0,0.0,0.0
1782664740,46386320,-1.6561506430255335,0.12933731079101562,-1.5218456427203577,0.00703586358577013,0.0007789746159687638,0.6743662357330322,0.0,-0.0,0.0,0.0,0.0,0.0
1782664740,54387090,-1.6561506430255335,0.12927722930908203,-1.5218456427203577,0.007083426229655743,0.0008512545027770102,0.6743662357330322,0.0,-0.0,0.0,0.0,0.0,0.0
1782664740,62396157,-1.6561506430255335,0.1292891502380371,-1.5218575636493128,0.007071441970765591,0.0007909588748589158,0.6744021773338318,0.0,-0.0,0.0,0.0,0.0,0.0
1782664740,70422520,-1.6561506430255335,0.1293010711669922,-1.521881405507223,0.007071441970765591,0.0008153018425218761,0.6743422150611877,0.0,-0.0,0.0,0.0,0.0,0.0
1782664740,78391068,-1.6561744848834437,0.12933731079101562,-1.5218575636493128,0.007083426229655743,0.0008512545027770102,0.6743901968002319,0.0,-0.0,0.0,0.0,0.0,0.0
1782664740,86392079,-1.6561387220965784,0.1293010711669922,-1.5218337217914026,0.00703586358577013,0.0008153018425218761,0.674318253993988,0.0,-0.0,0.0,0.0,0.0,0.0
1782664740,94392182,-1.6561983267413538,0.12933731079101562,-1.5218694845782679,0.007011895067989826,0.0008033175836317241,0.6743422150611877,0.0,-0.0,0.0,0.0,0.0,0.0
1782664740,102421934,-1.6561506430255335,0.12931299209594727,-1.5218456427203577,0.007083426229655743,0.0007909588748589158,0.6743901968002319,0.0,-0.0,0.0,0.0,0.0,0.0
1782664740,110395797,-1.6561625639544886,0.12926530838012695,-1.5218694845782679,0.007059832103550434,0.0007789746159687638,0.6743662357330322,0.0,-0.0,0.0,0.0,0.0,0.0
1782664740,118381752,-1.6561625639544886,0.12932491302490234,-1.5218456427203577,0.007023879326879978,0.0008153018425218761,0.6743901968002319,0.0,-0.0,0.0,0.0,0.0,0.0
1782664740,126415393,-1.6561506430255335,0.12933731079101562,-1.5218456427203577,0.007083426229655743,0.0008752229623496532,0.6743782162666321,0.0,-0.0,0.0,0.0,0.0,0.0
1782664740,134487794,-1.6561506430255335,0.1293010711669922,-1.5218694845782679,0.007071441970765591,0.0007669904152862728,0.6744021773338318,0.0,-0.0,0.0,0.0,0.0,0.0
1782664740,142389749,-1.6561625639544886,0.1293010711669922,-1.5218456427203577,0.007059832103550434,0.0008033175836317241,0.6743782162666321,0.0,-0.0,0.0,0.0,0.0,0.0
1782664740,150373759,-1.6561625639544886,0.12931299209594727,-1.5218575636493128,0.007083426229655743,0.0008153018425218761,0.6743662357330322,0.0,-0.0,0.0,0.0,0.0,0.0
1782664740,158459586,-1.6561625639544886,0.12926530838012695,-1.5218575636493128,0.007059832103550434,0.0008153018425218761,0.6743542551994324,0.0,-0.0,0.0,0.0,0.0,0.0
1782664740,166438412,-1.6561506430255335,0.12927722930908203,-1.521881405507223,0.007059832103550434,0.0008033175836317241,0.6743901968002319,0.0,-0.0,0.0,0.0,0.0,0.0
1782664740,174396848,-1.6561864058123987,0.12933731079101562,-1.5218575636493128,0.007083426229655743,0.0008153018425218761,0.6744021773338318,0.0,-0.0,0.0,0.0,0.0,0.0
1782664740,182382248,-1.6561268011676233,0.12932491302490234,-1.5218094030963343,0.007047847844660282,0.0008392703020945191,0.6743901968002319,0.0,-0.0,0.0,0.0,0.0,0.0
1782664740,190399093,-1.6561983267413538,0.12926530838012695,-1.5218337217914026,0.007023879326879978,0.0008392703020945191,0.6744141578674316,0.0,-0.0,0.0,0.0,0.0,0.0
1782664740,198495883,-1.6561506430255335,0.12927722930908203,-1.5218337217914026,0.007083426229655743,0.0007909588748589158,0.6743542551994324,0.0,-0.0,0.0,0.0,0.0,0.0
1782664740,206397485,-1.6561387220965784,0.12933731079101562,-1.5217855612384241,0.007023879326879978,0.0008153018425218761,0.6743662357330322,0.0,-0.0,0.0,0.0,0.0,0.0
1782664740,214382422,-1.6561744848834437,0.1293010711669922,-1.5217974821673792,0.007059832103550434,0.0008153018425218761,0.6744141578674316,0.0,-0.0,0.0,0.0,0.0,0.0
1782664740,222396304,-1.6561983267413538,0.1293010711669922,-1.521881405507223,0.00703586358577013,0.0008153018425218761,0.6744021773338318,0.0,-0.0,0.0,0.0,0.0,0.0
1782664740,230426148,-1.6561625639544886,0.12927722930908203,-1.5218456427203577,0.007071441970765591,0.0008272860432043672,0.6743782162666321,0.0,-0.0,0.0,0.0,0.0,0.0
1782664740,238397418,-1.6561387220965784,0.1293492317199707,-1.5218456427203577,0.007107394747436047,0.0007909588748589158,0.6743662357330322,0.0,-0.0,0.0,0.0,0.0,0.0
1782664740,246392040,-1.6561387220965784,0.12933731079101562,-1.5218575636493128,0.007059832103550434,0.0008512545027770102,0.6743422150611877,0.0,-0.0,0.0,0.0,0.0,0.0
1782664740,254394163,-1.6561268011676233,0.1292891502380371,-1.521905247365133,0.007023879326879978,0.0007909588748589158,0.6743901968002319,0.0,-0.0,0.0,0.0,0.0,0.0
1782664740,262428581,-1.6561744848834437,0.1293010711669922,-1.5218337217914026,0.007083426229655743,0.0008272860432043672,0.6743302345275879,0.0,-0.0,0.0,0.0,0.0,0.0
1782664740,270389796,-1.6561506430255335,0.1293010711669922,-1.5218213240252894,0.007071441970765591,0.0007909588748589158,0.6743782162666321,0.0,-0.0,0.0,0.0,0.0,0.0
1782664740,278389455,-1.6561506430255335,0.12932491302490234,-1.5218694845782679,0.007083426229655743,0.0008033175836317241,0.6743422150611877,0.0,-0.0,0.0,0.0,0.0,0.0
1782664740,286386244,-1.6561625639544886,0.1293010711669922,-1.521881405507223,0.007095410488545895,0.0008033175836317241,0.6743782162666321,0.0,-0.0,0.0,0.0,0.0,0.0
1782664740,294393903,-1.6561387220965784,0.1292891502380371,-1.5218213240252894,0.007011895067989826,0.0008153018425218761,0.6743302345275879,0.0,-0.0,0.0,0.0,0.0,0.0
1782664740,302384599,-1.6561506430255335,0.1292891502380371,-1.5218213240252894,0.007047847844660282,0.0008632387034595013,0.6743542551994324,0.0,-0.0,0.0,0.0,0.0,0.0
1782664740,310383814,-1.6561387220965784,0.12932491302490234,-1.5218694845782679,0.007083426229655743,0.0008272860432043672,0.6743662357330322,0.0,-0.0,0.0,0.0,0.0,0.0
1782664740,318397992,-1.6561625639544886,0.1292891502380371,-1.5218094030963343,0.007083426229655743,0.0007909588748589158,0.6743542551994324,0.0,-0.0,0.0,0.0,0.0,0.0
1782664740,326426577,-1.6561625639544886,0.12931299209594727,-1.5218456427203577,0.007047847844660282,0.0008153018425218761,0.6744141578674316,0.0,-0.0,0.0,0.0,0.0,0.0
1782664740,334401273,-1.6561387220965784,0.1293010711669922,-1.5218337217914026,0.00703586358577013,0.0008033175836317241,0.6744141578674316,0.0,-0.0,0.0,0.0,0.0,0.0
1782664740,342385840,-1.6561864058123987,0.12931299209594727,-1.521893326436178,0.007047847844660282,0.0007909588748589158,0.6744261384010315,0.0,-0.0,0.0,0.0,0.0,0.0
1782664740,350391425,-1.6561864058123987,0.1293010711669922,-1.5218337217914026,0.00703586358577013,0.0008153018425218761,0.6743662357330322,0.0,-0.0,0.0,0.0,0.0,0.0
1782664740,358429195,-1.6561864058123987,0.1292891502380371,-1.5218694845782679,0.007059832103550434,0.0007669904152862728,0.6743542551994324,0.0,-0.0,0.0,0.0,0.0,0.0
1782664740,366393910,-1.6561625639544886,0.1292891502380371,-1.5218337217914026,0.007083426229655743,0.0008033175836317241,0.6743662357330322,0.0,-0.0,0.0,0.0,0.0,0.0
1782664740,374386754,-1.6561625639544886,0.12932491302490234,-1.5218575636493128,0.007047847844660282,0.0008272860432043672,0.6743422150611877,0.0,-0.0,0.0,0.0,0.0,0.0
1782664740,382385450,-1.6561744848834437,0.12931299209594727,-1.5218575636493128,0.007071441970765591,0.0008512545027770102,0.6743542551994324,0.0,-0.0,0.0,0.0,0.0,0.0
1782664740,390452258,-1.6561744848834437,0.1293010711669922,-1.5218694845782679,0.00703586358577013,0.0008153018425218761,0.6743542551994324,0.0,-0.0,0.0,0.0,0.0,0.0
1782664740,398388639,-1.6561744848834437,0.12927722930908203,-1.5218456427203577,0.00703586358577013,0.0008392703020945191,0.6743901968002319,0.0,-0.0,0.0,0.0,0.0,0.0
1782664740,406385113,-1.6561625639544886,0.1293010711669922,-1.5218337217914026,0.007059832103550434,0.0008392703020945191,0.6743782162666321,0.0,-0.0,0.0,0.0,0.0,0.0
1782664740,414375476,-1.6561625639544886,0.12927722930908203,-1.5218575636493128,0.007095410488545895,0.0008392703020945191,0.6743782162666321,0.0,-0.0,0.0,0.0,0.0,0.0
1782664740,422419469,-1.6561744848834437,0.1293010711669922,-1.5218094030963343,0.007059832103550434,0.0008153018425218761,0.6743782162666321,0.0,-0.0,0.0,0.0,0.0,0.0
1782664740,430385239,-1.6561625639544886,0.1293010711669922,-1.5218456427203577,0.007047847844660282,0.0007909588748589158,0.6743782162666321,0.0,-0.0,0.0,0.0,0.0,0.0
1782664740,438663105,-1.6561268011676233,0.12927722930908203,-1.521881405507223,0.007083426229655743,0.0008272860432043672,0.6743542551994324,0.0,-0.0,0.0,0.0,0.0,0.0
1782664740,446393724,-1.6561744848834437,0.1293010711669922,-1.5218694845782679,0.007059832103550434,0.0008272860432043672,0.6743782162666321,0.0,-0.0,0.0,0.0,0.0,0.0
1782664740,454388920,-1.6561387220965784,0.1292891502380371,-1.5218213240252894,0.007107394747436047,0.0008632387034595013,0.6743302345275879,0.0,-0.0,0.0,0.0,0.0,0.0
1782664740,462390209,-1.6561506430255335,0.12932491302490234,-1.5218575636493128,0.007059832103550434,0.0008632387034595013,0.6743542551994324,0.0,-0.0,0.0,0.0,0.0,0.0
1782664740,470370646,-1.6561625639544886,0.12927722930908203,-1.5218337217914026,0.00703586358577013,0.0008632387034595013,0.6743542551994324,0.0,-0.0,0.0,0.0,0.0,0.0
1782664740,478396694,-1.656210724507467,0.1292891502380371,-1.5218694845782679,0.007047847844660282,0.0008153018425218761,0.6743662357330322,0.0,-0.0,0.0,0.0,0.0,0.0
1782664740,486392353,-1.6561864058123987,0.12931299209594727,-1.521881405507223,0.007071441970765591,0.0008153018425218761,0.6743782162666321,0.0,-0.0,0.0,0.0,0.0,0.0
1782664740,494380753,-1.6561864058123987,0.12931299209594727,-1.5218575636493128,0.0069999112747609615,0.0008153018425218761,0.6743422150611877,0.0,-0.0,0.0,0.0,0.0,0.0
1782664740,502389542,-1.6561744848834437,0.12931299209594727,-1.5218456427203577,0.007095410488545895,0.0008272860432043672,0.6743422150611877,0.0,-0.0,0.0,0.0,0.0,0.0
1782664740,510383627,-1.656210724507467,0.12932491302490234,-1.5218337217914026,0.007095410488545895,0.0007789746159687638,0.6743662357330322,0.0,-0.0,0.0,0.0,0.0,0.0
1782664740,518427417,-1.6561864058123987,0.1293010711669922,-1.5218456427203577,0.007059832103550434,0.0008272860432043672,0.6743782162666321,0.0,-0.0,0.0,0.0,0.0,0.0
1782664740,526396409,-1.6561744848834437,0.1293010711669922,-1.5218337217914026,0.007047847844660282,0.0008272860432043672,0.6743782162666321,0.0,-0.0,0.0,0.0,0.0,0.0
1782664740,534376031,-1.6561744848834437,0.12927722930908203,-1.5218456427203577,0.00703586358577013,0.0007909588748589158,0.6743782162666321,0.0,-0.0,0.0,0.0,0.0,0.0
1782664740,542406468,-1.6561864058123987,0.12933731079101562,-1.5218694845782679,0.007059832103550434,0.0008033175836317241,0.6743782162666321,0.0,-0.0,0.0,0.0,0.0,0.0
1782664740,550387757,-1.6561625639544886,0.12931299209594727,-1.521893326436178,0.007059832103550434,0.0008153018425218761,0.6744141578674316,0.0,-0.0,0.0,0.0,0.0,0.0
1782664740,558397157,-1.6561506430255335,0.12926530838012695,-1.521881405507223,0.007071441970765591,0.0008033175836317241,0.6743901968002319,0.0,-0.0,0.0,0.0,0.0,0.0
1782664740,566382445,-1.6561864058123987,0.12931299209594727,-1.5218575636493128,0.00703586358577013,0.0008033175836317241,0.6743062734603882,0.0,-0.0,0.0,0.0,0.0,0.0
1782664740,574411920,-1.6561506430255335,0.1293492317199707,-1.5218337217914026,0.007047847844660282,0.0008392703020945191,0.6744021773338318,0.0,-0.0,0.0,0.0,0.0,0.0
1782664740,582426468,-1.6561983267413538,0.1293492317199707,-1.5218575636493128,0.007071441970765591,0.0008272860432043672,0.6743901968002319,0.0,-0.0,0.0,0.0,0.0,0.0
1782664740,590429497,-1.6561625639544886,0.12932491302490234,-1.5218337217914026,0.007059832103550434,0.0008153018425218761,0.6743302345275879,0.0,-0.0,0.0,0.0,0.0,0.0
1782664740,598378489,-1.6561625639544886,0.12933731079101562,-1.521881405507223,0.00703586358577013,0.0008512545027770102,0.6743422150611877,0.0,-0.0,0.0,0.0,0.0,0.0
1782664740,606391575,-1.656210724507467,0.1292891502380371,-1.5218213240252894,0.007071441970765591,0.0008392703020945191,0.6743901968002319,0.0,-0.0,0.0,0.0,0.0,0.0
1782664740,614423234,-1.6561506430255335,0.12931299209594727,-1.521881405507223,0.007059832103550434,0.0007789746159687638,0.6743901968002319,0.0,-0.0,0.0,0.0,0.0,0.0
1782664740,622385300,-1.6561268011676233,0.1292891502380371,-1.5218213240252894,0.007095410488545895,0.0007909588748589158,0.6744141578674316,0.0,-0.0,0.0,0.0,0.0,0.0
1782664740,630370756,-1.6561387220965784,0.1293010711669922,-1.521893326436178,0.007059832103550434,0.0008392703020945191,0.6743782162666321,0.0,-0.0,0.0,0.0,0.0,0.0
1782664740,638388008,-1.6561983267413538,0.1293010711669922,-1.521881405507223,0.007083426229655743,0.0008632387034595013,0.6743542551994324,0.0,-0.0,0.0,0.0,0.0,0.0
1782664740,646423982,-1.656210724507467,0.12932491302490234,-1.5218694845782679,0.00703586358577013,0.0008512545027770102,0.6744141578674316,0.0,-0.0,0.0,0.0,0.0,0.0
1782664740,654387678,-1.6561983267413538,0.12927722930908203,-1.5218456427203577,0.007071441970765591,0.0008153018425218761,0.6743302345275879,0.0,-0.0,0.0,0.0,0.0,0.0
1782664740,662420208,-1.6562226454364222,0.12926530838012695,-1.5218213240252894,0.007071441970765591,0.0008512545027770102,0.6743901968002319,0.0,-0.0,0.0,0.0,0.0,0.0
1782664740,670423275,-1.6561387220965784,0.1292414665222168,-1.5218575636493128,0.007047847844660282,0.0008512545027770102,0.6743782162666321,0.0,-0.0,0.0,0.0,0.0,0.0
1782664740,678424415,-1.6561268011676233,0.1292891502380371,-1.5218575636493128,0.007047847844660282,0.0008272860432043672,0.6744021773338318,0.0,-0.0,0.0,0.0,0.0,0.0
1782664740,686468686,-1.6561268011676233,0.1293492317199707,-1.5218694845782679,0.007095410488545895,0.0008272860432043672,0.6743901968002319,0.0,-0.0,0.0,0.0,0.0,0.0
1782664740,694387455,-1.6561864058123987,0.12931299209594727,-1.5217974821673792,0.007059832103550434,0.0008272860432043672,0.6743662357330322,0.0,-0.0,0.0,0.0,0.0,0.0
1782664740,702402300,-1.6561864058123987,0.12931299209594727,-1.5218456427203577,0.007083426229655743,0.0008033175836317241,0.6743662357330322,0.0,-0.0,0.0,0.0,0.0,0.0
1782664740,710427867,-1.6561625639544886,0.12933731079101562,-1.521773640309469,0.007083426229655743,0.0008512545027770102,0.6743782162666321,0.0,-0.0,0.0,0.0,0.0,0.0
1782664740,718396155,-1.6561387220965784,0.12932491302490234,-1.5218456427203577,0.007071441970765591,0.0007789746159687638,0.6743901968002319,0.0,-0.0,0.0,0.0,0.0,0.0
1782664740,726393185,-1.6561744848834437,0.1293492317199707,-1.5218213240252894,0.007023879326879978,0.0008272860432043672,0.6743542551994324,0.0,-0.0,0.0,0.0,0.0,0.0
1782664740,734385881,-1.6561506430255335,0.1292891502380371,-1.521905247365133,0.007119379006326199,0.0007789746159687638,0.6744141578674316,0.0,-0.0,0.0,0.0,0.0,0.0
1782664740,742455800,-1.6561744848834437,0.12931299209594727,-1.5218694845782679,0.007047847844660282,0.0008272860432043672,0.6743901968002319,0.0,-0.0,0.0,0.0,0.0,0.0
1782664740,750400014,-1.656210724507467,0.1292891502380371,-1.5218213240252894,0.007071441970765591,0.0008632387034595013,0.6744021773338318,0.0,-0.0,0.0,0.0,0.0,0.0
1782664740,758382099,-1.6562226454364222,0.12931299209594727,-1.5218213240252894,0.007071441970765591,0.0008512545027770102,0.6743782162666321,0.0,-0.0,0.0,0.0,0.0,0.0
1782664740,766406481,-1.6561744848834437,0.12931299209594727,-1.5218694845782679,0.007047847844660282,0.0008272860432043672,0.6743901968002319,0.0,-0.0,0.0,0.0,0.0,0.0
1782664740,774498938,-1.6561744848834437,0.1293010711669922,-1.5218213240252894,0.007011895067989826,0.0008153018425218761,0.6743782162666321,0.0,-0.0,0.0,0.0,0.0,0.0
1782664740,782437485,-1.6561864058123987,0.12932491302490234,-1.5218694845782679,0.007059832103550434,0.0008033175836317241,0.6744141578674316,0.0,-0.0,0.0,0.0,0.0,0.0
1782664740,790386884,-1.6561506430255335,0.1293010711669922,-1.5218456427203577,0.00703586358577013,0.0008033175836317241,0.6744021773338318,0.0,-0.0,0.0,0.0,0.0,0.0
1782664740,798400284,-1.6561864058123987,0.12927722930908203,-1.5218694845782679,0.007059832103550434,0.0008272860432043672,0.6743782162666321,0.0,-0.0,0.0,0.0,0.0,0.0
1782664740,806434111,-1.6561506430255335,0.1293010711669922,-1.5218213240252894,0.00703586358577013,0.0008153018425218761,0.6743542551994324,0.0,-0.0,0.0,0.0,0.0,0.0
1782664740,814372454,-1.6561387220965784,0.12926530838012695,-1.5218213240252894,0.007083426229655743,0.0008512545027770102,0.6743422150611877,0.0,-0.0,0.0,0.0,0.0,0.0
1782664740,822378040,-1.6561625639544886,0.1293010711669922,-1.5218456427203577,0.007059832103550434,0.0008033175836317241,0.6743542551994324,0.0,-0.0,0.0,0.0,0.0,0.0
1782664740,830397236,-1.656102482472555,0.1292891502380371,-1.5218213240252894,0.007083426229655743,0.0008272860432043672,0.6743662357330322,0.0,-0.0,0.0,0.0,0.0,0.0
1782664740,838429470,-1.6561744848834437,0.12925338745117188,-1.5218094030963343,0.007047847844660282,0.0008272860432043672,0.6743302345275879,0.0,-0.0,0.0,0.0,0.0,0.0
1782664740,846397091,-1.656210724507467,0.12932491302490234,-1.5218575636493128,0.007047847844660282,0.0008033175836317241,0.6743422150611877,0.0,-0.0,0.0,0.0,0.0,0.0
1782664740,854384695,-1.6561506430255335,0.12927722930908203,-1.5218575636493128,0.007023879326879978,0.0008392703020945191,0.6743901968002319,0.0,-0.0,0.0,0.0,0.0,0.0
1782664740,862390614,-1.6561983267413538,0.12933731079101562,-1.5218694845782679,0.007023879326879978,0.0008153018425218761,0.6743782162666321,0.0,-0.0,0.0,0.0,0.0,0.0
1782664740,870424310,-1.6561506430255335,0.1292891502380371,-1.5218337217914026,0.007023879326879978,0.0007909588748589158,0.6744141578674316,0.0,-0.0,0.0,0.0,0.0,0.0
1782664740,878392913,-1.65611440340151,0.12931299209594727,-1.5218337217914026,0.0069999112747609615,0.0007909588748589158,0.6743662357330322,0.0,-0.0,0.0,0.0,0.0,0.0
1782664740,886380424,-1.6561983267413538,0.12927722930908203,-1.5218456427203577,0.007059832103550434,0.0008392703020945191,0.6744141578674316,0.0,-0.0,0.0,0.0,0.0,0.0
1782664740,894396584,-1.6561744848834437,0.1293010711669922,-1.5218575636493128,0.007047847844660282,0.0008153018425218761,0.6744021773338318,0.0,-0.0,0.0,0.0,0.0,0.0
1782664740,902425947,-1.6561387220965784,0.12933731079101562,-1.5218213240252894,0.007059832103550434,0.0008033175836317241,0.6743542551994324,0.0,-0.0,0.0,0.0,0.0,0.0
1782664740,910394347,-1.6561387220965784,0.12931299209594727,-1.5218337217914026,0.007047847844660282,0.0008272860432043672,0.6744021773338318,0.0,-0.0,0.0,0.0,0.0,0.0
1782664740,918380672,-1.6561864058123987,0.1292891502380371,-1.5218575636493128,0.007119379006326199,0.0008512545027770102,0.6743422150611877,0.0,-0.0,0.0,0.0,0.0,0.0
1782664740,926392332,-1.6561983267413538,0.12936115264892578,-1.5218094030963343,0.007071441970765591,0.0008153018425218761,0.6743662357330322,0.0,-0.0,0.0,0.0,0.0,0.0
1782664740,934427880,-1.6561744848834437,0.1292891502380371,-1.5218337217914026,0.007071441970765591,0.0008392703020945191,0.6744141578674316,0.0,-0.0,0.0,0.0,0.0,0.0
1782664740,942392557,-1.6561506430255335,0.12927722930908203,-1.5218094030963343,0.007071441970765591,0.0007789746159687638,0.6743782162666321,0.0,-0.0,0.0,0.0,0.0,0.0
1782664740,950374568,-1.6561864058123987,0.12932491302490234,-1.5218213240252894,0.007083426229655743,0.0007909588748589158,0.6743901968002319,0.0,-0.0,0.0,0.0,0.0,0.0
1782664740,958389468,-1.6561744848834437,0.12926530838012695,-1.5218575636493128,0.007071441970765591,0.0008153018425218761,0.6743662357330322,0.0,-0.0,0.0,0.0,0.0,0.0
1782664740,966426572,-1.6561864058123987,0.12932491302490234,-1.5218694845782679,0.007059832103550434,0.0007909588748589158,0.6743422150611877,0.0,-0.0,0.0,0.0,0.0,0.0
1782664740,974387435,-1.6561625639544886,0.12932491302490234,-1.5218456427203577,0.007083426229655743,0.0008153018425218761,0.6743662357330322,0.0,-0.0,0.0,0.0,0.0,0.0
1782664740,982385983,-1.6561983267413538,0.1292891502380371,-1.5218094030963343,0.007023879326879978,0.0008153018425218761,0.6744141578674316,0.0,-0.0,0.0,0.0,0.0,0.0
1782664740,990380531,-1.6561506430255335,0.1293010711669922,-1.521881405507223,0.007047847844660282,0.0008153018425218761,0.6743422150611877,0.0,-0.0,0.0,0.0,0.0,0.0
1782664740,998462413,-1.6561268011676233,0.12932491302490234,-1.5218213240252894,0.007059832103550434,0.0008033175836317241,0.6743901968002319,0.0,-0.0,0.0,0.0,0.0,0.0
1782664741,6417757,-1.6561864058123987,0.1293010711669922,-1.5218456427203577,0.007083426229655743,0.0008272860432043672,0.6744021773338318,0.0,-0.0,0.0,0.0,0.0,0.0
1782664741,14390083,-1.6561983267413538,0.1292891502380371,-1.5218337217914026,0.007071441970765591,0.0008033175836317241,0.6743782162666321,0.0,-0.0,0.0,0.0,0.0,0.0
1782664741,22382612,-1.6561864058123987,0.12926530838012695,-1.5218575636493128,0.00703586358577013,0.0008272860432043672,0.6743302345275879,0.0,-0.0,0.0,0.0,0.0,0.0
1782664741,30462513,-1.6561506430255335,0.1292891502380371,-1.5218456427203577,0.007095410488545895,0.0008153018425218761,0.6743302345275879,0.0,-0.0,0.0,0.0,0.0,0.0
1782664741,38392190,-1.6561625639544886,0.12921714782714844,-1.5218575636493128,0.007083426229655743,0.0008392703020945191,0.6743782162666321,0.0,-0.0,0.0,0.0,0.0,0.0
1782664741,46392905,-1.6561864058123987,0.12933731079101562,-1.521893326436178,0.007059832103550434,0.0007909588748589158,0.6743542551994324,0.0,-0.0,0.0,0.0,0.0,0.0
1782664741,54397231,-1.656210724507467,0.12932491302490234,-1.521893326436178,0.007071441970765591,0.0008033175836317241,0.6743302345275879,0.0,-0.0,0.0,0.0,0.0,0.0
1782664741,62429131,-1.6561744848834437,0.12932491302490234,-1.5218456427203577,0.00703586358577013,0.0008153018425218761,0.6743542551994324,0.0,-0.0,0.0,0.0,0.0,0.0
1782664741,70433606,-1.6561744848834437,0.12931299209594727,-1.521905247365133,0.00703586358577013,0.0008153018425218761,0.6743542551994324,0.0,-0.0,0.0,0.0,0.0,0.0
1782664741,78404820,-1.6561625639544886,0.12932491302490234,-1.5218456427203577,0.007059832103550434,0.0008033175836317241,0.6743542551994324,0.0,-0.0,0.0,0.0,0.0,0.0
1782664741,86395516,-1.6561744848834437,0.1292891502380371,-1.5218213240252894,0.007059832103550434,0.0008392703020945191,0.6744021773338318,0.0,-0.0,0.0,0.0,0.0,0.0
1782664741,94481973,-1.6561864058123987,0.1292891502380371,-1.5218213240252894,0.007071441970765591,0.0008272860432043672,0.6743901968002319,0.0,-0.0,0.0,0.0,0.0,0.0
1782664741,102389131,-1.6561744848834437,0.1293010711669922,-1.5218694845782679,0.007047847844660282,0.0008272860432043672,0.6743662357330322,0.0,-0.0,0.0,0.0,0.0,0.0
1782664741,110391365,-1.6561625639544886,0.1292891502380371,-1.521881405507223,0.007047847844660282,0.0008752229623496532,0.6743901968002319,0.0,-0.0,0.0,0.0,0.0,0.0
1782664741,118419172,-1.6561864058123987,0.12926530838012695,-1.5218575636493128,0.007059832103550434,0.0008392703020945191,0.6743901968002319,0.0,-0.0,0.0,0.0,0.0,0.0
1782664741,126540148,-1.6561625639544886,0.1293010711669922,-1.5218575636493128,0.007071441970765591,0.0007789746159687638,0.6744021773338318,0.0,-0.0,0.0,0.0,0.0,0.0
1782664741,134395028,-1.6561625639544886,0.12933731079101562,-1.5218575636493128,0.007023879326879978,0.0008153018425218761,0.6744141578674316,0.0,-0.0,0.0,0.0,0.0,0.0
1782664741,142374353,-1.6561625639544886,0.1293010711669922,-1.5218213240252894,0.00703586358577013,0.0008512545027770102,0.6743662357330322,0.0,-0.0,0.0,0.0,0.0,0.0
1782664741,150387253,-1.6561625639544886,0.12931299209594727,-1.5218694845782679,0.007023879326879978,0.0008153018425218761,0.6743901968002319,0.0,-0.0,0.0,0.0,0.0,0.0
1782664741,158437710,-1.6561387220965784,0.12926530838012695,-1.5218337217914026,0.007023879326879978,0.0008033175836317241,0.6743662357330322,0.0,-0.0,0.0,0.0,0.0,0.0
1782664741,166443832,-1.6561864058123987,0.1292891502380371,-1.5218337217914026,0.00703586358577013,0.0008272860432043672,0.6744021773338318,0.0,-0.0,0.0,0.0,0.0,0.0
1782664741,174359583,-1.6561983267413538,0.12926530838012695,-1.5218337217914026,0.007047847844660282,0.0008272860432043672,0.6743662357330322,0.0,-0.0,0.0,0.0,0.0,0.0
1782664741,182384557,-1.6561864058123987,0.12932491302490234,-1.5218337217914026,0.007083426229655743,0.0008033175836317241,0.6743662357330322,0.0,-0.0,0.0,0.0,0.0,0.0
1782664741,190423050,-1.6561744848834437,0.1293010711669922,-1.5218337217914026,0.007059832103550434,0.0008272860432043672,0.6743302345275879,0.0,-0.0,0.0,0.0,0.0,0.0
1782664741,198389857,-1.6561387220965784,0.12925338745117188,-1.5218456427203577,0.007071441970765591,0.0008272860432043672,0.6743542551994324,0.0,-0.0,0.0,0.0,0.0,0.0
1782664741,206365813,-1.6561387220965784,0.1293010711669922,-1.521881405507223,0.007047847844660282,0.0008512545027770102,0.6744021773338318,0.0,-0.0,0.0,0.0,0.0,0.0
1782664741,214362546,-1.6561983267413538,0.1292891502380371,-1.5218456427203577,0.007083426229655743,0.0007789746159687638,0.6743422150611877,0.0,-0.0,0.0,0.0,0.0,0.0
1782664741,222384798,-1.6561864058123987,0.12931299209594727,-1.5218213240252894,0.007011895067989826,0.0007789746159687638,0.6743422150611877,0.0,-0.0,0.0,0.0,0.0,0.0
1782664741,230386772,-1.6561744848834437,0.12931299209594727,-1.5218694845782679,0.007071441970765591,0.0008392703020945191,0.6744021773338318,0.0,-0.0,0.0,0.0,0.0,0.0
1782664741,238394691,-1.6561744848834437,0.12936115264892578,-1.5218575636493128,0.007071441970765591,0.0008512545027770102,0.6743542551994324,0.0,-0.0,0.0,0.0,0.0,0.0
1782664741,246381368,-1.6561625639544886,0.12931299209594727,-1.5218456427203577,0.007083426229655743,0.0008512545027770102,0.6744261384010315,0.0,-0.0,0.0,0.0,0.0,0.0
1782664741,254378676,-1.6561744848834437,0.12931299209594727,-1.5218694845782679,0.007095410488545895,0.0008153018425218761,0.6743901968002319,0.0,-0.0,0.0,0.0,0.0,0.0
1782664741,262395057,-1.6561506430255335,0.1292891502380371,-1.5218213240252894,0.007023879326879978,0.0008153018425218761,0.6743782162666321,0.0,-0.0,0.0,0.0,0.0,0.0
1782664741,270386050,-1.6561625639544886,0.12931299209594727,-1.5218337217914026,0.007059832103550434,0.0008392703020945191,0.6744141578674316,0.0,-0.0,0.0,0.0,0.0,0.0
1782664741,278392672,-1.6561864058123987,0.12931299209594727,-1.5218337217914026,0.007047847844660282,0.0008392703020945191,0.6744021773338318,0.0,-0.0,0.0,0.0,0.0,0.0
1782664741,286380350,-1.6561268011676233,0.12931299209594727,-1.5218575636493128,0.007071441970765591,0.0008272860432043672,0.6743662357330322,0.0,-0.0,0.0,0.0,0.0,0.0
1782664741,294374750,-1.656210724507467,0.1293010711669922,-1.5217974821673792,0.007083426229655743,0.0007909588748589158,0.6743422150611877,0.0,-0.0,0.0,0.0,0.0,0.0
1782664741,302452188,-1.6561983267413538,0.1293010711669922,-1.5218694845782679,0.007059832103550434,0.0008272860432043672,0.6743782162666321,0.0,-0.0,0.0,0.0,0.0,0.0
1782664741,310406254,-1.6561744848834437,0.12927722930908203,-1.5218456427203577,0.007107394747436047,0.0008153018425218761,0.6743542551994324,0.0,-0.0,0.0,0.0,0.0,0.0
1782664741,318410135,-1.656210724507467,0.1293492317199707,-1.5218213240252894,0.007059832103550434,0.0008033175836317241,0.6743302345275879,0.0,-0.0,0.0,0.0,0.0,0.0
1782664741,326432332,-1.6561268011676233,0.1292891502380371,-1.5218456427203577,0.007059832103550434,0.0008392703020945191,0.6743422150611877,0.0,-0.0,0.0,0.0,0.0,0.0
1782664741,334370009,-1.6561864058123987,0.1292891502380371,-1.5218575636493128,0.007083426229655743,0.0008153018425218761,0.6743901968002319,0.0,-0.0,0.0,0.0,0.0,0.0
1782664741,342389039,-1.6561268011676233,0.12932491302490234,-1.5218337217914026,0.007071441970765591,0.0008512545027770102,0.6743302345275879,0.0,-0.0,0.0,0.0,0.0,0.0
1782664741,350395939,-1.6561983267413538,0.12931299209594727,-1.5218575636493128,0.007059832103550434,0.0007909588748589158,0.6743422150611877,0.0,-0.0,0.0,0.0,0.0,0.0
1782664741,358384357,-1.6561625639544886,0.1292891502380371,-1.5218694845782679,0.007047847844660282,0.0008033175836317241,0.6743901968002319,0.0,-0.0,0.0,0.0,0.0,0.0
1782664741,366374628,-1.6561625639544886,0.1292891502380371,-1.5218213240252894,0.007023879326879978,0.0007909588748589158,0.6744261384010315,0.0,-0.0,0.0,0.0,0.0,0.0
1782664741,374381565,-1.6561983267413538,0.12926530838012695,-1.5218456427203577,0.007023879326879978,0.0008033175836317241,0.6743782162666321,0.0,-0.0,0.0,0.0,0.0,0.0
1782664741,382383595,-1.6561983267413538,0.1293010711669922,-1.5218694845782679,0.007047847844660282,0.0008512545027770102,0.6744021773338318,0.0,-0.0,0.0,0.0,0.0,0.0
1782664741,390377439,-1.6561744848834437,0.12926530838012695,-1.5218337217914026,0.007023879326879978,0.0007909588748589158,0.6743782162666321,0.0,-0.0,0.0,0.0,0.0,0.0
1782664741,398380635,-1.6561268011676233,0.1293010711669922,-1.5217974821673792,0.007023879326879978,0.0008512545027770102,0.6743901968002319,0.0,-0.0,0.0,0.0,0.0,0.0
1782664741,406440851,-1.6561625639544886,0.12931299209594727,-1.5218575636493128,0.00703586358577013,0.0008512545027770102,0.6743782162666321,0.0,-0.0,0.0,0.0,0.0,0.0
1782664741,414373954,-1.6561864058123987,0.1292891502380371,-1.5218575636493128,0.007023879326879978,0.0008153018425218761,0.6743782162666321,0.0,-0.0,0.0,0.0,0.0,0.0
1782664741,422376076,-1.6561625639544886,0.12925338745117188,-1.5218575636493128,0.007107394747436047,0.0008153018425218761,0.6743542551994324,0.0,-0.0,0.0,0.0,0.0,0.0
1782664741,430373957,-1.6561506430255335,0.1292891502380371,-1.5218456427203577,0.007071441970765591,0.0008153018425218761,0.6743542551994324,0.0,-0.0,0.0,0.0,0.0,0.0
1782664741,438376580,-1.656102482472555,0.12927722930908203,-1.5218337217914026,0.007059832103550434,0.0008153018425218761,0.6743662357330322,0.0,-0.0,0.0,0.0,0.0,0.0
1782664741,446379035,-1.6561744848834437,0.1292891502380371,-1.521881405507223,0.007071441970765591,0.0008392703020945191,0.6743901968002319,0.0,-0.0,0.0,0.0,0.0,0.0
1782664741,454418732,-1.6561744848834437,0.12931299209594727,-1.5218337217914026,0.007023879326879978,0.0008033175836317241,0.6743782162666321,0.0,-0.0,0.0,0.0,0.0,0.0
1782664741,462428966,-1.656210724507467,0.12932491302490234,-1.5218694845782679,0.007071441970765591,0.0007909588748589158,0.6743901968002319,0.0,-0.0,0.0,0.0,0.0,0.0
1782664741,470410458,-1.6561864058123987,0.12936115264892578,-1.5218456427203577,0.007107394747436047,0.0008033175836317241,0.6743782162666321,0.0,-0.0,0.0,0.0,0.0,0.0
1782664741,478404265,-1.6561983267413538,0.1293010711669922,-1.5218337217914026,0.00703586358577013,0.0008033175836317241,0.6744141578674316,0.0,-0.0,0.0,0.0,0.0,0.0
1782664741,486409165,-1.65611440340151,0.12932491302490234,-1.5218575636493128,0.007071441970765591,0.0008033175836317241,0.6743662357330322,0.0,-0.0,0.0,0.0,0.0,0.0
1782664741,494433918,-1.6562226454364222,0.1293010711669922,-1.5218213240252894,0.007047847844660282,0.0008033175836317241,0.6744141578674316,0.0,-0.0,0.0,0.0,0.0,0.0
1782664741,502416317,-1.6561983267413538,0.1293010711669922,-1.521881405507223,0.007059832103550434,0.0008392703020945191,0.6743782162666321,0.0,-0.0,0.0,0.0,0.0,0.0
1782664741,510411051,-1.6561744848834437,0.12933731079101562,-1.5218694845782679,0.007011895067989826,0.0008153018425218761,0.6743782162666321,0.0,-0.0,0.0,0.0,0.0,0.0
1782664741,518401747,-1.6561864058123987,0.1292891502380371,-1.5218456427203577,0.007083426229655743,0.0007789746159687638,0.6743901968002319,0.0,-0.0,0.0,0.0,0.0,0.0
1782664741,526411462,-1.6561506430255335,0.1293010711669922,-1.5218456427203577,0.00703586358577013,0.0008153018425218761,0.6743542551994324,0.0,-0.0,0.0,0.0,0.0,0.0
1782664741,534394250,-1.6561983267413538,0.12932491302490234,-1.5217855612384241,0.007059832103550434,0.0008153018425218761,0.6743662357330322,0.0,-0.0,0.0,0.0,0.0,0.0
1782664741,542389502,-1.6561983267413538,0.1293010711669922,-1.5218337217914026,0.007047847844660282,0.0007789746159687638,0.6743662357330322,0.0,-0.0,0.0,0.0,0.0,0.0
1782664741,550396365,-1.6561864058123987,0.12932491302490234,-1.5218337217914026,0.007047847844660282,0.0008272860432043672,0.6743542551994324,0.0,-0.0,0.0,0.0,0.0,0.0
1782664741,558425303,-1.6561506430255335,0.12932491302490234,-1.5218094030963343,0.007071441970765591,0.0008153018425218761,0.6743901968002319,0.0,-0.0,0.0,0.0,0.0,0.0
1782664741,566403795,-1.6561744848834437,0.1293010711669922,-1.5218694845782679,0.007071441970765591,0.0008272860432043672,0.6743542551994324,0.0,-0.0,0.0,0.0,0.0,0.0
1782664741,574403751,-1.656210724507467,0.12932491302490234,-1.5218575636493128,0.007059832103550434,0.0008153018425218761,0.6743901968002319,0.0,-0.0,0.0,0.0,0.0,0.0
1782664741,582453225,-1.6561744848834437,0.1293010711669922,-1.5218213240252894,0.00703586358577013,0.0008153018425218761,0.6743422150611877,0.0,-0.0,0.0,0.0,0.0,0.0
1782664741,590421403,-1.6561744848834437,0.1293010711669922,-1.5218094030963343,0.007023879326879978,0.0007909588748589158,0.6743302345275879,0.0,-0.0,0.0,0.0,0.0,0.0
1782664741,598396321,-1.6561625639544886,0.1292891502380371,-1.5218575636493128,0.007059832103550434,0.0008392703020945191,0.6743782162666321,0.0,-0.0,0.0,0.0,0.0,0.0
1782664741,606389425,-1.6561744848834437,0.1293492317199707,-1.5218694845782679,0.007071441970765591,0.0008272860432043672,0.6743542551994324,0.0,-0.0,0.0,0.0,0.0,0.0
1782664741,614404214,-1.6561744848834437,0.12933731079101562,-1.521881405507223,0.007083426229655743,0.0008392703020945191,0.6744021773338318,0.0,-0.0,0.0,0.0,0.0,0.0
1782664741,622393428,-1.6561506430255335,0.12933731079101562,-1.5218456427203577,0.007071441970765591,0.0008272860432043672,0.6743901968002319,0.0,-0.0,0.0,0.0,0.0,0.0
1782664741,630407551,-1.6561625639544886,0.12926530838012695,-1.5218575636493128,0.007083426229655743,0.0007789746159687638,0.6743662357330322,0.0,-0.0,0.0,0.0,0.0,0.0
1782664741,638405617,-1.6561864058123987,0.12931299209594727,-1.5218694845782679,0.007071441970765591,0.0008512545027770102,0.6743662357330322,0.0,-0.0,0.0,0.0,0.0,0.0
1782664741,646404406,-1.6561506430255335,0.1293492317199707,-1.5218575636493128,0.007059832103550434,0.0007909588748589158,0.6743302345275879,0.0,-0.0,0.0,0.0,0.0,0.0
1782664741,654383880,-1.6561506430255335,0.12932491302490234,-1.5218337217914026,0.007095410488545895,0.0008033175836317241,0.6744021773338318,0.0,-0.0,0.0,0.0,0.0,0.0
1782664741,662396003,-1.6561625639544886,0.1293010711669922,-1.5218575636493128,0.007059832103550434,0.0007909588748589158,0.6743662357330322,0.0,-0.0,0.0,0.0,0.0,0.0
1782664741,670445181,-1.6561983267413538,0.12931299209594727,-1.5218456427203577,0.007059832103550434,0.0008272860432043672,0.6743662357330322,0.0,-0.0,0.0,0.0,0.0,0.0
1782664741,678395840,-1.6561506430255335,0.1293010711669922,-1.5218694845782679,0.007059832103550434,0.0008033175836317241,0.6743782162666321,0.0,-0.0,0.0,0.0,0.0,0.0
1782664741,686408258,-1.6562226454364222,0.1292891502380371,-1.5217974821673792,0.007059832103550434,0.0008272860432043672,0.6744021773338318,0.0,-0.0,0.0,0.0,0.0,0.0
1782664741,694430122,-1.6562226454364222,0.12932491302490234,-1.5218575636493128,0.007083426229655743,0.0008153018425218761,0.6743782162666321,0.0,-0.0,0.0,0.0,0.0,0.0
1782664741,702400299,-1.6561625639544886,0.12926530838012695,-1.521881405507223,0.00703586358577013,0.0008512545027770102,0.6744021773338318,0.0,-0.0,0.0,0.0,0.0,0.0
1782664741,710377551,-1.6561744848834437,0.12932491302490234,-1.5218694845782679,0.00703586358577013,0.0008033175836317241,0.6743901968002319,0.0,-0.0,0.0,0.0,0.0,0.0
1782664741,718382877,-1.6561506430255335,0.1292891502380371,-1.5218575636493128,0.007071441970765591,0.0008153018425218761,0.6743901968002319,0.0,-0.0,0.0,0.0,0.0,0.0
1782664741,726420647,-1.6561506430255335,0.12932491302490234,-1.5218456427203577,0.007047847844660282,0.0008272860432043672,0.6744141578674316,0.0,-0.0,0.0,0.0,0.0,0.0
1782664741,734383010,-1.6561268011676233,0.12933731079101562,-1.5218575636493128,0.007059832103550434,0.0008153018425218761,0.6743662357330322,0.0,-0.0,0.0,0.0,0.0,0.0
1782664741,742375651,-1.6561864058123987,0.12927722930908203,-1.5218337217914026,0.007059832103550434,0.0007669904152862728,0.6743542551994324,0.0,-0.0,0.0,0.0,0.0,0.0
1782664741,750378680,-1.6561864058123987,0.12927722930908203,-1.5218694845782679,0.0069999112747609615,0.0008512545027770102,0.6743901968002319,0.0,-0.0,0.0,0.0,0.0,0.0
1782664741,758399877,-1.6561506430255335,0.12932491302490234,-1.5218694845782679,0.007047847844660282,0.0008272860432043672,0.6743782162666321,0.0,-0.0,0.0,0.0,0.0,0.0
1782664741,766374832,-1.6561864058123987,0.1293010711669922,-1.5218094030963343,0.007095410488545895,0.0007789746159687638,0.6743302345275879,0.0,-0.0,0.0,0.0,0.0,0.0
1782664741,774373454,-1.6561506430255335,0.12927722930908203,-1.5217974821673792,0.007083426229655743,0.0007909588748589158,0.6743782162666321,0.0,-0.0,0.0,0.0,0.0,0.0
1782664741,782365614,-1.6561983267413538,0.1293010711669922,-1.5218575636493128,0.007059832103550434,0.0008392703020945191,0.6743782162666321,0.0,-0.0,0.0,0.0,0.0,0.0
1782664741,790397662,-1.6561387220965784,0.12927722930908203,-1.521881405507223,0.007071441970765591,0.0007909588748589158,0.6744261384010315,0.0,-0.0,0.0,0.0,0.0,0.0
1782664741,798373062,-1.6561506430255335,0.1292891502380371,-1.5218456427203577,0.007047847844660282,0.0008512545027770102,0.6743901968002319,0.0,-0.0,0.0,0.0,0.0,0.0
1782664741,806372666,-1.6561744848834437,0.1292891502380371,-1.5218456427203577,0.007059832103550434,0.0007909588748589158,0.6743782162666321,0.0,-0.0,0.0,0.0,0.0,0.0
1782664741,814425677,-1.6561506430255335,0.12932491302490234,-1.5217974821673792,0.007083426229655743,0.0008272860432043672,0.6743542551994324,0.0,-0.0,0.0,0.0,0.0,0.0
1782664741,822401021,-1.6561506430255335,0.12931299209594727,-1.5218213240252894,0.007047847844660282,0.0008272860432043672,0.6743422150611877,0.0,-0.0,0.0,0.0,0.0,0.0
1782664741,830379718,-1.6561744848834437,0.12932491302490234,-1.5218575636493128,0.007047847844660282,0.0008512545027770102,0.6744141578674316,0.0,-0.0,0.0,0.0,0.0,0.0
1782664741,838380932,-1.6561744848834437,0.12932491302490234,-1.5218456427203577,0.00703586358577013,0.0008033175836317241,0.6743302345275879,0.0,-0.0,0.0,0.0,0.0,0.0
1782664741,846376888,-1.6561506430255335,0.12932491302490234,-1.5218337217914026,0.007023879326879978,0.0008033175836317241,0.6744021773338318,0.0,-0.0,0.0,0.0,0.0,0.0
1782664741,854402399,-1.6561625639544886,0.12926530838012695,-1.5218575636493128,0.007071441970765591,0.0007909588748589158,0.6743901968002319,0.0,-0.0,0.0,0.0,0.0,0.0
1782664741,862376595,-1.6561864058123987,0.12932491302490234,-1.5218213240252894,0.00703586358577013,0.0008392703020945191,0.6743901968002319,0.0,-0.0,0.0,0.0,0.0,0.0
1782664741,870380403,-1.6561506430255335,0.1293010711669922,-1.5218575636493128,0.00703586358577013,0.0008033175836317241,0.6743662357330322,0.0,-0.0,0.0,0.0,0.0,0.0
1782664741,878372006,-1.6561625639544886,0.1292891502380371,-1.5218694845782679,0.007023879326879978,0.0008153018425218761,0.6743901968002319,0.0,-0.0,0.0,0.0,0.0,0.0
1782664741,886394647,-1.6561625639544886,0.12933731079101562,-1.5218337217914026,0.007083426229655743,0.0008512545027770102,0.6743901968002319,0.0,-0.0,0.0,0.0,0.0,0.0
1782664741,894377844,-1.6561744848834437,0.12932491302490234,-1.5218456427203577,0.00703586358577013,0.0008512545027770102,0.6743422150611877,0.0,-0.0,0.0,0.0,0.0,0.0
1782664741,902366336,-1.6561864058123987,0.12931299209594727,-1.5218694845782679,0.007071441970765591,0.0008153018425218761,0.6743422150611877,0.0,-0.0,0.0,0.0,0.0,0.0
1782664741,910376347,-1.6561268011676233,0.12932491302490234,-1.5218337217914026,0.00703586358577013,0.0008392703020945191,0.6743901968002319,0.0,-0.0,0.0,0.0,0.0,0.0
1782664741,918394822,-1.6561506430255335,0.12931299209594727,-1.521881405507223,0.00703586358577013,0.0008392703020945191,0.6743662357330322,0.0,-0.0,0.0,0.0,0.0,0.0
1782664741,926383925,-1.6561744848834437,0.12932491302490234,-1.521881405507223,0.007083426229655743,0.0007909588748589158,0.6743662357330322,0.0,-0.0,0.0,0.0,0.0,0.0
1782664741,934369714,-1.6561744848834437,0.12927722930908203,-1.5218213240252894,0.007095410488545895,0.0008272860432043672,0.6743901968002319,0.0,-0.0,0.0,0.0,0.0,0.0
1782664741,942372355,-1.6561268011676233,0.12931299209594727,-1.521881405507223,0.007071441970765591,0.0007909588748589158,0.6743422150611877,0.0,-0.0,0.0,0.0,0.0,0.0
1782664741,950715888,-1.6561864058123987,0.12926530838012695,-1.5218575636493128,0.007071441970765591,0.0008392703020945191,0.6743302345275879,0.0,-0.0,0.0,0.0,0.0,0.0
1782664741,958364618,-1.6561387220965784,0.12933731079101562,-1.521881405507223,0.007059832103550434,0.0008153018425218761,0.6743901968002319,0.0,-0.0,0.0,0.0,0.0,0.0
1782664741,966372333,-1.6561744848834437,0.12931299209594727,-1.5218575636493128,0.007059832103550434,0.0008512545027770102,0.6744021773338318,0.0,-0.0,0.0,0.0,0.0,0.0
1782664741,974396511,-1.6561268011676233,0.12927722930908203,-1.5218213240252894,0.007011895067989826,0.0008033175836317241,0.6743422150611877,0.0,-0.0,0.0,0.0,0.0,0.0
1782664741,982367521,-1.6561983267413538,0.12931299209594727,-1.5218456427203577,0.007023879326879978,0.0008392703020945191,0.6743662357330322,0.0,-0.0,0.0,0.0,0.0,0.0
1782664741,990366884,-1.6561625639544886,0.12931299209594727,-1.5218337217914026,0.007083426229655743,0.0008153018425218761,0.6744021773338318,0.0,-0.0,0.0,0.0,0.0,0.0
1782664741,998362432,-1.6561864058123987,0.12932491302490234,-1.5218337217914026,0.007083426229655743,0.0008033175836317241,0.6743542551994324,0.0,-0.0,0.0,0.0,0.0,0.0
1782664742,6369925,-1.6561983267413538,0.12932491302490234,-1.5218337217914026,0.00703586358577013,0.0008512545027770102,0.6743302345275879,0.0,-0.0,0.0,0.0,0.0,0.0
1782664742,14410992,-1.6561506430255335,0.1293492317199707,-1.5218456427203577,0.00703586358577013,0.0008153018425218761,0.6743901968002319,0.0,-0.0,0.0,0.0,0.0,0.0
1782664742,22772970,-1.6561625639544886,0.12925338745117188,-1.5218456427203577,0.007083426229655743,0.0008153018425218761,0.6743782162666321,0.0,-0.0,0.0,0.0,0.0,0.0
1782664742,30406607,-1.6561625639544886,0.12927722930908203,-1.5218694845782679,0.007071441970765591,0.0008033175836317241,0.6743542551994324,0.0,-0.0,0.0,0.0,0.0,0.0
1782664742,38364470,-1.656210724507467,0.12927722930908203,-1.5218575636493128,0.007059832103550434,0.0008153018425218761,0.6743542551994324,0.0,-0.0,0.0,0.0,0.0,0.0
1782664742,46392037,-1.656210724507467,0.12933731079101562,-1.5218694845782679,0.007071441970765591,0.0008512545027770102,0.6743542551994324,0.0,-0.0,0.0,0.0,0.0,0.0
1782664742,54371141,-1.6561506430255335,0.12926530838012695,-1.5218456427203577,0.007023879326879978,0.0008272860432043672,0.6744261384010315,0.0,-0.0,0.0,0.0,0.0,0.0
1782664742,62407448,-1.6561744848834437,0.12927722930908203,-1.521881405507223,0.00703586358577013,0.0008392703020945191,0.6743422150611877,0.0,-0.0,0.0,0.0,0.0,0.0
1782664742,70404867,-1.6561506430255335,0.12933731079101562,-1.5219176451312464,0.00703586358577013,0.0008392703020945191,0.6743542551994324,0.0,-0.0,0.0,0.0,0.0,0.0
1782664742,78367656,-1.6561268011676233,0.12927722930908203,-1.5218694845782679,0.00703586358577013,0.0008153018425218761,0.6743901968002319,0.0,-0.0,0.0,0.0,0.0,0.0
1782664742,86438149,-1.6561625639544886,0.12932491302490234,-1.521881405507223,0.007023879326879978,0.0008272860432043672,0.6744021773338318,0.0,-0.0,0.0,0.0,0.0,0.0
1782664742,94386474,-1.6561625639544886,0.12933731079101562,-1.521893326436178,0.007071441970765591,0.0008392703020945191,0.6744021773338318,0.0,-0.0,0.0,0.0,0.0,0.0
1782664742,102382541,-1.6561744848834437,0.12927722930908203,-1.5218456427203577,0.007023879326879978,0.0008153018425218761,0.6744141578674316,0.0,-0.0,0.0,0.0,0.0,0.0
1782664742,110385812,-1.6561744848834437,0.1292891502380371,-1.5218337217914026,0.007107394747436047,0.0007789746159687638,0.6743782162666321,0.0,-0.0,0.0,0.0,0.0,0.0
1782664742,118393638,-1.6561864058123987,0.1293492317199707,-1.5218456427203577,0.007059832103550434,0.0008153018425218761,0.6744021773338318,0.0,-0.0,0.0,0.0,0.0,0.0
1782664742,126373427,-1.6561744848834437,0.1292891502380371,-1.5218694845782679,0.007023879326879978,0.0008272860432043672,0.6743542551994324,0.0,-0.0,0.0,0.0,0.0,0.0
1782664742,134370660,-1.6562226454364222,0.1293010711669922,-1.5218575636493128,0.007059832103550434,0.0008392703020945191,0.6743302345275879,0.0,-0.0,0.0,0.0,0.0,0.0
1782664742,142364986,-1.6561864058123987,0.1292891502380371,-1.521881405507223,0.007023879326879978,0.0007789746159687638,0.6743782162666321,0.0,-0.0,0.0,0.0,0.0,0.0
1782664742,150359960,-1.6561864058123987,0.12933731079101562,-1.5218337217914026,0.007047847844660282,0.0008392703020945191,0.6743662357330322,0.0,-0.0,0.0,0.0,0.0,0.0
1782664742,158366916,-1.6561268011676233,0.1293010711669922,-1.5218094030963343,0.007023879326879978,0.0007909588748589158,0.6743782162666321,0.0,-0.0,0.0,0.0,0.0,0.0
1782664742,166369908,-1.6561625639544886,0.1292891502380371,-1.5218694845782679,0.00703586358577013,0.0008272860432043672,0.6743901968002319,0.0,-0.0,0.0,0.0,0.0,0.0
1782664742,174470532,-1.6561506430255335,0.1293010711669922,-1.5218694845782679,0.007083426229655743,0.0007789746159687638,0.6744021773338318,0.0,-0.0,0.0,0.0,0.0,0.0
1782664742,182380486,-1.6561268011676233,0.1292891502380371,-1.5218456427203577,0.007047847844660282,0.0007909588748589158,0.6743901968002319,0.0,-0.0,0.0,0.0,0.0,0.0
1782664742,190393109,-1.6561864058123987,0.1292891502380371,-1.5218337217914026,0.007095410488545895,0.0008632387034595013,0.6744261384010315,0.0,-0.0,0.0,0.0,0.0,0.0
1782664742,198400435,-1.6561864058123987,0.12932491302490234,-1.5218575636493128,0.007119379006326199,0.0008272860432043672,0.6743901968002319,0.0,-0.0,0.0,0.0,0.0,0.0
1782664742,206384039,-1.6561625639544886,0.12925338745117188,-1.5218213240252894,0.007071441970765591,0.0008153018425218761,0.6743901968002319,0.0,-0.0,0.0,0.0,0.0,0.0
1782664742,214403198,-1.6561268011676233,0.1293010711669922,-1.5218694845782679,0.007059832103550434,0.0008033175836317241,0.6744021773338318,0.0,-0.0,0.0,0.0,0.0,0.0
1782664742,222394543,-1.6561744848834437,0.12932491302490234,-1.521893326436178,0.007047847844660282,0.0008153018425218761,0.6743901968002319,0.0,-0.0,0.0,0.0,0.0,0.0
1782664742,230397795,-1.6561387220965784,0.1293010711669922,-1.5218337217914026,0.007023879326879978,0.0008033175836317241,0.6743662357330322,0.0,-0.0,0.0,0.0,0.0,0.0
1782664742,238451010,-1.6562226454364222,0.12932491302490234,-1.5218575636493128,0.00703586358577013,0.0008392703020945191,0.6743542551994324,0.0,-0.0,0.0,0.0,0.0,0.0
1782664742,246430114,-1.6561864058123987,0.1292891502380371,-1.5218456427203577,0.007047847844660282,0.0008033175836317241,0.6744261384010315,0.0,-0.0,0.0,0.0,0.0,0.0
1782664742,254414828,-1.6561268011676233,0.12932491302490234,-1.5218694845782679,0.007071441970765591,0.0008512545027770102,0.6743422150611877,0.0,-0.0,0.0,0.0,0.0,0.0
1782664742,262390580,-1.6561625639544886,0.1293010711669922,-1.5218456427203577,0.007059832103550434,0.0008512545027770102,0.6743542551994324,0.0,-0.0,0.0,0.0,0.0,0.0
1782664742,270396888,-1.6561744848834437,0.12926530838012695,-1.5218337217914026,0.007059832103550434,0.0008153018425218761,0.6744021773338318,0.0,-0.0,0.0,0.0,0.0,0.0
1782664742,278430584,-1.6561625639544886,0.1292891502380371,-1.521893326436178,0.007047847844660282,0.0008272860432043672,0.6743302345275879,0.0,-0.0,0.0,0.0,0.0,0.0
1782664742,286397966,-1.6561625639544886,0.1293492317199707,-1.5218456427203577,0.007059832103550434,0.0008153018425218761,0.6743662357330322,0.0,-0.0,0.0,0.0,0.0,0.0
1782664742,294367217,-1.6561864058123987,0.12927722930908203,-1.5218694845782679,0.00703586358577013,0.0008272860432043672,0.6743901968002319,0.0,-0.0,0.0,0.0,0.0,0.0
