LukePepin/On-Edge/data/archived_logs/deceleration_data_1782665038.csv
timestamp_sec,timestamp_nanosec,shoulder_pan_pos,shoulder_lift_pos,elbow_pos,wrist_1_pos,wrist_2_pos,wrist_3_pos,shoulder_pan_vel,shoulder_lift_vel,elbow_vel,wrist_1_vel,wrist_2_vel,wrist_3_vel
1782665039,315032229,-1.6561506430255335,0.12955284118652344,-1.5218337217914026,0.006904037203639746,0.0007909588748589158,0.6744141578674316,0.0,-0.0,0.0,0.0,0.0,0.0
1782665039,323023822,-1.6562345663653772,0.12955284118652344,-1.5218213240252894,0.006904037203639746,0.0008153018425218761,0.6743662357330322,0.0,-0.0,0.0,0.0,0.0,0.0
1782665039,331033543,-1.6562226454364222,0.12950468063354492,-1.5218337217914026,0.006880068685859442,0.0008153018425218761,0.6743542551994324,0.0,-0.0,0.0,0.0,0.0,0.0
1782665039,339020543,-1.6562226454364222,0.1295170783996582,-1.5218337217914026,0.00692800572142005,0.0008272860432043672,0.6743782162666321,0.0,-0.0,0.0,0.0,0.0,0.0
1782665039,347047930,-1.656210724507467,0.12956476211547852,-1.5218456427203577,0.006856100168079138,0.0008153018425218761,0.6744141578674316,0.0,-0.0,0.0,0.0,0.0,0.0
1782665039,355019375,-1.6561625639544886,0.12949275970458984,-1.521881405507223,0.006880068685859442,0.0008272860432043672,0.6744261384010315,0.0,-0.0,0.0,0.0,0.0,0.0
1782665039,363021985,-1.6562226454364222,0.12954092025756836,-1.521881405507223,0.006904037203639746,0.0007909588748589158,0.6743901968002319,0.0,-0.0,0.0,0.0,0.0,0.0
1782665039,371016689,-1.6561864058123987,0.1295170783996582,-1.5218575636493128,0.006880068685859442,0.0008272860432043672,0.6744021773338318,0.0,-0.0,0.0,0.0,0.0,0.0
1782665039,379043669,-1.6561506430255335,0.12955284118652344,-1.5218456427203577,0.006892052944749594,0.0008392703020945191,0.6743542551994324,0.0,-0.0,0.0,0.0,0.0,0.0
1782665039,387013799,-1.6561387220965784,0.12954092025756836,-1.5218694845782679,0.00692800572142005,0.0007669904152862728,0.6743662357330322,0.0,-0.0,0.0,0.0,0.0,0.0
1782665039,395016798,-1.656210724507467,0.12955284118652344,-1.5218694845782679,0.00686808442696929,0.0008392703020945191,0.6743901968002319,0.0,-0.0,0.0,0.0,0.0,0.0
1782665039,403017557,-1.6561744848834437,0.1295170783996582,-1.5218694845782679,0.00686808442696929,0.0008392703020945191,0.6743662357330322,0.0,-0.0,0.0,0.0,0.0,0.0
1782665039,411035537,-1.656210724507467,0.1295170783996582,-1.5218213240252894,0.006880068685859442,0.0008512545027770102,0.6744141578674316,0.0,-0.0,0.0,0.0,0.0,0.0
1782665039,419019870,-1.6561864058123987,0.12954092025756836,-1.5218213240252894,0.006892052944749594,0.0008272860432043672,0.6743542551994324,0.0,-0.0,0.0,0.0,0.0,0.0
1782665039,427016314,-1.6561625639544886,0.12952899932861328,-1.5218337217914026,0.006916021462529898,0.0007909588748589158,0.6743901968002319,0.0,-0.0,0.0,0.0,0.0,0.0
1782665039,435017499,-1.656210724507467,0.12950468063354492,-1.5218694845782679,0.006916021462529898,0.0007909588748589158,0.6743662357330322,0.0,-0.0,0.0,0.0,0.0,0.0
1782665039,443048053,-1.6561983267413538,0.12950468063354492,-1.5218456427203577,0.00686808442696929,0.0008392703020945191,0.6743901968002319,0.0,-0.0,0.0,0.0,0.0,0.0
1782665039,451004035,-1.6561864058123987,0.12952899932861328,-1.521881405507223,0.006904037203639746,0.0008153018425218761,0.6743662357330322,0.0,-0.0,0.0,0.0,0.0,0.0
1782665039,459010794,-1.6561983267413538,0.12955284118652344,-1.5218694845782679,0.00692800572142005,0.0008153018425218761,0.6743782162666321,0.0,-0.0,0.0,0.0,0.0,0.0
1782665039,467016200,-1.6561625639544886,0.12954092025756836,-1.521893326436178,0.006892052944749594,0.0008033175836317241,0.6744021773338318,0.0,-0.0,0.0,0.0,0.0,0.0
1782665039,475018663,-1.656210724507467,0.12955284118652344,-1.5218694845782679,0.006904037203639746,0.0008392703020945191,0.6744261384010315,0.0,-0.0,0.0,0.0,0.0,0.0
1782665039,483021273,-1.6561625639544886,0.12952899932861328,-1.5218337217914026,0.00692800572142005,0.0008153018425218761,0.6744141578674316,0.0,-0.0,0.0,0.0,0.0,0.0
1782665039,491015013,-1.6561744848834437,0.12954092025756836,-1.5218575636493128,0.006892052944749594,0.0008153018425218761,0.674318253993988,0.0,-0.0,0.0,0.0,0.0,0.0
1782665039,499017550,-1.6561864058123987,0.12948083877563477,-1.5218694845782679,0.006880068685859442,0.0008033175836317241,0.6743782162666321,0.0,-0.0,0.0,0.0,0.0,0.0
1782665039,507025993,-1.6561864058123987,0.12952899932861328,-1.5218456427203577,0.006951974239200354,0.0008153018425218761,0.6743662357330322,0.0,-0.0,0.0,0.0,0.0,0.0
1782665039,514989068,-1.6561864058123987,0.12952899932861328,-1.5218694845782679,0.006916021462529898,0.0008153018425218761,0.6743422150611877,0.0,-0.0,0.0,0.0,0.0,0.0
1782665039,523018530,-1.6561506430255335,0.12948083877563477,-1.521893326436178,0.006880068685859442,0.0008033175836317241,0.6743542551994324,0.0,-0.0,0.0,0.0,0.0,0.0
1782665039,531063324,-1.6561625639544886,0.12952899932861328,-1.5218575636493128,0.006856100168079138,0.0008153018425218761,0.6744021773338318,0.0,-0.0,0.0,0.0,0.0,0.0
1782665039,539020769,-1.656210724507467,0.12950468063354492,-1.521881405507223,0.00692800572142005,0.0008033175836317241,0.6744381189346313,0.0,-0.0,0.0,0.0,0.0,0.0
1782665039,547018120,-1.656210724507467,0.12955284118652344,-1.5218456427203577,0.00692800572142005,0.0007909588748589158,0.6743901968002319,0.0,-0.0,0.0,0.0,0.0,0.0
1782665039,555025046,-1.6561864058123987,0.12949275970458984,-1.5218456427203577,0.00692800572142005,0.0008153018425218761,0.6744381189346313,0.0,-0.0,0.0,0.0,0.0,0.0
1782665039,563025656,-1.6561625639544886,0.12950468063354492,-1.5218456427203577,0.00692800572142005,0.0008272860432043672,0.6744141578674316,0.0,-0.0,0.0,0.0,0.0,0.0
1782665039,571022878,-1.6561983267413538,0.1295170783996582,-1.5218456427203577,0.00686808442696929,0.0007669904152862728,0.6743782162666321,0.0,-0.0,0.0,0.0,0.0,0.0
1782665039,579054358,-1.6561983267413538,0.12950468063354492,-1.5218575636493128,0.006916021462529898,0.0008033175836317241,0.6744261384010315,0.0,-0.0,0.0,0.0,0.0,0.0
1782665039,587019895,-1.6561506430255335,0.1295766830444336,-1.5218694845782679,0.006916021462529898,0.0008512545027770102,0.6744141578674316,0.0,-0.0,0.0,0.0,0.0,0.0
1782665039,595159447,-1.6561864058123987,0.12952899932861328,-1.5218337217914026,0.006892052944749594,0.0008153018425218761,0.6743662357330322,0.0,-0.0,0.0,0.0,0.0,0.0
1782665039,603103633,-1.6561744848834437,0.12952899932861328,-1.521881405507223,0.006939989980310202,0.0008033175836317241,0.6744021773338318,0.0,-0.0,0.0,0.0,0.0,0.0
1782665039,611048856,-1.6561744848834437,0.12948083877563477,-1.5218694845782679,0.00692800572142005,0.0008153018425218761,0.6743542551994324,0.0,-0.0,0.0,0.0,0.0,0.0
1782665039,619023800,-1.656210724507467,0.1295170783996582,-1.5218337217914026,0.00686808442696929,0.0007789746159687638,0.6744141578674316,0.0,-0.0,0.0,0.0,0.0,0.0
1782665039,627012559,-1.6561864058123987,0.12955284118652344,-1.5218575636493128,0.006904037203639746,0.0008153018425218761,0.6744261384010315,0.0,-0.0,0.0,0.0,0.0,0.0
1782665039,635023521,-1.6561744848834437,0.12952899932861328,-1.5218337217914026,0.006892052944749594,0.0008752229623496532,0.6743782162666321,0.0,-0.0,0.0,0.0,0.0,0.0
1782665039,643053131,-1.6562345663653772,0.12954092025756836,-1.5218213240252894,0.006880068685859442,0.0007909588748589158,0.6744021773338318,0.0,-0.0,0.0,0.0,0.0,0.0
1782665039,651023354,-1.6561983267413538,0.12956476211547852,-1.5218694845782679,0.006939989980310202,0.0008153018425218761,0.6743542551994324,0.0,-0.0,0.0,0.0,0.0,0.0
1782665039,659009724,-1.6561864058123987,0.12954092025756836,-1.5218694845782679,0.006904037203639746,0.0007789746159687638,0.6744261384010315,0.0,-0.0,0.0,0.0,0.0,0.0
1782665039,667018223,-1.6561387220965784,0.12952899932861328,-1.5218094030963343,0.00692800572142005,0.0008632387034595013,0.6743542551994324,0.0,-0.0,0.0,0.0,0.0,0.0
1782665039,675069480,-1.6561744848834437,0.12952899932861328,-1.521893326436178,0.00686808442696929,0.0008153018425218761,0.6743782162666321,0.0,-0.0,0.0,0.0,0.0,0.0
1782665039,683015963,-1.6561864058123987,0.12950468063354492,-1.5218337217914026,0.006844115909188986,0.0008033175836317241,0.6744021773338318,0.0,-0.0,0.0,0.0,0.0,0.0
1782665039,691036850,-1.6562226454364222,0.12955284118652344,-1.5218337217914026,0.006880068685859442,0.0008033175836317241,0.6743901968002319,0.0,-0.0,0.0,0.0,0.0,0.0
1782665039,699042239,-1.6561983267413538,0.12955284118652344,-1.521881405507223,0.006904037203639746,0.0007909588748589158,0.6743901968002319,0.0,-0.0,0.0,0.0,0.0,0.0
1782665039,707006535,-1.6562345663653772,0.12948083877563477,-1.5218575636493128,0.006904037203639746,0.0008153018425218761,0.6743782162666321,0.0,-0.0,0.0,0.0,0.0,0.0
1782665039,715025534,-1.6561506430255335,0.12955284118652344,-1.5218694845782679,0.006892052944749594,0.0008392703020945191,0.6743782162666321,0.0,-0.0,0.0,0.0,0.0,0.0
1782665039,723028478,-1.6561506430255335,0.1295170783996582,-1.5218456427203577,0.006939989980310202,0.0008272860432043672,0.6743662357330322,0.0,-0.0,0.0,0.0,0.0,0.0
1782665039,731043458,-1.6561864058123987,0.12948083877563477,-1.5218094030963343,0.006963958498090506,0.0008033175836317241,0.6743901968002319,0.0,-0.0,0.0,0.0,0.0,0.0
1782665039,739013570,-1.656210724507467,0.12949275970458984,-1.5218094030963343,0.006939989980310202,0.0008153018425218761,0.6743422150611877,0.0,-0.0,0.0,0.0,0.0,0.0
1782665039,747016921,-1.6561983267413538,0.12954092025756836,-1.5218694845782679,0.006904037203639746,0.0008272860432043672,0.6743901968002319,0.0,-0.0,0.0,0.0,0.0,0.0
1782665039,755045512,-1.6561864058123987,0.1295170783996582,-1.521881405507223,0.006916021462529898,0.0008153018425218761,0.6743901968002319,0.0,-0.0,0.0,0.0,0.0,0.0
1782665039,763044882,-1.6561506430255335,0.12950468063354492,-1.5218094030963343,0.006880068685859442,0.0007789746159687638,0.6743422150611877,0.0,-0.0,0.0,0.0,0.0,0.0
1782665039,771007475,-1.6561387220965784,0.12950468063354492,-1.5218337217914026,0.006939989980310202,0.0008272860432043672,0.6743782162666321,0.0,-0.0,0.0,0.0,0.0,0.0
1782665039,779212247,-1.6561864058123987,0.12949275970458984,-1.5218213240252894,0.006939989980310202,0.0007550062146037817,0.6744141578674316,0.0,-0.0,0.0,0.0,0.0,0.0
1782665039,787029677,-1.6562226454364222,0.12956476211547852,-1.5218456427203577,0.006916021462529898,0.0008153018425218761,0.6744021773338318,0.0,-0.0,0.0,0.0,0.0,0.0
1782665039,795031880,-1.656210724507467,0.1295170783996582,-1.521881405507223,0.006904037203639746,0.0008272860432043672,0.6743542551994324,0.0,-0.0,0.0,0.0,0.0,0.0
1782665039,803258448,-1.6561506430255335,0.12954092025756836,-1.5218456427203577,0.00692800572142005,0.0008632387034595013,0.6743782162666321,0.0,-0.0,0.0,0.0,0.0,0.0
1782665039,811044990,-1.6561744848834437,0.12955284118652344,-1.5218694845782679,0.00686808442696929,0.0008272860432043672,0.6744021773338318,0.0,-0.0,0.0,0.0,0.0,0.0
1782665039,819030990,-1.6562464872943323,0.12952899932861328,-1.5218694845782679,0.006904037203639746,0.0008272860432043672,0.6743662357330322,0.0,-0.0,0.0,0.0,0.0,0.0
1782665039,827034007,-1.656210724507467,0.12952899932861328,-1.5218337217914026,0.006892052944749594,0.0008392703020945191,0.6743782162666321,0.0,-0.0,0.0,0.0,0.0,0.0
1782665039,835022007,-1.6561983267413538,0.12952899932861328,-1.5218694845782679,0.00692800572142005,0.0008272860432043672,0.6744261384010315,0.0,-0.0,0.0,0.0,0.0,0.0
1782665039,843048932,-1.6562226454364222,0.12950468063354492,-1.5218456427203577,0.00692800572142005,0.0008153018425218761,0.6744141578674316,0.0,-0.0,0.0,0.0,0.0,0.0
1782665039,851033987,-1.6561744848834437,0.12954092025756836,-1.521881405507223,0.00692800572142005,0.0007909588748589158,0.6744021773338318,0.0,-0.0,0.0,0.0,0.0,0.0
1782665039,859030950,-1.6561864058123987,0.1295170783996582,-1.5218213240252894,0.00692800572142005,0.0008033175836317241,0.6744141578674316,0.0,-0.0,0.0,0.0,0.0,0.0
1782665039,867082337,-1.6562226454364222,0.1295170783996582,-1.5218213240252894,0.006904037203639746,0.0008392703020945191,0.6743782162666321,0.0,-0.0,0.0,0.0,0.0,0.0
1782665039,875075910,-1.6561625639544886,0.12952899932861328,-1.5218694845782679,0.00692800572142005,0.0008033175836317241,0.6743662357330322,0.0,-0.0,0.0,0.0,0.0,0.0
1782665039,883042559,-1.6561387220965784,0.12949275970458984,-1.521881405507223,0.006904037203639746,0.0008033175836317241,0.6743901968002319,0.0,-0.0,0.0,0.0,0.0,0.0
1782665039,891026596,-1.6562226454364222,0.12952899932861328,-1.5218456427203577,0.006916021462529898,0.0008392703020945191,0.6743782162666321,0.0,-0.0,0.0,0.0,0.0,0.0
1782665039,899037539,-1.6561864058123987,0.12954092025756836,-1.5218694845782679,0.006880068685859442,0.0008512545027770102,0.6744261384010315,0.0,-0.0,0.0,0.0,0.0,0.0
1782665039,907072686,-1.6561744848834437,0.12949275970458984,-1.5218213240252894,0.006880068685859442,0.0008153018425218761,0.6744021773338318,0.0,-0.0,0.0,0.0,0.0,0.0
1782665039,915036890,-1.6561744848834437,0.1295170783996582,-1.5218094030963343,0.00692800572142005,0.0008392703020945191,0.6743901968002319,0.0,-0.0,0.0,0.0,0.0,0.0
1782665039,923018186,-1.6561983267413538,0.12950468063354492,-1.5217974821673792,0.00686808442696929,0.0008153018425218761,0.6743662357330322,0.0,-0.0,0.0,0.0,0.0,0.0
1782665039,931025759,-1.6561744848834437,0.12954092025756836,-1.521905247365133,0.00692800572142005,0.0007909588748589158,0.6743542551994324,0.0,-0.0,0.0,0.0,0.0,0.0
1782665039,939059369,-1.6562464872943323,0.12952899932861328,-1.5218694845782679,0.006880068685859442,0.0007909588748589158,0.6743542551994324,0.0,-0.0,0.0,0.0,0.0,0.0
1782665039,947068424,-1.6561983267413538,0.12948083877563477,-1.521893326436178,0.006916021462529898,0.0008033175836317241,0.6743901968002319,0.0,-0.0,0.0,0.0,0.0,0.0
1782665039,955027350,-1.6561744848834437,0.12954092025756836,-1.5218456427203577,0.006916021462529898,0.0008392703020945191,0.6744141578674316,0.0,-0.0,0.0,0.0,0.0,0.0
1782665039,963031887,-1.656210724507467,0.12955284118652344,-1.521881405507223,0.006904037203639746,0.0007909588748589158,0.6743901968002319,0.0,-0.0,0.0,0.0,0.0,0.0
1782665039,971193901,-1.6562226454364222,0.12952899932861328,-1.5218694845782679,0.006951974239200354,0.0008153018425218761,0.6743662357330322,0.0,-0.0,0.0,0.0,0.0,0.0
1782665039,979021886,-1.6561744848834437,0.12950468063354492,-1.5218694845782679,0.006880068685859442,0.0007909588748589158,0.6743782162666321,0.0,-0.0,0.0,0.0,0.0,0.0
1782665039,987023792,-1.6561744848834437,0.12954092025756836,-1.521881405507223,0.006880068685859442,0.0008272860432043672,0.6743782162666321,0.0,-0.0,0.0,0.0,0.0,0.0
1782665039,995057254,-1.6562226454364222,0.12950468063354492,-1.5218456427203577,0.00686808442696929,0.0008272860432043672,0.6743542551994324,0.0,-0.0,0.0,0.0,0.0,0.0
1782665040,3018273,-1.6561864058123987,0.12948083877563477,-1.5218456427203577,0.006880068685859442,0.0008392703020945191,0.6743422150611877,0.0,-0.0,0.0,0.0,0.0,0.0
1782665040,11014865,-1.6562345663653772,0.1295170783996582,-1.5218456427203577,0.006904037203639746,0.0008153018425218761,0.6743782162666321,0.0,-0.0,0.0,0.0,0.0,0.0
1782665040,19017810,-1.6561864058123987,0.12952899932861328,-1.521881405507223,0.006892052944749594,0.0007669904152862728,0.6744141578674316,0.0,-0.0,0.0,0.0,0.0,0.0
1782665040,27014532,-1.6561864058123987,0.12954092025756836,-1.521881405507223,0.00686808442696929,0.0007909588748589158,0.6744141578674316,0.0,-0.0,0.0,0.0,0.0,0.0
1782665040,35055587,-1.6561864058123987,0.12955284118652344,-1.5218213240252894,0.006916021462529898,0.0008272860432043672,0.6743901968002319,0.0,-0.0,0.0,0.0,0.0,0.0
1782665040,43016698,-1.6561983267413538,0.12954092025756836,-1.5218337217914026,0.006892052944749594,0.0008033175836317241,0.6743662357330322,0.0,-0.0,0.0,0.0,0.0,0.0
1782665040,51018254,-1.6561744848834437,0.12952899932861328,-1.5218575636493128,0.006904037203639746,0.0008272860432043672,0.6743782162666321,0.0,-0.0,0.0,0.0,0.0,0.0
1782665040,59032142,-1.6561625639544886,0.1295170783996582,-1.5218456427203577,0.006916021462529898,0.0008392703020945191,0.6743901968002319,0.0,-0.0,0.0,0.0,0.0,0.0
1782665040,67050031,-1.656210724507467,0.12952899932861328,-1.5217855612384241,0.006904037203639746,0.0008392703020945191,0.6743782162666321,0.0,-0.0,0.0,0.0,0.0,0.0
1782665040,75029883,-1.6561864058123987,0.12948083877563477,-1.521893326436178,0.00692800572142005,0.0008272860432043672,0.6744021773338318,0.0,-0.0,0.0,0.0,0.0,0.0
1782665040,83034920,-1.6561864058123987,0.12956476211547852,-1.5218337217914026,0.006939989980310202,0.0008392703020945191,0.6744261384010315,0.0,-0.0,0.0,0.0,0.0,0.0
1782665040,91016217,-1.6561983267413538,0.1295170783996582,-1.521893326436178,0.006880068685859442,0.0007789746159687638,0.6743901968002319,0.0,-0.0,0.0,0.0,0.0,0.0
1782665040,99056364,-1.6561506430255335,0.12955284118652344,-1.5218456427203577,0.006880068685859442,0.0008153018425218761,0.6744261384010315,0.0,-0.0,0.0,0.0,0.0,0.0
1782665040,107028087,-1.6561744848834437,0.12949275970458984,-1.5218575636493128,0.00686808442696929,0.0007789746159687638,0.6743901968002319,0.0,-0.0,0.0,0.0,0.0,0.0
1782665040,115034179,-1.656210724507467,0.12955284118652344,-1.521893326436178,0.006916021462529898,0.0008272860432043672,0.6743662357330322,0.0,-0.0,0.0,0.0,0.0,0.0
1782665040,123028216,-1.656210724507467,0.12950468063354492,-1.5218694845782679,0.006892052944749594,0.0007789746159687638,0.6743662357330322,0.0,-0.0,0.0,0.0,0.0,0.0
1782665040,131021586,-1.6561864058123987,0.1295170783996582,-1.5218575636493128,0.00686808442696929,0.0007909588748589158,0.6744261384010315,0.0,-0.0,0.0,0.0,0.0,0.0
1782665040,139041697,-1.6562345663653772,0.12948083877563477,-1.5218694845782679,0.006892052944749594,0.0008153018425218761,0.6743901968002319,0.0,-0.0,0.0,0.0,0.0,0.0
1782665040,147016068,-1.6561864058123987,0.12950468063354492,-1.5218456427203577,0.006904037203639746,0.0007909588748589158,0.6744021773338318,0.0,-0.0,0.0,0.0,0.0,0.0
1782665040,155061159,-1.6562226454364222,0.12954092025756836,-1.5218575636493128,0.00692800572142005,0.0007909588748589158,0.6743901968002319,0.0,-0.0,0.0,0.0,0.0,0.0
1782665040,163039104,-1.6562226454364222,0.12955284118652344,-1.5218575636493128,0.006904037203639746,0.0008153018425218761,0.6744261384010315,0.0,-0.0,0.0,0.0,0.0,0.0
1782665040,171025586,-1.6561506430255335,0.12955284118652344,-1.5218575636493128,0.006916021462529898,0.0008392703020945191,0.6744021773338318,0.0,-0.0,0.0,0.0,0.0,0.0
1782665040,179034789,-1.6561983267413538,0.1295170783996582,-1.521881405507223,0.00692800572142005,0.0008632387034595013,0.6744381189346313,0.0,-0.0,0.0,0.0,0.0,0.0
1782665040,187020364,-1.6561625639544886,0.12948083877563477,-1.521893326436178,0.006916021462529898,0.0008033175836317241,0.6744021773338318,0.0,-0.0,0.0,0.0,0.0,0.0
1782665040,195059770,-1.6561744848834437,0.12954092025756836,-1.5218694845782679,0.006904037203639746,0.0007909588748589158,0.6743422150611877,0.0,-0.0,0.0,0.0,0.0,0.0
1782665040,203025104,-1.656210724507467,0.12950468063354492,-1.5218213240252894,0.006904037203639746,0.0008272860432043672,0.6743542551994324,0.0,-0.0,0.0,0.0,0.0,0.0
1782665040,211230266,-1.6562464872943323,0.12954092025756836,-1.521905247365133,0.006916021462529898,0.0008033175836317241,0.6744261384010315,0.0,-0.0,0.0,0.0,0.0,0.0
1782665040,219016308,-1.6562464872943323,0.12955284118652344,-1.5218337217914026,0.006844115909188986,0.0008512545027770102,0.6743662357330322,0.0,-0.0,0.0,0.0,0.0,0.0
1782665040,227026160,-1.6561744848834437,0.12952899932861328,-1.5218456427203577,0.006904037203639746,0.0008272860432043672,0.6744021773338318,0.0,-0.0,0.0,0.0,0.0,0.0
1782665040,235033567,-1.656210724507467,0.12952899932861328,-1.521881405507223,0.006939989980310202,0.0008272860432043672,0.6743901968002319,0.0,-0.0,0.0,0.0,0.0,0.0
1782665040,243035955,-1.6561625639544886,0.12950468063354492,-1.5218337217914026,0.00692800572142005,0.0008272860432043672,0.6743782162666321,0.0,-0.0,0.0,0.0,0.0,0.0
1782665040,251039085,-1.6561983267413538,0.12949275970458984,-1.5218213240252894,0.006939989980310202,0.0008392703020945191,0.6743901968002319,0.0,-0.0,0.0,0.0,0.0,0.0
1782665040,259032789,-1.6561268011676233,0.1295170783996582,-1.5218694845782679,0.006892052944749594,0.0008033175836317241,0.6743901968002319,0.0,-0.0,0.0,0.0,0.0,0.0
1782665040,267030974,-1.6561744848834437,0.12950468063354492,-1.5218456427203577,0.006916021462529898,0.0008033175836317241,0.6743782162666321,0.0,-0.0,0.0,0.0,0.0,0.0
1782665040,275034307,-1.6561744848834437,0.12954092025756836,-1.5218575636493128,0.00686808442696929,0.0008033175836317241,0.6744500994682312,0.0,-0.0,0.0,0.0,0.0,0.0
1782665040,283115342,-1.6561744848834437,0.12952899932861328,-1.5218337217914026,0.006880068685859442,0.0008272860432043672,0.6744141578674316,0.0,-0.0,0.0,0.0,0.0,0.0
1782665040,291047177,-1.6561983267413538,0.12952899932861328,-1.5218694845782679,0.00692800572142005,0.0008153018425218761,0.6743662357330322,0.0,-0.0,0.0,0.0,0.0,0.0
1782665040,299038196,-1.6561625639544886,0.1295170783996582,-1.5218694845782679,0.006916021462529898,0.0008392703020945191,0.6744141578674316,0.0,-0.0,0.0,0.0,0.0,0.0
1782665040,307036992,-1.6561983267413538,0.1295170783996582,-1.5218694845782679,0.00692800572142005,0.0007909588748589158,0.6743782162666321,0.0,-0.0,0.0,0.0,0.0,0.0
1782665040,315045473,-1.6561983267413538,0.12950468063354492,-1.5218094030963343,0.00686808442696929,0.0008392703020945191,0.6744141578674316,0.0,-0.0,0.0,0.0,0.0,0.0
1782665040,323049991,-1.6561983267413538,0.1295170783996582,-1.5218694845782679,0.006916021462529898,0.0008272860432043672,0.6743901968002319,0.0,-0.0,0.0,0.0,0.0,0.0
1782665040,331066917,-1.6561744848834437,0.1295170783996582,-1.5218456427203577,0.006892052944749594,0.0008153018425218761,0.6744021773338318,0.0,-0.0,0.0,0.0,0.0,0.0
1782665040,339047158,-1.6561625639544886,0.1295170783996582,-1.5218575636493128,0.006904037203639746,0.0008153018425218761,0.6744141578674316,0.0,-0.0,0.0,0.0,0.0,0.0
1782665040,347030325,-1.6561744848834437,0.12950468063354492,-1.5218575636493128,0.006916021462529898,0.0008033175836317241,0.6743782162666321,0.0,-0.0,0.0,0.0,0.0,0.0
1782665040,355049399,-1.6562345663653772,0.12955284118652344,-1.521881405507223,0.006916021462529898,0.0007909588748589158,0.6743901968002319,0.0,-0.0,0.0,0.0,0.0,0.0
1782665040,363062639,-1.6561625639544886,0.12956476211547852,-1.5218456427203577,0.006939989980310202,0.0008512545027770102,0.6743901968002319,0.0,-0.0,0.0,0.0,0.0,0.0
1782665040,371027325,-1.6561983267413538,0.1295170783996582,-1.5218213240252894,0.006939989980310202,0.0008272860432043672,0.6744261384010315,0.0,-0.0,0.0,0.0,0.0,0.0
1782665040,379031380,-1.656210724507467,0.1295170783996582,-1.5218456427203577,0.006951974239200354,0.0008153018425218761,0.6743662357330322,0.0,-0.0,0.0,0.0,0.0,0.0
1782665040,387036973,-1.6561506430255335,0.12950468063354492,-1.521881405507223,0.006880068685859442,0.0008033175836317241,0.6743422150611877,0.0,-0.0,0.0,0.0,0.0,0.0
1782665040,395033899,-1.6561864058123987,0.12949275970458984,-1.5218456427203577,0.006904037203639746,0.0008033175836317241,0.6744021773338318,0.0,-0.0,0.0,0.0,0.0,0.0
1782665040,403034361,-1.6561864058123987,0.1295170783996582,-1.521881405507223,0.006951974239200354,0.0008033175836317241,0.6743901968002319,0.0,-0.0,0.0,0.0,0.0,0.0
1782665040,411034621,-1.6561983267413538,0.12955284118652344,-1.5218694845782679,0.00692800572142005,0.0008153018425218761,0.6743542551994324,0.0,-0.0,0.0,0.0,0.0,0.0
1782665040,419019806,-1.6561744848834437,0.12952899932861328,-1.5218337217914026,0.006904037203639746,0.0008153018425218761,0.6744141578674316,0.0,-0.0,0.0,0.0,0.0,0.0
1782665040,427061861,-1.6561983267413538,0.12952899932861328,-1.5218456427203577,0.00692800572142005,0.0008033175836317241,0.6743782162666321,0.0,-0.0,0.0,0.0,0.0,0.0
1782665040,435032046,-1.6561625639544886,0.12952899932861328,-1.521881405507223,0.006892052944749594,0.0008153018425218761,0.6743542551994324,0.0,-0.0,0.0,0.0,0.0,0.0
1782665040,443038250,-1.6562226454364222,0.12952899932861328,-1.5218575636493128,0.006904037203639746,0.0008153018425218761,0.6744021773338318,0.0,-0.0,0.0,0.0,0.0,0.0
1782665040,451081286,-1.6561864058123987,0.12949275970458984,-1.5218694845782679,0.006892052944749594,0.0008392703020945191,0.6743662357330322,0.0,-0.0,0.0,0.0,0.0,0.0
1782665040,459055749,-1.656210724507467,0.12955284118652344,-1.521881405507223,0.006880068685859442,0.0008153018425218761,0.6743901968002319,0.0,-0.0,0.0,0.0,0.0,0.0
1782665040,467029954,-1.6561744848834437,0.12948083877563477,-1.5218575636493128,0.006892052944749594,0.0008272860432043672,0.6743782162666321,0.0,-0.0,0.0,0.0,0.0,0.0
1782665040,475054286,-1.656210724507467,0.12952899932861328,-1.5218456427203577,0.006939989980310202,0.0008512545027770102,0.6744021773338318,0.0,-0.0,0.0,0.0,0.0,0.0
1782665040,483047731,-1.6562226454364222,0.12950468063354492,-1.5218575636493128,0.006916021462529898,0.0008153018425218761,0.6743542551994324,0.0,-0.0,0.0,0.0,0.0,0.0
1782665040,491060156,-1.656210724507467,0.12948083877563477,-1.5217974821673792,0.006904037203639746,0.0008512545027770102,0.6743782162666321,0.0,-0.0,0.0,0.0,0.0,0.0
1782665040,499058175,-1.656210724507467,0.12954092025756836,-1.521881405507223,0.006892052944749594,0.0008033175836317241,0.6743901968002319,0.0,-0.0,0.0,0.0,0.0,0.0
1782665040,507040786,-1.6561744848834437,0.1295170783996582,-1.5218456427203577,0.006892052944749594,0.0007789746159687638,0.6743662357330322,0.0,-0.0,0.0,0.0,0.0,0.0
1782665040,515046342,-1.6561744848834437,0.1295170783996582,-1.5218575636493128,0.006904037203639746,0.0008153018425218761,0.6744141578674316,0.0,-0.0,0.0,0.0,0.0,0.0
1782665040,523046823,-1.656210724507467,0.12955284118652344,-1.5218094030963343,0.006892052944749594,0.0008512545027770102,0.6743542551994324,0.0,-0.0,0.0,0.0,0.0,0.0
1782665040,531094988,-1.6561625639544886,0.12954092025756836,-1.5218456427203577,0.006880068685859442,0.0008392703020945191,0.6744381189346313,0.0,-0.0,0.0,0.0,0.0,0.0
1782665040,539155691,-1.6561625639544886,0.12952899932861328,-1.5218694845782679,0.006880068685859442,0.0008272860432043672,0.6743542551994324,0.0,-0.0,0.0,0.0,0.0,0.0
1782665040,547025008,-1.6561387220965784,0.12955284118652344,-1.5218213240252894,0.006892052944749594,0.0008153018425218761,0.6744021773338318,0.0,-0.0,0.0,0.0,0.0,0.0
1782665040,555112377,-1.6561864058123987,0.12948083877563477,-1.5218337217914026,0.006880068685859442,0.0007789746159687638,0.6743542551994324,0.0,-0.0,0.0,0.0,0.0,0.0
1782665040,568468660,-1.6561864058123987,0.1295170783996582,-1.5218694845782679,0.006904037203639746,0.0008033175836317241,0.6743901968002319,0.0,-0.0,0.0,0.0,0.0,0.0
1782665040,571492868,-1.6561744848834437,0.1295170783996582,-1.5218694845782679,0.006892052944749594,0.0007909588748589158,0.6743782162666321,0.0,-0.0,0.0,0.0,0.0,0.0
1782665040,579049878,-1.6561864058123987,0.1295170783996582,-1.5218337217914026,0.00692800572142005,0.0008153018425218761,0.6743422150611877,0.0,-0.0,0.0,0.0,0.0,0.0
1782665040,587056285,-1.6561864058123987,0.12948083877563477,-1.5218575636493128,0.00686808442696929,0.0008153018425218761,0.6743542551994324,0.0,-0.0,0.0,0.0,0.0,0.0
1782665040,595053822,-1.6561506430255335,0.12954092025756836,-1.5218337217914026,0.00686808442696929,0.0008033175836317241,0.6743662357330322,0.0,-0.0,0.0,0.0,0.0,0.0
1782665040,603071322,-1.6561625639544886,0.12956476211547852,-1.5217974821673792,0.006904037203639746,0.0008153018425218761,0.6743782162666321,0.0,-0.0,0.0,0.0,0.0,0.0
1782665040,611054285,-1.6561744848834437,0.1295170783996582,-1.5218575636493128,0.006880068685859442,0.0008153018425218761,0.6744021773338318,0.0,-0.0,0.0,0.0,0.0,0.0
1782665040,619074562,-1.6561983267413538,0.12952899932861328,-1.521905247365133,0.006880068685859442,0.0008512545027770102,0.6743782162666321,0.0,-0.0,0.0,0.0,0.0,0.0
1782665040,627068210,-1.6561864058123987,0.12955284118652344,-1.5218213240252894,0.006892052944749594,0.0007789746159687638,0.6743901968002319,0.0,-0.0,0.0,0.0,0.0,0.0
1782665040,635799434,-1.656210724507467,0.1295170783996582,-1.5218337217914026,0.00686808442696929,0.0008153018425218761,0.6744021773338318,0.0,-0.0,0.0,0.0,0.0,0.0
1782665040,643073766,-1.6561983267413538,0.12949275970458984,-1.5218575636493128,0.00692800572142005,0.0008512545027770102,0.6743901968002319,0.0,-0.0,0.0,0.0,0.0,0.0
1782665040,651047137,-1.6562226454364222,0.12952899932861328,-1.521893326436178,0.006904037203639746,0.0008392703020945191,0.6743662357330322,0.0,-0.0,0.0,0.0,0.0,0.0
1782665040,659122505,-1.6562345663653772,0.1295766830444336,-1.5218456427203577,0.006904037203639746,0.0007909588748589158,0.6743782162666321,0.0,-0.0,0.0,0.0,0.0,0.0
1782665040,667055081,-1.6562584082232874,0.1295170783996582,-1.5218694845782679,0.006939989980310202,0.0008033175836317241,0.6743662357330322,0.0,-0.0,0.0,0.0,0.0,0.0
1782665040,675043840,-1.6561744848834437,0.12952899932861328,-1.5218213240252894,0.00692800572142005,0.0008033175836317241,0.6743422150611877,0.0,-0.0,0.0,0.0,0.0,0.0
1782665040,683047636,-1.6561983267413538,0.12950468063354492,-1.5218337217914026,0.006892052944749594,0.0008392703020945191,0.6744381189346313,0.0,-0.0,0.0,0.0,0.0,0.0
1782665040,691050618,-1.6562226454364222,0.12950468063354492,-1.5218575636493128,0.006916021462529898,0.0008153018425218761,0.6744141578674316,0.0,-0.0,0.0,0.0,0.0,0.0
1782665040,699047932,-1.656210724507467,0.1295170783996582,-1.521881405507223,0.006856100168079138,0.0008033175836317241,0.6743901968002319,0.0,-0.0,0.0,0.0,0.0,0.0
1782665040,707048932,-1.6562464872943323,0.12952899932861328,-1.521881405507223,0.006916021462529898,0.0007909588748589158,0.6743662357330322,0.0,-0.0,0.0,0.0,0.0,0.0
1782665040,715024248,-1.6561983267413538,0.12949275970458984,-1.5218213240252894,0.00692800572142005,0.0008272860432043672,0.6743901968002319,0.0,-0.0,0.0,0.0,0.0,0.0
1782665040,723027914,-1.6562345663653772,0.1294689178466797,-1.5218456427203577,0.00692800572142005,0.0007909588748589158,0.6744021773338318,0.0,-0.0,0.0,0.0,0.0,0.0
1782665040,731040043,-1.6561983267413538,0.1295170783996582,-1.5218575636493128,0.006904037203639746,0.0008392703020945191,0.6744141578674316,0.0,-0.0,0.0,0.0,0.0,0.0
1782665040,739040136,-1.656210724507467,0.1295170783996582,-1.5218337217914026,0.006880068685859442,0.0008512545027770102,0.6743782162666321,0.0,-0.0,0.0,0.0,0.0,0.0
1782665040,747038266,-1.6561387220965784,0.12952899932861328,-1.5218337217914026,0.006904037203639746,0.0007909588748589158,0.6743542551994324,0.0,-0.0,0.0,0.0,0.0,0.0
1782665040,755019136,-1.6562345663653772,0.12950468063354492,-1.5218456427203577,0.00692800572142005,0.0008392703020945191,0.6744021773338318,0.0,-0.0,0.0,0.0,0.0,0.0
1782665040,763093616,-1.6562345663653772,0.1295170783996582,-1.5218337217914026,0.006916021462529898,0.0008512545027770102,0.6743782162666321,0.0,-0.0,0.0,0.0,0.0,0.0
1782665040,771062987,-1.656210724507467,0.12950468063354492,-1.5218694845782679,0.006939989980310202,0.0008392703020945191,0.6743302345275879,0.0,-0.0,0.0,0.0,0.0,0.0
1782665040,779037450,-1.6561506430255335,0.12952899932861328,-1.5218337217914026,0.00692800572142005,0.0008272860432043672,0.6743542551994324,0.0,-0.0,0.0,0.0,0.0,0.0
1782665040,787038339,-1.6562345663653772,0.12954092025756836,-1.5218456427203577,0.006892052944749594,0.0008272860432043672,0.6743901968002319,0.0,-0.0,0.0,0.0,0.0,0.0
1782665040,795043154,-1.6561506430255335,0.12949275970458984,-1.5218213240252894,0.00692800572142005,0.0008872071630321443,0.6744021773338318,0.0,-0.0,0.0,0.0,0.0,0.0
1782665040,803035969,-1.656210724507467,0.1295170783996582,-1.521881405507223,0.006916021462529898,0.0008153018425218761,0.6744021773338318,0.0,-0.0,0.0,0.0,0.0,0.0
1782665040,811037784,-1.6562464872943323,0.12954092025756836,-1.5218694845782679,0.00686808442696929,0.0008153018425218761,0.6743782162666321,0.0,-0.0,0.0,0.0,0.0,0.0
1782665040,819046302,-1.6561864058123987,0.12950468063354492,-1.521893326436178,0.006892052944749594,0.0008272860432043672,0.6743422150611877,0.0,-0.0,0.0,0.0,0.0,0.0
1782665040,827042839,-1.656210724507467,0.12954092025756836,-1.5218575636493128,0.006904037203639746,0.0008033175836317241,0.6743901968002319,0.0,-0.0,0.0,0.0,0.0,0.0
1782665040,835039894,-1.656210724507467,0.1295170783996582,-1.5218456427203577,0.00692800572142005,0.0008153018425218761,0.6744021773338318,0.0,-0.0,0.0,0.0,0.0,0.0
1782665040,843068227,-1.6561983267413538,0.1295170783996582,-1.5218456427203577,0.006904037203639746,0.0008153018425218761,0.6744021773338318,0.0,-0.0,0.0,0.0,0.0,0.0
1782665040,851047579,-1.656210724507467,0.12954092025756836,-1.5218694845782679,0.006892052944749594,0.0008512545027770102,0.6744261384010315,0.0,-0.0,0.0,0.0,0.0,0.0
1782665040,859051727,-1.6562226454364222,0.1295766830444336,-1.521881405507223,0.006904037203639746,0.0008153018425218761,0.6743901968002319,0.0,-0.0,0.0,0.0,0.0,0.0
1782665040,867033450,-1.6561864058123987,0.12948083877563477,-1.5218575636493128,0.006904037203639746,0.0008632387034595013,0.6743901968002319,0.0,-0.0,0.0,0.0,0.0,0.0
1782665040,875069930,-1.6561744848834437,0.12954092025756836,-1.5218456427203577,0.006892052944749594,0.0007669904152862728,0.6743901968002319,0.0,-0.0,0.0,0.0,0.0,0.0
1782665040,883030876,-1.6561983267413538,0.12949275970458984,-1.5218694845782679,0.006916021462529898,0.0008033175836317241,0.6744021773338318,0.0,-0.0,0.0,0.0,0.0,0.0
1782665040,891015468,-1.656210724507467,0.1295170783996582,-1.5218694845782679,0.006892052944749594,0.0007909588748589158,0.6743901968002319,0.0,-0.0,0.0,0.0,0.0,0.0
1782665040,899014709,-1.6561983267413538,0.12950468063354492,-1.5218213240252894,0.006916021462529898,0.0008153018425218761,0.6743782162666321,0.0,-0.0,0.0,0.0,0.0,0.0
1782665040,907021987,-1.6561983267413538,0.12954092025756836,-1.5218694845782679,0.006904037203639746,0.0008033175836317241,0.6744381189346313,0.0,-0.0,0.0,0.0,0.0,0.0
1782665040,915024690,-1.656210724507467,0.1295170783996582,-1.5218694845782679,0.006880068685859442,0.0008033175836317241,0.6743662357330322,0.0,-0.0,0.0,0.0,0.0,0.0
1782665040,923012320,-1.6561268011676233,0.12955284118652344,-1.5218213240252894,0.006892052944749594,0.0008153018425218761,0.6743901968002319,0.0,-0.0,0.0,0.0,0.0,0.0
1782665040,931014690,-1.6561744848834437,0.12955284118652344,-1.5218456427203577,0.006880068685859442,0.0007789746159687638,0.6744261384010315,0.0,-0.0,0.0,0.0,0.0,0.0
1782665040,939012061,-1.6562345663653772,0.12950468063354492,-1.5218694845782679,0.006892052944749594,0.0008392703020945191,0.6743901968002319,0.0,-0.0,0.0,0.0,0.0,0.0
1782665040,947007246,-1.6561983267413538,0.1295170783996582,-1.521881405507223,0.006939989980310202,0.0008153018425218761,0.6744021773338318,0.0,-0.0,0.0,0.0,0.0,0.0
1782665040,955070818,-1.656210724507467,0.1295170783996582,-1.5218456427203577,0.006939989980310202,0.0007789746159687638,0.6743662357330322,0.0,-0.0,0.0,0.0,0.0,0.0
1782665040,963071670,-1.6561983267413538,0.1295170783996582,-1.5218694845782679,0.00692800572142005,0.0008033175836317241,0.6743542551994324,0.0,-0.0,0.0,0.0,0.0,0.0
1782665040,971050782,-1.6561983267413538,0.12950468063354492,-1.5218456427203577,0.00692800572142005,0.0007909588748589158,0.6743422150611877,0.0,-0.0,0.0,0.0,0.0,0.0
1782665040,979028671,-1.6561864058123987,0.12949275970458984,-1.5218094030963343,0.00686808442696929,0.0008033175836317241,0.6744021773338318,0.0,-0.0,0.0,0.0,0.0,0.0
1782665040,987033467,-1.6561625639544886,0.1295170783996582,-1.5218456427203577,0.00686808442696929,0.0008033175836317241,0.6744021773338318,0.0,-0.0,0.0,0.0,0.0,0.0
1782665040,995063003,-1.656210724507467,0.12949275970458984,-1.5218337217914026,0.006904037203639746,0.0008033175836317241,0.6744141578674316,0.0,-0.0,0.0,0.0,0.0,0.0
1782665041,3090466,-1.6561506430255335,0.12952899932861328,-1.5218694845782679,0.006880068685859442,0.0008272860432043672,0.6744021773338318,0.0,-0.0,0.0,0.0,0.0,0.0
1782665041,11033690,-1.656210724507467,0.12948083877563477,-1.5218337217914026,0.006916021462529898,0.0008153018425218761,0.6743782162666321,0.0,-0.0,0.0,0.0,0.0,0.0
1782665041,19046708,-1.6562345663653772,0.1295170783996582,-1.521881405507223,0.006904037203639746,0.0007550062146037817,0.6744261384010315,0.0,-0.0,0.0,0.0,0.0,0.0
1782665041,27023543,-1.6562345663653772,0.1295170783996582,-1.5218456427203577,0.006904037203639746,0.0008153018425218761,0.6744261384010315,0.0,-0.0,0.0,0.0,0.0,0.0
1782665041,35036395,-1.656210724507467,0.12954092025756836,-1.5218575636493128,0.006916021462529898,0.0008033175836317241,0.6744141578674316,0.0,-0.0,0.0,0.0,0.0,0.0
1782665041,43083005,-1.6561983267413538,0.12952899932861328,-1.5218213240252894,0.006892052944749594,0.0008512545027770102,0.6743542551994324,0.0,-0.0,0.0,0.0,0.0,0.0
1782665041,51025710,-1.656210724507467,0.12955284118652344,-1.521881405507223,0.006904037203639746,0.0008512545027770102,0.6743662357330322,0.0,-0.0,0.0,0.0,0.0,0.0
1782665041,59019100,-1.6561625639544886,0.12954092025756836,-1.5218456427203577,0.00692800572142005,0.0008153018425218761,0.6743782162666321,0.0,-0.0,0.0,0.0,0.0,0.0
1782665041,67018786,-1.6561983267413538,0.12950468063354492,-1.5218213240252894,0.006904037203639746,0.0008033175836317241,0.6744141578674316,0.0,-0.0,0.0,0.0,0.0,0.0
1782665041,75015490,-1.6561983267413538,0.12950468063354492,-1.5218456427203577,0.006904037203639746,0.0008153018425218761,0.6744261384010315,0.0,-0.0,0.0,0.0,0.0,0.0
1782665041,83006713,-1.6561744848834437,0.12943315505981445,-1.5218337217914026,0.006963958498090506,0.0008153018425218761,0.6744141578674316,0.0,-0.0,0.0,0.0,0.0,0.0
1782665041,91009935,-1.6561864058123987,0.12955284118652344,-1.5218456427203577,0.006892052944749594,0.0008392703020945191,0.6743542551994324,0.0,-0.0,0.0,0.0,0.0,0.0
1782665041,99008880,-1.6561506430255335,0.12949275970458984,-1.521893326436178,0.00692800572142005,0.0008392703020945191,0.6744261384010315,0.0,-0.0,0.0,0.0,0.0,0.0
1782665041,106995233,-1.6561744848834437,0.12954092025756836,-1.5218213240252894,0.006880068685859442,0.0008153018425218761,0.6743901968002319,0.0,-0.0,0.0,0.0,0.0,0.0
1782665041,115023399,-1.6561983267413538,0.12955284118652344,-1.5218694845782679,0.006939989980310202,0.0008272860432043672,0.6743542551994324,0.0,-0.0,0.0,0.0,0.0,0.0
1782665041,123012622,-1.6562345663653772,0.12949275970458984,-1.5218213240252894,0.00692800572142005,0.0008392703020945191,0.6743782162666321,0.0,-0.0,0.0,0.0,0.0,0.0
1782665041,131051307,-1.6561744848834437,0.12954092025756836,-1.5218694845782679,0.006963958498090506,0.0008272860432043672,0.6743542551994324,0.0,-0.0,0.0,0.0,0.0,0.0
1782665041,139019363,-1.6561744848834437,0.12955284118652344,-1.5218337217914026,0.00692800572142005,0.0008153018425218761,0.6743901968002319,0.0,-0.0,0.0,0.0,0.0,0.0
1782665041,147016160,-1.6561864058123987,0.12954092025756836,-1.5218575636493128,0.006904037203639746,0.0007669904152862728,0.6743901968002319,0.0,-0.0,0.0,0.0,0.0,0.0
1782665041,155016364,-1.6561983267413538,0.12955284118652344,-1.5218575636493128,0.00692800572142005,0.0008272860432043672,0.6743782162666321,0.0,-0.0,0.0,0.0,0.0,0.0
1782665041,163021846,-1.6562464872943323,0.12954092025756836,-1.5218337217914026,0.00692800572142005,0.0008512545027770102,0.6743901968002319,0.0,-0.0,0.0,0.0,0.0,0.0
1782665041,171018087,-1.6562226454364222,0.12952899932861328,-1.521905247365133,0.006904037203639746,0.0008033175836317241,0.6744021773338318,0.0,-0.0,0.0,0.0,0.0,0.0
1782665041,179017255,-1.6561625639544886,0.12950468063354492,-1.5218694845782679,0.006904037203639746,0.0008033175836317241,0.6743782162666321,0.0,-0.0,0.0,0.0,0.0,0.0
1782665041,187007237,-1.6562226454364222,0.12955284118652344,-1.5218575636493128,0.00692800572142005,0.0008153018425218761,0.6743782162666321,0.0,-0.0,0.0,0.0,0.0,0.0
1782665041,195037033,-1.6561864058123987,0.1295170783996582,-1.521881405507223,0.006916021462529898,0.0008392703020945191,0.6743782162666321,0.0,-0.0,0.0,0.0,0.0,0.0
1782665041,203015997,-1.6561506430255335,0.12949275970458984,-1.5218337217914026,0.006880068685859442,0.0008512545027770102,0.6744021773338318,0.0,-0.0,0.0,0.0,0.0,0.0
1782665041,211022478,-1.656210724507467,0.12954092025756836,-1.5218213240252894,0.00686808442696929,0.0008153018425218761,0.674318253993988,0.0,-0.0,0.0,0.0,0.0,0.0
1782665041,219018757,-1.6561625639544886,0.1295170783996582,-1.521881405507223,0.006916021462529898,0.0008153018425218761,0.6743782162666321,0.0,-0.0,0.0,0.0,0.0,0.0
1782665041,227047923,-1.6561625639544886,0.1295170783996582,-1.521881405507223,0.006916021462529898,0.0007789746159687638,0.6743662357330322,0.0,-0.0,0.0,0.0,0.0,0.0
1782665041,235018276,-1.6561625639544886,0.12949275970458984,-1.5218337217914026,0.00692800572142005,0.0008153018425218761,0.6744021773338318,0.0,-0.0,0.0,0.0,0.0,0.0
1782665041,243007906,-1.6561744848834437,0.12955284118652344,-1.5218575636493128,0.006939989980310202,0.0008153018425218761,0.6743662357330322,0.0,-0.0,0.0,0.0,0.0,0.0
1782665041,251100053,-1.6561983267413538,0.1295170783996582,-1.5218575636493128,0.006892052944749594,0.0007909588748589158,0.6743782162666321,0.0,-0.0,0.0,0.0,0.0,0.0
1782665041,259033740,-1.6561983267413538,0.12954092025756836,-1.521881405507223,0.006904037203639746,0.0008272860432043672,0.6743782162666321,0.0,-0.0,0.0,0.0,0.0,0.0
1782665041,267018889,-1.6561625639544886,0.1295170783996582,-1.5218456427203577,0.00686808442696929,0.0008033175836317241,0.6744381189346313,0.0,-0.0,0.0,0.0,0.0,0.0
1782665041,275017945,-1.656210724507467,0.12954092025756836,-1.5218456427203577,0.006939989980310202,0.0008153018425218761,0.6743302345275879,0.0,-0.0,0.0,0.0,0.0,0.0
1782665041,283021464,-1.656210724507467,0.12948083877563477,-1.5218575636493128,0.006892052944749594,0.0008153018425218761,0.6743782162666321,0.0,-0.0,0.0,0.0,0.0,0.0
1782665041,291015298,-1.6561744848834437,0.12950468063354492,-1.5218337217914026,0.00686808442696929,0.0008153018425218761,0.6743901968002319,0.0,-0.0,0.0,0.0,0.0,0.0
1782665041,299013131,-1.656210724507467,0.1295170783996582,-1.5218094030963343,0.006880068685859442,0.0008272860432043672,0.6744021773338318,0.0,-0.0,0.0,0.0,0.0,0.0
1782665041,307020224,-1.6561625639544886,0.12949275970458984,-1.5218337217914026,0.006880068685859442,0.0008153018425218761,0.6744021773338318,0.0,-0.0,0.0,0.0,0.0,0.0
1782665041,315021336,-1.656210724507467,0.1295170783996582,-1.5218456427203577,0.006892052944749594,0.0007909588748589158,0.6743782162666321,0.0,-0.0,0.0,0.0,0.0,0.0
1782665041,323017151,-1.656210724507467,0.12950468063354492,-1.5217855612384241,0.00692800572142005,0.0008392703020945191,0.6743901968002319,0.0,-0.0,0.0,0.0,0.0,0.0
1782665041,331045632,-1.656210724507467,0.12949275970458984,-1.5218337217914026,0.006892052944749594,0.0008392703020945191,0.6743662357330322,0.0,-0.0,0.0,0.0,0.0,0.0
1782665041,339004097,-1.6561744848834437,0.1295170783996582,-1.521881405507223,0.006892052944749594,0.0008512545027770102,0.6744141578674316,0.0,-0.0,0.0,0.0,0.0,0.0
1782665041,347022930,-1.6561983267413538,0.1295170783996582,-1.5218456427203577,0.006904037203639746,0.0008272860432043672,0.6743901968002319,0.0,-0.0,0.0,0.0,0.0,0.0
1782665041,355032078,-1.6561744848834437,0.1295170783996582,-1.521881405507223,0.00692800572142005,0.0008392703020945191,0.6743782162666321,0.0,-0.0,0.0,0.0,0.0,0.0
1782665041,363018431,-1.6561983267413538,0.1295766830444336,-1.5218694845782679,0.006856100168079138,0.0008153018425218761,0.6743422150611877,0.0,-0.0,0.0,0.0,0.0,0.0
1782665041,371020931,-1.6561625639544886,0.12954092025756836,-1.5218575636493128,0.00692800572142005,0.0008392703020945191,0.6743782162666321,0.0,-0.0,0.0,0.0,0.0,0.0
1782665041,379010469,-1.6561744848834437,0.12950468063354492,-1.521881405507223,0.006916021462529898,0.0007909588748589158,0.6743662357330322,0.0,-0.0,0.0,0.0,0.0,0.0
1782665041,387024654,-1.6561864058123987,0.12952899932861328,-1.5218575636493128,0.006892052944749594,0.0008033175836317241,0.6744261384010315,0.0,-0.0,0.0,0.0,0.0,0.0
1782665041,395030599,-1.6561983267413538,0.1295170783996582,-1.5218337217914026,0.006904037203639746,0.0008272860432043672,0.6744021773338318,0.0,-0.0,0.0,0.0,0.0,0.0
1782665041,403051210,-1.6561744848834437,0.12950468063354492,-1.5218213240252894,0.00692800572142005,0.0008512545027770102,0.6743901968002319,0.0,-0.0,0.0,0.0,0.0,0.0
1782665041,411043137,-1.6562226454364222,0.12949275970458984,-1.5218337217914026,0.006951974239200354,0.0008033175836317241,0.6743422150611877,0.0,-0.0,0.0,0.0,0.0,0.0
1782665041,419028711,-1.6562226454364222,0.12955284118652344,-1.5218337217914026,0.00692800572142005,0.0008272860432043672,0.6743422150611877,0.0,-0.0,0.0,0.0,0.0,0.0
1782665041,427067322,-1.656210724507467,0.12952899932861328,-1.5218575636493128,0.006856100168079138,0.0008272860432043672,0.6743662357330322,0.0,-0.0,0.0,0.0,0.0,0.0
1782665041,435116525,-1.6562226454364222,0.12952899932861328,-1.521881405507223,0.006892052944749594,0.0007909588748589158,0.6744021773338318,0.0,-0.0,0.0,0.0,0.0,0.0
1782665041,443015361,-1.6562464872943323,0.12954092025756836,-1.5218694845782679,0.006904037203639746,0.0008392703020945191,0.6743782162666321,0.0,-0.0,0.0,0.0,0.0,0.0
1782665041,451037324,-1.6561983267413538,0.1294569969177246,-1.5218094030963343,0.006916021462529898,0.0007789746159687638,0.6743662357330322,0.0,-0.0,0.0,0.0,0.0,0.0
1782665041,459076027,-1.6561625639544886,0.12950468063354492,-1.521881405507223,0.00692800572142005,0.0008392703020945191,0.6743901968002319,0.0,-0.0,0.0,0.0,0.0,0.0
1782665041,467072269,-1.6562226454364222,0.12949275970458984,-1.5218094030963343,0.006939989980310202,0.0007909588748589158,0.6743542551994324,0.0,-0.0,0.0,0.0,0.0,0.0
1782665041,475026492,-1.6561625639544886,0.1295766830444336,-1.521881405507223,0.006892052944749594,0.0008392703020945191,0.6744141578674316,0.0,-0.0,0.0,0.0,0.0,0.0
1782665041,483019159,-1.6561864058123987,0.12952899932861328,-1.521881405507223,0.006880068685859442,0.0008153018425218761,0.6743901968002319,0.0,-0.0,0.0,0.0,0.0,0.0
1782665041,491034993,-1.6561387220965784,0.1295170783996582,-1.5218456427203577,0.006892052944749594,0.0008033175836317241,0.6743901968002319,0.0,-0.0,0.0,0.0,0.0,0.0
1782665041,499156731,-1.6561864058123987,0.1295170783996582,-1.5218575636493128,0.00692800572142005,0.0008033175836317241,0.6743901968002319,0.0,-0.0,0.0,0.0,0.0,0.0
1782665041,507042697,-1.6562226454364222,0.12950468063354492,-1.5218575636493128,0.006892052944749594,0.0008272860432043672,0.6744021773338318,0.0,-0.0,0.0,0.0,0.0,0.0
1782665041,515027642,-1.6561983267413538,0.12949275970458984,-1.5218575636493128,0.006904037203639746,0.0008392703020945191,0.6743901968002319,0.0,-0.0,0.0,0.0,0.0,0.0
1782665041,523032161,-1.6561625639544886,0.12948083877563477,-1.5218694845782679,0.006892052944749594,0.0008272860432043672,0.6744021773338318,0.0,-0.0,0.0,0.0,0.0,0.0
1782665041,531061809,-1.6561983267413538,0.12950468063354492,-1.5218575636493128,0.006892052944749594,0.0008033175836317241,0.6743782162666321,0.0,-0.0,0.0,0.0,0.0,0.0
1782665041,539026681,-1.6561864058123987,0.12949275970458984,-1.5218213240252894,0.00686808442696929,0.0008033175836317241,0.6743662357330322,0.0,-0.0,0.0,0.0,0.0,0.0
1782665041,547060736,-1.6561983267413538,0.12952899932861328,-1.5218575636493128,0.006916021462529898,0.0008153018425218761,0.6744141578674316,0.0,-0.0,0.0,0.0,0.0,0.0
1782665041,555025256,-1.6561864058123987,0.1295170783996582,-1.5218213240252894,0.006939989980310202,0.0008272860432043672,0.6744381189346313,0.0,-0.0,0.0,0.0,0.0,0.0
1782665041,563029923,-1.656210724507467,0.12954092025756836,-1.5218456427203577,0.006904037203639746,0.0007789746159687638,0.6744141578674316,0.0,-0.0,0.0,0.0,0.0,0.0
1782665041,571033793,-1.6561983267413538,0.12952899932861328,-1.5218575636493128,0.006892052944749594,0.0008153018425218761,0.6744261384010315,0.0,-0.0,0.0,0.0,0.0,0.0
1782665041,579040331,-1.6561744848834437,0.12949275970458984,-1.5218575636493128,0.006904037203639746,0.0008153018425218761,0.6743662357330322,0.0,-0.0,0.0,0.0,0.0,0.0
1782665041,587037479,-1.6561744848834437,0.12950468063354492,-1.5218456427203577,0.006892052944749594,0.0008272860432043672,0.6744261384010315,0.0,-0.0,0.0,0.0,0.0,0.0
1782665041,595057572,-1.6561744848834437,0.12952899932861328,-1.5218694845782679,0.00692800572142005,0.0008033175836317241,0.6743901968002319,0.0,-0.0,0.0,0.0,0.0,0.0
1782665041,603036702,-1.656210724507467,0.12949275970458984,-1.5219176451312464,0.006892052944749594,0.0007789746159687638,0.6744141578674316,0.0,-0.0,0.0,0.0,0.0,0.0
1782665041,611045999,-1.6562584082232874,0.12955284118652344,-1.5218694845782679,0.006880068685859442,0.0008392703020945191,0.6744021773338318,0.0,-0.0,0.0,0.0,0.0,0.0
1782665041,619019037,-1.656210724507467,0.1294689178466797,-1.5218694845782679,0.006904037203639746,0.0008392703020945191,0.6744141578674316,0.0,-0.0,0.0,0.0,0.0,0.0
1782665041,627064888,-1.6562345663653772,0.12952899932861328,-1.5218337217914026,0.006904037203639746,0.0007789746159687638,0.6744141578674316,0.0,-0.0,0.0,0.0,0.0,0.0
1782665041,635019131,-1.6561983267413538,0.12955284118652344,-1.5218456427203577,0.006904037203639746,0.0008392703020945191,0.6744021773338318,0.0,-0.0,0.0,0.0,0.0,0.0
1782665041,643011724,-1.6561744848834437,0.12950468063354492,-1.5218456427203577,0.00692800572142005,0.0008512545027770102,0.6743542551994324,0.0,-0.0,0.0,0.0,0.0,0.0
1782665041,651032020,-1.6561864058123987,0.12954092025756836,-1.5218456427203577,0.006904037203639746,0.0008512545027770102,0.6743782162666321,0.0,-0.0,0.0,0.0,0.0,0.0
1782665041,659059668,-1.6561983267413538,0.1295170783996582,-1.5218575636493128,0.006939989980310202,0.0008392703020945191,0.6743782162666321,0.0,-0.0,0.0,0.0,0.0,0.0
1782665041,667018929,-1.656210724507467,0.1295170783996582,-1.5218456427203577,0.006916021462529898,0.0008153018425218761,0.6743542551994324,0.0,-0.0,0.0,0.0,0.0,0.0
1782665041,675023373,-1.6562226454364222,0.12952899932861328,-1.521905247365133,0.006892052944749594,0.0007909588748589158,0.6743302345275879,0.0,-0.0,0.0,0.0,0.0,0.0
1782665041,683036225,-1.6562345663653772,0.12950468063354492,-1.5218337217914026,0.00692800572142005,0.0008033175836317241,0.6743901968002319,0.0,-0.0,0.0,0.0,0.0,0.0
1782665041,691035948,-1.6561744848834437,0.12955284118652344,-1.5218337217914026,0.006892052944749594,0.0008153018425218761,0.6743662357330322,0.0,-0.0,0.0,0.0,0.0,0.0
1782665041,699030856,-1.6561983267413538,0.12949275970458984,-1.5218213240252894,0.006916021462529898,0.0008153018425218761,0.6743782162666321,0.0,-0.0,0.0,0.0,0.0,0.0
1782665041,707039486,-1.6562226454364222,0.12956476211547852,-1.521881405507223,0.006904037203639746,0.0008033175836317241,0.6743901968002319,0.0,-0.0,0.0,0.0,0.0,0.0
1782665041,715076393,-1.656210724507467,0.12955284118652344,-1.5218456427203577,0.006904037203639746,0.0008272860432043672,0.6743662357330322,0.0,-0.0,0.0,0.0,0.0,0.0
1782665041,723028339,-1.6561864058123987,0.12954092025756836,-1.521893326436178,0.006939989980310202,0.0008153018425218761,0.6744261384010315,0.0,-0.0,0.0,0.0,0.0,0.0
1782665041,731055820,-1.6562345663653772,0.12949275970458984,-1.5218694845782679,0.00686808442696929,0.0008033175836317241,0.6743662357330322,0.0,-0.0,0.0,0.0,0.0,0.0
1782665041,739018043,-1.6561625639544886,0.12954092025756836,-1.5218337217914026,0.006904037203639746,0.0008272860432043672,0.6744141578674316,0.0,-0.0,0.0,0.0,0.0,0.0
1782665041,747015970,-1.6561625639544886,0.12954092025756836,-1.5218337217914026,0.00692800572142005,0.0007789746159687638,0.6743422150611877,0.0,-0.0,0.0,0.0,0.0,0.0
1782665041,755046007,-1.6561387220965784,0.12950468063354492,-1.5218337217914026,0.006939989980310202,0.0008392703020945191,0.6744261384010315,0.0,-0.0,0.0,0.0,0.0,0.0
1782665041,763022082,-1.6562226454364222,0.12950468063354492,-1.5218456427203577,0.00692800572142005,0.0007909588748589158,0.6744021773338318,0.0,-0.0,0.0,0.0,0.0,0.0
1782665041,771037952,-1.6561506430255335,0.1295170783996582,-1.5218094030963343,0.006880068685859442,0.0008033175836317241,0.6743782162666321,0.0,-0.0,0.0,0.0,0.0,0.0
1782665041,779027805,-1.656210724507467,0.12948083877563477,-1.5218694845782679,0.006951974239200354,0.0007789746159687638,0.6744141578674316,0.0,-0.0,0.0,0.0,0.0,0.0
1782665041,787028935,-1.6561387220965784,0.12955284118652344,-1.5217974821673792,0.006856100168079138,0.0008392703020945191,0.6743662357330322,0.0,-0.0,0.0,0.0,0.0,0.0
1782665041,796694989,-1.6561983267413538,0.12952899932861328,-1.521905247365133,0.006916021462529898,0.0008153018425218761,0.6743302345275879,0.0,-0.0,0.0,0.0,0.0,0.0
1782665041,803063027,-1.6561864058123987,0.12952899932861328,-1.5218456427203577,0.006916021462529898,0.0007669904152862728,0.6744021773338318,0.0,-0.0,0.0,0.0,0.0,0.0
1782665041,811006603,-1.6561983267413538,0.12950468063354492,-1.5218456427203577,0.00692800572142005,0.0008153018425218761,0.6744141578674316,0.0,-0.0,0.0,0.0,0.0,0.0
1782665041,819008104,-1.6561983267413538,0.12948083877563477,-1.5218575636493128,0.00692800572142005,0.0008392703020945191,0.6743422150611877,0.0,-0.0,0.0,0.0,0.0,0.0
1782665041,827012511,-1.656210724507467,0.12955284118652344,-1.5218575636493128,0.006892052944749594,0.0008033175836317241,0.6744021773338318,0.0,-0.0,0.0,0.0,0.0,0.0
1782665041,835015104,-1.6562345663653772,0.12954092025756836,-1.5218694845782679,0.00692800572142005,0.0008033175836317241,0.6743662357330322,0.0,-0.0,0.0,0.0,0.0,0.0
1782665041,843010679,-1.6562226454364222,0.12950468063354492,-1.521881405507223,0.00686808442696929,0.0008033175836317241,0.6743901968002319,0.0,-0.0,0.0,0.0,0.0,0.0
1782665041,851013920,-1.6561864058123987,0.12952899932861328,-1.5218694845782679,0.006916021462529898,0.0008033175836317241,0.6743422150611877,0.0,-0.0,0.0,0.0,0.0,0.0
1782665041,859034661,-1.6561625639544886,0.12955284118652344,-1.5218575636493128,0.006880068685859442,0.0007909588748589158,0.6743662357330322,0.0,-0.0,0.0,0.0,0.0,0.0
1782665041,867026143,-1.6561983267413538,0.12952899932861328,-1.5218337217914026,0.006892052944749594,0.0008153018425218761,0.6743901968002319,0.0,-0.0,0.0,0.0,0.0,0.0
1782665041,875353524,-1.6561864058123987,0.12952899932861328,-1.5217974821673792,0.006904037203639746,0.0008153018425218761,0.6743782162666321,0.0,-0.0,0.0,0.0,0.0,0.0
1782665041,883033217,-1.6561864058123987,0.12950468063354492,-1.521893326436178,0.006916021462529898,0.0007789746159687638,0.6743662357330322,0.0,-0.0,0.0,0.0,0.0,0.0
1782665041,891041940,-1.6561744848834437,0.12955284118652344,-1.521893326436178,0.006856100168079138,0.0008392703020945191,0.6743901968002319,0.0,-0.0,0.0,0.0,0.0,0.0
1782665041,899043107,-1.6561625639544886,0.12955284118652344,-1.5218213240252894,0.006880068685859442,0.0008153018425218761,0.6744021773338318,0.0,-0.0,0.0,0.0,0.0,0.0
1782665041,907037478,-1.6561983267413538,0.12950468063354492,-1.5218575636493128,0.006904037203639746,0.0008272860432043672,0.6743662357330322,0.0,-0.0,0.0,0.0,0.0,0.0
1782665041,915025108,-1.6561864058123987,0.12954092025756836,-1.5218694845782679,0.006904037203639746,0.0007909588748589158,0.6744261384010315,0.0,-0.0,0.0,0.0,0.0,0.0
1782665041,923031405,-1.656210724507467,0.12952899932861328,-1.5218456427203577,0.00692800572142005,0.0008033175836317241,0.6744021773338318,0.0,-0.0,0.0,0.0,0.0,0.0
1782665041,931057127,-1.6561625639544886,0.12950468063354492,-1.5217974821673792,0.006916021462529898,0.0008392703020945191,0.6743901968002319,0.0,-0.0,0.0,0.0,0.0,0.0
1782665041,939054720,-1.6561864058123987,0.12950468063354492,-1.5218337217914026,0.006892052944749594,0.0007909588748589158,0.6743901968002319,0.0,-0.0,0.0,0.0,0.0,0.0
1782665041,949730399,-1.6561864058123987,0.12949275970458984,-1.521881405507223,0.006939989980310202,0.0008392703020945191,0.6743662357330322,0.0,-0.0,0.0,0.0,0.0,0.0
1782665041,955030203,-1.656210724507467,0.12955284118652344,-1.5218694845782679,0.006916021462529898,0.0007909588748589158,0.6743782162666321,0.0,-0.0,0.0,0.0,0.0,0.0
1782665041,963071591,-1.6561983267413538,0.12952899932861328,-1.5218575636493128,0.006892052944749594,0.0008512545027770102,0.6744261384010315,0.0,-0.0,0.0,0.0,0.0,0.0
1782665041,971018667,-1.6561983267413538,0.12954092025756836,-1.5217855612384241,0.006916021462529898,0.0008033175836317241,0.6744021773338318,0.0,-0.0,0.0,0.0,0.0,0.0
1782665041,979013316,-1.656210724507467,0.12956476211547852,-1.5218213240252894,0.00692800572142005,0.0008392703020945191,0.6743782162666321,0.0,-0.0,0.0,0.0,0.0,0.0
1782665041,987016464,-1.656210724507467,0.12954092025756836,-1.5218694845782679,0.006904037203639746,0.0008272860432043672,0.6743662357330322,0.0,-0.0,0.0,0.0,0.0,0.0
1782665041,995018113,-1.656210724507467,0.12949275970458984,-1.5217974821673792,0.00686808442696929,0.0008153018425218761,0.6743662357330322,0.0,-0.0,0.0,0.0,0.0,0.0
1782665042,3028020,-1.656210724507467,0.1295170783996582,-1.5218337217914026,0.00692800572142005,0.0007909588748589158,0.6744021773338318,0.0,-0.0,0.0,0.0,0.0,0.0
1782665042,11014447,-1.656210724507467,0.12952899932861328,-1.5218213240252894,0.006904037203639746,0.0007909588748589158,0.6743901968002319,0.0,-0.0,0.0,0.0,0.0,0.0
1782665042,19024985,-1.6561864058123987,0.12949275970458984,-1.521881405507223,0.006939989980310202,0.0008033175836317241,0.6744381189346313,0.0,-0.0,0.0,0.0,0.0,0.0
1782665042,27075763,-1.6562226454364222,0.12952899932861328,-1.521881405507223,0.006904037203639746,0.0007909588748589158,0.6743662357330322,0.0,-0.0,0.0,0.0,0.0,0.0
1782665042,35419478,-1.656210724507467,0.12949275970458984,-1.5218575636493128,0.006892052944749594,0.0007909588748589158,0.6744021773338318,0.0,-0.0,0.0,0.0,0.0,0.0
1782665042,43026155,-1.6561625639544886,0.1295766830444336,-1.5218337217914026,0.00686808442696929,0.0008512545027770102,0.6744021773338318,0.0,-0.0,0.0,0.0,0.0,0.0
1782665042,51082580,-1.6561983267413538,0.12950468063354492,-1.5218337217914026,0.00692800572142005,0.0007909588748589158,0.6744021773338318,0.0,-0.0,0.0,0.0,0.0,0.0
1782665042,59039989,-1.6562345663653772,0.12950468063354492,-1.5218456427203577,0.006892052944749594,0.0008512545027770102,0.6744021773338318,0.0,-0.0,0.0,0.0,0.0,0.0
1782665042,67071230,-1.6561744848834437,0.12949275970458984,-1.5218575636493128,0.006904037203639746,0.0008153018425218761,0.6743901968002319,0.0,-0.0,0.0,0.0,0.0,0.0
1782665042,75050047,-1.6561983267413538,0.1294689178466797,-1.521881405507223,0.006951974239200354,0.0008153018425218761,0.6744261384010315,0.0,-0.0,0.0,0.0,0.0,0.0
1782665042,83018419,-1.6561744848834437,0.12952899932861328,-1.521881405507223,0.006892052944749594,0.0008272860432043672,0.6744021773338318,0.0,-0.0,0.0,0.0,0.0,0.0
1782665042,91042586,-1.656210724507467,0.12954092025756836,-1.5218337217914026,0.00692800572142005,0.0008033175836317241,0.6744261384010315,0.0,-0.0,0.0,0.0,0.0,0.0
1782665042,99059975,-1.6562226454364222,0.12948083877563477,-1.5218337217914026,0.006904037203639746,0.0008392703020945191,0.6744381189346313,0.0,-0.0,0.0,0.0,0.0,0.0
1782665042,107033217,-1.6561864058123987,0.12954092025756836,-1.5218694845782679,0.006939989980310202,0.0008272860432043672,0.6744261384010315,0.0,-0.0,0.0,0.0,0.0,0.0
1782665042,115045773,-1.656210724507467,0.1294689178466797,-1.5218575636493128,0.00692800572142005,0.0008272860432043672,0.6744021773338318,0.0,-0.0,0.0,0.0,0.0,0.0
1782665042,123021108,-1.6561983267413538,0.12955284118652344,-1.5218337217914026,0.00686808442696929,0.0008153018425218761,0.6743782162666321,0.0,-0.0,0.0,0.0,0.0,0.0
1782665042,131063849,-1.6561625639544886,0.12954092025756836,-1.521893326436178,0.00692800572142005,0.0007909588748589158,0.6743901968002319,0.0,-0.0,0.0,0.0,0.0,0.0
1782665042,139057091,-1.6562464872943323,0.12952899932861328,-1.5218337217914026,0.00692800572142005,0.0008392703020945191,0.6743901968002319,0.0,-0.0,0.0,0.0,0.0,0.0
1782665042,147053610,-1.6561864058123987,0.12949275970458984,-1.5218094030963343,0.00692800572142005,0.0008392703020945191,0.6744141578674316,0.0,-0.0,0.0,0.0,0.0,0.0
1782665042,155018260,-1.656210724507467,0.12956476211547852,-1.5218456427203577,0.006916021462529898,0.0007789746159687638,0.6743542551994324,0.0,-0.0,0.0,0.0,0.0,0.0
1782665042,163058038,-1.6561983267413538,0.12949275970458984,-1.5218337217914026,0.006904037203639746,0.0008153018425218761,0.6744021773338318,0.0,-0.0,0.0,0.0,0.0,0.0
1782665042,171034947,-1.6561983267413538,0.12950468063354492,-1.521893326436178,0.00686808442696929,0.0008392703020945191,0.6743782162666321,0.0,-0.0,0.0,0.0,0.0,0.0
1782665042,179030355,-1.656210724507467,0.12949275970458984,-1.521881405507223,0.006916021462529898,0.0008272860432043672,0.6744261384010315,0.0,-0.0,0.0,0.0,0.0,0.0
1782665042,187080522,-1.656210724507467,0.12949275970458984,-1.521881405507223,0.006916021462529898,0.0008272860432043672,0.6744261384010315,0.0,-0.0,0.0,0.0,0.0,0.0
1782665042,195043412,-1.6562464872943323,0.1295170783996582,-1.5218337217914026,0.006880068685859442,0.0008153018425218761,0.6744021773338318,0.0,-0.0,0.0,0.0,0.0,0.0
1782665042,203036117,-1.6561983267413538,0.12952899932861328,-1.5217974821673792,0.006939989980310202,0.0008392703020945191,0.6744021773338318,0.0,-0.0,0.0,0.0,0.0,0.0
1782665042,211030674,-1.6561744848834437,0.12952899932861328,-1.5218337217914026,0.006880068685859442,0.0008512545027770102,0.6743542551994324,0.0,-0.0,0.0,0.0,0.0,0.0
1782665042,219030804,-1.656210724507467,0.12954092025756836,-1.5218575636493128,0.006916021462529898,0.0008153018425218761,0.6743901968002319,0.0,-0.0,0.0,0.0,0.0,0.0
1782665042,227036083,-1.6562345663653772,0.1295170783996582,-1.5218213240252894,0.006963958498090506,0.0008512545027770102,0.6744021773338318,0.0,-0.0,0.0,0.0,0.0,0.0
1782665042,235036676,-1.6561983267413538,0.12952899932861328,-1.5218337217914026,0.00692800572142005,0.0008153018425218761,0.6744021773338318,0.0,-0.0,0.0,0.0,0.0,0.0
1782665042,243027566,-1.6561864058123987,0.1295170783996582,-1.5218575636493128,0.006939989980310202,0.0008272860432043672,0.6743662357330322,0.0,-0.0,0.0,0.0,0.0,0.0
1782665042,251024975,-1.6562345663653772,0.12954092025756836,-1.5218337217914026,0.006916021462529898,0.0008153018425218761,0.6743901968002319,0.0,-0.0,0.0,0.0,0.0,0.0
1782665042,259033494,-1.6561625639544886,0.12950468063354492,-1.5218694845782679,0.006904037203639746,0.0008153018425218761,0.6743901968002319,0.0,-0.0,0.0,0.0,0.0,0.0
1782665042,267037550,-1.656210724507467,0.12952899932861328,-1.5218575636493128,0.006904037203639746,0.0008033175836317241,0.6744381189346313,0.0,-0.0,0.0,0.0,0.0,0.0
1782665042,275015385,-1.6561864058123987,0.12952899932861328,-1.5218456427203577,0.006880068685859442,0.0007789746159687638,0.6744021773338318,0.0,-0.0,0.0,0.0,0.0,0.0
1782665042,283036978,-1.6561744848834437,0.1295170783996582,-1.5218575636493128,0.006916021462529898,0.0008033175836317241,0.6744261384010315,0.0,-0.0,0.0,0.0,0.0,0.0
1782665042,291036516,-1.656210724507467,0.12954092025756836,-1.5219176451312464,0.00692800572142005,0.0008153018425218761,0.6743782162666321,0.0,-0.0,0.0,0.0,0.0,0.0
1782665042,299066461,-1.6562226454364222,0.12950468063354492,-1.521893326436178,0.006916021462529898,0.0008392703020945191,0.6744021773338318,0.0,-0.0,0.0,0.0,0.0,0.0
1782665042,307023444,-1.6561744848834437,0.12950468063354492,-1.521881405507223,0.006963958498090506,0.0008153018425218761,0.6743422150611877,0.0,-0.0,0.0,0.0,0.0,0.0
1782665042,315014427,-1.6561744848834437,0.12948083877563477,-1.5218694845782679,0.00686808442696929,0.0008153018425218761,0.6744261384010315,0.0,-0.0,0.0,0.0,0.0,0.0
1782665042,323025316,-1.6561864058123987,0.12950468063354492,-1.5218456427203577,0.006904037203639746,0.0008033175836317241,0.6743901968002319,0.0,-0.0,0.0,0.0,0.0,0.0
1782665042,331011077,-1.6562584082232874,0.1295766830444336,-1.521881405507223,0.006892052944749594,0.0008392703020945191,0.6744261384010315,0.0,-0.0,0.0,0.0,0.0,0.0
1782665042,339025059,-1.6561744848834437,0.12956476211547852,-1.5218575636493128,0.006916021462529898,0.0008153018425218761,0.6744381189346313,0.0,-0.0,0.0,0.0,0.0,0.0
1782665042,347044004,-1.6562464872943323,0.12955284118652344,-1.5218456427203577,0.006916021462529898,0.0008153018425218761,0.6743422150611877,0.0,-0.0,0.0,0.0,0.0,0.0
1782665042,355079930,-1.6561744848834437,0.12954092025756836,-1.5218337217914026,0.006904037203639746,0.0008153018425218761,0.6743662357330322,0.0,-0.0,0.0,0.0,0.0,0.0
1782665042,363135948,-1.656210724507467,0.12954092025756836,-1.5218575636493128,0.00692800572142005,0.0008632387034595013,0.6744021773338318,0.0,-0.0,0.0,0.0,0.0,0.0
1782665042,371039562,-1.656210724507467,0.12949275970458984,-1.5218694845782679,0.00686808442696929,0.0008512545027770102,0.6744141578674316,0.0,-0.0,0.0,0.0,0.0,0.0
1782665042,379024341,-1.6561506430255335,0.1295170783996582,-1.521881405507223,0.00692800572142005,0.0007789746159687638,0.6743901968002319,0.0,-0.0,0.0,0.0,0.0,0.0
1782665042,387071767,-1.6561506430255335,0.12952899932861328,-1.521881405507223,0.006916021462529898,0.0008153018425218761,0.6743542551994324,0.0,-0.0,0.0,0.0,0.0,0.0
1782665042,395037213,-1.6561744848834437,0.1295170783996582,-1.5218456427203577,0.006963958498090506,0.0008272860432043672,0.6744261384010315,0.0,-0.0,0.0,0.0,0.0,0.0
1782665042,403047084,-1.6561983267413538,0.1295170783996582,-1.5218575636493128,0.006904037203639746,0.0007789746159687638,0.6743662357330322,0.0,-0.0,0.0,0.0,0.0,0.0
1782665042,411042622,-1.6561983267413538,0.1295170783996582,-1.5218575636493128,0.006904037203639746,0.0008153018425218761,0.6743782162666321,0.0,-0.0,0.0,0.0,0.0,0.0
1782665042,419075067,-1.6561625639544886,0.1295766830444336,-1.5218694845782679,0.006892052944749594,0.0008153018425218761,0.6743662357330322,0.0,-0.0,0.0,0.0,0.0,0.0
1782665042,427049069,-1.6561744848834437,0.1294689178466797,-1.5217974821673792,0.006892052944749594,0.0008512545027770102,0.6743901968002319,0.0,-0.0,0.0,0.0,0.0,0.0
1782665042,435039922,-1.656210724507467,0.12954092025756836,-1.5218694845782679,0.00692800572142005,0.0008033175836317241,0.6743542551994324,0.0,-0.0,0.0,0.0,0.0,0.0
1782665042,443036293,-1.6562345663653772,0.12955284118652344,-1.521893326436178,0.00692800572142005,0.0008033175836317241,0.6744021773338318,0.0,-0.0,0.0,0.0,0.0,0.0
1782665042,451067423,-1.6561268011676233,0.12952899932861328,-1.5218575636493128,0.006916021462529898,0.0008392703020945191,0.6744500994682312,0.0,-0.0,0.0,0.0,0.0,0.0
1782665042,459058424,-1.6561744848834437,0.12952899932861328,-1.521881405507223,0.006916021462529898,0.0008033175836317241,0.6744141578674316,0.0,-0.0,0.0,0.0,0.0,0.0
1782665042,467090406,-1.6562226454364222,0.12950468063354492,-1.5218575636493128,0.00686808442696929,0.0008272860432043672,0.6743901968002319,0.0,-0.0,0.0,0.0,0.0,0.0
1782665042,475052685,-1.6561506430255335,0.1295170783996582,-1.5218456427203577,0.00692800572142005,0.0008392703020945191,0.6744021773338318,0.0,-0.0,0.0,0.0,0.0,0.0
1782665042,483072408,-1.6561983267413538,0.12955284118652344,-1.521881405507223,0.00692800572142005,0.0008272860432043672,0.6743901968002319,0.0,-0.0,0.0,0.0,0.0,0.0
1782665042,491044335,-1.6561864058123987,0.12955284118652344,-1.521893326436178,0.006904037203639746,0.0008512545027770102,0.6743782162666321,0.0,-0.0,0.0,0.0,0.0,0.0
1782665042,499041836,-1.6561864058123987,0.12952899932861328,-1.5218213240252894,0.006892052944749594,0.0008153018425218761,0.6743782162666321,0.0,-0.0,0.0,0.0,0.0,0.0
1782665042,507042745,-1.6562345663653772,0.12950468063354492,-1.5218575636493128,0.006880068685859442,0.0008153018425218761,0.6743662357330322,0.0,-0.0,0.0,0.0,0.0,0.0
1782665042,515063986,-1.6561625639544886,0.12955284118652344,-1.5218575636493128,0.00692800572142005,0.0008392703020945191,0.6743662357330322,0.0,-0.0,0.0,0.0,0.0,0.0
1782665042,523031654,-1.6561744848834437,0.12949275970458984,-1.5218094030963343,0.006892052944749594,0.0008392703020945191,0.6743782162666321,0.0,-0.0,0.0,0.0,0.0,0.0
1782665042,531032692,-1.6562345663653772,0.12950468063354492,-1.5218337217914026,0.006951974239200354,0.0007789746159687638,0.6743901968002319,0.0,-0.0,0.0,0.0,0.0,0.0
1782665042,539038360,-1.6562226454364222,0.12955284118652344,-1.5218456427203577,0.006904037203639746,0.0008153018425218761,0.6743901968002319,0.0,-0.0,0.0,0.0,0.0,0.0
1782665042,547059249,-1.6561983267413538,0.12949275970458984,-1.5218575636493128,0.006916021462529898,0.0008272860432043672,0.6743542551994324,0.0,-0.0,0.0,0.0,0.0,0.0
1782665042,555012066,-1.6561744848834437,0.1295170783996582,-1.5218456427203577,0.006904037203639746,0.0008392703020945191,0.6744021773338318,0.0,-0.0,0.0,0.0,0.0,0.0
1782665042,563012974,-1.6562226454364222,0.1295170783996582,-1.5218694845782679,0.006880068685859442,0.0008153018425218761,0.6743782162666321,0.0,-0.0,0.0,0.0,0.0,0.0
1782665042,571140546,-1.6561744848834437,0.12952899932861328,-1.521893326436178,0.00686808442696929,0.0008153018425218761,0.6743542551994324,0.0,-0.0,0.0,0.0,0.0,0.0
1782665042,579544464,-1.6561983267413538,0.12954092025756836,-1.5218694845782679,0.006939989980310202,0.0008392703020945191,0.6744141578674316,0.0,-0.0,0.0,0.0,0.0,0.0
1782665042,589739303,-1.6562703291522425,0.12950468063354492,-1.5218575636493128,0.006880068685859442,0.0008153018425218761,0.6744021773338318,0.0,-0.0,0.0,0.0,0.0,0.0
1782665042,595024496,-1.6561625639544886,0.12955284118652344,-1.5218694845782679,0.006856100168079138,0.0008153018425218761,0.6743782162666321,0.0,-0.0,0.0,0.0,0.0,0.0
1782665042,603021293,-1.6561983267413538,0.12952899932861328,-1.5218456427203577,0.006939989980310202,0.0008272860432043672,0.6743901968002319,0.0,-0.0,0.0,0.0,0.0,0.0
1782665042,644135568,-1.6562226454364222,0.12955284118652344,-1.5218337217914026,0.006916021462529898,0.0008272860432043672,0.6743901968002319,0.0,-0.0,0.0,0.0,0.0,0.0
1782665042,652172754,-1.6561864058123987,0.12949275970458984,-1.5218337217914026,0.00692800572142005,0.0007909588748589158,0.6743662357330322,0.0,-0.0,0.0,0.0,0.0,0.0
1782665042,663324275,-1.6561864058123987,0.12955284118652344,-1.5218575636493128,0.00686808442696929,0.0007909588748589158,0.6744141578674316,0.0,-0.0,0.0,0.0,0.0,0.0
1782665042,667536418,-1.6561625639544886,0.12954092025756836,-1.5218337217914026,0.006916021462529898,0.0007789746159687638,0.6743782162666321,0.0,-0.0,0.0,0.0,0.0,0.0
1782665042,713454120,-1.6561625639544886,0.12949275970458984,-1.5218694845782679,0.006916021462529898,0.0008033175836317241,0.6744021773338318,0.0,-0.0,0.0,0.0,0.0,0.0
1782665042,716829857,-1.6561625639544886,0.12950468063354492,-1.5218337217914026,0.006892052944749594,0.0007909588748589158,0.6744021773338318,0.0,-0.0,0.0,0.0,0.0,0.0
1782665042,723019103,-1.6561744848834437,0.12954092025756836,-1.5218213240252894,0.006904037203639746,0.0008153018425218761,0.6744141578674316,0.0,-0.0,0.0,0.0,0.0,0.0
1782665042,731088473,-1.6562584082232874,0.12950468063354492,-1.5218694845782679,0.00692800572142005,0.0008033175836317241,0.6743901968002319,0.0,-0.0,0.0,0.0,0.0,0.0
1782665042,739030698,-1.6561983267413538,0.12956476211547852,-1.5218694845782679,0.006880068685859442,0.0007909588748589158,0.6744021773338318,0.0,-0.0,0.0,0.0,0.0,0.0
1782665042,747044698,-1.6562226454364222,0.12954092025756836,-1.5218694845782679,0.006904037203639746,0.0007789746159687638,0.6744261384010315,0.0,-0.0,0.0,0.0,0.0,0.0
1782665042,755039440,-1.6561864058123987,0.12948083877563477,-1.5218337217914026,0.006916021462529898,0.0008153018425218761,0.6743901968002319,0.0,-0.0,0.0,0.0,0.0,0.0
1782665042,763016293,-1.6561864058123987,0.12954092025756836,-1.5218694845782679,0.006904037203639746,0.0008392703020945191,0.6744141578674316,0.0,-0.0,0.0,0.0,0.0,0.0
1782665042,779120959,-1.6561744848834437,0.12952899932861328,-1.5218575636493128,0.006880068685859442,0.0008392703020945191,0.6743782162666321,0.0,-0.0,0.0,0.0,0.0,0.0
1782665042,795018630,-1.6561864058123987,0.12954092025756836,-1.5218456427203577,0.006904037203639746,0.0008153018425218761,0.6744261384010315,0.0,-0.0,0.0,0.0,0.0,0.0
1782665042,803027853,-1.6561983267413538,0.12949275970458984,-1.521881405507223,0.006892052944749594,0.0007909588748589158,0.6743901968002319,0.0,-0.0,0.0,0.0,0.0,0.0
1782665042,811041817,-1.6561864058123987,0.12955284118652344,-1.5218456427203577,0.006880068685859442,0.0007789746159687638,0.6744261384010315,0.0,-0.0,0.0,0.0,0.0,0.0
1782665042,819025448,-1.656210724507467,0.12949275970458984,-1.5218694845782679,0.006880068685859442,0.0008272860432043672,0.6744021773338318,0.0,-0.0,0.0,0.0,0.0,0.0
1782665042,827023245,-1.656210724507467,0.1295170783996582,-1.5218094030963343,0.006904037203639746,0.0008272860432043672,0.6743542551994324,0.0,-0.0,0.0,0.0,0.0,0.0
1782665042,835042190,-1.6561744848834437,0.12948083877563477,-1.5218213240252894,0.006904037203639746,0.0007909588748589158,0.6743422150611877,0.0,-0.0,0.0,0.0,0.0,0.0
1782665042,843041469,-1.6561387220965784,0.12955284118652344,-1.5218213240252894,0.006904037203639746,0.0008153018425218761,0.6744141578674316,0.0,-0.0,0.0,0.0,0.0,0.0
1782665042,851044155,-1.6561387220965784,0.12954092025756836,-1.5218575636493128,0.006916021462529898,0.0008033175836317241,0.6743901968002319,0.0,-0.0,0.0,0.0,0.0,0.0
1782665042,859048415,-1.6561983267413538,0.12948083877563477,-1.5218094030963343,0.006892052944749594,0.0008153018425218761,0.6743901968002319,0.0,-0.0,0.0,0.0,0.0,0.0
1782665042,867040527,-1.6562226454364222,0.12956476211547852,-1.5218575636493128,0.006880068685859442,0.0008153018425218761,0.6743782162666321,0.0,-0.0,0.0,0.0,0.0,0.0
1782665042,875037824,-1.6562345663653772,0.12952899932861328,-1.5218575636493128,0.00692800572142005,0.0008392703020945191,0.6744021773338318,0.0,-0.0,0.0,0.0,0.0,0.0
1782665042,883208932,-1.656210724507467,0.12954092025756836,-1.5218337217914026,0.006892052944749594,0.0008392703020945191,0.6743422150611877,0.0,-0.0,0.0,0.0,0.0,0.0
1782665042,891001345,-1.6562345663653772,0.12950468063354492,-1.5218213240252894,0.00692800572142005,0.0007909588748589158,0.6744141578674316,0.0,-0.0,0.0,0.0,0.0,0.0
1782665042,899208508,-1.6561506430255335,0.1295170783996582,-1.5218575636493128,0.006916021462529898,0.0008033175836317241,0.6744141578674316,0.0,-0.0,0.0,0.0,0.0,0.0
1782665042,907099086,-1.6562226454364222,0.12955284118652344,-1.5218694845782679,0.006892052944749594,0.0008392703020945191,0.6743542551994324,0.0,-0.0,0.0,0.0,0.0,0.0
1782665042,915027774,-1.6561983267413538,0.12952899932861328,-1.5218094030963343,0.006904037203639746,0.0007909588748589158,0.6744021773338318,0.0,-0.0,0.0,0.0,0.0,0.0
1782665042,923026237,-1.656210724507467,0.1295170783996582,-1.521905247365133,0.00692800572142005,0.0007909588748589158,0.6743901968002319,0.0,-0.0,0.0,0.0,0.0,0.0
1782665042,931040479,-1.6562345663653772,0.12952899932861328,-1.5218094030963343,0.006904037203639746,0.0007909588748589158,0.6743901968002319,0.0,-0.0,0.0,0.0,0.0,0.0
1782665042,939102997,-1.6561983267413538,0.1295170783996582,-1.521905247365133,0.006880068685859442,0.0008392703020945191,0.6743422150611877,0.0,-0.0,0.0,0.0,0.0,0.0
1782665042,955823001,-1.656210724507467,0.1295170783996582,-1.5218575636493128,0.00686808442696929,0.0008033175836317241,0.6744021773338318,0.0,-0.0,0.0,0.0,0.0,0.0
1782665042,963213886,-1.6562345663653772,0.12955284118652344,-1.521905247365133,0.006939989980310202,0.0008153018425218761,0.6743901968002319,0.0,-0.0,0.0,0.0,0.0,0.0
1782665042,971049594,-1.6561387220965784,0.12955284118652344,-1.521881405507223,0.006880068685859442,0.0008512545027770102,0.6743901968002319,0.0,-0.0,0.0,0.0,0.0,0.0
1782665042,979077335,-1.6561625639544886,0.12954092025756836,-1.5218456427203577,0.006916021462529898,0.0008033175836317241,0.6743901968002319,0.0,-0.0,0.0,0.0,0.0,0.0
1782665042,987052078,-1.6562226454364222,0.1294689178466797,-1.5218456427203577,0.006916021462529898,0.0008033175836317241,0.6744021773338318,0.0,-0.0,0.0,0.0,0.0,0.0
1782665043,3465274,-1.6561983267413538,0.12955284118652344,-1.5218456427203577,0.00686808442696929,0.0008392703020945191,0.6743901968002319,0.0,-0.0,0.0,0.0,0.0,0.0
1782665043,7569124,-1.6561983267413538,0.12955284118652344,-1.5218456427203577,0.00686808442696929,0.0008392703020945191,0.6743901968002319,0.0,-0.0,0.0,0.0,0.0,0.0
1782665043,12061409,-1.6562345663653772,0.12955284118652344,-1.521881405507223,0.006904037203639746,0.0008392703020945191,0.6743901968002319,0.0,-0.0,0.0,0.0,0.0,0.0
1782665043,19438518,-1.6561983267413538,0.12950468063354492,-1.521893326436178,0.006880068685859442,0.0007909588748589158,0.6743542551994324,0.0,-0.0,0.0,0.0,0.0,0.0
1782665043,27128415,-1.6562822500811976,0.12952899932861328,-1.5217974821673792,0.006904037203639746,0.0008153018425218761,0.6744141578674316,0.0,-0.0,0.0,0.0,0.0,0.0
1782665043,35030511,-1.6562226454364222,0.12954092025756836,-1.5218694845782679,0.00692800572142005,0.0007909588748589158,0.6744261384010315,0.0,-0.0,0.0,0.0,0.0,0.0
1782665043,43104789,-1.6562226454364222,0.12954092025756836,-1.5218213240252894,0.00686808442696929,0.0008033175836317241,0.6743901968002319,0.0,-0.0,0.0,0.0,0.0,0.0
1782665043,51057680,-1.656210724507467,0.1295170783996582,-1.5218337217914026,0.006892052944749594,0.0007909588748589158,0.6743662357330322,0.0,-0.0,0.0,0.0,0.0,0.0
1782665043,59006331,-1.656210724507467,0.12952899932861328,-1.5218213240252894,0.00692800572142005,0.0008033175836317241,0.6744381189346313,0.0,-0.0,0.0,0.0,0.0,0.0
1782665043,67225735,-1.6562345663653772,0.12954092025756836,-1.5218575636493128,0.00692800572142005,0.0008153018425218761,0.6743901968002319,0.0,-0.0,0.0,0.0,0.0,0.0
1782665043,75439583,-1.6561983267413538,0.12954092025756836,-1.5218094030963343,0.00686808442696929,0.0008153018425218761,0.6743662357330322,0.0,-0.0,0.0,0.0,0.0,0.0
1782665043,83696857,-1.6561983267413538,0.12955284118652344,-1.5218694845782679,0.006904037203639746,0.0007909588748589158,0.6744261384010315,0.0,-0.0,0.0,0.0,0.0,0.0
1782665043,91381013,-1.6561983267413538,0.12952899932861328,-1.5218456427203577,0.006892052944749594,0.0008632387034595013,0.6743782162666321,0.0,-0.0,0.0,0.0,0.0,0.0
1782665043,99023875,-1.6561625639544886,0.12950468063354492,-1.521881405507223,0.006880068685859442,0.0008153018425218761,0.6743662357330322,0.0,-0.0,0.0,0.0,0.0,0.0
1782665043,107020136,-1.6561625639544886,0.12949275970458984,-1.5218456427203577,0.00686808442696929,0.0008033175836317241,0.6744500994682312,0.0,-0.0,0.0,0.0,0.0,0.0
1782665043,115023174,-1.6561864058123987,0.12952899932861328,-1.5218456427203577,0.006880068685859442,0.0008392703020945191,0.6744141578674316,0.0,-0.0,0.0,0.0,0.0,0.0
1782665043,123129895,-1.6561387220965784,0.12956476211547852,-1.521881405507223,0.006880068685859442,0.0008392703020945191,0.6743782162666321,0.0,-0.0,0.0,0.0,0.0,0.0
1782665043,131022140,-1.6562226454364222,0.12955284118652344,-1.5218456427203577,0.006916021462529898,0.0008512545027770102,0.6743662357330322,0.0,-0.0,0.0,0.0,0.0,0.0
1782665043,139207785,-1.6561625639544886,0.12954092025756836,-1.5218575636493128,0.006904037203639746,0.0007789746159687638,0.6743422150611877,0.0,-0.0,0.0,0.0,0.0,0.0
1782665043,147184509,-1.6562226454364222,0.12950468063354492,-1.5218456427203577,0.006904037203639746,0.0008392703020945191,0.6743901968002319,0.0,-0.0,0.0,0.0,0.0,0.0
1782665043,155231121,-1.6561625639544886,0.1295170783996582,-1.5218094030963343,0.006916021462529898,0.0008272860432043672,0.6743782162666321,0.0,-0.0,0.0,0.0,0.0,0.0
1782665043,163612539,-1.6562345663653772,0.12954092025756836,-1.5218694845782679,0.006916021462529898,0.0007909588748589158,0.6744261384010315,0.0,-0.0,0.0,0.0,0.0,0.0
1782665043,171010943,-1.6561983267413538,0.12950468063354492,-1.5218456427203577,0.006904037203639746,0.0008033175836317241,0.6743302345275879,0.0,-0.0,0.0,0.0,0.0,0.0
1782665043,219238558,-1.6561864058123987,0.12950468063354492,-1.5218337217914026,0.006880068685859442,0.0008033175836317241,0.6743662357330322,0.0,-0.0,0.0,0.0,0.0,0.0
1782665043,230251786,-1.6562226454364222,0.12952899932861328,-1.5218456427203577,0.006856100168079138,0.0008272860432043672,0.6743901968002319,0.0,-0.0,0.0,0.0,0.0,0.0
1782665043,245192536,-1.6561983267413538,0.1295170783996582,-1.5218694845782679,0.006916021462529898,0.0008392703020945191,0.6743901968002319,0.0,-0.0,0.0,0.0,0.0,0.0
1782665043,250397749,-1.6561983267413538,0.1295170783996582,-1.5218694845782679,0.006916021462529898,0.0008392703020945191,0.6743901968002319,0.0,-0.0,0.0,0.0,0.0,0.0
1782665043,252963283,-1.6561983267413538,0.1295170783996582,-1.5218694845782679,0.006916021462529898,0.0008392703020945191,0.6743901968002319,0.0,-0.0,0.0,0.0,0.0,0.0
1782665043,254506600,-1.656210724507467,0.12948083877563477,-1.521881405507223,0.006880068685859442,0.0008272860432043672,0.6743542551994324,0.0,-0.0,0.0,0.0,0.0,0.0
1782665043,256341446,-1.656210724507467,0.12948083877563477,-1.521881405507223,0.006880068685859442,0.0008272860432043672,0.6743542551994324,0.0,-0.0,0.0,0.0,0.0,0.0
1782665043,259690555,-1.6562345663653772,0.1294689178466797,-1.521881405507223,0.006880068685859442,0.0008033175836317241,0.6743901968002319,0.0,-0.0,0.0,0.0,0.0,0.0
1782665043,267583929,-1.6561864058123987,0.12955284118652344,-1.5218575636493128,0.00686808442696929,0.0007909588748589158,0.6743782162666321,0.0,-0.0,0.0,0.0,0.0,0.0
1782665043,275851850,-1.6561983267413538,0.1295170783996582,-1.521881405507223,0.006904037203639746,0.0008392703020945191,0.6743422150611877,0.0,-0.0,0.0,0.0,0.0,0.0
1782665043,283220847,-1.6561744848834437,0.12954092025756836,-1.5218694845782679,0.006892052944749594,0.0008033175836317241,0.6743662357330322,0.0,-0.0,0.0,0.0,0.0,0.0
1782665043,291021131,-1.6562345663653772,0.1295170783996582,-1.5218337217914026,0.006892052944749594,0.0008512545027770102,0.6743782162666321,0.0,-0.0,0.0,0.0,0.0,0.0
1782665043,299012651,-1.6561625639544886,0.12950468063354492,-1.5218337217914026,0.006939989980310202,0.0008153018425218761,0.6744141578674316,0.0,-0.0,0.0,0.0,0.0,0.0
1782665043,307144650,-1.6561983267413538,0.12955284118652344,-1.5218456427203577,0.006904037203639746,0.0008272860432043672,0.6743901968002319,0.0,-0.0,0.0,0.0,0.0,0.0
1782665043,315015487,-1.656210724507467,0.12954092025756836,-1.5218337217914026,0.00692800572142005,0.0007789746159687638,0.6744141578674316,0.0,-0.0,0.0,0.0,0.0,0.0
1782665043,323021803,-1.6561983267413538,0.12955284118652344,-1.5218456427203577,0.006916021462529898,0.0007909588748589158,0.6744261384010315,0.0,-0.0,0.0,0.0,0.0,0.0
1782665043,339598015,-1.656210724507467,0.12952899932861328,-1.521881405507223,0.006856100168079138,0.0008512545027770102,0.6743782162666321,0.0,-0.0,0.0,0.0,0.0,0.0
1782665043,356190005,-1.6561983267413538,0.12950468063354492,-1.5218337217914026,0.00692800572142005,0.0008392703020945191,0.6744381189346313,0.0,-0.0,0.0,0.0,0.0,0.0
1782665043,367275935,-1.656210724507467,0.1295170783996582,-1.521881405507223,0.00692800572142005,0.0008272860432043672,0.6744021773338318,0.0,-0.0,0.0,0.0,0.0,0.0
1782665043,370404567,-1.656210724507467,0.1295170783996582,-1.521881405507223,0.00692800572142005,0.0008272860432043672,0.6744021773338318,0.0,-0.0,0.0,0.0,0.0,0.0
1782665043,373642956,-1.6562226454364222,0.12954092025756836,-1.5218337217914026,0.006904037203639746,0.0008392703020945191,0.6743901968002319,0.0,-0.0,0.0,0.0,0.0,0.0
1782665043,379635207,-1.6562464872943323,0.12952899932861328,-1.5218337217914026,0.006916021462529898,0.0007909588748589158,0.6743422150611877,0.0,-0.0,0.0,0.0,0.0,0.0
1782665043,387109628,-1.6562464872943323,0.12954092025756836,-1.521893326436178,0.006880068685859442,0.0008033175836317241,0.6744021773338318,0.0,-0.0,0.0,0.0,0.0,0.0
1782665043,395026187,-1.656210724507467,0.12952899932861328,-1.5218337217914026,0.00692800572142005,0.0007789746159687638,0.6743782162666321,0.0,-0.0,0.0,0.0,0.0,0.0
1782665043,403145000,-1.6561625639544886,0.12954092025756836,-1.5218456427203577,0.006939989980310202,0.0008153018425218761,0.6743901968002319,0.0,-0.0,0.0,0.0,0.0,0.0
1782665043,411106539,-1.656210724507467,0.12952899932861328,-1.521881405507223,0.006904037203639746,0.0007789746159687638,0.6743782162666321,0.0,-0.0,0.0,0.0,0.0,0.0
1782665043,419018617,-1.6561268011676233,0.12954092025756836,-1.521893326436178,0.006904037203639746,0.0008153018425218761,0.6744021773338318,0.0,-0.0,0.0,0.0,0.0,0.0
1782665043,427016748,-1.656210724507467,0.12950468063354492,-1.5218337217914026,0.00692800572142005,0.0008033175836317241,0.6744141578674316,0.0,-0.0,0.0,0.0,0.0,0.0
1782665043,435215134,-1.6561983267413538,0.12952899932861328,-1.5217974821673792,0.006904037203639746,0.0008153018425218761,0.6744141578674316,0.0,-0.0,0.0,0.0,0.0,0.0
1782665043,443017158,-1.6562464872943323,0.12952899932861328,-1.5218575636493128,0.00686808442696929,0.0008153018425218761,0.6743662357330322,0.0,-0.0,0.0,0.0,0.0,0.0
1782665043,451239747,-1.6562345663653772,0.12948083877563477,-1.5218094030963343,0.00692800572142005,0.0008272860432043672,0.6744141578674316,0.0,-0.0,0.0,0.0,0.0,0.0
1782665043,467019755,-1.6561744848834437,0.12952899932861328,-1.5218456427203577,0.00692800572142005,0.0008392703020945191,0.6744141578674316,0.0,-0.0,0.0,0.0,0.0,0.0
1782665043,475053922,-1.6562226454364222,0.12950468063354492,-1.5218575636493128,0.00692800572142005,0.0008272860432043672,0.6743782162666321,0.0,-0.0,0.0,0.0,0.0,0.0
1782665043,483018647,-1.6561864058123987,0.12949275970458984,-1.5218456427203577,0.006856100168079138,0.0008512545027770102,0.6743782162666321,0.0,-0.0,0.0,0.0,0.0,0.0
1782665043,491022167,-1.6561864058123987,0.12955284118652344,-1.5218575636493128,0.006880068685859442,0.0008033175836317241,0.6743782162666321,0.0,-0.0,0.0,0.0,0.0,0.0
1782665043,499055982,-1.6562226454364222,0.1295170783996582,-1.5218337217914026,0.006892052944749594,0.0008033175836317241,0.6744141578674316,0.0,-0.0,0.0,0.0,0.0,0.0
1782665043,507018244,-1.6561983267413538,0.1295170783996582,-1.5218456427203577,0.006904037203639746,0.0008392703020945191,0.6743901968002319,0.0,-0.0,0.0,0.0,0.0,0.0
1782665043,515015078,-1.6561983267413538,0.12954092025756836,-1.5218337217914026,0.00692800572142005,0.0008033175836317241,0.6743782162666321,0.0,-0.0,0.0,0.0,0.0,0.0
1782665043,523021450,-1.6562464872943323,0.12949275970458984,-1.5218456427203577,0.006939989980310202,0.0008153018425218761,0.6744141578674316,0.0,-0.0,0.0,0.0,0.0,0.0
1782665043,531016174,-1.6562464872943323,0.12954092025756836,-1.5218575636493128,0.006892052944749594,0.0007789746159687638,0.6744381189346313,0.0,-0.0,0.0,0.0,0.0,0.0
1782665043,539016064,-1.6561744848834437,0.12955284118652344,-1.5218456427203577,0.006880068685859442,0.0008033175836317241,0.6744021773338318,0.0,-0.0,0.0,0.0,0.0,0.0
1782665043,547016047,-1.6561625639544886,0.12954092025756836,-1.5218694845782679,0.006939989980310202,0.0007909588748589158,0.6743782162666321,0.0,-0.0,0.0,0.0,0.0,0.0
1782665043,560045396,-1.6562345663653772,0.12952899932861328,-1.5218213240252894,0.00692800572142005,0.0007909588748589158,0.6744141578674316,0.0,-0.0,0.0,0.0,0.0,0.0
1782665043,563158713,-1.6561864058123987,0.1295170783996582,-1.5218694845782679,0.006963958498090506,0.0008033175836317241,0.6744261384010315,0.0,-0.0,0.0,0.0,0.0,0.0
1782665043,571134345,-1.6561864058123987,0.12955284118652344,-1.5218694845782679,0.006916021462529898,0.0008512545027770102,0.6744261384010315,0.0,-0.0,0.0,0.0,0.0,0.0
1782665043,579013905,-1.6561864058123987,0.1295170783996582,-1.5218694845782679,0.006892052944749594,0.0008033175836317241,0.6744141578674316,0.0,-0.0,0.0,0.0,0.0,0.0
1782665043,595136516,-1.656210724507467,0.12954092025756836,-1.5218456427203577,0.006904037203639746,0.0008033175836317241,0.6743782162666321,0.0,-0.0,0.0,0.0,0.0,0.0
1782665043,611021910,-1.6561983267413538,0.12950468063354492,-1.5218694845782679,0.00692800572142005,0.0008632387034595013,0.6744381189346313,0.0,-0.0,0.0,0.0,0.0,0.0
1782665043,619115354,-1.6562703291522425,0.12954092025756836,-1.5218575636493128,0.006916021462529898,0.0007909588748589158,0.6743662357330322,0.0,-0.0,0.0,0.0,0.0,0.0
1782665043,627019820,-1.6561983267413538,0.12955284118652344,-1.5218337217914026,0.006880068685859442,0.0008033175836317241,0.6743901968002319,0.0,-0.0,0.0,0.0,0.0,0.0
1782665043,635022192,-1.6561744848834437,0.12949275970458984,-1.5218694845782679,0.006892052944749594,0.0008272860432043672,0.6743901968002319,0.0,-0.0,0.0,0.0,0.0,0.0
1782665043,643063322,-1.656210724507467,0.1295170783996582,-1.5218456427203577,0.006880068685859442,0.0008153018425218761,0.6743901968002319,0.0,-0.0,0.0,0.0,0.0,0.0
1782665043,651017325,-1.656210724507467,0.12952899932861328,-1.5218337217914026,0.006880068685859442,0.0008272860432043672,0.6743901968002319,0.0,-0.0,0.0,0.0,0.0,0.0
1782665043,659041807,-1.6561983267413538,0.1295170783996582,-1.521893326436178,0.006880068685859442,0.0008632387034595013,0.6744141578674316,0.0,-0.0,0.0,0.0,0.0,0.0
1782665043,667032957,-1.6561625639544886,0.1295170783996582,-1.5218456427203577,0.006939989980310202,0.0007789746159687638,0.6743542551994324,0.0,-0.0,0.0,0.0,0.0,0.0
1782665043,675100290,-1.6562464872943323,0.12952899932861328,-1.5218337217914026,0.006880068685859442,0.0008153018425218761,0.6743782162666321,0.0,-0.0,0.0,0.0,0.0,0.0
1782665043,683018016,-1.6562345663653772,0.1295170783996582,-1.521881405507223,0.006892052944749594,0.0008153018425218761,0.6743901968002319,0.0,-0.0,0.0,0.0,0.0,0.0
1782665043,691017998,-1.6561864058123987,0.12950468063354492,-1.521881405507223,0.006939989980310202,0.0008033175836317241,0.6743422150611877,0.0,-0.0,0.0,0.0,0.0,0.0
1782665043,699056351,-1.656210724507467,0.12954092025756836,-1.521881405507223,0.006916021462529898,0.0007909588748589158,0.6744021773338318,0.0,-0.0,0.0,0.0,0.0,0.0
1782665043,707016205,-1.6561864058123987,0.1295170783996582,-1.5218337217914026,0.006939989980310202,0.0007789746159687638,0.6743662357330322,0.0,-0.0,0.0,0.0,0.0,0.0
1782665043,715053891,-1.656210724507467,0.1295170783996582,-1.5218337217914026,0.006892052944749594,0.0007789746159687638,0.6743542551994324,0.0,-0.0,0.0,0.0,0.0,0.0
1782665043,723069484,-1.6562584082232874,0.1295170783996582,-1.5218694845782679,0.006880068685859442,0.0008632387034595013,0.6744021773338318,0.0,-0.0,0.0,0.0,0.0,0.0
1782665043,731012209,-1.6561744848834437,0.1295170783996582,-1.5218694845782679,0.006844115909188986,0.0008512545027770102,0.6743782162666321,0.0,-0.0,0.0,0.0,0.0,0.0
1782665043,739022192,-1.6562226454364222,0.1295170783996582,-1.5218094030963343,0.006844115909188986,0.0008153018425218761,0.6743302345275879,0.0,-0.0,0.0,0.0,0.0,0.0
1782665043,747057693,-1.6562226454364222,0.12952899932861328,-1.5218694845782679,0.006951974239200354,0.0008033175836317241,0.6744261384010315,0.0,-0.0,0.0,0.0,0.0,0.0
1782665043,755016695,-1.6562345663653772,0.1295766830444336,-1.5218575636493128,0.006916021462529898,0.0008033175836317241,0.6743662357330322,0.0,-0.0,0.0,0.0,0.0,0.0
1782665043,763508796,-1.6561625639544886,0.12954092025756836,-1.5218694845782679,0.006916021462529898,0.0008033175836317241,0.6744141578674316,0.0,-0.0,0.0,0.0,0.0,0.0
1782665043,771023883,-1.6562941710101526,0.12950468063354492,-1.5218337217914026,0.006880068685859442,0.0008272860432043672,0.6743901968002319,0.0,-0.0,0.0,0.0,0.0,0.0
1782665043,779017310,-1.656210724507467,0.12950468063354492,-1.5218456427203577,0.006880068685859442,0.0007909588748589158,0.6744021773338318,0.0,-0.0,0.0,0.0,0.0,0.0
1782665043,787018034,-1.6561744848834437,0.12949275970458984,-1.5218337217914026,0.006880068685859442,0.0008392703020945191,0.6744261384010315,0.0,-0.0,0.0,0.0,0.0,0.0
1782665043,795015776,-1.6562226454364222,0.12955284118652344,-1.5218337217914026,0.006904037203639746,0.0008153018425218761,0.6744021773338318,0.0,-0.0,0.0,0.0,0.0,0.0
1782665043,803017833,-1.6561864058123987,0.12948083877563477,-1.5218456427203577,0.006904037203639746,0.0008153018425218761,0.6744021773338318,0.0,-0.0,0.0,0.0,0.0,0.0
1782665043,811021483,-1.656210724507467,0.1295170783996582,-1.5218456427203577,0.006904037203639746,0.0008392703020945191,0.6743782162666321,0.0,-0.0,0.0,0.0,0.0,0.0
1782665043,819012892,-1.6561744848834437,0.12952899932861328,-1.521881405507223,0.006892052944749594,0.0008272860432043672,0.6743422150611877,0.0,-0.0,0.0,0.0,0.0,0.0
1782665043,827018337,-1.6561744848834437,0.12952899932861328,-1.5218337217914026,0.006892052944749594,0.0007909588748589158,0.6743542551994324,0.0,-0.0,0.0,0.0,0.0,0.0
1782665043,835089004,-1.6562226454364222,0.12955284118652344,-1.5218694845782679,0.006904037203639746,0.0007909588748589158,0.6743901968002319,0.0,-0.0,0.0,0.0,0.0,0.0
1782665043,843013507,-1.6562226454364222,0.12949275970458984,-1.5218213240252894,0.006892052944749594,0.0007789746159687638,0.6743782162666321,0.0,-0.0,0.0,0.0,0.0,0.0
1782665043,851283873,-1.6561983267413538,0.12954092025756836,-1.5218337217914026,0.006939989980310202,0.0008033175836317241,0.6743422150611877,0.0,-0.0,0.0,0.0,0.0,0.0
1782665043,859013639,-1.6562345663653772,0.12949275970458984,-1.5218575636493128,0.00686808442696929,0.0007909588748589158,0.6743542551994324,0.0,-0.0,0.0,0.0,0.0,0.0
1782665043,867370299,-1.6561864058123987,0.12949275970458984,-1.5218694845782679,0.00692800572142005,0.0007789746159687638,0.6743901968002319,0.0,-0.0,0.0,0.0,0.0,0.0
1782665043,875206860,-1.656210724507467,0.12952899932861328,-1.5218456427203577,0.006880068685859442,0.0008033175836317241,0.6743422150611877,0.0,-0.0,0.0,0.0,0.0,0.0
1782665043,883102957,-1.6561983267413538,0.12954092025756836,-1.5218694845782679,0.006939989980310202,0.0007909588748589158,0.6743901968002319,0.0,-0.0,0.0,0.0,0.0,0.0
1782665043,891201493,-1.6562464872943323,0.1295170783996582,-1.5218456427203577,0.00692800572142005,0.0007909588748589158,0.6744021773338318,0.0,-0.0,0.0,0.0,0.0,0.0
1782665043,899145514,-1.6561983267413538,0.12948083877563477,-1.5218456427203577,0.006916021462529898,0.0008392703020945191,0.6743422150611877,0.0,-0.0,0.0,0.0,0.0,0.0
1782665043,907014574,-1.656210724507467,0.12952899932861328,-1.521893326436178,0.00692800572142005,0.0008153018425218761,0.6743422150611877,0.0,-0.0,0.0,0.0,0.0,0.0
1782665043,915011927,-1.6562345663653772,0.12954092025756836,-1.521881405507223,0.006963958498090506,0.0008392703020945191,0.6743662357330322,0.0,-0.0,0.0,0.0,0.0,0.0
1782665043,923198684,-1.6561983267413538,0.1295170783996582,-1.5218575636493128,0.00692800572142005,0.0008272860432043672,0.6743901968002319,0.0,-0.0,0.0,0.0,0.0,0.0
1782665043,933800607,-1.6561744848834437,0.1295170783996582,-1.5218575636493128,0.006892052944749594,0.0008392703020945191,0.6743422150611877,0.0,-0.0,0.0,0.0,0.0,0.0
1782665043,939017765,-1.6562226454364222,0.12950468063354492,-1.5218456427203577,0.006892052944749594,0.0008153018425218761,0.6743782162666321,0.0,-0.0,0.0,0.0,0.0,0.0
1782665043,947020266,-1.6561744848834437,0.12950468063354492,-1.5217974821673792,0.006904037203639746,0.0008153018425218761,0.6743901968002319,0.0,-0.0,0.0,0.0,0.0,0.0
1782665043,955014823,-1.6562345663653772,0.12952899932861328,-1.5218575636493128,0.006892052944749594,0.0008153018425218761,0.6743901968002319,0.0,-0.0,0.0,0.0,0.0,0.0
1782665043,963013565,-1.6562345663653772,0.12950468063354492,-1.5218213240252894,0.006916021462529898,0.0008153018425218761,0.6743782162666321,0.0,-0.0,0.0,0.0,0.0,0.0
1782665043,971247321,-1.6561983267413538,0.12955284118652344,-1.521881405507223,0.006951974239200354,0.0008153018425218761,0.6744261384010315,0.0,-0.0,0.0,0.0,0.0,0.0
1782665043,979066271,-1.6561744848834437,0.12950468063354492,-1.5218575636493128,0.006939989980310202,0.0008512545027770102,0.6743901968002319,0.0,-0.0,0.0,0.0,0.0,0.0
1782665043,987183232,-1.656210724507467,0.12952899932861328,-1.5218575636493128,0.00686808442696929,0.0008033175836317241,0.6744141578674316,0.0,-0.0,0.0,0.0,0.0,0.0
1782665043,995079347,-1.6562226454364222,0.12950468063354492,-1.5218456427203577,0.006916021462529898,0.0008272860432043672,0.6743782162666321,0.0,-0.0,0.0,0.0,0.0,0.0
1782665044,3347676,-1.6561864058123987,0.1295170783996582,-1.521881405507223,0.00686808442696929,0.0008272860432043672,0.6743782162666321,0.0,-0.0,0.0,0.0,0.0,0.0
1782665044,11154182,-1.6561744848834437,0.12952899932861328,-1.5218337217914026,0.006880068685859442,0.0007909588748589158,0.6743542551994324,0.0,-0.0,0.0,0.0,0.0,0.0
1782665044,18998169,-1.6561983267413538,0.12950468063354492,-1.5218694845782679,0.006904037203639746,0.0008392703020945191,0.6743662357330322,0.0,-0.0,0.0,0.0,0.0,0.0
1782665044,27026726,-1.6562584082232874,0.12956476211547852,-1.521893326436178,0.006892052944749594,0.0007789746159687638,0.6743422150611877,0.0,-0.0,0.0,0.0,0.0,0.0
1782665044,35031098,-1.656210724507467,0.12954092025756836,-1.5218575636493128,0.006951974239200354,0.0008153018425218761,0.6744141578674316,0.0,-0.0,0.0,0.0,0.0,0.0
1782665044,43039378,-1.6562345663653772,0.1295170783996582,-1.5218456427203577,0.006892052944749594,0.0007909588748589158,0.6743901968002319,0.0,-0.0,0.0,0.0,0.0,0.0
1782665044,51054861,-1.6562345663653772,0.1295170783996582,-1.5218213240252894,0.006963958498090506,0.0008392703020945191,0.6743782162666321,0.0,-0.0,0.0,0.0,0.0,0.0
1782665044,59026437,-1.6562345663653772,0.1295170783996582,-1.5218337217914026,0.006904037203639746,0.0008512545027770102,0.6744021773338318,0.0,-0.0,0.0,0.0,0.0,0.0
1782665044,67023088,-1.6562464872943323,0.12952899932861328,-1.5218694845782679,0.006904037203639746,0.0007669904152862728,0.6744021773338318,0.0,-0.0,0.0,0.0,0.0,0.0
1782665044,75040959,-1.6562226454364222,0.1295170783996582,-1.5218694845782679,0.006939989980310202,0.0007789746159687638,0.6743782162666321,0.0,-0.0,0.0,0.0,0.0,0.0
1782665044,83049183,-1.6561983267413538,0.12952899932861328,-1.5218337217914026,0.006951974239200354,0.0008392703020945191,0.6743662357330322,0.0,-0.0,0.0,0.0,0.0,0.0
1782665044,91003612,-1.6562226454364222,0.12952899932861328,-1.5218456427203577,0.00692800572142005,0.0008272860432043672,0.6743901968002319,0.0,-0.0,0.0,0.0,0.0,0.0
1782665044,99019595,-1.6562226454364222,0.12948083877563477,-1.5218213240252894,0.006892052944749594,0.0007789746159687638,0.6743782162666321,0.0,-0.0,0.0,0.0,0.0,0.0
1782665044,107037652,-1.6562464872943323,0.1295170783996582,-1.5218337217914026,0.006892052944749594,0.0008153018425218761,0.6744021773338318,0.0,-0.0,0.0,0.0,0.0,0.0
1782665044,115043487,-1.656210724507467,0.1295766830444336,-1.5218213240252894,0.006939989980310202,0.0008272860432043672,0.6743901968002319,0.0,-0.0,0.0,0.0,0.0,0.0
1782665044,123029453,-1.6562226454364222,0.12949275970458984,-1.5218694845782679,0.006904037203639746,0.0008392703020945191,0.6743901968002319,0.0,-0.0,0.0,0.0,0.0,0.0
1782665044,131025103,-1.6562226454364222,0.12952899932861328,-1.521881405507223,0.006916021462529898,0.0008512545027770102,0.6743901968002319,0.0,-0.0,0.0,0.0,0.0,0.0
1782665044,139026605,-1.6561983267413538,0.12949275970458984,-1.5218456427203577,0.006892052944749594,0.0008512545027770102,0.6744141578674316,0.0,-0.0,0.0,0.0,0.0,0.0
1782665044,151641279,-1.6561625639544886,0.1294569969177246,-1.5218213240252894,0.006904037203639746,0.0008272860432043672,0.6743542551994324,0.0,-0.0,0.0,0.0,0.0,0.0
1782665044,155041756,-1.6562226454364222,0.12949275970458984,-1.5218337217914026,0.006939989980310202,0.0008033175836317241,0.6744261384010315,0.0,-0.0,0.0,0.0,0.0,0.0
1782665044,163014092,-1.6561864058123987,0.12950468063354492,-1.5218337217914026,0.006904037203639746,0.0008033175836317241,0.6744141578674316,0.0,-0.0,0.0,0.0,0.0,0.0
1782665044,171043056,-1.6562584082232874,0.12952899932861328,-1.5218456427203577,0.006904037203639746,0.0007909588748589158,0.6743662357330322,0.0,-0.0,0.0,0.0,0.0,0.0
1782665044,179076854,-1.6561864058123987,0.12949275970458984,-1.5218213240252894,0.006892052944749594,0.0008272860432043672,0.6743662357330322,0.0,-0.0,0.0,0.0,0.0,0.0
1782665044,187038264,-1.656210724507467,0.12955284118652344,-1.5218456427203577,0.006916021462529898,0.0008392703020945191,0.6744021773338318,0.0,-0.0,0.0,0.0,0.0,0.0
1782665044,195023044,-1.656210724507467,0.12954092025756836,-1.5218575636493128,0.006892052944749594,0.0008033175836317241,0.6744141578674316,0.0,-0.0,0.0,0.0,0.0,0.0
1782665044,203039934,-1.6562464872943323,0.12955284118652344,-1.5218337217914026,0.006880068685859442,0.0008033175836317241,0.6744261384010315,0.0,-0.0,0.0,0.0,0.0,0.0
1782665044,211134897,-1.6561983267413538,0.12949275970458984,-1.5218575636493128,0.006904037203639746,0.0008153018425218761,0.6743662357330322,0.0,-0.0,0.0,0.0,0.0,0.0
1782665044,219048290,-1.6561864058123987,0.12950468063354492,-1.5218094030963343,0.00692800572142005,0.0008272860432043672,0.6744141578674316,0.0,-0.0,0.0,0.0,0.0,0.0
1782665044,227043181,-1.6561983267413538,0.1295170783996582,-1.5218456427203577,0.006892052944749594,0.0008153018425218761,0.6744021773338318,0.0,-0.0,0.0,0.0,0.0,0.0
