LukePepin/On-Edge/data/archived_logs/deceleration_data_1782664889.csv
timestamp_sec,timestamp_nanosec,shoulder_pan_pos,shoulder_lift_pos,elbow_pos,wrist_1_pos,wrist_2_pos,wrist_3_pos,shoulder_pan_vel,shoulder_lift_vel,elbow_vel,wrist_1_vel,wrist_2_vel,wrist_3_vel
1782664890,39605572,-1.6561506430255335,0.12939691543579102,-1.521881405507223,0.006880068685859442,0.0007789746159687638,0.6744500994682312,0.0,-0.0,0.0,0.0,0.0,0.0
1782664890,47110549,-1.6561744848834437,0.12942123413085938,-1.5218575636493128,0.006880068685859442,0.0008153018425218761,0.6744261384010315,0.0,-0.0,0.0,0.0,0.0,0.0
1782664890,57222426,-1.6561864058123987,0.1294088363647461,-1.5218094030963343,0.00692800572142005,0.0007909588748589158,0.6743422150611877,0.0,-0.0,0.0,0.0,0.0,0.0
1782664890,65468689,-1.6561864058123987,0.12938499450683594,-1.5218575636493128,0.00686808442696929,0.0008153018425218761,0.6743542551994324,0.0,-0.0,0.0,0.0,0.0,0.0
1782664890,71492834,-1.6561983267413538,0.12942123413085938,-1.5218575636493128,0.006904037203639746,0.0008512545027770102,0.6744261384010315,0.0,-0.0,0.0,0.0,0.0,0.0
1782664890,79653503,-1.6561983267413538,0.12937307357788086,-1.5218337217914026,0.00686808442696929,0.0008153018425218761,0.6743901968002319,0.0,-0.0,0.0,0.0,0.0,0.0
1782664890,87450558,-1.6561744848834437,0.12936115264892578,-1.521893326436178,0.006892052944749594,0.0008033175836317241,0.6743662357330322,0.0,-0.0,0.0,0.0,0.0,0.0
1782664890,94801551,-1.6561625639544886,0.12942123413085938,-1.5218337217914026,0.006951974239200354,0.0008033175836317241,0.6743782162666321,0.0,-0.0,0.0,0.0,0.0,0.0
1782664890,105160339,-1.6561744848834437,0.12943315505981445,-1.5218575636493128,0.00692800572142005,0.0008632387034595013,0.6743422150611877,0.0,-0.0,0.0,0.0,0.0,0.0
1782664890,113257749,-1.6561744848834437,0.12944507598876953,-1.5218213240252894,0.006939989980310202,0.0008272860432043672,0.6744021773338318,0.0,-0.0,0.0,0.0,0.0,0.0
1782664890,119783399,-1.6561983267413538,0.12944507598876953,-1.5218213240252894,0.006880068685859442,0.0007909588748589158,0.6744261384010315,0.0,-0.0,0.0,0.0,0.0,0.0
1782664890,126844111,-1.6561268011676233,0.12939691543579102,-1.5218456427203577,0.006916021462529898,0.0008033175836317241,0.6744261384010315,0.0,-0.0,0.0,0.0,0.0,0.0
1782664890,137804258,-1.6561744848834437,0.12937307357788086,-1.5218575636493128,0.006904037203639746,0.0008272860432043672,0.6743662357330322,0.0,-0.0,0.0,0.0,0.0,0.0
1782664890,142787353,-1.6561506430255335,0.12938499450683594,-1.521881405507223,0.006904037203639746,0.0008272860432043672,0.6744141578674316,0.0,-0.0,0.0,0.0,0.0,0.0
1782664890,150724891,-1.6561744848834437,0.12942123413085938,-1.5218456427203577,0.006939989980310202,0.0007789746159687638,0.6744021773338318,0.0,-0.0,0.0,0.0,0.0,0.0
1782664890,158959709,-1.6561625639544886,0.12942123413085938,-1.5218575636493128,0.00692800572142005,0.0008033175836317241,0.6743422150611877,0.0,-0.0,0.0,0.0,0.0,0.0
1782664890,166717948,-1.6561983267413538,0.1294088363647461,-1.5218456427203577,0.00686808442696929,0.0008033175836317241,0.6743901968002319,0.0,-0.0,0.0,0.0,0.0,0.0
1782664890,174722338,-1.65611440340151,0.1294088363647461,-1.5217974821673792,0.006916021462529898,0.0008272860432043672,0.6743901968002319,0.0,-0.0,0.0,0.0,0.0,0.0
1782664890,183072454,-1.6561387220965784,0.12937307357788086,-1.5218694845782679,0.006880068685859442,0.0008512545027770102,0.6744261384010315,0.0,-0.0,0.0,0.0,0.0,0.0
1782664890,190902064,-1.6561744848834437,0.12939691543579102,-1.5217855612384241,0.006880068685859442,0.0007789746159687638,0.6744021773338318,0.0,-0.0,0.0,0.0,0.0,0.0
1782664890,198720008,-1.6561864058123987,0.1294088363647461,-1.5218456427203577,0.006904037203639746,0.0007909588748589158,0.6743542551994324,0.0,-0.0,0.0,0.0,0.0,0.0
1782664890,206818380,-1.6561387220965784,0.1294088363647461,-1.5218575636493128,0.006904037203639746,0.0008272860432043672,0.6744021773338318,0.0,-0.0,0.0,0.0,0.0,0.0
1782664890,214881586,-1.656210724507467,0.1294088363647461,-1.5218694845782679,0.006892052944749594,0.0008153018425218761,0.6743422150611877,0.0,-0.0,0.0,0.0,0.0,0.0
1782664890,222813790,-1.6561625639544886,0.12938499450683594,-1.521881405507223,0.006904037203639746,0.0007909588748589158,0.6744261384010315,0.0,-0.0,0.0,0.0,0.0,0.0
1782664890,230756623,-1.656210724507467,0.12942123413085938,-1.5218456427203577,0.00692800572142005,0.0008033175836317241,0.6743782162666321,0.0,-0.0,0.0,0.0,0.0,0.0
1782664890,238694864,-1.6561983267413538,0.12937307357788086,-1.5218337217914026,0.006916021462529898,0.0007669904152862728,0.6743901968002319,0.0,-0.0,0.0,0.0,0.0,0.0
1782664890,246724069,-1.6561983267413538,0.12942123413085938,-1.5218094030963343,0.00686808442696929,0.0008153018425218761,0.6744021773338318,0.0,-0.0,0.0,0.0,0.0,0.0
1782664890,254780164,-1.6561983267413538,0.12942123413085938,-1.5218094030963343,0.00686808442696929,0.0008153018425218761,0.6744021773338318,0.0,-0.0,0.0,0.0,0.0,0.0
1782664890,262696293,-1.6561983267413538,0.12943315505981445,-1.5218456427203577,0.006892052944749594,0.0008512545027770102,0.6744021773338318,0.0,-0.0,0.0,0.0,0.0,0.0
1782664890,270904982,-1.6561983267413538,0.12943315505981445,-1.5218456427203577,0.006892052944749594,0.0008512545027770102,0.6744021773338318,0.0,-0.0,0.0,0.0,0.0,0.0
1782664890,278717981,-1.65611440340151,0.12944507598876953,-1.5218337217914026,0.006892052944749594,0.0008033175836317241,0.6743542551994324,0.0,-0.0,0.0,0.0,0.0,0.0
1782664890,286872095,-1.65611440340151,0.12944507598876953,-1.5218337217914026,0.006892052944749594,0.0008033175836317241,0.6743542551994324,0.0,-0.0,0.0,0.0,0.0,0.0
1782664890,294708205,-1.6561744848834437,0.12942123413085938,-1.5218213240252894,0.006904037203639746,0.0008392703020945191,0.6744141578674316,0.0,-0.0,0.0,0.0,0.0,0.0
1782664890,302721095,-1.6561387220965784,0.12939691543579102,-1.5218575636493128,0.00686808442696929,0.0007909588748589158,0.6744261384010315,0.0,-0.0,0.0,0.0,0.0,0.0
1782664890,310733818,-1.6561744848834437,0.12942123413085938,-1.5218213240252894,0.006892052944749594,0.0008272860432043672,0.6744021773338318,0.0,-0.0,0.0,0.0,0.0,0.0
1782664890,318696800,-1.6561983267413538,0.1294088363647461,-1.5218213240252894,0.00692800572142005,0.0008512545027770102,0.6743302345275879,0.0,-0.0,0.0,0.0,0.0,0.0
1782664890,327001546,-1.6561268011676233,0.12939691543579102,-1.5218337217914026,0.006916021462529898,0.0008272860432043672,0.6743542551994324,0.0,-0.0,0.0,0.0,0.0,0.0
1782664890,334850971,-1.6561983267413538,0.1294088363647461,-1.521881405507223,0.006904037203639746,0.0007789746159687638,0.6743662357330322,0.0,-0.0,0.0,0.0,0.0,0.0
1782664890,342705081,-1.6561744848834437,0.12942123413085938,-1.5218337217914026,0.006880068685859442,0.0008033175836317241,0.6743782162666321,0.0,-0.0,0.0,0.0,0.0,0.0
1782664890,350695934,-1.6561625639544886,0.12942123413085938,-1.5217974821673792,0.006844115909188986,0.0008512545027770102,0.6743901968002319,0.0,-0.0,0.0,0.0,0.0,0.0
1782664890,369504635,-1.6561506430255335,0.1294088363647461,-1.5218456427203577,0.006916021462529898,0.0008512545027770102,0.6743782162666321,0.0,-0.0,0.0,0.0,0.0,0.0
1782664890,374711974,-1.6561268011676233,0.12937307357788086,-1.5218213240252894,0.006916021462529898,0.0007669904152862728,0.6743782162666321,0.0,-0.0,0.0,0.0,0.0,0.0
1782664890,383394631,-1.6561864058123987,0.12944507598876953,-1.521893326436178,0.006916021462529898,0.0008512545027770102,0.6743901968002319,0.0,-0.0,0.0,0.0,0.0,0.0
1782664890,391025332,-1.6561387220965784,0.12943315505981445,-1.5218456427203577,0.00692800572142005,0.0008153018425218761,0.6744141578674316,0.0,-0.0,0.0,0.0,0.0,0.0
1782664890,399086722,-1.6561268011676233,0.12938499450683594,-1.5218575636493128,0.006856100168079138,0.0008153018425218761,0.6743782162666321,0.0,-0.0,0.0,0.0,0.0,0.0
1782664890,407912233,-1.6561506430255335,0.12943315505981445,-1.5217855612384241,0.006880068685859442,0.0008153018425218761,0.6744141578674316,0.0,-0.0,0.0,0.0,0.0,0.0
1782664890,418839750,-1.6561625639544886,0.12942123413085938,-1.5218213240252894,0.006892052944749594,0.0007669904152862728,0.6743782162666321,0.0,-0.0,0.0,0.0,0.0,0.0
1782664890,428318398,-1.6561268011676233,0.1294569969177246,-1.5218694845782679,0.006856100168079138,0.0008153018425218761,0.6743901968002319,0.0,-0.0,0.0,0.0,0.0,0.0
1782664890,430693203,-1.6561744848834437,0.12944507598876953,-1.5218337217914026,0.006892052944749594,0.0008153018425218761,0.6744141578674316,0.0,-0.0,0.0,0.0,0.0,0.0
1782664890,441425551,-1.6561387220965784,0.12943315505981445,-1.5218694845782679,0.006880068685859442,0.0008392703020945191,0.6743662357330322,0.0,-0.0,0.0,0.0,0.0,0.0
1782664890,455628402,-1.6561506430255335,0.12942123413085938,-1.521881405507223,0.006880068685859442,0.0007789746159687638,0.6743662357330322,0.0,-0.0,0.0,0.0,0.0,0.0
1782664890,459456280,-1.6561506430255335,0.12942123413085938,-1.521881405507223,0.006880068685859442,0.0007789746159687638,0.6743662357330322,0.0,-0.0,0.0,0.0,0.0,0.0
1782664890,471517940,-1.6561506430255335,0.12942123413085938,-1.5218456427203577,0.00692800572142005,0.0007789746159687638,0.6743901968002319,0.0,-0.0,0.0,0.0,0.0,0.0
1782664890,479819093,-1.6561506430255335,0.12942123413085938,-1.5218456427203577,0.00692800572142005,0.0007789746159687638,0.6743901968002319,0.0,-0.0,0.0,0.0,0.0,0.0
1782664890,486825934,-1.6561625639544886,0.12938499450683594,-1.5218456427203577,0.006904037203639746,0.0007909588748589158,0.6743782162666321,0.0,-0.0,0.0,0.0,0.0,0.0
1782664890,495434590,-1.6561744848834437,0.1294569969177246,-1.5218694845782679,0.006951974239200354,0.0008392703020945191,0.6743662357330322,0.0,-0.0,0.0,0.0,0.0,0.0
1782664890,507528806,-1.6561506430255335,0.12942123413085938,-1.521893326436178,0.00692800572142005,0.0008392703020945191,0.6743901968002319,0.0,-0.0,0.0,0.0,0.0,0.0
1782664890,515633586,-1.6561983267413538,0.12942123413085938,-1.521881405507223,0.006880068685859442,0.0008033175836317241,0.6743662357330322,0.0,-0.0,0.0,0.0,0.0,0.0
1782664890,523743699,-1.6561387220965784,0.12939691543579102,-1.5218337217914026,0.00686808442696929,0.0008392703020945191,0.6743662357330322,0.0,-0.0,0.0,0.0,0.0,0.0
1782664890,531480123,-1.6561864058123987,0.12942123413085938,-1.5217974821673792,0.006951974239200354,0.0008033175836317241,0.6743901968002319,0.0,-0.0,0.0,0.0,0.0,0.0
1782664890,539951500,-1.6561983267413538,0.12942123413085938,-1.521893326436178,0.006904037203639746,0.0008033175836317241,0.6743422150611877,0.0,-0.0,0.0,0.0,0.0,0.0
1782664890,548056669,-1.6561506430255335,0.12938499450683594,-1.5218575636493128,0.006880068685859442,0.0008153018425218761,0.6744381189346313,0.0,-0.0,0.0,0.0,0.0,0.0
1782664890,556165708,-1.6561983267413538,0.1294088363647461,-1.5218694845782679,0.006939989980310202,0.0008033175836317241,0.6744381189346313,0.0,-0.0,0.0,0.0,0.0,0.0
1782664890,564282896,-1.6561864058123987,0.12938499450683594,-1.5218213240252894,0.00692800572142005,0.0008033175836317241,0.6743422150611877,0.0,-0.0,0.0,0.0,0.0,0.0
1782664890,572372065,-1.6561506430255335,0.1294088363647461,-1.5218337217914026,0.006880068685859442,0.0007669904152862728,0.6743782162666321,0.0,-0.0,0.0,0.0,0.0,0.0
1782664890,599565920,-1.6561864058123987,0.1294088363647461,-1.5218213240252894,0.00692800572142005,0.0008153018425218761,0.6743662357330322,0.0,-0.0,0.0,0.0,0.0,0.0
1782664890,606709485,-1.6561268011676233,0.1294088363647461,-1.5218575636493128,0.006904037203639746,0.0008033175836317241,0.6744021773338318,0.0,-0.0,0.0,0.0,0.0,0.0
1782664890,614703171,-1.6561983267413538,0.12937307357788086,-1.5218213240252894,0.006916021462529898,0.0008153018425218761,0.6743782162666321,0.0,-0.0,0.0,0.0,0.0,0.0
1782664890,622705079,-1.6561387220965784,0.12937307357788086,-1.5218575636493128,0.00692800572142005,0.0007909588748589158,0.6744021773338318,0.0,-0.0,0.0,0.0,0.0,0.0
1782664890,630743970,-1.6561625639544886,0.12937307357788086,-1.5218094030963343,0.006904037203639746,0.0008392703020945191,0.6744261384010315,0.0,-0.0,0.0,0.0,0.0,0.0
1782664890,638697804,-1.6561387220965784,0.1293492317199707,-1.521881405507223,0.00692800572142005,0.0008153018425218761,0.6743782162666321,0.0,-0.0,0.0,0.0,0.0,0.0
1782664890,646745101,-1.6561744848834437,0.1294088363647461,-1.5218213240252894,0.006916021462529898,0.0008392703020945191,0.6743901968002319,0.0,-0.0,0.0,0.0,0.0,0.0
1782664890,654694417,-1.6561387220965784,0.1294088363647461,-1.5218456427203577,0.00692800572142005,0.0007909588748589158,0.6743662357330322,0.0,-0.0,0.0,0.0,0.0,0.0
1782664890,662700140,-1.6561268011676233,0.12938499450683594,-1.521881405507223,0.006904037203639746,0.0008632387034595013,0.6744021773338318,0.0,-0.0,0.0,0.0,0.0,0.0
1782664890,670697196,-1.6561387220965784,0.12942123413085938,-1.521905247365133,0.006939989980310202,0.0008033175836317241,0.6743782162666321,0.0,-0.0,0.0,0.0,0.0,0.0
1782664890,678703401,-1.6561625639544886,0.12938499450683594,-1.5218213240252894,0.006880068685859442,0.0008153018425218761,0.6743782162666321,0.0,-0.0,0.0,0.0,0.0,0.0
1782664890,686694254,-1.6561506430255335,0.12938499450683594,-1.5218575636493128,0.006892052944749594,0.0008153018425218761,0.6743901968002319,0.0,-0.0,0.0,0.0,0.0,0.0
1782664890,694711977,-1.6561625639544886,0.12944507598876953,-1.5218213240252894,0.006880068685859442,0.0008272860432043672,0.6744021773338318,0.0,-0.0,0.0,0.0,0.0,0.0
1782664890,702703608,-1.6561506430255335,0.12942123413085938,-1.5218456427203577,0.00686808442696929,0.0008272860432043672,0.6743542551994324,0.0,-0.0,0.0,0.0,0.0,0.0
1782664890,710701942,-1.6561744848834437,0.12936115264892578,-1.5218694845782679,0.00686808442696929,0.0007909588748589158,0.6743662357330322,0.0,-0.0,0.0,0.0,0.0,0.0
1782664890,718701073,-1.6561744848834437,0.12943315505981445,-1.5218337217914026,0.006892052944749594,0.0008153018425218761,0.6743782162666321,0.0,-0.0,0.0,0.0,0.0,0.0
1782664890,726690574,-1.6561625639544886,0.12942123413085938,-1.5218694845782679,0.006880068685859442,0.0008272860432043672,0.6743782162666321,0.0,-0.0,0.0,0.0,0.0,0.0
1782664890,734697186,-1.6561864058123987,0.12943315505981445,-1.5218337217914026,0.006892052944749594,0.0008632387034595013,0.6743542551994324,0.0,-0.0,0.0,0.0,0.0,0.0
1782664890,742699150,-1.6561625639544886,0.1294088363647461,-1.5218337217914026,0.006916021462529898,0.0008033175836317241,0.6744021773338318,0.0,-0.0,0.0,0.0,0.0,0.0
1782664890,750691299,-1.6561864058123987,0.1294088363647461,-1.5218213240252894,0.00686808442696929,0.0007789746159687638,0.6743901968002319,0.0,-0.0,0.0,0.0,0.0,0.0
1782664890,758687337,-1.6561625639544886,0.12942123413085938,-1.5218694845782679,0.006892052944749594,0.0007789746159687638,0.6744021773338318,0.0,-0.0,0.0,0.0,0.0,0.0
1782664890,766685542,-1.6561625639544886,0.12939691543579102,-1.521881405507223,0.006880068685859442,0.0008033175836317241,0.6743901968002319,0.0,-0.0,0.0,0.0,0.0,0.0
1782664890,774710950,-1.6561744848834437,0.12942123413085938,-1.5218337217914026,0.006892052944749594,0.0008512545027770102,0.6743662357330322,0.0,-0.0,0.0,0.0,0.0,0.0
1782664890,782692673,-1.6561864058123987,0.12939691543579102,-1.521881405507223,0.00692800572142005,0.0008033175836317241,0.6743901968002319,0.0,-0.0,0.0,0.0,0.0,0.0
1782664890,790689934,-1.6561744848834437,0.12942123413085938,-1.5218337217914026,0.00692800572142005,0.0008033175836317241,0.6743662357330322,0.0,-0.0,0.0,0.0,0.0,0.0
1782664890,798736917,-1.6561387220965784,0.12939691543579102,-1.5218694845782679,0.00692800572142005,0.0007909588748589158,0.6743782162666321,0.0,-0.0,0.0,0.0,0.0,0.0
1782664890,806688917,-1.6561744848834437,0.12936115264892578,-1.5218337217914026,0.00692800572142005,0.0008512545027770102,0.6744021773338318,0.0,-0.0,0.0,0.0,0.0,0.0
1782664890,814693066,-1.6561387220965784,0.12943315505981445,-1.521881405507223,0.006939989980310202,0.0008153018425218761,0.6744141578674316,0.0,-0.0,0.0,0.0,0.0,0.0
1782664890,822692382,-1.6561506430255335,0.12939691543579102,-1.5217974821673792,0.006892052944749594,0.0008033175836317241,0.6744381189346313,0.0,-0.0,0.0,0.0,0.0,0.0
1782664890,830696920,-1.6561625639544886,0.12942123413085938,-1.5218456427203577,0.006892052944749594,0.0008512545027770102,0.6744141578674316,0.0,-0.0,0.0,0.0,0.0,0.0
1782664890,838697014,-1.6561387220965784,0.12938499450683594,-1.5218213240252894,0.006904037203639746,0.0008272860432043672,0.6744261384010315,0.0,-0.0,0.0,0.0,0.0,0.0
1782664890,846682996,-1.6561387220965784,0.12943315505981445,-1.5218575636493128,0.006904037203639746,0.0008033175836317241,0.6744141578674316,0.0,-0.0,0.0,0.0,0.0,0.0
1782664890,854727331,-1.6561506430255335,0.12938499450683594,-1.5218337217914026,0.006939989980310202,0.0008392703020945191,0.6743782162666321,0.0,-0.0,0.0,0.0,0.0,0.0
1782664890,862699906,-1.6561864058123987,0.1294088363647461,-1.521881405507223,0.006880068685859442,0.0008153018425218761,0.6744261384010315,0.0,-0.0,0.0,0.0,0.0,0.0
1782664890,870691833,-1.6561864058123987,0.12938499450683594,-1.5218456427203577,0.00686808442696929,0.0007789746159687638,0.6743782162666321,0.0,-0.0,0.0,0.0,0.0,0.0
1782664890,878683630,-1.6561983267413538,0.12938499450683594,-1.5218575636493128,0.00692800572142005,0.0008392703020945191,0.6743662357330322,0.0,-0.0,0.0,0.0,0.0,0.0
1782664890,891590262,-1.6561268011676233,0.1294088363647461,-1.5218337217914026,0.006916021462529898,0.0008512545027770102,0.6743901968002319,0.0,-0.0,0.0,0.0,0.0,0.0
1782664890,894706058,-1.6561625639544886,0.12942123413085938,-1.5218337217914026,0.006904037203639746,0.0008033175836317241,0.6743542551994324,0.0,-0.0,0.0,0.0,0.0,0.0
1782664890,902700078,-1.6561506430255335,0.12943315505981445,-1.5218337217914026,0.006904037203639746,0.0008392703020945191,0.6744021773338318,0.0,-0.0,0.0,0.0,0.0,0.0
1782664890,910692597,-1.6561506430255335,0.12938499450683594,-1.5218337217914026,0.006880068685859442,0.0008033175836317241,0.6743901968002319,0.0,-0.0,0.0,0.0,0.0,0.0
1782664890,918690394,-1.6561506430255335,0.12944507598876953,-1.521881405507223,0.006916021462529898,0.0007909588748589158,0.6743782162666321,0.0,-0.0,0.0,0.0,0.0,0.0
1782664890,926694932,-1.6561387220965784,0.1294088363647461,-1.521881405507223,0.00686808442696929,0.0008033175836317241,0.6743782162666321,0.0,-0.0,0.0,0.0,0.0,0.0
1782664890,934711267,-1.656210724507467,0.12936115264892578,-1.5218337217914026,0.006916021462529898,0.0008033175836317241,0.6743542551994324,0.0,-0.0,0.0,0.0,0.0,0.0
1782664890,942681564,-1.6561864058123987,0.12939691543579102,-1.5218575636493128,0.006916021462529898,0.0008272860432043672,0.6743662357330322,0.0,-0.0,0.0,0.0,0.0,0.0
1782664890,950698565,-1.6561864058123987,0.12943315505981445,-1.5218575636493128,0.00692800572142005,0.0008272860432043672,0.6743782162666321,0.0,-0.0,0.0,0.0,0.0,0.0
1782664890,958688047,-1.6561864058123987,0.12943315505981445,-1.5218337217914026,0.006892052944749594,0.0008033175836317241,0.6743782162666321,0.0,-0.0,0.0,0.0,0.0,0.0
1782664890,966696511,-1.6561625639544886,0.12938499450683594,-1.5218575636493128,0.006844115909188986,0.0008272860432043672,0.6743901968002319,0.0,-0.0,0.0,0.0,0.0,0.0
1782664890,974749402,-1.6561864058123987,0.1294088363647461,-1.5217974821673792,0.006880068685859442,0.0008033175836317241,0.6743901968002319,0.0,-0.0,0.0,0.0,0.0,0.0
1782664890,982690254,-1.656210724507467,0.12937307357788086,-1.5218694845782679,0.00686808442696929,0.0008033175836317241,0.6744261384010315,0.0,-0.0,0.0,0.0,0.0,0.0
1782664890,990684070,-1.6561983267413538,0.12943315505981445,-1.521881405507223,0.00692800572142005,0.0008153018425218761,0.6744021773338318,0.0,-0.0,0.0,0.0,0.0,0.0
1782664890,998685775,-1.6561506430255335,0.12942123413085938,-1.5218456427203577,0.006892052944749594,0.0008033175836317241,0.6744141578674316,0.0,-0.0,0.0,0.0,0.0,0.0
1782664891,6780351,-1.6561983267413538,0.12938499450683594,-1.521893326436178,0.006916021462529898,0.0008153018425218761,0.6743901968002319,0.0,-0.0,0.0,0.0,0.0,0.0
1782664891,14693018,-1.656210724507467,0.12942123413085938,-1.5218213240252894,0.006939989980310202,0.0008272860432043672,0.6744381189346313,0.0,-0.0,0.0,0.0,0.0,0.0
1782664891,22701556,-1.656210724507467,0.1294088363647461,-1.5218694845782679,0.006904037203639746,0.0008033175836317241,0.6743901968002319,0.0,-0.0,0.0,0.0,0.0,0.0
1782664891,30723409,-1.6561744848834437,0.12943315505981445,-1.5218456427203577,0.006904037203639746,0.0008392703020945191,0.6744141578674316,0.0,-0.0,0.0,0.0,0.0,0.0
1782664891,38771651,-1.6561744848834437,0.12943315505981445,-1.5218456427203577,0.006904037203639746,0.0008392703020945191,0.6744141578674316,0.0,-0.0,0.0,0.0,0.0,0.0
1782664891,46760078,-1.6561744848834437,0.12943315505981445,-1.5218213240252894,0.006856100168079138,0.0008153018425218761,0.6744141578674316,0.0,-0.0,0.0,0.0,0.0,0.0
1782664891,54697301,-1.6561506430255335,0.12942123413085938,-1.5218213240252894,0.006904037203639746,0.0008272860432043672,0.6744141578674316,0.0,-0.0,0.0,0.0,0.0,0.0
1782664891,62708209,-1.656210724507467,0.12938499450683594,-1.5218337217914026,0.00692800572142005,0.0008153018425218761,0.6743422150611877,0.0,-0.0,0.0,0.0,0.0,0.0
1782664891,70774470,-1.6561506430255335,0.1294088363647461,-1.5218337217914026,0.006916021462529898,0.0008153018425218761,0.6743901968002319,0.0,-0.0,0.0,0.0,0.0,0.0
1782664891,78692470,-1.6561744848834437,0.12939691543579102,-1.5218337217914026,0.006892052944749594,0.0008033175836317241,0.6743782162666321,0.0,-0.0,0.0,0.0,0.0,0.0
1782664891,86699490,-1.6561268011676233,0.12943315505981445,-1.5218337217914026,0.006916021462529898,0.0008153018425218761,0.6743542551994324,0.0,-0.0,0.0,0.0,0.0,0.0
1782664891,94712269,-1.6561744848834437,0.1294689178466797,-1.5218456427203577,0.006916021462529898,0.0007909588748589158,0.6743662357330322,0.0,-0.0,0.0,0.0,0.0,0.0
1782664891,102705214,-1.6561983267413538,0.12942123413085938,-1.5217974821673792,0.00692800572142005,0.0008272860432043672,0.6743422150611877,0.0,-0.0,0.0,0.0,0.0,0.0
1782664891,126732959,-1.6561506430255335,0.12939691543579102,-1.5218213240252894,0.006892052944749594,0.0008153018425218761,0.6744021773338318,0.0,-0.0,0.0,0.0,0.0,0.0
1782664891,135123705,-1.6561506430255335,0.12942123413085938,-1.5218456427203577,0.00692800572142005,0.0007669904152862728,0.6744500994682312,0.0,-0.0,0.0,0.0,0.0,0.0
1782664891,142701571,-1.6561625639544886,0.12938499450683594,-1.5218337217914026,0.006939989980310202,0.0008392703020945191,0.6743542551994324,0.0,-0.0,0.0,0.0,0.0,0.0
1782664891,150818981,-1.6561625639544886,0.12938499450683594,-1.5218337217914026,0.006939989980310202,0.0008392703020945191,0.6743542551994324,0.0,-0.0,0.0,0.0,0.0,0.0
1782664891,158701685,-1.6561387220965784,0.12938499450683594,-1.5218575636493128,0.00686808442696929,0.0007909588748589158,0.6744021773338318,0.0,-0.0,0.0,0.0,0.0,0.0
1782664891,166722538,-1.6561387220965784,0.12937307357788086,-1.5218456427203577,0.006904037203639746,0.0008153018425218761,0.6744261384010315,0.0,-0.0,0.0,0.0,0.0,0.0
1782664891,174761410,-1.6561864058123987,0.12942123413085938,-1.5218575636493128,0.006951974239200354,0.0008272860432043672,0.6743662357330322,0.0,-0.0,0.0,0.0,0.0,0.0
1782664891,184193853,-1.6561983267413538,0.12936115264892578,-1.5218094030963343,0.006892052944749594,0.0008512545027770102,0.6743662357330322,0.0,-0.0,0.0,0.0,0.0,0.0
1782664891,190851913,-1.6561864058123987,0.1294088363647461,-1.5218337217914026,0.006880068685859442,0.0007789746159687638,0.6743782162666321,0.0,-0.0,0.0,0.0,0.0,0.0
1782664891,198746265,-1.6561625639544886,0.12937307357788086,-1.5218456427203577,0.006916021462529898,0.0008153018425218761,0.6744021773338318,0.0,-0.0,0.0,0.0,0.0,0.0
1782664891,206704839,-1.6561983267413538,0.12944507598876953,-1.5218337217914026,0.00686808442696929,0.0008153018425218761,0.6744261384010315,0.0,-0.0,0.0,0.0,0.0,0.0
1782664891,214772267,-1.6561387220965784,0.12942123413085938,-1.5218213240252894,0.006892052944749594,0.0007909588748589158,0.6743782162666321,0.0,-0.0,0.0,0.0,0.0,0.0
1782664891,223576851,-1.6561387220965784,0.1294088363647461,-1.521893326436178,0.006904037203639746,0.0008512545027770102,0.6744261384010315,0.0,-0.0,0.0,0.0,0.0,0.0
1782664891,290025592,-1.6561864058123987,0.12939691543579102,-1.521905247365133,0.006939989980310202,0.0008512545027770102,0.6743782162666321,0.0,-0.0,0.0,0.0,0.0,0.0
1782664891,302870965,-1.6561268011676233,0.12938499450683594,-1.5218337217914026,0.006880068685859442,0.0007909588748589158,0.6744141578674316,0.0,-0.0,0.0,0.0,0.0,0.0
1782664891,359529332,-1.6561625639544886,0.12938499450683594,-1.5218456427203577,0.006904037203639746,0.0007909588748589158,0.6743662357330322,0.0,-0.0,0.0,0.0,0.0,0.0
1782664891,366351467,-1.6561744848834437,0.1294088363647461,-1.5218694845782679,0.006892052944749594,0.0008033175836317241,0.6743542551994324,0.0,-0.0,0.0,0.0,0.0,0.0
1782664891,379971478,-1.6561864058123987,0.12939691543579102,-1.5218456427203577,0.006975942756980658,0.0008153018425218761,0.6743542551994324,0.0,-0.0,0.0,0.0,0.0,0.0
1782664891,394818837,-1.6561268011676233,0.12943315505981445,-1.5218694845782679,0.00692800572142005,0.0007909588748589158,0.6743901968002319,0.0,-0.0,0.0,0.0,0.0,0.0
1782664891,412668898,-1.6561625639544886,0.12939691543579102,-1.5218337217914026,0.006939989980310202,0.0008153018425218761,0.6743422150611877,0.0,-0.0,0.0,0.0,0.0,0.0
1782664891,446693685,-1.6562226454364222,0.12937307357788086,-1.521881405507223,0.00692800572142005,0.0007789746159687638,0.6743542551994324,0.0,-0.0,0.0,0.0,0.0,0.0
1782664891,456852989,-1.6561268011676233,0.12938499450683594,-1.5218337217914026,0.006880068685859442,0.0007789746159687638,0.6743662357330322,0.0,-0.0,0.0,0.0,0.0,0.0
1782664891,462821448,-1.6561268011676233,0.12938499450683594,-1.5218337217914026,0.006880068685859442,0.0007789746159687638,0.6743662357330322,0.0,-0.0,0.0,0.0,0.0,0.0
1782664891,470718115,-1.6561387220965784,0.1294569969177246,-1.5218337217914026,0.006916021462529898,0.0008153018425218761,0.6743901968002319,0.0,-0.0,0.0,0.0,0.0,0.0
1782664891,478939600,-1.6561864058123987,0.12938499450683594,-1.5217974821673792,0.00686808442696929,0.0007789746159687638,0.6743901968002319,0.0,-0.0,0.0,0.0,0.0,0.0
1782664891,486703672,-1.6561506430255335,0.12938499450683594,-1.5218694845782679,0.00692800572142005,0.0008512545027770102,0.6744021773338318,0.0,-0.0,0.0,0.0,0.0,0.0
1782664891,502711304,-1.6561625639544886,0.12937307357788086,-1.5218575636493128,0.006975942756980658,0.0007909588748589158,0.6743542551994324,0.0,-0.0,0.0,0.0,0.0,0.0
1782664891,511323775,-1.6561625639544886,0.12937307357788086,-1.5218575636493128,0.006975942756980658,0.0007909588748589158,0.6743542551994324,0.0,-0.0,0.0,0.0,0.0,0.0
1782664891,518773733,-1.6561625639544886,0.12937307357788086,-1.5218575636493128,0.006975942756980658,0.0007909588748589158,0.6743542551994324,0.0,-0.0,0.0,0.0,0.0,0.0
1782664891,527559058,-1.6561387220965784,0.12943315505981445,-1.5218094030963343,0.006904037203639746,0.0007909588748589158,0.6743782162666321,0.0,-0.0,0.0,0.0,0.0,0.0
1782664891,534803717,-1.6561268011676233,0.12939691543579102,-1.5218694845782679,0.006880068685859442,0.0008033175836317241,0.6743782162666321,0.0,-0.0,0.0,0.0,0.0,0.0
1782664891,542729180,-1.6561625639544886,0.12942123413085938,-1.5218337217914026,0.006880068685859442,0.0008512545027770102,0.6743542551994324,0.0,-0.0,0.0,0.0,0.0,0.0
1782664891,550791441,-1.6561506430255335,0.1294088363647461,-1.5218456427203577,0.006892052944749594,0.0007789746159687638,0.6743901968002319,0.0,-0.0,0.0,0.0,0.0,0.0
1782664891,558770479,-1.6561744848834437,0.12944507598876953,-1.5218575636493128,0.006939989980310202,0.0008153018425218761,0.6744261384010315,0.0,-0.0,0.0,0.0,0.0,0.0
1782664891,572693105,-1.6561387220965784,0.12937307357788086,-1.5218213240252894,0.006916021462529898,0.0008512545027770102,0.6743901968002319,0.0,-0.0,0.0,0.0,0.0,0.0
1782664891,575806548,-1.656210724507467,0.1294088363647461,-1.5218337217914026,0.006880068685859442,0.0007909588748589158,0.6743901968002319,0.0,-0.0,0.0,0.0,0.0,0.0
1782664891,583570195,-1.6561387220965784,0.12938499450683594,-1.5218337217914026,0.006916021462529898,0.0008153018425218761,0.6743662357330322,0.0,-0.0,0.0,0.0,0.0,0.0
1782664891,601239087,-1.6561625639544886,0.12938499450683594,-1.5218213240252894,0.00686808442696929,0.0008033175836317241,0.6743782162666321,0.0,-0.0,0.0,0.0,0.0,0.0
1782664891,613643584,-1.6561506430255335,0.12939691543579102,-1.521881405507223,0.006904037203639746,0.0008272860432043672,0.6744021773338318,0.0,-0.0,0.0,0.0,0.0,0.0
1782664891,623995020,-1.6561744848834437,0.12939691543579102,-1.5218694845782679,0.00692800572142005,0.0008033175836317241,0.6743782162666321,0.0,-0.0,0.0,0.0,0.0,0.0
1782664891,630981972,-1.6561625639544886,0.12936115264892578,-1.5218094030963343,0.00692800572142005,0.0007669904152862728,0.6743782162666321,0.0,-0.0,0.0,0.0,0.0,0.0
1782664891,638984510,-1.6561625639544886,0.12943315505981445,-1.5218456427203577,0.006916021462529898,0.0008033175836317241,0.6743782162666321,0.0,-0.0,0.0,0.0,0.0,0.0
1782664891,648429917,-1.6561864058123987,0.12937307357788086,-1.5218337217914026,0.00692800572142005,0.0008033175836317241,0.6744021773338318,0.0,-0.0,0.0,0.0,0.0,0.0
1782664891,655043068,-1.6561268011676233,0.12942123413085938,-1.5218575636493128,0.006916021462529898,0.0008033175836317241,0.6743782162666321,0.0,-0.0,0.0,0.0,0.0,0.0
1782664891,662811363,-1.656210724507467,0.12943315505981445,-1.5218213240252894,0.006892052944749594,0.0008272860432043672,0.6743901968002319,0.0,-0.0,0.0,0.0,0.0,0.0
1782664891,670692863,-1.6561864058123987,0.1293492317199707,-1.5218456427203577,0.00692800572142005,0.0008153018425218761,0.6744141578674316,0.0,-0.0,0.0,0.0,0.0,0.0
1782664891,679011127,-1.6561625639544886,0.12939691543579102,-1.5218456427203577,0.006916021462529898,0.0008153018425218761,0.6743422150611877,0.0,-0.0,0.0,0.0,0.0,0.0
1782664891,690175220,-1.6561625639544886,0.12943315505981445,-1.5218694845782679,0.006880068685859442,0.0007789746159687638,0.6743662357330322,0.0,-0.0,0.0,0.0,0.0,0.0
1782664891,694715848,-1.6561744848834437,0.12942123413085938,-1.5218094030963343,0.006880068685859442,0.0008153018425218761,0.6743662357330322,0.0,-0.0,0.0,0.0,0.0,0.0
1782664891,708125542,-1.6561744848834437,0.12943315505981445,-1.5218694845782679,0.006904037203639746,0.0008512545027770102,0.6743901968002319,0.0,-0.0,0.0,0.0,0.0,0.0
1782664891,712290794,-1.6561744848834437,0.12937307357788086,-1.5218337217914026,0.00692800572142005,0.0008272860432043672,0.6743662357330322,0.0,-0.0,0.0,0.0,0.0,0.0
1782664891,718966872,-1.6561625639544886,0.12943315505981445,-1.5218456427203577,0.00692800572142005,0.0008153018425218761,0.6743782162666321,0.0,-0.0,0.0,0.0,0.0,0.0
1782664891,727524102,-1.6561506430255335,0.12937307357788086,-1.5218094030963343,0.006904037203639746,0.0008272860432043672,0.6743542551994324,0.0,-0.0,0.0,0.0,0.0,0.0
1782664891,767424217,-1.6561744848834437,0.1294088363647461,-1.5218694845782679,0.00686808442696929,0.0008153018425218761,0.6743782162666321,0.0,-0.0,0.0,0.0,0.0,0.0
1782664891,778714553,-1.6561744848834437,0.12937307357788086,-1.5218337217914026,0.006916021462529898,0.0008033175836317241,0.6743542551994324,0.0,-0.0,0.0,0.0,0.0,0.0
1782664891,783004826,-1.6561387220965784,0.12938499450683594,-1.5218575636493128,0.006856100168079138,0.0007909588748589158,0.6743901968002319,0.0,-0.0,0.0,0.0,0.0,0.0
1782664891,795488527,-1.6561983267413538,0.12942123413085938,-1.5218575636493128,0.006844115909188986,0.0008153018425218761,0.6744141578674316,0.0,-0.0,0.0,0.0,0.0,0.0
1782664891,802790835,-1.6561983267413538,0.12942123413085938,-1.5218694845782679,0.00692800572142005,0.0008512545027770102,0.6743662357330322,0.0,-0.0,0.0,0.0,0.0,0.0
1782664891,807405389,-1.6561625639544886,0.12942123413085938,-1.5218456427203577,0.00692800572142005,0.0007909588748589158,0.6744021773338318,0.0,-0.0,0.0,0.0,0.0,0.0
1782664891,826845246,-1.6561864058123987,0.1294088363647461,-1.5217974821673792,0.00686808442696929,0.0007909588748589158,0.6744021773338318,0.0,-0.0,0.0,0.0,0.0,0.0
1782664891,836523137,-1.6561744848834437,0.12938499450683594,-1.5218456427203577,0.006916021462529898,0.0008153018425218761,0.6743901968002319,0.0,-0.0,0.0,0.0,0.0,0.0
1782664891,847219188,-1.6561506430255335,0.12942123413085938,-1.5218337217914026,0.006904037203639746,0.0007909588748589158,0.6743901968002319,0.0,-0.0,0.0,0.0,0.0,0.0
1782664891,871417675,-1.6561506430255335,0.12933731079101562,-1.5218213240252894,0.006880068685859442,0.0008033175836317241,0.6744021773338318,0.0,-0.0,0.0,0.0,0.0,0.0
1782664891,886914838,-1.6561744848834437,0.12933731079101562,-1.5218456427203577,0.006880068685859442,0.0008512545027770102,0.6744021773338318,0.0,-0.0,0.0,0.0,0.0,0.0
1782664891,902970637,-1.6562345663653772,0.12942123413085938,-1.521773640309469,0.006880068685859442,0.0008632387034595013,0.6743782162666321,0.0,-0.0,0.0,0.0,0.0,0.0
1782664891,942789418,-1.6561506430255335,0.12938499450683594,-1.5218456427203577,0.006880068685859442,0.0008033175836317241,0.6743542551994324,0.0,-0.0,0.0,0.0,0.0,0.0
1782664891,951391982,-1.656210724507467,0.12942123413085938,-1.5218694845782679,0.006904037203639746,0.0008153018425218761,0.6743782162666321,0.0,-0.0,0.0,0.0,0.0,0.0
1782664891,959847303,-1.6561744848834437,0.12936115264892578,-1.521893326436178,0.006939989980310202,0.0008033175836317241,0.6743782162666321,0.0,-0.0,0.0,0.0,0.0,0.0
1782664891,967673876,-1.6561506430255335,0.12942123413085938,-1.5218456427203577,0.006904037203639746,0.0008153018425218761,0.6743901968002319,0.0,-0.0,0.0,0.0,0.0,0.0
1782664891,975351447,-1.6561864058123987,0.12939691543579102,-1.5218694845782679,0.006916021462529898,0.0007909588748589158,0.6744021773338318,0.0,-0.0,0.0,0.0,0.0,0.0
1782664891,990722201,-1.6561744848834437,0.12944507598876953,-1.5218694845782679,0.006892052944749594,0.0008512545027770102,0.6744141578674316,0.0,-0.0,0.0,0.0,0.0,0.0
1782664891,998706369,-1.656210724507467,0.1294088363647461,-1.5218337217914026,0.00692800572142005,0.0008153018425218761,0.6743901968002319,0.0,-0.0,0.0,0.0,0.0,0.0
1782664892,8031682,-1.6561864058123987,0.12937307357788086,-1.5218694845782679,0.006904037203639746,0.0008033175836317241,0.6744021773338318,0.0,-0.0,0.0,0.0,0.0,0.0
1782664892,14864114,-1.6561744848834437,0.12943315505981445,-1.5218456427203577,0.006904037203639746,0.0008272860432043672,0.6743782162666321,0.0,-0.0,0.0,0.0,0.0,0.0
1782664892,23068710,-1.6561744848834437,0.12942123413085938,-1.5218694845782679,0.006904037203639746,0.0008033175836317241,0.6743782162666321,0.0,-0.0,0.0,0.0,0.0,0.0
1782664892,30687317,-1.6561744848834437,0.12937307357788086,-1.5218575636493128,0.006892052944749594,0.0008392703020945191,0.6743782162666321,0.0,-0.0,0.0,0.0,0.0,0.0
1782664892,38702282,-1.6561506430255335,0.12943315505981445,-1.5218213240252894,0.006916021462529898,0.0008153018425218761,0.6743901968002319,0.0,-0.0,0.0,0.0,0.0,0.0
1782664892,46740802,-1.6561506430255335,0.12943315505981445,-1.5218213240252894,0.006916021462529898,0.0008153018425218761,0.6743901968002319,0.0,-0.0,0.0,0.0,0.0,0.0
1782664892,54984898,-1.656210724507467,0.12938499450683594,-1.5218575636493128,0.006904037203639746,0.0007909588748589158,0.6744141578674316,0.0,-0.0,0.0,0.0,0.0,0.0
1782664892,63203606,-1.6561268011676233,0.1294088363647461,-1.5218694845782679,0.006904037203639746,0.0008512545027770102,0.6743901968002319,0.0,-0.0,0.0,0.0,0.0,0.0
1782664892,71761280,-1.6561506430255335,0.12942123413085938,-1.5218094030963343,0.006880068685859442,0.0008153018425218761,0.6744141578674316,0.0,-0.0,0.0,0.0,0.0,0.0
1782664892,78914179,-1.6561864058123987,0.12938499450683594,-1.5218694845782679,0.006916021462529898,0.0007789746159687638,0.6743542551994324,0.0,-0.0,0.0,0.0,0.0,0.0
1782664892,86690584,-1.656210724507467,0.12942123413085938,-1.521881405507223,0.006904037203639746,0.0008272860432043672,0.6743782162666321,0.0,-0.0,0.0,0.0,0.0,0.0
1782664892,94826217,-1.6561506430255335,0.12938499450683594,-1.5218337217914026,0.006880068685859442,0.0008153018425218761,0.6744021773338318,0.0,-0.0,0.0,0.0,0.0,0.0
1782664892,102698920,-1.6561864058123987,0.12938499450683594,-1.5218094030963343,0.00692800572142005,0.0008033175836317241,0.6744381189346313,0.0,-0.0,0.0,0.0,0.0,0.0
1782664892,110806311,-1.6561864058123987,0.12944507598876953,-1.5218456427203577,0.00692800572142005,0.0008153018425218761,0.6743542551994324,0.0,-0.0,0.0,0.0,0.0,0.0
1782664892,118701237,-1.6561506430255335,0.12944507598876953,-1.5218456427203577,0.006892052944749594,0.0008033175836317241,0.6743782162666321,0.0,-0.0,0.0,0.0,0.0,0.0
1782664892,126752794,-1.6561625639544886,0.1294088363647461,-1.5218213240252894,0.006880068685859442,0.0008033175836317241,0.6743782162666321,0.0,-0.0,0.0,0.0,0.0,0.0
1782664892,134702110,-1.6561387220965784,0.12942123413085938,-1.5218575636493128,0.006844115909188986,0.0008033175836317241,0.6743782162666321,0.0,-0.0,0.0,0.0,0.0,0.0
1782664892,142935669,-1.6561387220965784,0.12943315505981445,-1.5218094030963343,0.006892052944749594,0.0008272860432043672,0.6743662357330322,0.0,-0.0,0.0,0.0,0.0,0.0
1782664892,150693075,-1.6561268011676233,0.1294088363647461,-1.5218575636493128,0.006916021462529898,0.0008392703020945191,0.6743901968002319,0.0,-0.0,0.0,0.0,0.0,0.0
1782664892,158977412,-1.6561506430255335,0.12937307357788086,-1.5218094030963343,0.00692800572142005,0.0008392703020945191,0.6743782162666321,0.0,-0.0,0.0,0.0,0.0,0.0
1782664892,166689447,-1.6561387220965784,0.12938499450683594,-1.5218456427203577,0.006904037203639746,0.0008033175836317241,0.6743422150611877,0.0,-0.0,0.0,0.0,0.0,0.0
1782664892,174699319,-1.6561387220965784,0.12943315505981445,-1.5218337217914026,0.006892052944749594,0.0008153018425218761,0.6744141578674316,0.0,-0.0,0.0,0.0,0.0,0.0
1782664892,182787673,-1.6561625639544886,0.1294088363647461,-1.5218337217914026,0.006892052944749594,0.0008033175836317241,0.6743782162666321,0.0,-0.0,0.0,0.0,0.0,0.0
1782664892,190727729,-1.656210724507467,0.12937307357788086,-1.5218337217914026,0.006916021462529898,0.0008272860432043672,0.6743422150611877,0.0,-0.0,0.0,0.0,0.0,0.0
1782664892,198970010,-1.6561506430255335,0.12939691543579102,-1.5218575636493128,0.006892052944749594,0.0008153018425218761,0.6743782162666321,0.0,-0.0,0.0,0.0,0.0,0.0
1782664892,206689693,-1.6561983267413538,0.12937307357788086,-1.5218337217914026,0.006904037203639746,0.0008153018425218761,0.6743782162666321,0.0,-0.0,0.0,0.0,0.0,0.0
1782664892,216875479,-1.6561268011676233,0.12943315505981445,-1.5218094030963343,0.006904037203639746,0.0008153018425218761,0.6744261384010315,0.0,-0.0,0.0,0.0,0.0,0.0
1782664892,223111663,-1.6561506430255335,0.12942123413085938,-1.5218456427203577,0.006904037203639746,0.0008153018425218761,0.6743662357330322,0.0,-0.0,0.0,0.0,0.0,0.0
1782664892,231208499,-1.6561864058123987,0.12937307357788086,-1.5218213240252894,0.006880068685859442,0.0008272860432043672,0.6744381189346313,0.0,-0.0,0.0,0.0,0.0,0.0
1782664892,263006686,-1.6561744848834437,0.1294088363647461,-1.5218456427203577,0.006892052944749594,0.0008153018425218761,0.6744021773338318,0.0,-0.0,0.0,0.0,0.0,0.0
1782664892,271228394,-1.6561387220965784,0.1294088363647461,-1.5218213240252894,0.006916021462529898,0.0008272860432043672,0.6743782162666321,0.0,-0.0,0.0,0.0,0.0,0.0
1782664892,278698796,-1.6561506430255335,0.12942123413085938,-1.5218456427203577,0.00686808442696929,0.0008033175836317241,0.6743901968002319,0.0,-0.0,0.0,0.0,0.0,0.0
1782664892,289926094,-1.6561387220965784,0.1294088363647461,-1.5218213240252894,0.006892052944749594,0.0008033175836317241,0.6743542551994324,0.0,-0.0,0.0,0.0,0.0,0.0
1782664892,310768060,-1.6561268011676233,0.12944507598876953,-1.5218575636493128,0.006892052944749594,0.0008392703020945191,0.6743782162666321,0.0,-0.0,0.0,0.0,0.0,0.0
1782664892,366825346,-1.6561744848834437,0.12937307357788086,-1.5218694845782679,0.006880068685859442,0.0008153018425218761,0.6744141578674316,0.0,-0.0,0.0,0.0,0.0,0.0
1782664892,374691716,-1.6561744848834437,0.1294088363647461,-1.5218694845782679,0.006880068685859442,0.0007909588748589158,0.6744261384010315,0.0,-0.0,0.0,0.0,0.0,0.0
1782664892,382716995,-1.6561864058123987,0.12943315505981445,-1.5218456427203577,0.006880068685859442,0.0008033175836317241,0.6743782162666321,0.0,-0.0,0.0,0.0,0.0,0.0
1782664892,390902869,-1.656210724507467,0.12939691543579102,-1.521881405507223,0.006904037203639746,0.0007909588748589158,0.6743901968002319,0.0,-0.0,0.0,0.0,0.0,0.0
1782664892,398690219,-1.6561625639544886,0.12939691543579102,-1.521905247365133,0.006916021462529898,0.0008512545027770102,0.6743782162666321,0.0,-0.0,0.0,0.0,0.0,0.0
1782664892,406790574,-1.6561506430255335,0.12942123413085938,-1.5218337217914026,0.006880068685859442,0.0007669904152862728,0.6743662357330322,0.0,-0.0,0.0,0.0,0.0,0.0
1782664892,414799741,-1.6561625639544886,0.12943315505981445,-1.521893326436178,0.00692800572142005,0.0007789746159687638,0.6744021773338318,0.0,-0.0,0.0,0.0,0.0,0.0
1782664892,422797502,-1.6561625639544886,0.12942123413085938,-1.5218213240252894,0.006904037203639746,0.0008033175836317241,0.6744021773338318,0.0,-0.0,0.0,0.0,0.0,0.0
1782664892,430772243,-1.6561268011676233,0.12937307357788086,-1.5218694845782679,0.006904037203639746,0.0007909588748589158,0.6743782162666321,0.0,-0.0,0.0,0.0,0.0,0.0
1782664892,438688355,-1.6561625639544886,0.12933731079101562,-1.5218575636493128,0.006880068685859442,0.0007909588748589158,0.6744021773338318,0.0,-0.0,0.0,0.0,0.0,0.0
1782664892,446965137,-1.656210724507467,0.12939691543579102,-1.5217974821673792,0.006880068685859442,0.0008153018425218761,0.6744141578674316,0.0,-0.0,0.0,0.0,0.0,0.0
1782664892,478678119,-1.6561744848834437,0.12944507598876953,-1.5217974821673792,0.00692800572142005,0.0008153018425218761,0.6743901968002319,0.0,-0.0,0.0,0.0,0.0,0.0
1782664892,486712158,-1.6561506430255335,0.1294088363647461,-1.5218456427203577,0.006916021462529898,0.0008153018425218761,0.6743901968002319,0.0,-0.0,0.0,0.0,0.0,0.0
1782664892,494710492,-1.6561506430255335,0.1294088363647461,-1.5218337217914026,0.006916021462529898,0.0007909588748589158,0.6744021773338318,0.0,-0.0,0.0,0.0,0.0,0.0
1782664892,502715438,-1.6561744848834437,0.12942123413085938,-1.5218094030963343,0.006916021462529898,0.0008512545027770102,0.6744500994682312,0.0,-0.0,0.0,0.0,0.0,0.0
1782664892,510704883,-1.6561625639544886,0.12938499450683594,-1.5218575636493128,0.006892052944749594,0.0008272860432043672,0.6743782162666321,0.0,-0.0,0.0,0.0,0.0,0.0
1782664892,518712958,-1.65611440340151,0.12942123413085938,-1.5218575636493128,0.006916021462529898,0.0008153018425218761,0.6743662357330322,0.0,-0.0,0.0,0.0,0.0,0.0
1782664892,526793701,-1.6561387220965784,0.12943315505981445,-1.5218337217914026,0.006904037203639746,0.0007789746159687638,0.6743782162666321,0.0,-0.0,0.0,0.0,0.0,0.0
1782664892,534706312,-1.6561864058123987,0.1294088363647461,-1.5218337217914026,0.00692800572142005,0.0008272860432043672,0.6743422150611877,0.0,-0.0,0.0,0.0,0.0,0.0
1782664892,542702499,-1.65611440340151,0.12939691543579102,-1.5218575636493128,0.006963958498090506,0.0008033175836317241,0.6743782162666321,0.0,-0.0,0.0,0.0,0.0,0.0
1782664892,550708814,-1.6561983267413538,0.1293492317199707,-1.5218575636493128,0.006880068685859442,0.0008512545027770102,0.6743662357330322,0.0,-0.0,0.0,0.0,0.0,0.0
1782664892,558789687,-1.6561864058123987,0.12942123413085938,-1.5218456427203577,0.00692800572142005,0.0008272860432043672,0.6743782162666321,0.0,-0.0,0.0,0.0,0.0,0.0
1782664892,566714817,-1.6561506430255335,0.12939691543579102,-1.5218213240252894,0.00686808442696929,0.0008392703020945191,0.6744261384010315,0.0,-0.0,0.0,0.0,0.0,0.0
1782664892,574697373,-1.6561744848834437,0.1294088363647461,-1.5218456427203577,0.006916021462529898,0.0008153018425218761,0.6743782162666321,0.0,-0.0,0.0,0.0,0.0,0.0
1782664892,582711282,-1.6561625639544886,0.12943315505981445,-1.521905247365133,0.006880068685859442,0.0008512545027770102,0.6743542551994324,0.0,-0.0,0.0,0.0,0.0,0.0
1782664892,590790043,-1.6561625639544886,0.1294088363647461,-1.5218575636493128,0.006916021462529898,0.0007789746159687638,0.6743782162666321,0.0,-0.0,0.0,0.0,0.0,0.0
1782664892,598710803,-1.6561744848834437,0.12937307357788086,-1.5218694845782679,0.006916021462529898,0.0008153018425218761,0.6744021773338318,0.0,-0.0,0.0,0.0,0.0,0.0
1782664892,606695637,-1.6561506430255335,0.12943315505981445,-1.5218694845782679,0.006880068685859442,0.0008272860432043672,0.6744141578674316,0.0,-0.0,0.0,0.0,0.0,0.0
1782664892,614707712,-1.6562226454364222,0.12939691543579102,-1.5218456427203577,0.006939989980310202,0.0008153018425218761,0.6743901968002319,0.0,-0.0,0.0,0.0,0.0,0.0
1782664892,622739621,-1.6561864058123987,0.12942123413085938,-1.5218094030963343,0.006916021462529898,0.0008153018425218761,0.6743542551994324,0.0,-0.0,0.0,0.0,0.0,0.0
1782664892,630713807,-1.6561744848834437,0.12937307357788086,-1.5218094030963343,0.006892052944749594,0.0008033175836317241,0.6744021773338318,0.0,-0.0,0.0,0.0,0.0,0.0
1782664892,638695993,-1.6561625639544886,0.12943315505981445,-1.521881405507223,0.006916021462529898,0.0008153018425218761,0.6743662357330322,0.0,-0.0,0.0,0.0,0.0,0.0
1782664892,646715605,-1.6561625639544886,0.12938499450683594,-1.5218575636493128,0.00692800572142005,0.0008512545027770102,0.6744021773338318,0.0,-0.0,0.0,0.0,0.0,0.0
1782664892,654753996,-1.6561744848834437,0.12938499450683594,-1.5218094030963343,0.006892052944749594,0.0008632387034595013,0.6744261384010315,0.0,-0.0,0.0,0.0,0.0,0.0
1782664892,662707663,-1.6561864058123987,0.12943315505981445,-1.5218337217914026,0.006939989980310202,0.0008272860432043672,0.6743901968002319,0.0,-0.0,0.0,0.0,0.0,0.0
1782664892,670694034,-1.6561625639544886,0.12942123413085938,-1.5218575636493128,0.00692800572142005,0.0008153018425218761,0.6744261384010315,0.0,-0.0,0.0,0.0,0.0,0.0
1782664892,678801203,-1.6561387220965784,0.12938499450683594,-1.5218575636493128,0.006916021462529898,0.0007909588748589158,0.6744141578674316,0.0,-0.0,0.0,0.0,0.0,0.0
1782664892,686795556,-1.6561744848834437,0.12937307357788086,-1.5218094030963343,0.006904037203639746,0.0007789746159687638,0.6744141578674316,0.0,-0.0,0.0,0.0,0.0,0.0
1782664892,694709871,-1.6561864058123987,0.12939691543579102,-1.5218575636493128,0.006916021462529898,0.0008272860432043672,0.6743782162666321,0.0,-0.0,0.0,0.0,0.0,0.0
1782664892,702699983,-1.6561744848834437,0.12936115264892578,-1.5218694845782679,0.00692800572142005,0.0008033175836317241,0.6744261384010315,0.0,-0.0,0.0,0.0,0.0,0.0
1782664892,710708762,-1.6561625639544886,0.12938499450683594,-1.5218575636493128,0.006892052944749594,0.0008153018425218761,0.6744021773338318,0.0,-0.0,0.0,0.0,0.0,0.0
1782664892,718748449,-1.6561625639544886,0.1294088363647461,-1.5218094030963343,0.00686808442696929,0.0008153018425218761,0.6744381189346313,0.0,-0.0,0.0,0.0,0.0,0.0
1782664892,726711227,-1.6561387220965784,0.1294088363647461,-1.5218094030963343,0.006951974239200354,0.0008392703020945191,0.6744021773338318,0.0,-0.0,0.0,0.0,0.0,0.0
1782664892,734708358,-1.656102482472555,0.12937307357788086,-1.5218456427203577,0.006963958498090506,0.0008272860432043672,0.6744141578674316,0.0,-0.0,0.0,0.0,0.0,0.0
1782664892,742718304,-1.6561387220965784,0.1294569969177246,-1.5218337217914026,0.006904037203639746,0.0008153018425218761,0.6743782162666321,0.0,-0.0,0.0,0.0,0.0,0.0
1782664892,750798713,-1.6561864058123987,0.12942123413085938,-1.5218694845782679,0.006892052944749594,0.0008272860432043672,0.6744021773338318,0.0,-0.0,0.0,0.0,0.0,0.0
1782664892,758710787,-1.6561506430255335,0.12943315505981445,-1.5218094030963343,0.006951974239200354,0.0008272860432043672,0.6743542551994324,0.0,-0.0,0.0,0.0,0.0,0.0
1782664892,766694399,-1.6561983267413538,0.12942123413085938,-1.5218575636493128,0.006951974239200354,0.0008153018425218761,0.6743782162666321,0.0,-0.0,0.0,0.0,0.0,0.0
1782664892,774746697,-1.656210724507467,0.12937307357788086,-1.521881405507223,0.006892052944749594,0.0007789746159687638,0.6744141578674316,0.0,-0.0,0.0,0.0,0.0,0.0
1782664892,782749569,-1.6561506430255335,0.12944507598876953,-1.5218456427203577,0.006916021462529898,0.0008153018425218761,0.6743782162666321,0.0,-0.0,0.0,0.0,0.0,0.0
1782664892,790727736,-1.6561625639544886,0.12938499450683594,-1.5218575636493128,0.006916021462529898,0.0008153018425218761,0.6743782162666321,0.0,-0.0,0.0,0.0,0.0,0.0
1782664892,798704589,-1.6561387220965784,0.1294088363647461,-1.5218456427203577,0.006963958498090506,0.0008033175836317241,0.6743662357330322,0.0,-0.0,0.0,0.0,0.0,0.0
1782664892,806725627,-1.6561268011676233,0.1294088363647461,-1.5218094030963343,0.006880068685859442,0.0008153018425218761,0.6743662357330322,0.0,-0.0,0.0,0.0,0.0,0.0
1782664892,814725110,-1.6561983267413538,0.1294088363647461,-1.5218575636493128,0.006916021462529898,0.0008392703020945191,0.6743662357330322,0.0,-0.0,0.0,0.0,0.0,0.0
1782664892,822696129,-1.6561506430255335,0.12943315505981445,-1.5218094030963343,0.00692800572142005,0.0007909588748589158,0.6743422150611877,0.0,-0.0,0.0,0.0,0.0,0.0
1782664892,830700075,-1.6561506430255335,0.12939691543579102,-1.5218575636493128,0.00692800572142005,0.0007909588748589158,0.6743542551994324,0.0,-0.0,0.0,0.0,0.0,0.0
1782664892,838697520,-1.6561744848834437,0.1294088363647461,-1.5218456427203577,0.006880068685859442,0.0008153018425218761,0.6744381189346313,0.0,-0.0,0.0,0.0,0.0,0.0
1782664892,846746226,-1.6561625639544886,0.1294088363647461,-1.5218094030963343,0.006916021462529898,0.0007909588748589158,0.6743901968002319,0.0,-0.0,0.0,0.0,0.0,0.0
1782664892,854719671,-1.6561983267413538,0.12942123413085938,-1.5218456427203577,0.006916021462529898,0.0007909588748589158,0.6744021773338318,0.0,-0.0,0.0,0.0,0.0,0.0
1782664892,862703690,-1.6561744848834437,0.12938499450683594,-1.5218694845782679,0.00692800572142005,0.0007789746159687638,0.6743901968002319,0.0,-0.0,0.0,0.0,0.0,0.0
1782664892,870706988,-1.6561387220965784,0.12939691543579102,-1.521893326436178,0.006916021462529898,0.0007789746159687638,0.6743901968002319,0.0,-0.0,0.0,0.0,0.0,0.0
1782664892,878705322,-1.6561268011676233,0.12942123413085938,-1.5218094030963343,0.006880068685859442,0.0008392703020945191,0.6744021773338318,0.0,-0.0,0.0,0.0,0.0,0.0
1782664892,886730527,-1.656210724507467,0.12942123413085938,-1.5218575636493128,0.006951974239200354,0.0008392703020945191,0.6743782162666321,0.0,-0.0,0.0,0.0,0.0,0.0
1782664892,894692713,-1.656210724507467,0.12938499450683594,-1.5218337217914026,0.006880068685859442,0.0008392703020945191,0.6744021773338318,0.0,-0.0,0.0,0.0,0.0,0.0
1782664892,902696733,-1.6561983267413538,0.12938499450683594,-1.5218337217914026,0.006939989980310202,0.0008392703020945191,0.6743901968002319,0.0,-0.0,0.0,0.0,0.0,0.0
1782664892,910688937,-1.6561625639544886,0.1294088363647461,-1.5218456427203577,0.006892052944749594,0.0008512545027770102,0.6744261384010315,0.0,-0.0,0.0,0.0,0.0,0.0
1782664892,918697161,-1.6561864058123987,0.12942123413085938,-1.5218694845782679,0.00686808442696929,0.0008512545027770102,0.6743662357330322,0.0,-0.0,0.0,0.0,0.0,0.0
1782664892,926702106,-1.6561983267413538,0.12943315505981445,-1.5218213240252894,0.006904037203639746,0.0008033175836317241,0.6743422150611877,0.0,-0.0,0.0,0.0,0.0,0.0
1782664892,934709478,-1.6561864058123987,0.12939691543579102,-1.5218575636493128,0.006916021462529898,0.0007550062146037817,0.6744021773338318,0.0,-0.0,0.0,0.0,0.0,0.0
1782664892,942703979,-1.6561625639544886,0.12939691543579102,-1.5218575636493128,0.006880068685859442,0.0007909588748589158,0.6743901968002319,0.0,-0.0,0.0,0.0,0.0,0.0
1782664892,950716573,-1.6561387220965784,0.12936115264892578,-1.5218575636493128,0.006880068685859442,0.0008153018425218761,0.6743782162666321,0.0,-0.0,0.0,0.0,0.0,0.0
1782664892,958701722,-1.6561744848834437,0.12943315505981445,-1.5218456427203577,0.006880068685859442,0.0008033175836317241,0.6743782162666321,0.0,-0.0,0.0,0.0,0.0,0.0
1782664892,966721816,-1.6561983267413538,0.1294088363647461,-1.5218213240252894,0.006904037203639746,0.0008033175836317241,0.6744381189346313,0.0,-0.0,0.0,0.0,0.0,0.0
1782664892,974743743,-1.6561983267413538,0.1294088363647461,-1.5218456427203577,0.00686808442696929,0.0008033175836317241,0.6743542551994324,0.0,-0.0,0.0,0.0,0.0,0.0
1782664892,982703299,-1.6561506430255335,0.12933731079101562,-1.5218094030963343,0.006892052944749594,0.0007909588748589158,0.6743901968002319,0.0,-0.0,0.0,0.0,0.0,0.0
1782664892,990698689,-1.6561983267413538,0.12939691543579102,-1.5218456427203577,0.006904037203639746,0.0008153018425218761,0.6744021773338318,0.0,-0.0,0.0,0.0,0.0,0.0
1782664892,998712450,-1.6561387220965784,0.12942123413085938,-1.5218456427203577,0.006904037203639746,0.0007909588748589158,0.6743901968002319,0.0,-0.0,0.0,0.0,0.0,0.0
1782664893,6752766,-1.6561268011676233,0.12939691543579102,-1.5218694845782679,0.006892052944749594,0.0008033175836317241,0.6743542551994324,0.0,-0.0,0.0,0.0,0.0,0.0
1782664893,14715359,-1.6561983267413538,0.1294088363647461,-1.521881405507223,0.006904037203639746,0.0007909588748589158,0.6743422150611877,0.0,-0.0,0.0,0.0,0.0,0.0
1782664893,22712212,-1.6561864058123987,0.1294088363647461,-1.5218456427203577,0.006916021462529898,0.0007909588748589158,0.6744261384010315,0.0,-0.0,0.0,0.0,0.0,0.0
1782664893,30717769,-1.6561744848834437,0.1294088363647461,-1.5218456427203577,0.00692800572142005,0.0008392703020945191,0.6743422150611877,0.0,-0.0,0.0,0.0,0.0,0.0
1782664893,38707437,-1.6561268011676233,0.12942123413085938,-1.5218213240252894,0.006904037203639746,0.0007789746159687638,0.6743782162666321,0.0,-0.0,0.0,0.0,0.0,0.0
1782664893,46716660,-1.6561625639544886,0.12939691543579102,-1.5218213240252894,0.006892052944749594,0.0007909588748589158,0.6743662357330322,0.0,-0.0,0.0,0.0,0.0,0.0
1782664893,54705383,-1.6561744848834437,0.12943315505981445,-1.5218456427203577,0.00692800572142005,0.0008272860432043672,0.6744141578674316,0.0,-0.0,0.0,0.0,0.0,0.0
1782664893,62752181,-1.6561744848834437,0.12942123413085938,-1.5217974821673792,0.006916021462529898,0.0007909588748589158,0.6743662357330322,0.0,-0.0,0.0,0.0,0.0,0.0
1782664893,70751886,-1.6561864058123987,0.1294088363647461,-1.5218456427203577,0.00692800572142005,0.0007909588748589158,0.6744021773338318,0.0,-0.0,0.0,0.0,0.0,0.0
1782664893,78713146,-1.6561864058123987,0.12944507598876953,-1.5218337217914026,0.006916021462529898,0.0008392703020945191,0.6743782162666321,0.0,-0.0,0.0,0.0,0.0,0.0
1782664893,86707777,-1.6561268011676233,0.12937307357788086,-1.5218456427203577,0.006904037203639746,0.0007789746159687638,0.6743542551994324,0.0,-0.0,0.0,0.0,0.0,0.0
1782664893,94718519,-1.6561625639544886,0.12938499450683594,-1.5218575636493128,0.006880068685859442,0.0008272860432043672,0.6743782162666321,0.0,-0.0,0.0,0.0,0.0,0.0
1782664893,102713150,-1.656210724507467,0.12944507598876953,-1.5218694845782679,0.006904037203639746,0.0007789746159687638,0.6743542551994324,0.0,-0.0,0.0,0.0,0.0,0.0
1782664893,110715836,-1.6561625639544886,0.12938499450683594,-1.5218213240252894,0.006916021462529898,0.0008033175836317241,0.6744021773338318,0.0,-0.0,0.0,0.0,0.0,0.0
1782664893,118693800,-1.6561625639544886,0.12939691543579102,-1.5218694845782679,0.006916021462529898,0.0007909588748589158,0.6744021773338318,0.0,-0.0,0.0,0.0,0.0,0.0
1782664893,126716801,-1.6561506430255335,0.1294088363647461,-1.5218337217914026,0.006856100168079138,0.0008512545027770102,0.6743422150611877,0.0,-0.0,0.0,0.0,0.0,0.0
1782664893,134720136,-1.6561983267413538,0.12936115264892578,-1.5218456427203577,0.006916021462529898,0.0008392703020945191,0.6744021773338318,0.0,-0.0,0.0,0.0,0.0,0.0
1782664893,142705303,-1.6561744848834437,0.12938499450683594,-1.5218213240252894,0.006892052944749594,0.0008392703020945191,0.6743662357330322,0.0,-0.0,0.0,0.0,0.0,0.0
1782664893,150700841,-1.6561506430255335,0.12939691543579102,-1.5218337217914026,0.006916021462529898,0.0008153018425218761,0.6743901968002319,0.0,-0.0,0.0,0.0,0.0,0.0
1782664893,158714991,-1.6561864058123987,0.12937307357788086,-1.5218694845782679,0.006904037203639746,0.0007789746159687638,0.6744021773338318,0.0,-0.0,0.0,0.0,0.0,0.0
1782664893,166715399,-1.6561864058123987,0.12944507598876953,-1.521881405507223,0.00692800572142005,0.0008392703020945191,0.6743542551994324,0.0,-0.0,0.0,0.0,0.0,0.0
1782664893,174714086,-1.6561506430255335,0.12942123413085938,-1.5217974821673792,0.006892052944749594,0.0008272860432043672,0.6743542551994324,0.0,-0.0,0.0,0.0,0.0,0.0
1782664893,182714976,-1.6561506430255335,0.12942123413085938,-1.5218456427203577,0.00692800572142005,0.0008512545027770102,0.6743782162666321,0.0,-0.0,0.0,0.0,0.0,0.0
1782664893,190716236,-1.6561625639544886,0.12936115264892578,-1.5218575636493128,0.006916021462529898,0.0008392703020945191,0.6743901968002319,0.0,-0.0,0.0,0.0,0.0,0.0
1782664893,198715830,-1.6561387220965784,0.12943315505981445,-1.5218694845782679,0.00692800572142005,0.0008272860432043672,0.6743782162666321,0.0,-0.0,0.0,0.0,0.0,0.0
1782664893,206724498,-1.6561864058123987,0.12943315505981445,-1.5218575636493128,0.006975942756980658,0.0007789746159687638,0.6744381189346313,0.0,-0.0,0.0,0.0,0.0,0.0
1782664893,214702536,-1.65611440340151,0.12939691543579102,-1.5218094030963343,0.006904037203639746,0.0008392703020945191,0.6743782162666321,0.0,-0.0,0.0,0.0,0.0,0.0
1782664893,223459379,-1.6561387220965784,0.12943315505981445,-1.5218456427203577,0.006892052944749594,0.0008153018425218761,0.6743782162666321,0.0,-0.0,0.0,0.0,0.0,0.0
1782664893,232163777,-1.6561506430255335,0.12936115264892578,-1.5218694845782679,0.006951974239200354,0.0008272860432043672,0.6743901968002319,0.0,-0.0,0.0,0.0,0.0,0.0
1782664893,241497812,-1.6561983267413538,0.12943315505981445,-1.5218575636493128,0.00692800572142005,0.0008153018425218761,0.6744381189346313,0.0,-0.0,0.0,0.0,0.0,0.0
1782664893,246857394,-1.6561506430255335,0.1294088363647461,-1.5218456427203577,0.006916021462529898,0.0008153018425218761,0.6744141578674316,0.0,-0.0,0.0,0.0,0.0,0.0
1782664893,254995415,-1.6561744848834437,0.12944507598876953,-1.5218337217914026,0.00692800572142005,0.0007789746159687638,0.6743901968002319,0.0,-0.0,0.0,0.0,0.0,0.0
1782664893,262724543,-1.6561506430255335,0.1294088363647461,-1.5218337217914026,0.006904037203639746,0.0008272860432043672,0.6743901968002319,0.0,-0.0,0.0,0.0,0.0,0.0
1782664893,270771896,-1.6561625639544886,0.12942123413085938,-1.521905247365133,0.006880068685859442,0.0008033175836317241,0.6743662357330322,0.0,-0.0,0.0,0.0,0.0,0.0
1782664893,278768675,-1.6561506430255335,0.12938499450683594,-1.5218213240252894,0.006963958498090506,0.0008512545027770102,0.6743662357330322,0.0,-0.0,0.0,0.0,0.0,0.0
1782664893,286782732,-1.6561268011676233,0.12939691543579102,-1.5218694845782679,0.006892052944749594,0.0008272860432043672,0.6743782162666321,0.0,-0.0,0.0,0.0,0.0,0.0
1782664893,294736584,-1.6561744848834437,0.12937307357788086,-1.5218213240252894,0.006951974239200354,0.0007909588748589158,0.6743901968002319,0.0,-0.0,0.0,0.0,0.0,0.0
1782664893,302748326,-1.6561744848834437,0.12939691543579102,-1.5218337217914026,0.00692800572142005,0.0007669904152862728,0.6744261384010315,0.0,-0.0,0.0,0.0,0.0,0.0
1782664893,310762050,-1.6561387220965784,0.12944507598876953,-1.5218456427203577,0.00686808442696929,0.0007909588748589158,0.6743782162666321,0.0,-0.0,0.0,0.0,0.0,0.0
1782664893,318777959,-1.6561506430255335,0.1294088363647461,-1.5218694845782679,0.00692800572142005,0.0007909588748589158,0.6743422150611877,0.0,-0.0,0.0,0.0,0.0,0.0
1782664893,326761645,-1.6561506430255335,0.1294088363647461,-1.521881405507223,0.006904037203639746,0.0008272860432043672,0.6744021773338318,0.0,-0.0,0.0,0.0,0.0,0.0
1782664893,334741590,-1.6561387220965784,0.12936115264892578,-1.5218456427203577,0.006892052944749594,0.0007669904152862728,0.6743542551994324,0.0,-0.0,0.0,0.0,0.0,0.0
1782664893,342726758,-1.6561387220965784,0.12938499450683594,-1.5218213240252894,0.00692800572142005,0.0008153018425218761,0.6743662357330322,0.0,-0.0,0.0,0.0,0.0,0.0
1782664893,350737629,-1.6561268011676233,0.12937307357788086,-1.5218575636493128,0.006856100168079138,0.0008153018425218761,0.6743422150611877,0.0,-0.0,0.0,0.0,0.0,0.0
1782664893,358802668,-1.6561506430255335,0.12937307357788086,-1.521881405507223,0.006916021462529898,0.0007789746159687638,0.6743542551994324,0.0,-0.0,0.0,0.0,0.0,0.0
1782664893,366751465,-1.6561744848834437,0.12943315505981445,-1.5218094030963343,0.006939989980310202,0.0008392703020945191,0.6743422150611877,0.0,-0.0,0.0,0.0,0.0,0.0
1782664893,374729355,-1.6561268011676233,0.12937307357788086,-1.5218456427203577,0.006904037203639746,0.0008033175836317241,0.6744021773338318,0.0,-0.0,0.0,0.0,0.0,0.0
1782664893,382770153,-1.6561864058123987,0.12943315505981445,-1.5218575636493128,0.006916021462529898,0.0008153018425218761,0.6744141578674316,0.0,-0.0,0.0,0.0,0.0,0.0
1782664893,390720209,-1.6561744848834437,0.12937307357788086,-1.5218575636493128,0.00692800572142005,0.0007789746159687638,0.6743782162666321,0.0,-0.0,0.0,0.0,0.0,0.0
1782664893,398730692,-1.6561744848834437,0.1294689178466797,-1.5218094030963343,0.006951974239200354,0.0007909588748589158,0.6744381189346313,0.0,-0.0,0.0,0.0,0.0,0.0
1782664893,406742026,-1.6562226454364222,0.12942123413085938,-1.521881405507223,0.006880068685859442,0.0008153018425218761,0.6743542551994324,0.0,-0.0,0.0,0.0,0.0,0.0
1782664893,414771046,-1.6561268011676233,0.12943315505981445,-1.521881405507223,0.006951974239200354,0.0007789746159687638,0.6744021773338318,0.0,-0.0,0.0,0.0,0.0,0.0
1782664893,422753251,-1.6561268011676233,0.12937307357788086,-1.5218575636493128,0.00692800572142005,0.0008272860432043672,0.6744141578674316,0.0,-0.0,0.0,0.0,0.0,0.0
1782664893,430676844,-1.6561864058123987,0.1294088363647461,-1.5218094030963343,0.006904037203639746,0.0008153018425218761,0.6743662357330322,0.0,-0.0,0.0,0.0,0.0,0.0
1782664893,438709160,-1.6561744848834437,0.12938499450683594,-1.5218094030963343,0.006904037203639746,0.0008153018425218761,0.6743782162666321,0.0,-0.0,0.0,0.0,0.0,0.0
1782664893,446695791,-1.6561864058123987,0.12939691543579102,-1.521905247365133,0.006892052944749594,0.0008272860432043672,0.6744381189346313,0.0,-0.0,0.0,0.0,0.0,0.0
1782664893,454722977,-1.6561268011676233,0.12942123413085938,-1.5217974821673792,0.006951974239200354,0.0008033175836317241,0.6744021773338318,0.0,-0.0,0.0,0.0,0.0,0.0
1782664893,462729701,-1.6561625639544886,0.12937307357788086,-1.5218575636493128,0.006916021462529898,0.0008512545027770102,0.6743302345275879,0.0,-0.0,0.0,0.0,0.0,0.0
1782664893,470710146,-1.656210724507467,0.12939691543579102,-1.5218337217914026,0.006963958498090506,0.0008512545027770102,0.6743901968002319,0.0,-0.0,0.0,0.0,0.0,0.0
1782664893,478741296,-1.6561387220965784,0.12943315505981445,-1.5218694845782679,0.006856100168079138,0.0008272860432043672,0.6743782162666321,0.0,-0.0,0.0,0.0,0.0,0.0
1782664893,486720759,-1.6561744848834437,0.12937307357788086,-1.5218337217914026,0.006892052944749594,0.0008153018425218761,0.6743901968002319,0.0,-0.0,0.0,0.0,0.0,0.0
1782664893,494726187,-1.6561983267413538,0.12942123413085938,-1.5218213240252894,0.006856100168079138,0.0008512545027770102,0.6743542551994324,0.0,-0.0,0.0,0.0,0.0,0.0
1782664893,502716317,-1.656210724507467,0.12942123413085938,-1.5218337217914026,0.006916021462529898,0.0008153018425218761,0.6743901968002319,0.0,-0.0,0.0,0.0,0.0,0.0
1782664893,510705596,-1.6561506430255335,0.12938499450683594,-1.5218575636493128,0.00692800572142005,0.0008033175836317241,0.6743782162666321,0.0,-0.0,0.0,0.0,0.0,0.0
1782664893,518715227,-1.6561268011676233,0.12936115264892578,-1.5218213240252894,0.00692800572142005,0.0008272860432043672,0.6743782162666321,0.0,-0.0,0.0,0.0,0.0,0.0
1782664893,526722247,-1.6561506430255335,0.12938499450683594,-1.5218694845782679,0.006916021462529898,0.0008033175836317241,0.6744021773338318,0.0,-0.0,0.0,0.0,0.0,0.0
1782664893,534735563,-1.6561744848834437,0.12939691543579102,-1.5218094030963343,0.006951974239200354,0.0008392703020945191,0.6744021773338318,0.0,-0.0,0.0,0.0,0.0,0.0
1782664893,542760546,-1.6561744848834437,0.12933731079101562,-1.5218575636493128,0.006916021462529898,0.0007909588748589158,0.6743662357330322,0.0,-0.0,0.0,0.0,0.0,0.0
1782664893,550741269,-1.6561506430255335,0.1294088363647461,-1.521893326436178,0.006916021462529898,0.0008272860432043672,0.6743542551994324,0.0,-0.0,0.0,0.0,0.0,0.0
1782664893,558779622,-1.65611440340151,0.1294088363647461,-1.5218694845782679,0.00692800572142005,0.0007909588748589158,0.6744141578674316,0.0,-0.0,0.0,0.0,0.0,0.0
1782664893,566813605,-1.6561864058123987,0.12938499450683594,-1.5218575636493128,0.006916021462529898,0.0007909588748589158,0.6743782162666321,0.0,-0.0,0.0,0.0,0.0,0.0
1782664893,574774791,-1.6561625639544886,0.12943315505981445,-1.5218337217914026,0.006856100168079138,0.0008033175836317241,0.6743302345275879,0.0,-0.0,0.0,0.0,0.0,0.0
1782664893,582735884,-1.6561744848834437,0.12942123413085938,-1.5218575636493128,0.006892052944749594,0.0008392703020945191,0.6743901968002319,0.0,-0.0,0.0,0.0,0.0,0.0
1782664893,590737052,-1.6561506430255335,0.1294088363647461,-1.5218575636493128,0.006916021462529898,0.0008033175836317241,0.6744021773338318,0.0,-0.0,0.0,0.0,0.0,0.0
1782664893,598741331,-1.656210724507467,0.12937307357788086,-1.5218456427203577,0.006904037203639746,0.0008153018425218761,0.6743422150611877,0.0,-0.0,0.0,0.0,0.0,0.0
1782664893,606726795,-1.6561864058123987,0.12938499450683594,-1.5218337217914026,0.006880068685859442,0.0008153018425218761,0.6744141578674316,0.0,-0.0,0.0,0.0,0.0,0.0
1782664893,614747778,-1.6561506430255335,0.12939691543579102,-1.5218337217914026,0.006975942756980658,0.0007789746159687638,0.6743782162666321,0.0,-0.0,0.0,0.0,0.0,0.0
1782664893,622730057,-1.6561744848834437,0.12937307357788086,-1.5218337217914026,0.006904037203639746,0.0008392703020945191,0.6744141578674316,0.0,-0.0,0.0,0.0,0.0,0.0
1782664893,630682335,-1.6561387220965784,0.12943315505981445,-1.521881405507223,0.006939989980310202,0.0008153018425218761,0.6743542551994324,0.0,-0.0,0.0,0.0,0.0,0.0
1782664893,638706522,-1.6561506430255335,0.12938499450683594,-1.5218337217914026,0.006904037203639746,0.0008632387034595013,0.6743662357330322,0.0,-0.0,0.0,0.0,0.0,0.0
1782664893,646709300,-1.656210724507467,0.12942123413085938,-1.521881405507223,0.006904037203639746,0.0008272860432043672,0.6744021773338318,0.0,-0.0,0.0,0.0,0.0,0.0
1782664893,654741728,-1.6561506430255335,0.1294088363647461,-1.521905247365133,0.00692800572142005,0.0008392703020945191,0.6743542551994324,0.0,-0.0,0.0,0.0,0.0,0.0
1782664893,662718525,-1.6561864058123987,0.12944507598876953,-1.5218575636493128,0.006892052944749594,0.0008272860432043672,0.6743662357330322,0.0,-0.0,0.0,0.0,0.0,0.0
1782664893,670691322,-1.6561506430255335,0.12939691543579102,-1.5218575636493128,0.006904037203639746,0.0008033175836317241,0.6744381189346313,0.0,-0.0,0.0,0.0,0.0,0.0
1782664893,678715490,-1.6562226454364222,0.1294088363647461,-1.521893326436178,0.006892052944749594,0.0008512545027770102,0.6744141578674316,0.0,-0.0,0.0,0.0,0.0,0.0
1782664893,686751918,-1.6561268011676233,0.12937307357788086,-1.5218694845782679,0.006880068685859442,0.0008033175836317241,0.6744261384010315,0.0,-0.0,0.0,0.0,0.0,0.0
1782664893,694726326,-1.6561387220965784,0.1294088363647461,-1.5218337217914026,0.006892052944749594,0.0008392703020945191,0.6743422150611877,0.0,-0.0,0.0,0.0,0.0,0.0
1782664893,702716883,-1.6561625639544886,0.1294088363647461,-1.5218575636493128,0.006916021462529898,0.0008512545027770102,0.6743662357330322,0.0,-0.0,0.0,0.0,0.0,0.0
1782664893,710722180,-1.6561387220965784,0.12943315505981445,-1.5218575636493128,0.006880068685859442,0.0008033175836317241,0.6743782162666321,0.0,-0.0,0.0,0.0,0.0,0.0
1782664893,718715885,-1.6561625639544886,0.12939691543579102,-1.5218094030963343,0.00692800572142005,0.0008512545027770102,0.6744261384010315,0.0,-0.0,0.0,0.0,0.0,0.0
1782664893,726715590,-1.6561387220965784,0.12939691543579102,-1.5218094030963343,0.006856100168079138,0.0007789746159687638,0.6744141578674316,0.0,-0.0,0.0,0.0,0.0,0.0
1782664893,734709776,-1.6561744848834437,0.12939691543579102,-1.5218337217914026,0.006939989980310202,0.0007789746159687638,0.6744021773338318,0.0,-0.0,0.0,0.0,0.0,0.0
1782664893,742736037,-1.6561506430255335,0.12942123413085938,-1.5218456427203577,0.006904037203639746,0.0008512545027770102,0.6743901968002319,0.0,-0.0,0.0,0.0,0.0,0.0
1782664893,750725223,-1.6561983267413538,0.1294088363647461,-1.5218094030963343,0.006904037203639746,0.0007909588748589158,0.6743662357330322,0.0,-0.0,0.0,0.0,0.0,0.0
1782664893,758716872,-1.6561625639544886,0.12937307357788086,-1.5218456427203577,0.006916021462529898,0.0007669904152862728,0.6743901968002319,0.0,-0.0,0.0,0.0,0.0,0.0
1782664893,766704021,-1.6561625639544886,0.12944507598876953,-1.5218337217914026,0.006880068685859442,0.0008033175836317241,0.6743662357330322,0.0,-0.0,0.0,0.0,0.0,0.0
1782664893,774719856,-1.6561506430255335,0.12939691543579102,-1.5217974821673792,0.006904037203639746,0.0008632387034595013,0.6744021773338318,0.0,-0.0,0.0,0.0,0.0,0.0
1782664893,782726801,-1.6561864058123987,0.12937307357788086,-1.5218575636493128,0.006892052944749594,0.0008272860432043672,0.6744141578674316,0.0,-0.0,0.0,0.0,0.0,0.0
1782664893,790715451,-1.6561864058123987,0.1294088363647461,-1.5218694845782679,0.006892052944749594,0.0008272860432043672,0.6743662357330322,0.0,-0.0,0.0,0.0,0.0,0.0
1782664893,798706489,-1.6561268011676233,0.12937307357788086,-1.5218575636493128,0.006963958498090506,0.0008033175836317241,0.6743662357330322,0.0,-0.0,0.0,0.0,0.0,0.0
1782664893,806723768,-1.6561625639544886,0.1294088363647461,-1.5218337217914026,0.006916021462529898,0.0008512545027770102,0.6743542551994324,0.0,-0.0,0.0,0.0,0.0,0.0
1782664893,814813696,-1.6561625639544886,0.12942123413085938,-1.521881405507223,0.006880068685859442,0.0008512545027770102,0.6744021773338318,0.0,-0.0,0.0,0.0,0.0,0.0
1782664893,822714474,-1.6561387220965784,0.12943315505981445,-1.5218337217914026,0.006880068685859442,0.0007789746159687638,0.6744381189346313,0.0,-0.0,0.0,0.0,0.0,0.0
1782664893,830696104,-1.6561387220965784,0.12937307357788086,-1.5218694845782679,0.00692800572142005,0.0008033175836317241,0.6744381189346313,0.0,-0.0,0.0,0.0,0.0,0.0
1782664893,838751624,-1.6561268011676233,0.12944507598876953,-1.5218575636493128,0.006892052944749594,0.0008153018425218761,0.6744021773338318,0.0,-0.0,0.0,0.0,0.0,0.0
1782664893,846848201,-1.656210724507467,0.1294088363647461,-1.5218337217914026,0.00692800572142005,0.0008033175836317241,0.6743542551994324,0.0,-0.0,0.0,0.0,0.0,0.0
1782664893,854704496,-1.6561983267413538,0.12942123413085938,-1.5218337217914026,0.006904037203639746,0.0008632387034595013,0.6743422150611877,0.0,-0.0,0.0,0.0,0.0,0.0
1782664893,862694183,-1.6561387220965784,0.12937307357788086,-1.5218575636493128,0.006916021462529898,0.0007789746159687638,0.6744021773338318,0.0,-0.0,0.0,0.0,0.0,0.0
1782664893,870745629,-1.6561387220965784,0.12938499450683594,-1.5218456427203577,0.00692800572142005,0.0007909588748589158,0.6743901968002319,0.0,-0.0,0.0,0.0,0.0,0.0
1782664893,878725296,-1.6561506430255335,0.12939691543579102,-1.5218456427203577,0.006916021462529898,0.0008392703020945191,0.6744021773338318,0.0,-0.0,0.0,0.0,0.0,0.0
1782664893,886713612,-1.656210724507467,0.1294088363647461,-1.5218694845782679,0.006904037203639746,0.0008153018425218761,0.6744141578674316,0.0,-0.0,0.0,0.0,0.0,0.0
1782664893,894696743,-1.6561983267413538,0.12944507598876953,-1.5217855612384241,0.006916021462529898,0.0007909588748589158,0.6743662357330322,0.0,-0.0,0.0,0.0,0.0,0.0
1782664893,902704855,-1.656210724507467,0.12939691543579102,-1.5218456427203577,0.006939989980310202,0.0008272860432043672,0.6743782162666321,0.0,-0.0,0.0,0.0,0.0,0.0
1782664893,910710727,-1.6561387220965784,0.1294088363647461,-1.5218456427203577,0.006916021462529898,0.0008512545027770102,0.6744021773338318,0.0,-0.0,0.0,0.0,0.0,0.0
1782664893,918718061,-1.6561268011676233,0.1294088363647461,-1.5218575636493128,0.00686808442696929,0.0007669904152862728,0.6743782162666321,0.0,-0.0,0.0,0.0,0.0,0.0
1782664893,926701803,-1.6561268011676233,0.1294088363647461,-1.5218456427203577,0.006892052944749594,0.0007789746159687638,0.6744021773338318,0.0,-0.0,0.0,0.0,0.0,0.0
1782664893,934699841,-1.6561744848834437,0.12939691543579102,-1.5218337217914026,0.006892052944749594,0.0008392703020945191,0.6743542551994324,0.0,-0.0,0.0,0.0,0.0,0.0
1782664893,942708861,-1.6561625639544886,0.12942123413085938,-1.521881405507223,0.006916021462529898,0.0008153018425218761,0.6743782162666321,0.0,-0.0,0.0,0.0,0.0,0.0
1782664893,950758085,-1.6561864058123987,0.12938499450683594,-1.5218456427203577,0.00692800572142005,0.0008153018425218761,0.6743901968002319,0.0,-0.0,0.0,0.0,0.0,0.0
1782664893,958702882,-1.6561983267413538,0.1294088363647461,-1.5218094030963343,0.006904037203639746,0.0008153018425218761,0.6744021773338318,0.0,-0.0,0.0,0.0,0.0,0.0
1782664893,966705457,-1.6561506430255335,0.12942123413085938,-1.5218575636493128,0.006939989980310202,0.0008153018425218761,0.6743901968002319,0.0,-0.0,0.0,0.0,0.0,0.0
1782664893,974772162,-1.6561506430255335,0.1294088363647461,-1.5218337217914026,0.006916021462529898,0.0008272860432043672,0.6743782162666321,0.0,-0.0,0.0,0.0,0.0,0.0
1782664893,982737626,-1.6561983267413538,0.1294088363647461,-1.5218456427203577,0.006904037203639746,0.0008512545027770102,0.6744021773338318,0.0,-0.0,0.0,0.0,0.0,0.0
1782664893,990708997,-1.6561506430255335,0.1294088363647461,-1.5218337217914026,0.006892052944749594,0.0008153018425218761,0.6743542551994324,0.0,-0.0,0.0,0.0,0.0,0.0
1782664893,998712072,-1.6561744848834437,0.12937307357788086,-1.521881405507223,0.00692800572142005,0.0008153018425218761,0.6744261384010315,0.0,-0.0,0.0,0.0,0.0,0.0
1782664894,6717814,-1.6561506430255335,0.12937307357788086,-1.5218213240252894,0.00686808442696929,0.0008153018425218761,0.6743782162666321,0.0,-0.0,0.0,0.0,0.0,0.0
1782664894,14711445,-1.6561387220965784,0.1294088363647461,-1.5218213240252894,0.00692800572142005,0.0008392703020945191,0.6743662357330322,0.0,-0.0,0.0,0.0,0.0,0.0
1782664894,22700891,-1.6561506430255335,0.12943315505981445,-1.5218694845782679,0.006856100168079138,0.0007789746159687638,0.6743782162666321,0.0,-0.0,0.0,0.0,0.0,0.0
1782664894,30719633,-1.6561506430255335,0.12939691543579102,-1.5218694845782679,0.006916021462529898,0.0008153018425218761,0.6744381189346313,0.0,-0.0,0.0,0.0,0.0,0.0
1782664894,38730893,-1.65611440340151,0.12942123413085938,-1.521881405507223,0.006916021462529898,0.0007909588748589158,0.6743901968002319,0.0,-0.0,0.0,0.0,0.0,0.0
1782664894,46710746,-1.6561506430255335,0.12943315505981445,-1.5218213240252894,0.006880068685859442,0.0007909588748589158,0.6743782162666321,0.0,-0.0,0.0,0.0,0.0,0.0
1782664894,54690858,-1.6561506430255335,0.12944507598876953,-1.5218337217914026,0.00692800572142005,0.0008272860432043672,0.6743542551994324,0.0,-0.0,0.0,0.0,0.0,0.0
1782664894,62723508,-1.6561625639544886,0.1294088363647461,-1.5218456427203577,0.006904037203639746,0.0008272860432043672,0.6743782162666321,0.0,-0.0,0.0,0.0,0.0,0.0
1782664894,70778232,-1.6562226454364222,0.12937307357788086,-1.5218575636493128,0.006951974239200354,0.0007909588748589158,0.6744141578674316,0.0,-0.0,0.0,0.0,0.0,0.0
1782664894,78713306,-1.6561387220965784,0.12943315505981445,-1.5218456427203577,0.006892052944749594,0.0008033175836317241,0.6744141578674316,0.0,-0.0,0.0,0.0,0.0,0.0
1782664894,86736882,-1.6561625639544886,0.12942123413085938,-1.521881405507223,0.006880068685859442,0.0007909588748589158,0.6744021773338318,0.0,-0.0,0.0,0.0,0.0,0.0
1782664894,94701012,-1.6561744848834437,0.12938499450683594,-1.5218456427203577,0.006939989980310202,0.0007909588748589158,0.6744021773338318,0.0,-0.0,0.0,0.0,0.0,0.0
1782664894,102708310,-1.6561625639544886,0.12937307357788086,-1.5218694845782679,0.006880068685859442,0.0008392703020945191,0.6743901968002319,0.0,-0.0,0.0,0.0,0.0,0.0
1782664894,110678718,-1.6561625639544886,0.12944507598876953,-1.521881405507223,0.006916021462529898,0.0008033175836317241,0.6743542551994324,0.0,-0.0,0.0,0.0,0.0,0.0
1782664894,118672330,-1.6561506430255335,0.1294088363647461,-1.5218456427203577,0.006904037203639746,0.0008033175836317241,0.6743662357330322,0.0,-0.0,0.0,0.0,0.0,0.0
1782664894,126718443,-1.6561983267413538,0.12938499450683594,-1.5218337217914026,0.006939989980310202,0.0008153018425218761,0.6744021773338318,0.0,-0.0,0.0,0.0,0.0,0.0
1782664894,134754371,-1.6561744848834437,0.12943315505981445,-1.5218213240252894,0.006880068685859442,0.0007909588748589158,0.6744021773338318,0.0,-0.0,0.0,0.0,0.0,0.0
1782664894,142716557,-1.65611440340151,0.12939691543579102,-1.5218213240252894,0.006892052944749594,0.0008033175836317241,0.6744261384010315,0.0,-0.0,0.0,0.0,0.0,0.0
1782664894,150720076,-1.6561744848834437,0.1294088363647461,-1.5218213240252894,0.006880068685859442,0.0008033175836317241,0.6743662357330322,0.0,-0.0,0.0,0.0,0.0,0.0
1782664894,158715911,-1.6561506430255335,0.1294088363647461,-1.5217974821673792,0.00686808442696929,0.0008392703020945191,0.6743542551994324,0.0,-0.0,0.0,0.0,0.0,0.0
1782664894,166715949,-1.65611440340151,0.12943315505981445,-1.5218575636493128,0.006904037203639746,0.0008272860432043672,0.6744261384010315,0.0,-0.0,0.0,0.0,0.0,0.0
1782664894,174721672,-1.6561983267413538,0.12942123413085938,-1.5218575636493128,0.006916021462529898,0.0008153018425218761,0.6743782162666321,0.0,-0.0,0.0,0.0,0.0,0.0
1782664894,182709710,-1.6561268011676233,0.12939691543579102,-1.5218694845782679,0.006939989980310202,0.0008512545027770102,0.6743662357330322,0.0,-0.0,0.0,0.0,0.0,0.0
1782664894,190715027,-1.6561983267413538,0.12942123413085938,-1.5218575636493128,0.006916021462529898,0.0008153018425218761,0.6743662357330322,0.0,-0.0,0.0,0.0,0.0,0.0
1782664894,198706268,-1.656210724507467,0.1294088363647461,-1.521881405507223,0.00692800572142005,0.0008272860432043672,0.6744141578674316,0.0,-0.0,0.0,0.0,0.0,0.0
1782664894,206713825,-1.656210724507467,0.12939691543579102,-1.5218575636493128,0.006904037203639746,0.0008153018425218761,0.6743662357330322,0.0,-0.0,0.0,0.0,0.0,0.0
1782664894,214700215,-1.6561744848834437,0.12937307357788086,-1.5218575636493128,0.00692800572142005,0.0007789746159687638,0.6743302345275879,0.0,-0.0,0.0,0.0,0.0,0.0
1782664894,222714013,-1.6561387220965784,0.12942123413085938,-1.521881405507223,0.006916021462529898,0.0007789746159687638,0.6743901968002319,0.0,-0.0,0.0,0.0,0.0,0.0
1782664894,230742940,-1.6561506430255335,0.12942123413085938,-1.5218694845782679,0.00692800572142005,0.0008512545027770102,0.6744021773338318,0.0,-0.0,0.0,0.0,0.0,0.0
1782664894,238711978,-1.656210724507467,0.12943315505981445,-1.5218456427203577,0.00692800572142005,0.0007909588748589158,0.6743901968002319,0.0,-0.0,0.0,0.0,0.0,0.0
1782664894,246713683,-1.6561864058123987,0.12944507598876953,-1.5218094030963343,0.006951974239200354,0.0008392703020945191,0.6743782162666321,0.0,-0.0,0.0,0.0,0.0,0.0
1782664894,254710480,-1.6561864058123987,0.12933731079101562,-1.5218213240252894,0.006916021462529898,0.0008153018425218761,0.6744261384010315,0.0,-0.0,0.0,0.0,0.0,0.0
1782664894,262807260,-1.6561625639544886,0.1294088363647461,-1.5218094030963343,0.006916021462529898,0.0007909588748589158,0.6744021773338318,0.0,-0.0,0.0,0.0,0.0,0.0
1782664894,270725742,-1.6561625639544886,0.1294088363647461,-1.5218575636493128,0.00692800572142005,0.0008512545027770102,0.6743302345275879,0.0,-0.0,0.0,0.0,0.0,0.0
1782664894,278710706,-1.6561864058123987,0.1294569969177246,-1.5218456427203577,0.006904037203639746,0.0007789746159687638,0.6744021773338318,0.0,-0.0,0.0,0.0,0.0,0.0
1782664894,286721985,-1.6561506430255335,0.12943315505981445,-1.521881405507223,0.006892052944749594,0.0007909588748589158,0.6744261384010315,0.0,-0.0,0.0,0.0,0.0,0.0
1782664894,294711727,-1.6561983267413538,0.12942123413085938,-1.5218694845782679,0.006916021462529898,0.0008272860432043672,0.6744021773338318,0.0,-0.0,0.0,0.0,0.0,0.0
1782664894,302710691,-1.6561744848834437,0.12937307357788086,-1.5218456427203577,0.00686808442696929,0.0008153018425218761,0.6744261384010315,0.0,-0.0,0.0,0.0,0.0,0.0
1782664894,310702433,-1.6561506430255335,0.12943315505981445,-1.521893326436178,0.006904037203639746,0.0008033175836317241,0.6744141578674316,0.0,-0.0,0.0,0.0,0.0,0.0
1782664894,318717008,-1.6561864058123987,0.12939691543579102,-1.5218337217914026,0.006880068685859442,0.0007909588748589158,0.6743901968002319,0.0,-0.0,0.0,0.0,0.0,0.0
1782664894,326814770,-1.6561744848834437,0.12944507598876953,-1.5218094030963343,0.006904037203639746,0.0008153018425218761,0.6743662357330322,0.0,-0.0,0.0,0.0,0.0,0.0
1782664894,334707103,-1.6561387220965784,0.12943315505981445,-1.5218694845782679,0.006880068685859442,0.0007909588748589158,0.6744141578674316,0.0,-0.0,0.0,0.0,0.0,0.0
1782664894,342706975,-1.6561744848834437,0.12942123413085938,-1.5218213240252894,0.006975942756980658,0.0008392703020945191,0.6744021773338318,0.0,-0.0,0.0,0.0,0.0,0.0
1782664894,350710346,-1.6561506430255335,0.12944507598876953,-1.5218337217914026,0.006844115909188986,0.0008153018425218761,0.6744021773338318,0.0,-0.0,0.0,0.0,0.0,0.0
1782664894,358737866,-1.6561387220965784,0.12944507598876953,-1.5218694845782679,0.00686808442696929,0.0007669904152862728,0.6744381189346313,0.0,-0.0,0.0,0.0,0.0,0.0
1782664894,366707219,-1.6561506430255335,0.1294088363647461,-1.5218575636493128,0.006916021462529898,0.0008272860432043672,0.6744381189346313,0.0,-0.0,0.0,0.0,0.0,0.0
1782664894,374690849,-1.6561983267413538,0.1294088363647461,-1.5218456427203577,0.006892052944749594,0.0008272860432043672,0.6743302345275879,0.0,-0.0,0.0,0.0,0.0,0.0
1782664894,382719592,-1.6561625639544886,0.12943315505981445,-1.5218337217914026,0.006916021462529898,0.0007789746159687638,0.6744021773338318,0.0,-0.0,0.0,0.0,0.0,0.0
1782664894,390748834,-1.6561506430255335,0.12938499450683594,-1.5218094030963343,0.006892052944749594,0.0007909588748589158,0.6743901968002319,0.0,-0.0,0.0,0.0,0.0,0.0
1782664894,398717483,-1.656210724507467,0.12942123413085938,-1.5218337217914026,0.00692800572142005,0.0007789746159687638,0.6743542551994324,0.0,-0.0,0.0,0.0,0.0,0.0
1782664894,406700743,-1.6561387220965784,0.1294689178466797,-1.5218575636493128,0.006892052944749594,0.0007789746159687638,0.6744141578674316,0.0,-0.0,0.0,0.0,0.0,0.0
1782664894,414707004,-1.6561268011676233,0.12937307357788086,-1.5218337217914026,0.00692800572142005,0.0008033175836317241,0.6744261384010315,0.0,-0.0,0.0,0.0,0.0,0.0
1782664894,422803469,-1.6561983267413538,0.12937307357788086,-1.521893326436178,0.006904037203639746,0.0007789746159687638,0.6743901968002319,0.0,-0.0,0.0,0.0,0.0,0.0
1782664894,430724599,-1.6561506430255335,0.12937307357788086,-1.5218456427203577,0.006916021462529898,0.0007789746159687638,0.6743782162666321,0.0,-0.0,0.0,0.0,0.0,0.0
1782664894,438709952,-1.6561506430255335,0.12939691543579102,-1.5218456427203577,0.006904037203639746,0.0007909588748589158,0.6743662357330322,0.0,-0.0,0.0,0.0,0.0,0.0
1782664894,446717027,-1.6561744848834437,0.12939691543579102,-1.5217974821673792,0.006939989980310202,0.0007909588748589158,0.6744141578674316,0.0,-0.0,0.0,0.0,0.0,0.0
1782664894,454716380,-1.656210724507467,0.12943315505981445,-1.5218094030963343,0.006939989980310202,0.0008392703020945191,0.6743662357330322,0.0,-0.0,0.0,0.0,0.0,0.0
1782664894,462711844,-1.6561864058123987,0.12938499450683594,-1.5218694845782679,0.006939989980310202,0.0008153018425218761,0.6743901968002319,0.0,-0.0,0.0,0.0,0.0,0.0
1782664894,470697178,-1.6561983267413538,0.12939691543579102,-1.5218575636493128,0.00692800572142005,0.0008153018425218761,0.6743542551994324,0.0,-0.0,0.0,0.0,0.0,0.0
1782664894,478715384,-1.6561625639544886,0.12936115264892578,-1.5218694845782679,0.00686808442696929,0.0007789746159687638,0.6743542551994324,0.0,-0.0,0.0,0.0,0.0,0.0
1782664894,486769108,-1.6561506430255335,0.12938499450683594,-1.521905247365133,0.006904037203639746,0.0008033175836317241,0.6743901968002319,0.0,-0.0,0.0,0.0,0.0,0.0
1782664894,494716701,-1.6561268011676233,0.12937307357788086,-1.521893326436178,0.006904037203639746,0.0007909588748589158,0.6743782162666321,0.0,-0.0,0.0,0.0,0.0,0.0
1782664894,502722572,-1.6561506430255335,0.12937307357788086,-1.5218456427203577,0.006892052944749594,0.0008272860432043672,0.6744141578674316,0.0,-0.0,0.0,0.0,0.0,0.0
1782664894,510709314,-1.6561268011676233,0.12937307357788086,-1.5218456427203577,0.006904037203639746,0.0008512545027770102,0.6743782162666321,0.0,-0.0,0.0,0.0,0.0,0.0
1782664894,518749297,-1.6561983267413538,0.1294088363647461,-1.521881405507223,0.006880068685859442,0.0008153018425218761,0.6744021773338318,0.0,-0.0,0.0,0.0,0.0,0.0
1782664894,526714187,-1.6561864058123987,0.1294088363647461,-1.5218456427203577,0.00692800572142005,0.0008153018425218761,0.6744141578674316,0.0,-0.0,0.0,0.0,0.0,0.0
1782664894,534691503,-1.6561864058123987,0.12942123413085938,-1.5218213240252894,0.006939989980310202,0.0008392703020945191,0.6743782162666321,0.0,-0.0,0.0,0.0,0.0,0.0
1782664894,542713930,-1.6561744848834437,0.1294088363647461,-1.5218213240252894,0.006916021462529898,0.0008153018425218761,0.6744261384010315,0.0,-0.0,0.0,0.0,0.0,0.0
1782664894,550722450,-1.6561864058123987,0.12938499450683594,-1.5218575636493128,0.006939989980310202,0.0008392703020945191,0.6743542551994324,0.0,-0.0,0.0,0.0,0.0,0.0
1782664894,558716099,-1.6561864058123987,0.12937307357788086,-1.5218575636493128,0.006892052944749594,0.0008392703020945191,0.6743901968002319,0.0,-0.0,0.0,0.0,0.0,0.0
1782664894,566706693,-1.6561744848834437,0.12938499450683594,-1.521881405507223,0.006880068685859442,0.0008153018425218761,0.6743422150611877,0.0,-0.0,0.0,0.0,0.0,0.0
1782664894,574695471,-1.6561387220965784,0.12937307357788086,-1.5218456427203577,0.006904037203639746,0.0008392703020945191,0.6743901968002319,0.0,-0.0,0.0,0.0,0.0,0.0
1782664894,582708788,-1.6561268011676233,0.12937307357788086,-1.5218337217914026,0.006844115909188986,0.0008033175836317241,0.6744141578674316,0.0,-0.0,0.0,0.0,0.0,0.0
1782664894,590710122,-1.6561387220965784,0.1294569969177246,-1.521893326436178,0.006916021462529898,0.0008153018425218761,0.6743542551994324,0.0,-0.0,0.0,0.0,0.0,0.0
1782664894,598697642,-1.6561506430255335,0.12942123413085938,-1.5218094030963343,0.006916021462529898,0.0008632387034595013,0.6744381189346313,0.0,-0.0,0.0,0.0,0.0,0.0
1782664894,606705402,-1.6561744848834437,0.12943315505981445,-1.5218337217914026,0.006916021462529898,0.0008153018425218761,0.6743901968002319,0.0,-0.0,0.0,0.0,0.0,0.0
1782664894,614707977,-1.6561625639544886,0.12943315505981445,-1.5218213240252894,0.006904037203639746,0.0008272860432043672,0.6743422150611877,0.0,-0.0,0.0,0.0,0.0,0.0
1782664894,622716701,-1.6561506430255335,0.1293492317199707,-1.521881405507223,0.006904037203639746,0.0008272860432043672,0.6743901968002319,0.0,-0.0,0.0,0.0,0.0,0.0
1782664894,630709924,-1.6561506430255335,0.12942123413085938,-1.5218575636493128,0.006880068685859442,0.0008512545027770102,0.6743901968002319,0.0,-0.0,0.0,0.0,0.0,0.0
1782664894,638713425,-1.6561506430255335,0.12939691543579102,-1.5218694845782679,0.006892052944749594,0.0007669904152862728,0.6743901968002319,0.0,-0.0,0.0,0.0,0.0,0.0
1782664894,646700019,-1.6561983267413538,0.1294088363647461,-1.5218094030963343,0.006892052944749594,0.0007669904152862728,0.6743782162666321,0.0,-0.0,0.0,0.0,0.0,0.0
1782664894,654709465,-1.6561387220965784,0.12939691543579102,-1.521881405507223,0.006951974239200354,0.0007909588748589158,0.6743901968002319,0.0,-0.0,0.0,0.0,0.0,0.0
1782664894,662698503,-1.6561268011676233,0.12938499450683594,-1.5218337217914026,0.006916021462529898,0.0008153018425218761,0.6744141578674316,0.0,-0.0,0.0,0.0,0.0,0.0
1782664894,670705708,-1.6561506430255335,0.12938499450683594,-1.5218694845782679,0.006880068685859442,0.0008033175836317241,0.6743542551994324,0.0,-0.0,0.0,0.0,0.0,0.0
1782664894,678695635,-1.6561506430255335,0.12943315505981445,-1.5218694845782679,0.006880068685859442,0.0008512545027770102,0.6744381189346313,0.0,-0.0,0.0,0.0,0.0,0.0
1782664894,686711340,-1.6561625639544886,0.12944507598876953,-1.5218694845782679,0.00692800572142005,0.0008272860432043672,0.6744021773338318,0.0,-0.0,0.0,0.0,0.0,0.0
1782664894,694695285,-1.6561387220965784,0.12943315505981445,-1.5218694845782679,0.006892052944749594,0.0008392703020945191,0.6743782162666321,0.0,-0.0,0.0,0.0,0.0,0.0
1782664894,702698916,-1.6561268011676233,0.12939691543579102,-1.521881405507223,0.006880068685859442,0.0008512545027770102,0.6743782162666321,0.0,-0.0,0.0,0.0,0.0,0.0
1782664894,710699917,-1.6561506430255335,0.12939691543579102,-1.5218456427203577,0.006892052944749594,0.0008272860432043672,0.6743782162666321,0.0,-0.0,0.0,0.0,0.0,0.0
1782664894,718715493,-1.6561625639544886,0.1294088363647461,-1.521881405507223,0.006939989980310202,0.0008153018425218761,0.6744021773338318,0.0,-0.0,0.0,0.0,0.0,0.0
1782664894,726707012,-1.6561744848834437,0.1294088363647461,-1.5218456427203577,0.006916021462529898,0.0008512545027770102,0.6744261384010315,0.0,-0.0,0.0,0.0,0.0,0.0
1782664894,734696310,-1.6561268011676233,0.12937307357788086,-1.5218575636493128,0.006880068685859442,0.0008153018425218761,0.6743782162666321,0.0,-0.0,0.0,0.0,0.0,0.0
1782664894,742700255,-1.6561625639544886,0.1294088363647461,-1.5218094030963343,0.006939989980310202,0.0007909588748589158,0.6743662357330322,0.0,-0.0,0.0,0.0,0.0,0.0
1782664894,750711238,-1.6561864058123987,0.1294088363647461,-1.521893326436178,0.006892052944749594,0.0008392703020945191,0.6744021773338318,0.0,-0.0,0.0,0.0,0.0,0.0
1782664894,758699295,-1.6561864058123987,0.1294088363647461,-1.5218575636493128,0.006892052944749594,0.0008153018425218761,0.6743542551994324,0.0,-0.0,0.0,0.0,0.0,0.0
1782664894,766706777,-1.6561744848834437,0.12939691543579102,-1.5218575636493128,0.006916021462529898,0.0008033175836317241,0.6744141578674316,0.0,-0.0,0.0,0.0,0.0,0.0
1782664894,774758520,-1.6561744848834437,0.1294088363647461,-1.5218694845782679,0.00686808442696929,0.0008033175836317241,0.6743542551994324,0.0,-0.0,0.0,0.0,0.0,0.0
1782664894,782716410,-1.656210724507467,0.1294088363647461,-1.5218094030963343,0.006892052944749594,0.0007909588748589158,0.6743782162666321,0.0,-0.0,0.0,0.0,0.0,0.0
1782664894,790703077,-1.6561625639544886,0.12937307357788086,-1.5218213240252894,0.006916021462529898,0.0007909588748589158,0.6744141578674316,0.0,-0.0,0.0,0.0,0.0,0.0
1782664894,798707875,-1.6562226454364222,0.12944507598876953,-1.5218694845782679,0.006892052944749594,0.0008392703020945191,0.6744021773338318,0.0,-0.0,0.0,0.0,0.0,0.0
1782664894,806744747,-1.656210724507467,0.12942123413085938,-1.5218575636493128,0.006916021462529898,0.0008392703020945191,0.6744021773338318,0.0,-0.0,0.0,0.0,0.0,0.0
1782664894,814712803,-1.6561744848834437,0.12943315505981445,-1.5218337217914026,0.00686808442696929,0.0008392703020945191,0.6743542551994324,0.0,-0.0,0.0,0.0,0.0,0.0
1782664894,822715934,-1.6561625639544886,0.12942123413085938,-1.521905247365133,0.006904037203639746,0.0008033175836317241,0.6744021773338318,0.0,-0.0,0.0,0.0,0.0,0.0
1782664894,830709972,-1.656210724507467,0.1294088363647461,-1.5218575636493128,0.006939989980310202,0.0008392703020945191,0.6743782162666321,0.0,-0.0,0.0,0.0,0.0,0.0
1782664894,838809919,-1.6561506430255335,0.12942123413085938,-1.5218094030963343,0.006880068685859442,0.0007909588748589158,0.6744021773338318,0.0,-0.0,0.0,0.0,0.0,0.0
1782664894,846715900,-1.6561625639544886,0.12939691543579102,-1.521905247365133,0.006939989980310202,0.0008153018425218761,0.6744261384010315,0.0,-0.0,0.0,0.0,0.0,0.0
1782664894,854712068,-1.6561387220965784,0.12942123413085938,-1.5218337217914026,0.006880068685859442,0.0008153018425218761,0.6743422150611877,0.0,-0.0,0.0,0.0,0.0,0.0
1782664894,862715551,-1.6561387220965784,0.12943315505981445,-1.5217855612384241,0.006975942756980658,0.0008153018425218761,0.6743782162666321,0.0,-0.0,0.0,0.0,0.0,0.0
1782664894,870799331,-1.6561983267413538,0.12939691543579102,-1.5218575636493128,0.00692800572142005,0.0008153018425218761,0.6743662357330322,0.0,-0.0,0.0,0.0,0.0,0.0
1782664894,878706701,-1.6561625639544886,0.12943315505981445,-1.521881405507223,0.006844115909188986,0.0008153018425218761,0.6743662357330322,0.0,-0.0,0.0,0.0,0.0,0.0
1782664894,886705814,-1.6561983267413538,0.12943315505981445,-1.5218694845782679,0.006916021462529898,0.0007669904152862728,0.6744021773338318,0.0,-0.0,0.0,0.0,0.0,0.0
1782664894,894713815,-1.6561506430255335,0.12939691543579102,-1.521881405507223,0.006832132115960121,0.0008512545027770102,0.6744261384010315,0.0,-0.0,0.0,0.0,0.0,0.0
1782664894,902741187,-1.6561625639544886,0.12937307357788086,-1.5218694845782679,0.00692800572142005,0.0008153018425218761,0.6743782162666321,0.0,-0.0,0.0,0.0,0.0,0.0
1782664894,910702761,-1.6561625639544886,0.12942123413085938,-1.5218575636493128,0.006880068685859442,0.0007669904152862728,0.6743782162666321,0.0,-0.0,0.0,0.0,0.0,0.0
1782664894,918678966,-1.6561268011676233,0.12944507598876953,-1.5218694845782679,0.00686808442696929,0.0008392703020945191,0.6743662357330322,0.0,-0.0,0.0,0.0,0.0,0.0
1782664894,926714079,-1.6561268011676233,0.12943315505981445,-1.5218575636493128,0.006892052944749594,0.0007909588748589158,0.6743782162666321,0.0,-0.0,0.0,0.0,0.0,0.0
1782664894,934746877,-1.6561744848834437,0.12939691543579102,-1.5218575636493128,0.006904037203639746,0.0008392703020945191,0.6743302345275879,0.0,-0.0,0.0,0.0,0.0,0.0
1782664894,942713674,-1.6561506430255335,0.12936115264892578,-1.5218456427203577,0.00692800572142005,0.0008033175836317241,0.6744021773338318,0.0,-0.0,0.0,0.0,0.0,0.0
1782664894,950701990,-1.656210724507467,0.1294088363647461,-1.5218213240252894,0.006892052944749594,0.0008392703020945191,0.6744021773338318,0.0,-0.0,0.0,0.0,0.0,0.0
1782664894,958713824,-1.6561506430255335,0.1294088363647461,-1.521881405507223,0.006880068685859442,0.0007909588748589158,0.6743782162666321,0.0,-0.0,0.0,0.0,0.0,0.0
1782664894,966714511,-1.6561387220965784,0.12939691543579102,-1.5218213240252894,0.006916021462529898,0.0008392703020945191,0.6743782162666321,0.0,-0.0,0.0,0.0,0.0,0.0
1782664894,974715715,-1.6561864058123987,0.12943315505981445,-1.5217855612384241,0.00686808442696929,0.0008033175836317241,0.6744021773338318,0.0,-0.0,0.0,0.0,0.0,0.0
1782664894,982705031,-1.6561625639544886,0.12937307357788086,-1.5218694845782679,0.006904037203639746,0.0007789746159687638,0.6743422150611877,0.0,-0.0,0.0,0.0,0.0,0.0
1782664894,990763792,-1.6561864058123987,0.12938499450683594,-1.5218337217914026,0.006916021462529898,0.0008272860432043672,0.6743422150611877,0.0,-0.0,0.0,0.0,0.0,0.0
1782664894,998808665,-1.6561983267413538,0.12943315505981445,-1.5218456427203577,0.006916021462529898,0.0008153018425218761,0.6743782162666321,0.0,-0.0,0.0,0.0,0.0,0.0
1782664895,6719165,-1.6561387220965784,0.12944507598876953,-1.521881405507223,0.006892052944749594,0.0008272860432043672,0.6744261384010315,0.0,-0.0,0.0,0.0,0.0,0.0
1782664895,14698017,-1.6561625639544886,0.12938499450683594,-1.5218575636493128,0.006892052944749594,0.0008272860432043672,0.6744261384010315,0.0,-0.0,0.0,0.0,0.0,0.0
1782664895,22694593,-1.6561387220965784,0.12938499450683594,-1.5218456427203577,0.006880068685859442,0.0007909588748589158,0.6743302345275879,0.0,-0.0,0.0,0.0,0.0,0.0
1782664895,30729668,-1.656210724507467,0.12937307357788086,-1.5218456427203577,0.006916021462529898,0.0008033175836317241,0.6744141578674316,0.0,-0.0,0.0,0.0,0.0,0.0
1782664895,38710373,-1.6561744848834437,0.1294088363647461,-1.5218337217914026,0.006951974239200354,0.0007789746159687638,0.6744141578674316,0.0,-0.0,0.0,0.0,0.0,0.0
1782664895,46700059,-1.6561625639544886,0.12942123413085938,-1.5217974821673792,0.00686808442696929,0.0007909588748589158,0.6743422150611877,0.0,-0.0,0.0,0.0,0.0,0.0
1782664895,54714394,-1.6561506430255335,0.12943315505981445,-1.5218094030963343,0.006904037203639746,0.0008392703020945191,0.6743782162666321,0.0,-0.0,0.0,0.0,0.0,0.0
1782664895,62715266,-1.6561387220965784,0.1293492317199707,-1.5218575636493128,0.006904037203639746,0.0007789746159687638,0.6743901968002319,0.0,-0.0,0.0,0.0,0.0,0.0
1782664895,70719434,-1.6561864058123987,0.12939691543579102,-1.5219176451312464,0.006892052944749594,0.0008033175836317241,0.6743662357330322,0.0,-0.0,0.0,0.0,0.0,0.0
1782664895,78703083,-1.6561268011676233,0.12942123413085938,-1.5218337217914026,0.006916021462529898,0.0008153018425218761,0.6743662357330322,0.0,-0.0,0.0,0.0,0.0,0.0
1782664895,86717862,-1.6561625639544886,0.12942123413085938,-1.5217855612384241,0.006880068685859442,0.0008512545027770102,0.6744500994682312,0.0,-0.0,0.0,0.0,0.0,0.0
1782664895,94744882,-1.6561625639544886,0.1293492317199707,-1.5218575636493128,0.006916021462529898,0.0008272860432043672,0.6744141578674316,0.0,-0.0,0.0,0.0,0.0,0.0
1782664895,102710031,-1.6561506430255335,0.12937307357788086,-1.5218575636493128,0.006916021462529898,0.0008272860432043672,0.6744261384010315,0.0,-0.0,0.0,0.0,0.0,0.0
1782664895,110715273,-1.6561268011676233,0.12939691543579102,-1.5218456427203577,0.006880068685859442,0.0008512545027770102,0.6743782162666321,0.0,-0.0,0.0,0.0,0.0,0.0
1782664895,118724071,-1.6561625639544886,0.12942123413085938,-1.5218456427203577,0.006916021462529898,0.0008512545027770102,0.6744021773338318,0.0,-0.0,0.0,0.0,0.0,0.0
1782664895,126705701,-1.6561387220965784,0.1294088363647461,-1.5218456427203577,0.006892052944749594,0.0007909588748589158,0.6743901968002319,0.0,-0.0,0.0,0.0,0.0,0.0
1782664895,134726332,-1.6561744848834437,0.12938499450683594,-1.5218575636493128,0.006904037203639746,0.0007789746159687638,0.6744021773338318,0.0,-0.0,0.0,0.0,0.0,0.0
1782664895,142703444,-1.6561268011676233,0.12943315505981445,-1.5218094030963343,0.006892052944749594,0.0007909588748589158,0.6744141578674316,0.0,-0.0,0.0,0.0,0.0,0.0
1782664895,150700390,-1.6561625639544886,0.1294088363647461,-1.5218094030963343,0.006916021462529898,0.0008512545027770102,0.6743662357330322,0.0,-0.0,0.0,0.0,0.0,0.0
1782664895,158756318,-1.6561506430255335,0.12944507598876953,-1.5218575636493128,0.00686808442696929,0.0008033175836317241,0.6744141578674316,0.0,-0.0,0.0,0.0,0.0,0.0
1782664895,166714078,-1.6562226454364222,0.12942123413085938,-1.5218337217914026,0.006892052944749594,0.0007789746159687638,0.6744141578674316,0.0,-0.0,0.0,0.0,0.0,0.0
1782664895,174702208,-1.65611440340151,0.1294088363647461,-1.5218337217914026,0.006892052944749594,0.0008033175836317241,0.6744141578674316,0.0,-0.0,0.0,0.0,0.0,0.0
1782664895,182708413,-1.6561625639544886,0.12938499450683594,-1.5217974821673792,0.00692800572142005,0.0007909588748589158,0.6743901968002319,0.0,-0.0,0.0,0.0,0.0,0.0
1782664895,190741619,-1.6561506430255335,0.12939691543579102,-1.5218094030963343,0.006904037203639746,0.0008033175836317241,0.6744261384010315,0.0,-0.0,0.0,0.0,0.0,0.0
1782664895,198720268,-1.656210724507467,0.12942123413085938,-1.5218575636493128,0.006916021462529898,0.0008512545027770102,0.6743901968002319,0.0,-0.0,0.0,0.0,0.0,0.0
1782664895,206704084,-1.6561744848834437,0.1294088363647461,-1.521893326436178,0.006916021462529898,0.0008153018425218761,0.6743782162666321,0.0,-0.0,0.0,0.0,0.0,0.0
1782664895,214724881,-1.6561744848834437,0.1294088363647461,-1.5218694845782679,0.00686808442696929,0.0008512545027770102,0.6743542551994324,0.0,-0.0,0.0,0.0,0.0,0.0
1782664895,222757309,-1.6561625639544886,0.12937307357788086,-1.5218213240252894,0.00686808442696929,0.0008272860432043672,0.6743542551994324,0.0,-0.0,0.0,0.0,0.0,0.0
1782664895,230723310,-1.6561983267413538,0.12939691543579102,-1.5218094030963343,0.006939989980310202,0.0008392703020945191,0.6744141578674316,0.0,-0.0,0.0,0.0,0.0,0.0
1782664895,238705403,-1.6561625639544886,0.1294088363647461,-1.5218456427203577,0.006880068685859442,0.0008512545027770102,0.6743662357330322,0.0,-0.0,0.0,0.0,0.0,0.0
1782664895,246717553,-1.6561744848834437,0.12937307357788086,-1.5218694845782679,0.006892052944749594,0.0008392703020945191,0.6743901968002319,0.0,-0.0,0.0,0.0,0.0,0.0
1782664895,254810889,-1.6561268011676233,0.12938499450683594,-1.5218694845782679,0.006939989980310202,0.0008392703020945191,0.6744021773338318,0.0,-0.0,0.0,0.0,0.0,0.0
1782664895,262706592,-1.6561983267413538,0.12937307357788086,-1.5218694845782679,0.006916021462529898,0.0008153018425218761,0.6743901968002319,0.0,-0.0,0.0,0.0,0.0,0.0
1782664895,270705260,-1.6561744848834437,0.1294088363647461,-1.5218456427203577,0.006916021462529898,0.0008153018425218761,0.6743782162666321,0.0,-0.0,0.0,0.0,0.0,0.0
