LukePepin/On-Edge/data/archived_logs/deceleration_data_1782666628.csv
timestamp_sec,timestamp_nanosec,shoulder_pan_pos,shoulder_lift_pos,elbow_pos,wrist_1_pos,wrist_2_pos,wrist_3_pos,shoulder_pan_vel,shoulder_lift_vel,elbow_vel,wrist_1_vel,wrist_2_vel,wrist_3_vel
1782666632,135194647,-1.6564863363849085,0.12961292266845703,-1.5218213240252894,0.006880068685859442,0.0007789746159687638,0.674318253993988,0.0,-0.0,0.0,0.0,0.0,0.0
1782666632,143330577,-1.6564863363849085,0.12961292266845703,-1.5218213240252894,0.006880068685859442,0.0007789746159687638,0.674318253993988,0.0,-0.0,0.0,0.0,0.0,0.0
1782666632,151252765,-1.6565106550799769,0.1296243667602539,-1.5218337217914026,0.006892052944749594,0.0007310377550311387,0.6743662357330322,0.0,-0.0,0.0,0.0,0.0,0.0
1782666632,159270157,-1.6565583387957972,0.12956476211547852,-1.5218213240252894,0.00686808442696929,0.0007550062146037817,0.6743062734603882,0.0,-0.0,0.0,0.0,0.0,0.0
1782666632,167319920,-1.6564987341510218,0.1296243667602539,-1.5218575636493128,0.00686808442696929,0.0007669904152862728,0.6743782162666321,0.0,-0.0,0.0,0.0,0.0,0.0
1782666632,175250607,-1.6565702597247522,0.12963628768920898,-1.521881405507223,0.006856100168079138,0.0007310377550311387,0.6743062734603882,0.0,-0.0,0.0,0.0,0.0,0.0
1782666632,183241203,-1.656522576008932,0.12960100173950195,-1.521881405507223,0.006892052944749594,0.0007789746159687638,0.6743302345275879,0.0,-0.0,0.0,0.0,0.0,0.0
1782666632,191257021,-1.6564987341510218,0.12961292266845703,-1.521893326436178,0.006916021462529898,0.0007190534961409867,0.674318253993988,0.0,-0.0,0.0,0.0,0.0,0.0
1782666632,199283135,-1.6564987341510218,0.1296243667602539,-1.5218337217914026,0.006844115909188986,0.0007310377550311387,0.6743302345275879,0.0,-0.0,0.0,0.0,0.0,0.0
1782666632,207264972,-1.656546417866842,0.12966012954711914,-1.521905247365133,0.006904037203639746,0.0007190534961409867,0.6743422150611877,0.0,-0.0,0.0,0.0,0.0,0.0
1782666632,215257697,-1.6564987341510218,0.1296243667602539,-1.5218575636493128,0.006892052944749594,0.0007550062146037817,0.6743302345275879,0.0,-0.0,0.0,0.0,0.0,0.0
1782666632,223249367,-1.6565583387957972,0.12958860397338867,-1.5218575636493128,0.006844115909188986,0.0007550062146037817,0.6743062734603882,0.0,-0.0,0.0,0.0,0.0,0.0
1782666632,231246684,-1.6565106550799769,0.12956476211547852,-1.5218694845782679,0.006856100168079138,0.0007430219557136297,0.6742942929267883,0.0,-0.0,0.0,0.0,0.0,0.0
1782666632,239238447,-1.6564863363849085,0.12963628768920898,-1.521893326436178,0.006796179339289665,0.0007909588748589158,0.6743422150611877,0.0,-0.0,0.0,0.0,0.0,0.0
1782666632,247269469,-1.656522576008932,0.12960100173950195,-1.5218456427203577,0.00686808442696929,0.0007909588748589158,0.674318253993988,0.0,-0.0,0.0,0.0,0.0,0.0
1782666632,255347324,-1.6565106550799769,0.12960100173950195,-1.5218575636493128,0.006820147857069969,0.0007789746159687638,0.6743542551994324,0.0,-0.0,0.0,0.0,0.0,0.0
1782666632,263248919,-1.656534496937887,0.12963628768920898,-1.5218456427203577,0.006880068685859442,0.0007789746159687638,0.6743901968002319,0.0,-0.0,0.0,0.0,0.0,0.0
1782666632,271287663,-1.656522576008932,0.12961292266845703,-1.5218575636493128,0.006832132115960121,0.0007430219557136297,0.6743302345275879,0.0,-0.0,0.0,0.0,0.0,0.0
1782666632,279231444,-1.656534496937887,0.12966012954711914,-1.5218094030963343,0.006856100168079138,0.0007190534961409867,0.6743422150611877,0.0,-0.0,0.0,0.0,0.0,0.0
1782666632,287252595,-1.6564863363849085,0.1296243667602539,-1.5218694845782679,0.00686808442696929,0.0007669904152862728,0.6743782162666321,0.0,-0.0,0.0,0.0,0.0,0.0
1782666632,295235709,-1.6565106550799769,0.12961292266845703,-1.5219295660602015,0.006856100168079138,0.0007550062146037817,0.6743302345275879,0.0,-0.0,0.0,0.0,0.0,0.0
1782666632,384288195,-1.656546417866842,0.12963628768920898,-1.521905247365133,0.006880068685859442,0.0007310377550311387,0.674318253993988,0.0,-0.0,0.0,0.0,0.0,0.0
1782666632,385509482,-1.656546417866842,0.12963628768920898,-1.521905247365133,0.006880068685859442,0.0007310377550311387,0.674318253993988,0.0,-0.0,0.0,0.0,0.0,0.0
1782666632,386343543,-1.656546417866842,0.12963628768920898,-1.521905247365133,0.006880068685859442,0.0007310377550311387,0.674318253993988,0.0,-0.0,0.0,0.0,0.0,0.0
1782666632,387079975,-1.656546417866842,0.12963628768920898,-1.521905247365133,0.006880068685859442,0.0007310377550311387,0.674318253993988,0.0,-0.0,0.0,0.0,0.0,0.0
1782666632,387815517,-1.656546417866842,0.12963628768920898,-1.521905247365133,0.006880068685859442,0.0007310377550311387,0.674318253993988,0.0,-0.0,0.0,0.0,0.0,0.0
1782666632,388477966,-1.656546417866842,0.12963628768920898,-1.521905247365133,0.006880068685859442,0.0007310377550311387,0.674318253993988,0.0,-0.0,0.0,0.0,0.0,0.0
1782666632,389651771,-1.656546417866842,0.12963628768920898,-1.521905247365133,0.006880068685859442,0.0007310377550311387,0.674318253993988,0.0,-0.0,0.0,0.0,0.0,0.0
1782666632,390623445,-1.656546417866842,0.12963628768920898,-1.521905247365133,0.006880068685859442,0.0007310377550311387,0.674318253993988,0.0,-0.0,0.0,0.0,0.0,0.0
1782666632,399235286,-1.656522576008932,0.12958860397338867,-1.5218456427203577,0.006880068685859442,0.0007669904152862728,0.6743422150611877,0.0,-0.0,0.0,0.0,0.0,0.0
1782666632,408009146,-1.656522576008932,0.12958860397338867,-1.521881405507223,0.006856100168079138,0.0007909588748589158,0.6743302345275879,0.0,-0.0,0.0,0.0,0.0,0.0
1782666632,415254700,-1.656546417866842,0.12966012954711914,-1.5218575636493128,0.006808163598179817,0.0007669904152862728,0.6743302345275879,0.0,-0.0,0.0,0.0,0.0,0.0
1782666632,423263943,-1.6564744154559534,0.1296243667602539,-1.5218337217914026,0.00686808442696929,0.0007190534961409867,0.6743062734603882,0.0,-0.0,0.0,0.0,0.0,0.0
1782666632,431746728,-1.6564987341510218,0.1295766830444336,-1.5218694845782679,0.006880068685859442,0.0007430219557136297,0.6743422150611877,0.0,-0.0,0.0,0.0,0.0,0.0
1782666632,439445655,-1.6564863363849085,0.12964820861816406,-1.5218456427203577,0.00686808442696929,0.0007669904152862728,0.6743062734603882,0.0,-0.0,0.0,0.0,0.0,0.0
1782666632,447263712,-1.656522576008932,0.12958860397338867,-1.521881405507223,0.006844115909188986,0.0007909588748589158,0.6743302345275879,0.0,-0.0,0.0,0.0,0.0,0.0
1782666632,455249715,-1.6564987341510218,0.12960100173950195,-1.521893326436178,0.006844115909188986,0.0007310377550311387,0.6743422150611877,0.0,-0.0,0.0,0.0,0.0,0.0
1782666632,463285274,-1.6564863363849085,0.12960100173950195,-1.521893326436178,0.006856100168079138,0.0007789746159687638,0.6743542551994324,0.0,-0.0,0.0,0.0,0.0,0.0
1782666632,471522501,-1.656534496937887,0.12958860397338867,-1.5218575636493128,0.006844115909188986,0.0007550062146037817,0.6743422150611877,0.0,-0.0,0.0,0.0,0.0,0.0
1782666632,479257520,-1.656522576008932,0.1296243667602539,-1.5218575636493128,0.006856100168079138,0.0007310377550311387,0.6743542551994324,0.0,-0.0,0.0,0.0,0.0,0.0
1782666632,487239931,-1.6564624945269983,0.1296243667602539,-1.5218575636493128,0.006892052944749594,0.0007190534961409867,0.6743782162666321,0.0,-0.0,0.0,0.0,0.0,0.0
1782666632,495240508,-1.6564863363849085,0.12961292266845703,-1.5218694845782679,0.006832132115960121,0.0007190534961409867,0.6743062734603882,0.0,-0.0,0.0,0.0,0.0,0.0
1782666632,503246733,-1.656534496937887,0.12960100173950195,-1.521881405507223,0.00686808442696929,0.0007310377550311387,0.6743422150611877,0.0,-0.0,0.0,0.0,0.0,0.0
1782666632,511284107,-1.656534496937887,0.12960100173950195,-1.521881405507223,0.00686808442696929,0.0007310377550311387,0.6743422150611877,0.0,-0.0,0.0,0.0,0.0,0.0
1782666632,519253295,-1.6565106550799769,0.12956476211547852,-1.521881405507223,0.006844115909188986,0.0007909588748589158,0.674318253993988,0.0,-0.0,0.0,0.0,0.0,0.0
1782666632,527259354,-1.656546417866842,0.12960100173950195,-1.5218337217914026,0.00686808442696929,0.0007310377550311387,0.6743062734603882,0.0,-0.0,0.0,0.0,0.0,0.0
1782666632,535229134,-1.656522576008932,0.12963628768920898,-1.5218213240252894,0.006844115909188986,0.0007190534961409867,0.6742942929267883,0.0,-0.0,0.0,0.0,0.0,0.0
1782666632,543259823,-1.656546417866842,0.12958860397338867,-1.5218456427203577,0.006856100168079138,0.0007430219557136297,0.6743542551994324,0.0,-0.0,0.0,0.0,0.0,0.0
1782666632,551396031,-1.656522576008932,0.1296243667602539,-1.5218575636493128,0.006844115909188986,0.0007310377550311387,0.6743542551994324,0.0,-0.0,0.0,0.0,0.0,0.0
1782666632,559273385,-1.6564987341510218,0.12960100173950195,-1.5218456427203577,0.006844115909188986,0.0007550062146037817,0.6743062734603882,0.0,-0.0,0.0,0.0,0.0,0.0
1782666632,567412852,-1.6564987341510218,0.12963628768920898,-1.5218213240252894,0.006880068685859442,0.0007430219557136297,0.6743302345275879,0.0,-0.0,0.0,0.0,0.0,0.0
1782666632,575246168,-1.6565106550799769,0.12963628768920898,-1.521893326436178,0.00686808442696929,0.0007430219557136297,0.6743302345275879,0.0,-0.0,0.0,0.0,0.0,0.0
1782666632,584000140,-1.6564863363849085,0.12963628768920898,-1.5218456427203577,0.006856100168079138,0.0007310377550311387,0.6743782162666321,0.0,-0.0,0.0,0.0,0.0,0.0
1782666632,600190610,-1.656546417866842,0.1296243667602539,-1.5218337217914026,0.006856100168079138,0.0007430219557136297,0.6743302345275879,0.0,-0.0,0.0,0.0,0.0,0.0
1782666632,602530016,-1.656546417866842,0.1296243667602539,-1.5218337217914026,0.006856100168079138,0.0007430219557136297,0.6743302345275879,0.0,-0.0,0.0,0.0,0.0,0.0
1782666632,607468682,-1.656522576008932,0.1295766830444336,-1.521881405507223,0.006856100168079138,0.0007909588748589158,0.6743422150611877,0.0,-0.0,0.0,0.0,0.0,0.0
1782666632,631410432,-1.6564744154559534,0.12963628768920898,-1.5218694845782679,0.006832132115960121,0.0007430219557136297,0.6743422150611877,0.0,-0.0,0.0,0.0,0.0,0.0
1782666632,639362694,-1.6564987341510218,0.12958860397338867,-1.5218694845782679,0.006832132115960121,0.0007430219557136297,0.6743302345275879,0.0,-0.0,0.0,0.0,0.0,0.0
1782666632,647411308,-1.656522576008932,0.1295766830444336,-1.521893326436178,0.00686808442696929,0.0007550062146037817,0.6743662357330322,0.0,-0.0,0.0,0.0,0.0,0.0
1782666632,655240125,-1.656534496937887,0.12963628768920898,-1.5218575636493128,0.006904037203639746,0.0007789746159687638,0.6743662357330322,0.0,-0.0,0.0,0.0,0.0,0.0
1782666632,663434555,-1.656522576008932,0.12961292266845703,-1.521893326436178,0.006856100168079138,0.0007310377550311387,0.6743302345275879,0.0,-0.0,0.0,0.0,0.0,0.0
1782666632,671387539,-1.656522576008932,0.12960100173950195,-1.5218456427203577,0.006832132115960121,0.0007789746159687638,0.6743422150611877,0.0,-0.0,0.0,0.0,0.0,0.0
1782666632,679245597,-1.6564744154559534,0.12963628768920898,-1.5218456427203577,0.00686808442696929,0.0007550062146037817,0.6743302345275879,0.0,-0.0,0.0,0.0,0.0,0.0
1782666632,687343008,-1.6564863363849085,0.12960100173950195,-1.5218694845782679,0.006916021462529898,0.0007190534961409867,0.674318253993988,0.0,-0.0,0.0,0.0,0.0,0.0
1782666632,695572624,-1.656522576008932,0.12963628768920898,-1.5218694845782679,0.006856100168079138,0.0007789746159687638,0.6743302345275879,0.0,-0.0,0.0,0.0,0.0,0.0
1782666632,703323255,-1.656522576008932,0.12963628768920898,-1.5218694845782679,0.006856100168079138,0.0007789746159687638,0.6743302345275879,0.0,-0.0,0.0,0.0,0.0,0.0
1782666632,719249483,-1.656534496937887,0.1296243667602539,-1.5218456427203577,0.006880068685859442,0.0007310377550311387,0.6743422150611877,0.0,-0.0,0.0,0.0,0.0,0.0
1782666632,727256078,-1.6565583387957972,0.1296243667602539,-1.5218575636493128,0.006844115909188986,0.0007550062146037817,0.6743422150611877,0.0,-0.0,0.0,0.0,0.0,0.0
1782666632,735224581,-1.656546417866842,0.12963628768920898,-1.5218456427203577,0.006820147857069969,0.0007550062146037817,0.6742942929267883,0.0,-0.0,0.0,0.0,0.0,0.0
1782666632,743260807,-1.656546417866842,0.1296243667602539,-1.5218575636493128,0.006892052944749594,0.0007310377550311387,0.6743782162666321,0.0,-0.0,0.0,0.0,0.0,0.0
1782666632,751343199,-1.656534496937887,0.1296243667602539,-1.5218694845782679,0.006892052944749594,0.0006950850365683436,0.6743422150611877,0.0,-0.0,0.0,0.0,0.0,0.0
1782666632,759388258,-1.656534496937887,0.1296243667602539,-1.5218694845782679,0.006892052944749594,0.0006950850365683436,0.6743422150611877,0.0,-0.0,0.0,0.0,0.0,0.0
1782666632,767250260,-1.656546417866842,0.12956476211547852,-1.5218575636493128,0.006856100168079138,0.0007789746159687638,0.6743422150611877,0.0,-0.0,0.0,0.0,0.0,0.0
1782666632,775335060,-1.656534496937887,0.12961292266845703,-1.5218337217914026,0.006832132115960121,0.0007789746159687638,0.6743422150611877,0.0,-0.0,0.0,0.0,0.0,0.0
1782666632,783249026,-1.6564863363849085,0.1296243667602539,-1.521881405507223,0.006892052944749594,0.0007310377550311387,0.6743542551994324,0.0,-0.0,0.0,0.0,0.0,0.0
1782666632,791247677,-1.656522576008932,0.12960100173950195,-1.5218575636493128,0.00686808442696929,0.0007789746159687638,0.6743542551994324,0.0,-0.0,0.0,0.0,0.0,0.0
1782666632,799251199,-1.6564987341510218,0.1296243667602539,-1.5219176451312464,0.006832132115960121,0.0007550062146037817,0.6743062734603882,0.0,-0.0,0.0,0.0,0.0,0.0
1782666632,807241146,-1.656522576008932,0.12958860397338867,-1.521881405507223,0.00686808442696929,0.0007550062146037817,0.6743542551994324,0.0,-0.0,0.0,0.0,0.0,0.0
1782666632,815281261,-1.656534496937887,0.12960100173950195,-1.5218575636493128,0.006796179339289665,0.0007430219557136297,0.674318253993988,0.0,-0.0,0.0,0.0,0.0,0.0
1782666632,823232393,-1.656522576008932,0.12964820861816406,-1.5218575636493128,0.006880068685859442,0.0007909588748589158,0.674318253993988,0.0,-0.0,0.0,0.0,0.0,0.0
1782666632,831213544,-1.656546417866842,0.12960100173950195,-1.521893326436178,0.006844115909188986,0.0007789746159687638,0.6743302345275879,0.0,-0.0,0.0,0.0,0.0,0.0
1782666632,839404604,-1.6565583387957972,0.1295766830444336,-1.5218337217914026,0.006892052944749594,0.0007550062146037817,0.6743662357330322,0.0,-0.0,0.0,0.0,0.0,0.0
1782666632,847351366,-1.6564987341510218,0.12960100173950195,-1.5218456427203577,0.006844115909188986,0.0007550062146037817,0.6743302345275879,0.0,-0.0,0.0,0.0,0.0,0.0
1782666632,855252146,-1.656546417866842,0.1296243667602539,-1.5218575636493128,0.006880068685859442,0.0007190534961409867,0.6743302345275879,0.0,-0.0,0.0,0.0,0.0,0.0
1782666632,863258242,-1.656546417866842,0.12964820861816406,-1.521893326436178,0.006820147857069969,0.0007550062146037817,0.6743062734603882,0.0,-0.0,0.0,0.0,0.0,0.0
1782666632,871320893,-1.656546417866842,0.12964820861816406,-1.521893326436178,0.006820147857069969,0.0007550062146037817,0.6743062734603882,0.0,-0.0,0.0,0.0,0.0,0.0
1782666632,887250566,-1.6565702597247522,0.12961292266845703,-1.521905247365133,0.006844115909188986,0.0007190534961409867,0.6743302345275879,0.0,-0.0,0.0,0.0,0.0,0.0
1782666632,895247939,-1.656534496937887,0.1296243667602539,-1.5218575636493128,0.006904037203639746,0.0007669904152862728,0.6743542551994324,0.0,-0.0,0.0,0.0,0.0,0.0
1782666632,903252627,-1.656522576008932,0.12963628768920898,-1.5218213240252894,0.006856100168079138,0.0007789746159687638,0.6743302345275879,0.0,-0.0,0.0,0.0,0.0,0.0
1782666632,911250834,-1.6564744154559534,0.1296243667602539,-1.5218456427203577,0.006892052944749594,0.0007070692954584956,0.6743302345275879,0.0,-0.0,0.0,0.0,0.0,0.0
1782666632,919244430,-1.6565106550799769,0.12961292266845703,-1.5218694845782679,0.006844115909188986,0.0007669904152862728,0.6743062734603882,0.0,-0.0,0.0,0.0,0.0,0.0
1782666632,927415971,-1.6565106550799769,0.12961292266845703,-1.5218694845782679,0.006844115909188986,0.0007669904152862728,0.6743062734603882,0.0,-0.0,0.0,0.0,0.0,0.0
1782666632,943255865,-1.656534496937887,0.12963628768920898,-1.5219176451312464,0.006820147857069969,0.0007310377550311387,0.6743662357330322,0.0,-0.0,0.0,0.0,0.0,0.0
1782666632,951240386,-1.656534496937887,0.12958860397338867,-1.5218456427203577,0.006892052944749594,0.0007550062146037817,0.6743542551994324,0.0,-0.0,0.0,0.0,0.0,0.0
1782666632,959237945,-1.656522576008932,0.1296243667602539,-1.521893326436178,0.006820147857069969,0.0007669904152862728,0.6743662357330322,0.0,-0.0,0.0,0.0,0.0,0.0
1782666632,967281115,-1.656546417866842,0.1296243667602539,-1.5218337217914026,0.006904037203639746,0.0007550062146037817,0.6742942929267883,0.0,-0.0,0.0,0.0,0.0,0.0
1782666632,975245099,-1.6564744154559534,0.12958860397338867,-1.5218694845782679,0.006856100168079138,0.0007430219557136297,0.6743422150611877,0.0,-0.0,0.0,0.0,0.0,0.0
1782666632,983334511,-1.6564744154559534,0.12958860397338867,-1.5218694845782679,0.006856100168079138,0.0007430219557136297,0.6743422150611877,0.0,-0.0,0.0,0.0,0.0,0.0
1782666632,991243217,-1.656534496937887,0.1296243667602539,-1.5218575636493128,0.006844115909188986,0.0007430219557136297,0.6743542551994324,0.0,-0.0,0.0,0.0,0.0,0.0
1782666632,999242609,-1.656522576008932,0.1296243667602539,-1.5218694845782679,0.006856100168079138,0.0007909588748589158,0.6743662357330322,0.0,-0.0,0.0,0.0,0.0,0.0
1782666633,7251241,-1.656522576008932,0.12963628768920898,-1.5218337217914026,0.006892052944749594,0.0007669904152862728,0.6743302345275879,0.0,-0.0,0.0,0.0,0.0,0.0
1782666633,15246689,-1.6564987341510218,0.12958860397338867,-1.5218456427203577,0.006892052944749594,0.0007310377550311387,0.6743302345275879,0.0,-0.0,0.0,0.0,0.0,0.0
1782666633,23239525,-1.656522576008932,0.1295766830444336,-1.5218575636493128,0.006832132115960121,0.0007669904152862728,0.6743542551994324,0.0,-0.0,0.0,0.0,0.0,0.0
1782666633,31246584,-1.6565702597247522,0.12963628768920898,-1.5218575636493128,0.00686808442696929,0.0007909588748589158,0.6743422150611877,0.0,-0.0,0.0,0.0,0.0,0.0
1782666633,39284198,-1.6564863363849085,0.12961292266845703,-1.5219295660602015,0.006880068685859442,0.0007430219557136297,0.6743422150611877,0.0,-0.0,0.0,0.0,0.0,0.0
1782666633,47329628,-1.6564987341510218,0.12960100173950195,-1.5218456427203577,0.00686808442696929,0.0007550062146037817,0.6743062734603882,0.0,-0.0,0.0,0.0,0.0,0.0
1782666633,55263704,-1.6564505735980433,0.12963628768920898,-1.5218456427203577,0.006856100168079138,0.0007310377550311387,0.674318253993988,0.0,-0.0,0.0,0.0,0.0,0.0
1782666633,63325245,-1.656522576008932,0.12960100173950195,-1.5218337217914026,0.006820147857069969,0.0007310377550311387,0.6744021773338318,0.0,-0.0,0.0,0.0,0.0,0.0
1782666633,71249266,-1.6564987341510218,0.12964820861816406,-1.5218694845782679,0.006856100168079138,0.0007669904152862728,0.6743422150611877,0.0,-0.0,0.0,0.0,0.0,0.0
1782666633,79234288,-1.6564987341510218,0.12963628768920898,-1.521881405507223,0.00686808442696929,0.0007550062146037817,0.6743782162666321,0.0,-0.0,0.0,0.0,0.0,0.0
1782666633,88891118,-1.656522576008932,0.12960100173950195,-1.5219176451312464,0.00686808442696929,0.0007430219557136297,0.6743662357330322,0.0,-0.0,0.0,0.0,0.0,0.0
1782666633,95247331,-1.6564987341510218,0.12958860397338867,-1.5218694845782679,0.006844115909188986,0.0007550062146037817,0.6743542551994324,0.0,-0.0,0.0,0.0,0.0,0.0
1782666633,103240130,-1.656534496937887,0.12958860397338867,-1.5218337217914026,0.006856100168079138,0.0007310377550311387,0.674318253993988,0.0,-0.0,0.0,0.0,0.0,0.0
1782666633,111244744,-1.6565583387957972,0.12958860397338867,-1.5218456427203577,0.006892052944749594,0.0007550062146037817,0.6743062734603882,0.0,-0.0,0.0,0.0,0.0,0.0
1782666633,119250470,-1.6565583387957972,0.12961292266845703,-1.5218337217914026,0.006892052944749594,0.0007789746159687638,0.6744021773338318,0.0,-0.0,0.0,0.0,0.0,0.0
1782666633,127883015,-1.656546417866842,0.1295766830444336,-1.521881405507223,0.006844115909188986,0.0008033175836317241,0.674318253993988,0.0,-0.0,0.0,0.0,0.0,0.0
1782666633,135838591,-1.6565106550799769,0.1296844482421875,-1.521881405507223,0.006880068685859442,0.0007909588748589158,0.6743662357330322,0.0,-0.0,0.0,0.0,0.0,0.0
1782666633,143253498,-1.656522576008932,0.12961292266845703,-1.5218694845782679,0.00686808442696929,0.0007789746159687638,0.6743662357330322,0.0,-0.0,0.0,0.0,0.0,0.0
1782666633,151246056,-1.656534496937887,0.12963628768920898,-1.5218456427203577,0.006880068685859442,0.0007070692954584956,0.6743302345275879,0.0,-0.0,0.0,0.0,0.0,0.0
1782666633,159267189,-1.656546417866842,0.12960100173950195,-1.521881405507223,0.006844115909188986,0.0007669904152862728,0.674318253993988,0.0,-0.0,0.0,0.0,0.0,0.0
1782666633,167247359,-1.656522576008932,0.12961292266845703,-1.5218337217914026,0.006880068685859442,0.0007789746159687638,0.6743302345275879,0.0,-0.0,0.0,0.0,0.0,0.0
1782666633,175610364,-1.6565702597247522,0.12958860397338867,-1.521893326436178,0.006832132115960121,0.0007310377550311387,0.6743782162666321,0.0,-0.0,0.0,0.0,0.0,0.0
1782666633,183249180,-1.6565702597247522,0.12960100173950195,-1.5218575636493128,0.006856100168079138,0.0007190534961409867,0.6743302345275879,0.0,-0.0,0.0,0.0,0.0,0.0
1782666633,191245738,-1.6564987341510218,0.1296243667602539,-1.521893326436178,0.00686808442696929,0.0007789746159687638,0.6742942929267883,0.0,-0.0,0.0,0.0,0.0,0.0
1782666633,199251464,-1.6564863363849085,0.12960100173950195,-1.5218694845782679,0.00686808442696929,0.0007190534961409867,0.6743542551994324,0.0,-0.0,0.0,0.0,0.0,0.0
1782666633,215641732,-1.6564744154559534,0.12960100173950195,-1.521905247365133,0.00686808442696929,0.0007310377550311387,0.6743542551994324,0.0,-0.0,0.0,0.0,0.0,0.0
1782666633,216432793,-1.6564744154559534,0.12960100173950195,-1.521905247365133,0.00686808442696929,0.0007310377550311387,0.6743542551994324,0.0,-0.0,0.0,0.0,0.0,0.0
1782666633,223323140,-1.6565702597247522,0.12960100173950195,-1.5218694845782679,0.006856100168079138,0.0007190534961409867,0.6743422150611877,0.0,-0.0,0.0,0.0,0.0,0.0
1782666633,231253513,-1.656522576008932,0.12960100173950195,-1.5218456427203577,0.006844115909188986,0.0007310377550311387,0.6743542551994324,0.0,-0.0,0.0,0.0,0.0,0.0
1782666633,239236109,-1.6564987341510218,0.1295766830444336,-1.521881405507223,0.006844115909188986,0.0007070692954584956,0.6743422150611877,0.0,-0.0,0.0,0.0,0.0,0.0
1782666633,247325335,-1.656534496937887,0.12967252731323242,-1.5218694845782679,0.006832132115960121,0.0007669904152862728,0.674318253993988,0.0,-0.0,0.0,0.0,0.0,0.0
1782666633,255285949,-1.656546417866842,0.12961292266845703,-1.5218456427203577,0.006856100168079138,0.0007789746159687638,0.6743662357330322,0.0,-0.0,0.0,0.0,0.0,0.0
1782666633,272058034,-1.6565583387957972,0.1296243667602539,-1.5218213240252894,0.006856100168079138,0.0007190534961409867,0.6743302345275879,0.0,-0.0,0.0,0.0,0.0,0.0
1782666633,272997301,-1.6565583387957972,0.1296243667602539,-1.5218213240252894,0.006856100168079138,0.0007190534961409867,0.6743302345275879,0.0,-0.0,0.0,0.0,0.0,0.0
1782666633,279331606,-1.6564744154559534,0.1295766830444336,-1.5218694845782679,0.00686808442696929,0.0007310377550311387,0.6743542551994324,0.0,-0.0,0.0,0.0,0.0,0.0
1782666633,287256276,-1.6565106550799769,0.12963628768920898,-1.521893326436178,0.006880068685859442,0.0007789746159687638,0.6742942929267883,0.0,-0.0,0.0,0.0,0.0,0.0
1782666633,295243519,-1.656534496937887,0.1296243667602539,-1.521881405507223,0.006904037203639746,0.0007669904152862728,0.6743062734603882,0.0,-0.0,0.0,0.0,0.0,0.0
1782666633,303252504,-1.6564987341510218,0.1296243667602539,-1.5218337217914026,0.006856100168079138,0.0007550062146037817,0.6743422150611877,0.0,-0.0,0.0,0.0,0.0,0.0
1782666633,311251988,-1.6565702597247522,0.1296243667602539,-1.5218213240252894,0.006892052944749594,0.0007789746159687638,0.6743782162666321,0.0,-0.0,0.0,0.0,0.0,0.0
1782666633,319247862,-1.656534496937887,0.12964820861816406,-1.5218694845782679,0.006880068685859442,0.0007310377550311387,0.6743542551994324,0.0,-0.0,0.0,0.0,0.0,0.0
1782666633,327312865,-1.6564987341510218,0.12961292266845703,-1.5218694845782679,0.006892052944749594,0.0007550062146037817,0.6743422150611877,0.0,-0.0,0.0,0.0,0.0,0.0
1782666633,338302779,-1.6564987341510218,0.1296243667602539,-1.521881405507223,0.006880068685859442,0.0007310377550311387,0.6743422150611877,0.0,-0.0,0.0,0.0,0.0,0.0
1782666633,345994243,-1.656534496937887,0.12961292266845703,-1.5218337217914026,0.00686808442696929,0.0007070692954584956,0.6743302345275879,0.0,-0.0,0.0,0.0,0.0,0.0
1782666633,351286838,-1.656534496937887,0.1295766830444336,-1.5218575636493128,0.006832132115960121,0.0007430219557136297,0.674318253993988,0.0,-0.0,0.0,0.0,0.0,0.0
1782666633,359242100,-1.656522576008932,0.12958860397338867,-1.5218337217914026,0.006832132115960121,0.0007430219557136297,0.6742942929267883,0.0,-0.0,0.0,0.0,0.0,0.0
1782666633,367236195,-1.656522576008932,0.1296243667602539,-1.5218575636493128,0.006844115909188986,0.0007430219557136297,0.6743302345275879,0.0,-0.0,0.0,0.0,0.0,0.0
1782666633,382248046,-1.656522576008932,0.12966012954711914,-1.5218575636493128,0.006844115909188986,0.0007550062146037817,0.6743542551994324,0.0,-0.0,0.0,0.0,0.0,0.0
1782666633,385533885,-1.6565106550799769,0.12961292266845703,-1.5218575636493128,0.006892052944749594,0.0007430219557136297,0.6743302345275879,0.0,-0.0,0.0,0.0,0.0,0.0
1782666633,391227408,-1.656534496937887,0.12960100173950195,-1.521881405507223,0.006880068685859442,0.0007310377550311387,0.6743782162666321,0.0,-0.0,0.0,0.0,0.0,0.0
1782666633,399413042,-1.656522576008932,0.12956476211547852,-1.5218337217914026,0.006880068685859442,0.0007310377550311387,0.6743302345275879,0.0,-0.0,0.0,0.0,0.0,0.0
1782666633,407255081,-1.656546417866842,0.12963628768920898,-1.5218213240252894,0.00686808442696929,0.0007430219557136297,0.674318253993988,0.0,-0.0,0.0,0.0,0.0,0.0
1782666633,415522920,-1.6564987341510218,0.1296243667602539,-1.521881405507223,0.006892052944749594,0.0006950850365683436,0.6742942929267883,0.0,-0.0,0.0,0.0,0.0,0.0
1782666633,423988926,-1.656534496937887,0.12963628768920898,-1.521881405507223,0.00686808442696929,0.0007310377550311387,0.6743662357330322,0.0,-0.0,0.0,0.0,0.0,0.0
1782666633,432609378,-1.656522576008932,0.12963628768920898,-1.521881405507223,0.006856100168079138,0.0007310377550311387,0.674318253993988,0.0,-0.0,0.0,0.0,0.0,0.0
1782666633,458546198,-1.6564863363849085,0.1296243667602539,-1.5218337217914026,0.006880068685859442,0.0007310377550311387,0.6743302345275879,0.0,-0.0,0.0,0.0,0.0,0.0
1782666633,463337826,-1.656522576008932,0.12960100173950195,-1.5218456427203577,0.006856100168079138,0.0007669904152862728,0.6743302345275879,0.0,-0.0,0.0,0.0,0.0,0.0
1782666633,471244532,-1.6564863363849085,0.12961292266845703,-1.5218456427203577,0.006832132115960121,0.0007669904152862728,0.6743542551994324,0.0,-0.0,0.0,0.0,0.0,0.0
1782666633,479262368,-1.656534496937887,0.1295766830444336,-1.521881405507223,0.006844115909188986,0.0007550062146037817,0.6743782162666321,0.0,-0.0,0.0,0.0,0.0,0.0
1782666633,487263612,-1.6564987341510218,0.1296243667602539,-1.5218337217914026,0.006832132115960121,0.0007550062146037817,0.674318253993988,0.0,-0.0,0.0,0.0,0.0,0.0
1782666633,495238541,-1.656546417866842,0.1296243667602539,-1.521881405507223,0.006856100168079138,0.0008033175836317241,0.6743662357330322,0.0,-0.0,0.0,0.0,0.0,0.0
1782666633,503248581,-1.6564863363849085,0.12964820861816406,-1.5218694845782679,0.006832132115960121,0.0007550062146037817,0.674318253993988,0.0,-0.0,0.0,0.0,0.0,0.0
1782666633,511243973,-1.656522576008932,0.12960100173950195,-1.521881405507223,0.006856100168079138,0.0007310377550311387,0.6743422150611877,0.0,-0.0,0.0,0.0,0.0,0.0
1782666633,519247550,-1.656534496937887,0.12961292266845703,-1.5218694845782679,0.006904037203639746,0.0007550062146037817,0.674318253993988,0.0,-0.0,0.0,0.0,0.0,0.0
1782666633,527259479,-1.6565106550799769,0.12960100173950195,-1.5218337217914026,0.00686808442696929,0.0007310377550311387,0.6743542551994324,0.0,-0.0,0.0,0.0,0.0,0.0
1782666633,535379724,-1.6565702597247522,0.1296243667602539,-1.521893326436178,0.006880068685859442,0.0007550062146037817,0.6743422150611877,0.0,-0.0,0.0,0.0,0.0,0.0
1782666633,543258282,-1.6564863363849085,0.12956476211547852,-1.5218575636493128,0.006856100168079138,0.0007190534961409867,0.6743302345275879,0.0,-0.0,0.0,0.0,0.0,0.0
1782666633,551284007,-1.6565583387957972,0.12964820861816406,-1.5219295660602015,0.006844115909188986,0.0007909588748589158,0.6743422150611877,0.0,-0.0,0.0,0.0,0.0,0.0
1782666633,559243399,-1.656534496937887,0.12966012954711914,-1.5218694845782679,0.006904037203639746,0.0007430219557136297,0.6743062734603882,0.0,-0.0,0.0,0.0,0.0,0.0
1782666633,568835377,-1.656546417866842,0.1295766830444336,-1.5218456427203577,0.00686808442696929,0.0007550062146037817,0.6742823123931885,0.0,-0.0,0.0,0.0,0.0,0.0
1782666633,575258109,-1.656546417866842,0.12961292266845703,-1.5218575636493128,0.006856100168079138,0.0007310377550311387,0.6743302345275879,0.0,-0.0,0.0,0.0,0.0,0.0
1782666633,583396261,-1.656522576008932,0.1296243667602539,-1.5218575636493128,0.006916021462529898,0.0007310377550311387,0.6743422150611877,0.0,-0.0,0.0,0.0,0.0,0.0
1782666633,591389487,-1.6564987341510218,0.1296243667602539,-1.521881405507223,0.006880068685859442,0.0007789746159687638,0.6743422150611877,0.0,-0.0,0.0,0.0,0.0,0.0
1782666633,605784203,-1.656546417866842,0.12960100173950195,-1.521881405507223,0.006892052944749594,0.0006950850365683436,0.6743302345275879,0.0,-0.0,0.0,0.0,0.0,0.0
1782666633,607397437,-1.656546417866842,0.12961292266845703,-1.5218456427203577,0.00686808442696929,0.0007669904152862728,0.6743422150611877,0.0,-0.0,0.0,0.0,0.0,0.0
1782666633,615243124,-1.6564987341510218,0.12966012954711914,-1.5218694845782679,0.006856100168079138,0.0007789746159687638,0.6743662357330322,0.0,-0.0,0.0,0.0,0.0,0.0
1782666633,623250998,-1.656546417866842,0.12960100173950195,-1.521905247365133,0.006880068685859442,0.0007310377550311387,0.6742823123931885,0.0,-0.0,0.0,0.0,0.0,0.0
1782666633,631241482,-1.656534496937887,0.12960100173950195,-1.5218456427203577,0.006880068685859442,0.0007430219557136297,0.6743542551994324,0.0,-0.0,0.0,0.0,0.0,0.0
1782666633,639227911,-1.6565106550799769,0.12961292266845703,-1.5218575636493128,0.006832132115960121,0.0007669904152862728,0.6743302345275879,0.0,-0.0,0.0,0.0,0.0,0.0
1782666633,647251007,-1.6565583387957972,0.12960100173950195,-1.5218694845782679,0.006916021462529898,0.0007550062146037817,0.6743542551994324,0.0,-0.0,0.0,0.0,0.0,0.0
1782666633,661186461,-1.656534496937887,0.12960100173950195,-1.5218694845782679,0.00686808442696929,0.0007310377550311387,0.6743901968002319,0.0,-0.0,0.0,0.0,0.0,0.0
1782666633,671258850,-1.656522576008932,0.12961292266845703,-1.5218575636493128,0.006844115909188986,0.0007789746159687638,0.674318253993988,0.0,-0.0,0.0,0.0,0.0,0.0
1782666633,679250816,-1.656534496937887,0.12960100173950195,-1.5218575636493128,0.006856100168079138,0.0007310377550311387,0.6743662357330322,0.0,-0.0,0.0,0.0,0.0,0.0
1782666633,687412227,-1.6565106550799769,0.12961292266845703,-1.5218575636493128,0.006892052944749594,0.0007909588748589158,0.6743302345275879,0.0,-0.0,0.0,0.0,0.0,0.0
1782666633,695238285,-1.656534496937887,0.12961292266845703,-1.521893326436178,0.006880068685859442,0.0007430219557136297,0.6743302345275879,0.0,-0.0,0.0,0.0,0.0,0.0
1782666633,703237232,-1.6565702597247522,0.12966012954711914,-1.5218694845782679,0.00686808442696929,0.0007550062146037817,0.6743422150611877,0.0,-0.0,0.0,0.0,0.0,0.0
1782666633,711432348,-1.656534496937887,0.1295766830444336,-1.521881405507223,0.00686808442696929,0.0007909588748589158,0.6743662357330322,0.0,-0.0,0.0,0.0,0.0,0.0
1782666633,719431092,-1.6565583387957972,0.12961292266845703,-1.521893326436178,0.006856100168079138,0.0007669904152862728,0.6743782162666321,0.0,-0.0,0.0,0.0,0.0,0.0
1782666633,727244371,-1.6564987341510218,0.12963628768920898,-1.521905247365133,0.006892052944749594,0.0007669904152862728,0.6743542551994324,0.0,-0.0,0.0,0.0,0.0,0.0
1782666633,735342412,-1.6564624945269983,0.12958860397338867,-1.521893326436178,0.006832132115960121,0.0007789746159687638,0.6743542551994324,0.0,-0.0,0.0,0.0,0.0,0.0
1782666633,743414527,-1.656546417866842,0.12964820861816406,-1.5218694845782679,0.006820147857069969,0.0007909588748589158,0.674318253993988,0.0,-0.0,0.0,0.0,0.0,0.0
1782666633,751238584,-1.656522576008932,0.12963628768920898,-1.5218575636493128,0.006880068685859442,0.0007310377550311387,0.6743422150611877,0.0,-0.0,0.0,0.0,0.0,0.0
1782666633,759356736,-1.656522576008932,0.1296243667602539,-1.521881405507223,0.006844115909188986,0.0007550062146037817,0.6743302345275879,0.0,-0.0,0.0,0.0,0.0,0.0
1782666633,767278850,-1.6564987341510218,0.12960100173950195,-1.5218694845782679,0.006856100168079138,0.0007430219557136297,0.6743542551994324,0.0,-0.0,0.0,0.0,0.0,0.0
1782666633,775433336,-1.656522576008932,0.1296243667602539,-1.521881405507223,0.006856100168079138,0.0007310377550311387,0.6743782162666321,0.0,-0.0,0.0,0.0,0.0,0.0
1782666633,783281097,-1.6564744154559534,0.12963628768920898,-1.5218456427203577,0.006844115909188986,0.0007789746159687638,0.6743302345275879,0.0,-0.0,0.0,0.0,0.0,0.0
1782666633,791579639,-1.6565702597247522,0.12963628768920898,-1.5218456427203577,0.006844115909188986,0.0007310377550311387,0.674318253993988,0.0,-0.0,0.0,0.0,0.0,0.0
1782666633,799569531,-1.6564987341510218,0.12963628768920898,-1.521893326436178,0.00686808442696929,0.0007550062146037817,0.6743542551994324,0.0,-0.0,0.0,0.0,0.0,0.0
1782666633,807260236,-1.6565106550799769,0.12963628768920898,-1.5218694845782679,0.00692800572142005,0.0007310377550311387,0.6743422150611877,0.0,-0.0,0.0,0.0,0.0,0.0
1782666633,815246461,-1.6564744154559534,0.1296243667602539,-1.521893326436178,0.00686808442696929,0.0007669904152862728,0.6743062734603882,0.0,-0.0,0.0,0.0,0.0,0.0
1782666633,823247334,-1.656546417866842,0.12963628768920898,-1.5218337217914026,0.006880068685859442,0.0007190534961409867,0.6743302345275879,0.0,-0.0,0.0,0.0,0.0,0.0
1782666633,831450043,-1.6565702597247522,0.12960100173950195,-1.521893326436178,0.006844115909188986,0.0007669904152862728,0.6743302345275879,0.0,-0.0,0.0,0.0,0.0,0.0
1782666633,839227544,-1.656522576008932,0.12963628768920898,-1.521881405507223,0.006880068685859442,0.0007669904152862728,0.6743542551994324,0.0,-0.0,0.0,0.0,0.0,0.0
1782666633,847215714,-1.656534496937887,0.12960100173950195,-1.5218456427203577,0.006856100168079138,0.0007669904152862728,0.6743542551994324,0.0,-0.0,0.0,0.0,0.0,0.0
1782666633,855230606,-1.6564987341510218,0.1296243667602539,-1.5218694845782679,0.006880068685859442,0.0007430219557136297,0.6743542551994324,0.0,-0.0,0.0,0.0,0.0,0.0
1782666633,863402777,-1.6565106550799769,0.12960100173950195,-1.5218456427203577,0.006904037203639746,0.0007310377550311387,0.674318253993988,0.0,-0.0,0.0,0.0,0.0,0.0
1782666633,871238853,-1.6565106550799769,0.12958860397338867,-1.521881405507223,0.006844115909188986,0.0007190534961409867,0.674318253993988,0.0,-0.0,0.0,0.0,0.0,0.0
1782666633,879333301,-1.6564744154559534,0.12958860397338867,-1.521881405507223,0.006832132115960121,0.0007550062146037817,0.6743542551994324,0.0,-0.0,0.0,0.0,0.0,0.0
1782666633,887266174,-1.6565106550799769,0.12964820861816406,-1.521893326436178,0.006844115909188986,0.0007550062146037817,0.674318253993988,0.0,-0.0,0.0,0.0,0.0,0.0
1782666633,895410345,-1.656522576008932,0.1296243667602539,-1.5218694845782679,0.006844115909188986,0.0007550062146037817,0.6743542551994324,0.0,-0.0,0.0,0.0,0.0,0.0
1782666633,903279606,-1.6564987341510218,0.12963628768920898,-1.5218694845782679,0.00686808442696929,0.0007430219557136297,0.6742942929267883,0.0,-0.0,0.0,0.0,0.0,0.0
1782666633,911243424,-1.656522576008932,0.12958860397338867,-1.521893326436178,0.006856100168079138,0.0007070692954584956,0.6743782162666321,0.0,-0.0,0.0,0.0,0.0,0.0
1782666633,919263890,-1.656522576008932,0.12961292266845703,-1.521893326436178,0.00686808442696929,0.0008033175836317241,0.6743302345275879,0.0,-0.0,0.0,0.0,0.0,0.0
1782666633,927240041,-1.6565702597247522,0.12960100173950195,-1.521881405507223,0.006856100168079138,0.0007190534961409867,0.6743901968002319,0.0,-0.0,0.0,0.0,0.0,0.0
1782666633,940072709,-1.656546417866842,0.1296243667602539,-1.521893326436178,0.006904037203639746,0.0007310377550311387,0.6743422150611877,0.0,-0.0,0.0,0.0,0.0,0.0
1782666633,943267696,-1.656546417866842,0.12963628768920898,-1.5218575636493128,0.006856100168079138,0.0007550062146037817,0.6743302345275879,0.0,-0.0,0.0,0.0,0.0,0.0
1782666633,951246921,-1.656546417866842,0.12966012954711914,-1.521893326436178,0.00686808442696929,0.0007909588748589158,0.6743302345275879,0.0,-0.0,0.0,0.0,0.0,0.0
1782666633,959387073,-1.6565106550799769,0.12964820861816406,-1.521905247365133,0.006844115909188986,0.0007190534961409867,0.6743062734603882,0.0,-0.0,0.0,0.0,0.0,0.0
1782666633,967246668,-1.6565702597247522,0.12958860397338867,-1.521905247365133,0.006832132115960121,0.0007430219557136297,0.6743662357330322,0.0,-0.0,0.0,0.0,0.0,0.0
1782666633,975672489,-1.6564505735980433,0.12963628768920898,-1.5218575636493128,0.006856100168079138,0.0007909588748589158,0.6743422150611877,0.0,-0.0,0.0,0.0,0.0,0.0
1782666633,983229989,-1.6565106550799769,0.12960100173950195,-1.5218213240252894,0.006856100168079138,0.0007310377550311387,0.6743422150611877,0.0,-0.0,0.0,0.0,0.0,0.0
1782666633,993023875,-1.6565106550799769,0.12961292266845703,-1.5218575636493128,0.006856100168079138,0.0007430219557136297,0.6743302345275879,0.0,-0.0,0.0,0.0,0.0,0.0
1782666633,999281884,-1.6564863363849085,0.12958860397338867,-1.5218337217914026,0.00686808442696929,0.0007310377550311387,0.6743782162666321,0.0,-0.0,0.0,0.0,0.0,0.0
1782666634,7235387,-1.656522576008932,0.12966012954711914,-1.5218694845782679,0.006844115909188986,0.0007310377550311387,0.6743542551994324,0.0,-0.0,0.0,0.0,0.0,0.0
1782666634,15280187,-1.6564987341510218,0.12961292266845703,-1.521881405507223,0.006880068685859442,0.0007310377550311387,0.6743542551994324,0.0,-0.0,0.0,0.0,0.0,0.0
1782666634,23340949,-1.656534496937887,0.12964820861816406,-1.5218694845782679,0.006904037203639746,0.0007669904152862728,0.674318253993988,0.0,-0.0,0.0,0.0,0.0,0.0
1782666634,31560010,-1.6565106550799769,0.12963628768920898,-1.5218575636493128,0.006856100168079138,0.0007550062146037817,0.6743302345275879,0.0,-0.0,0.0,0.0,0.0,0.0
1782666634,39258029,-1.6565702597247522,0.1296243667602539,-1.521881405507223,0.006820147857069969,0.0007669904152862728,0.6743422150611877,0.0,-0.0,0.0,0.0,0.0,0.0
1782666634,47493071,-1.656546417866842,0.12963628768920898,-1.521893326436178,0.006916021462529898,0.0007669904152862728,0.674318253993988,0.0,-0.0,0.0,0.0,0.0,0.0
1782666634,55421148,-1.6564987341510218,0.12963628768920898,-1.5218456427203577,0.006892052944749594,0.0007669904152862728,0.6743302345275879,0.0,-0.0,0.0,0.0,0.0,0.0
1782666634,63252298,-1.656546417866842,0.12958860397338867,-1.5218694845782679,0.006880068685859442,0.0007070692954584956,0.6743422150611877,0.0,-0.0,0.0,0.0,0.0,0.0
1782666634,71419469,-1.6565106550799769,0.12961292266845703,-1.5218575636493128,0.006856100168079138,0.0007310377550311387,0.6742823123931885,0.0,-0.0,0.0,0.0,0.0,0.0
1782666634,79364342,-1.6564744154559534,0.12958860397338867,-1.5218337217914026,0.006892052944749594,0.0007669904152862728,0.674318253993988,0.0,-0.0,0.0,0.0,0.0,0.0
1782666634,89494823,-1.6564863363849085,0.12960100173950195,-1.5218694845782679,0.006856100168079138,0.0007909588748589158,0.6743542551994324,0.0,-0.0,0.0,0.0,0.0,0.0
1782666634,95626165,-1.6565106550799769,0.1296243667602539,-1.521905247365133,0.006892052944749594,0.0007430219557136297,0.6743542551994324,0.0,-0.0,0.0,0.0,0.0,0.0
1782666634,103537963,-1.6564744154559534,0.12964820861816406,-1.521905247365133,0.006880068685859442,0.0007669904152862728,0.6743062734603882,0.0,-0.0,0.0,0.0,0.0,0.0
1782666634,111349854,-1.6565583387957972,0.1295766830444336,-1.5218694845782679,0.006880068685859442,0.0007310377550311387,0.674318253993988,0.0,-0.0,0.0,0.0,0.0,0.0
1782666634,119254616,-1.656522576008932,0.12964820861816406,-1.5218456427203577,0.006904037203639746,0.0007430219557136297,0.6743542551994324,0.0,-0.0,0.0,0.0,0.0,0.0
1782666634,127249600,-1.656522576008932,0.12958860397338867,-1.5218575636493128,0.006892052944749594,0.0007550062146037817,0.674318253993988,0.0,-0.0,0.0,0.0,0.0,0.0
1782666634,135738126,-1.6564863363849085,0.1296243667602539,-1.521893326436178,0.006832132115960121,0.0007550062146037817,0.6743901968002319,0.0,-0.0,0.0,0.0,0.0,0.0
1782666634,143249662,-1.656546417866842,0.1296243667602539,-1.5218575636493128,0.006880068685859442,0.0007190534961409867,0.674318253993988,0.0,-0.0,0.0,0.0,0.0,0.0
1782666634,151689557,-1.656534496937887,0.12963628768920898,-1.5218456427203577,0.006880068685859442,0.0007909588748589158,0.6743542551994324,0.0,-0.0,0.0,0.0,0.0,0.0
1782666634,159263594,-1.6564987341510218,0.1296243667602539,-1.521881405507223,0.006832132115960121,0.0007550062146037817,0.6743062734603882,0.0,-0.0,0.0,0.0,0.0,0.0
1782666634,167418636,-1.6564624945269983,0.12960100173950195,-1.521905247365133,0.006856100168079138,0.0007430219557136297,0.674318253993988,0.0,-0.0,0.0,0.0,0.0,0.0
1782666634,175347435,-1.6564987341510218,0.1296243667602539,-1.5218575636493128,0.006880068685859442,0.0007430219557136297,0.6743422150611877,0.0,-0.0,0.0,0.0,0.0,0.0
1782666634,183251104,-1.6564987341510218,0.12961292266845703,-1.521881405507223,0.006844115909188986,0.0007669904152862728,0.6743302345275879,0.0,-0.0,0.0,0.0,0.0,0.0
1782666634,192755210,-1.6565106550799769,0.12960100173950195,-1.521881405507223,0.006904037203639746,0.0008033175836317241,0.6743302345275879,0.0,-0.0,0.0,0.0,0.0,0.0
1782666634,199255239,-1.656546417866842,0.12961292266845703,-1.5218694845782679,0.006844115909188986,0.0007310377550311387,0.6743062734603882,0.0,-0.0,0.0,0.0,0.0,0.0
1782666634,207264094,-1.656546417866842,0.12960100173950195,-1.521881405507223,0.006892052944749594,0.0007550062146037817,0.6743782162666321,0.0,-0.0,0.0,0.0,0.0,0.0
1782666634,215401506,-1.6565583387957972,0.1295766830444336,-1.521881405507223,0.006880068685859442,0.0007190534961409867,0.6743901968002319,0.0,-0.0,0.0,0.0,0.0,0.0
1782666634,223253804,-1.6565702597247522,0.1296243667602539,-1.5218694845782679,0.006892052944749594,0.0007430219557136297,0.6743662357330322,0.0,-0.0,0.0,0.0,0.0,0.0
1782666634,231264363,-1.656522576008932,0.12956476211547852,-1.521881405507223,0.00686808442696929,0.0007430219557136297,0.6743782162666321,0.0,-0.0,0.0,0.0,0.0,0.0
1782666634,239241162,-1.6564987341510218,0.12964820861816406,-1.521881405507223,0.006832132115960121,0.0007310377550311387,0.6743302345275879,0.0,-0.0,0.0,0.0,0.0,0.0
1782666634,247250554,-1.656522576008932,0.1295766830444336,-1.5218575636493128,0.006880068685859442,0.0007669904152862728,0.6742942929267883,0.0,-0.0,0.0,0.0,0.0,0.0
1782666634,255628560,-1.656534496937887,0.12958860397338867,-1.5218337217914026,0.00686808442696929,0.0007789746159687638,0.6743302345275879,0.0,-0.0,0.0,0.0,0.0,0.0
1782666634,263359598,-1.656522576008932,0.12961292266845703,-1.521881405507223,0.006916021462529898,0.0007789746159687638,0.6743782162666321,0.0,-0.0,0.0,0.0,0.0,0.0
1782666634,271385898,-1.6565106550799769,0.12961292266845703,-1.5218694845782679,0.006880068685859442,0.0007550062146037817,0.6743542551994324,0.0,-0.0,0.0,0.0,0.0,0.0
1782666634,279248882,-1.656546417866842,0.1296243667602539,-1.521881405507223,0.006856100168079138,0.0007430219557136297,0.6743542551994324,0.0,-0.0,0.0,0.0,0.0,0.0
1782666634,287248163,-1.6565106550799769,0.1296243667602539,-1.5218694845782679,0.006904037203639746,0.0007669904152862728,0.6742942929267883,0.0,-0.0,0.0,0.0,0.0,0.0
1782666634,295557427,-1.6564987341510218,0.12963628768920898,-1.5218337217914026,0.006880068685859442,0.0007669904152862728,0.6743302345275879,0.0,-0.0,0.0,0.0,0.0,0.0
1782666634,303237595,-1.6564744154559534,0.1296243667602539,-1.5218456427203577,0.00686808442696929,0.0007070692954584956,0.6743422150611877,0.0,-0.0,0.0,0.0,0.0,0.0
1782666634,311266524,-1.6564863363849085,0.12960100173950195,-1.521905247365133,0.006832132115960121,0.0007909588748589158,0.6743062734603882,0.0,-0.0,0.0,0.0,0.0,0.0
1782666634,319254601,-1.656534496937887,0.1296243667602539,-1.5218337217914026,0.006808163598179817,0.0007430219557136297,0.6742583513259888,0.0,-0.0,0.0,0.0,0.0,0.0
1782666634,327377105,-1.656546417866842,0.12964820861816406,-1.5218337217914026,0.006892052944749594,0.0007550062146037817,0.6743422150611877,0.0,-0.0,0.0,0.0,0.0,0.0
1782666634,338905875,-1.6565583387957972,0.1295766830444336,-1.5218337217914026,0.00686808442696929,0.0007310377550311387,0.6743062734603882,0.0,-0.0,0.0,0.0,0.0,0.0
1782666634,343229184,-1.6564987341510218,0.12963628768920898,-1.5218213240252894,0.006832132115960121,0.0007070692954584956,0.6743542551994324,0.0,-0.0,0.0,0.0,0.0,0.0
1782666634,351491448,-1.6564987341510218,0.1295766830444336,-1.521905247365133,0.006916021462529898,0.0007430219557136297,0.674318253993988,0.0,-0.0,0.0,0.0,0.0,0.0
1782666634,359497470,-1.6564987341510218,0.1295766830444336,-1.521905247365133,0.006916021462529898,0.0007430219557136297,0.674318253993988,0.0,-0.0,0.0,0.0,0.0,0.0
1782666634,367378676,-1.6565821806537073,0.12966012954711914,-1.5218337217914026,0.006832132115960121,0.0007430219557136297,0.6743062734603882,0.0,-0.0,0.0,0.0,0.0,0.0
1782666634,375279327,-1.6565106550799769,0.1296243667602539,-1.5218575636493128,0.006904037203639746,0.0007190534961409867,0.6743662357330322,0.0,-0.0,0.0,0.0,0.0,0.0
1782666634,384522913,-1.6564744154559534,0.12961292266845703,-1.5218575636493128,0.006892052944749594,0.0007430219557136297,0.6743062734603882,0.0,-0.0,0.0,0.0,0.0,0.0
1782666634,391266759,-1.6564987341510218,0.12963628768920898,-1.5218694845782679,0.006904037203639746,0.0007430219557136297,0.6743302345275879,0.0,-0.0,0.0,0.0,0.0,0.0
1782666634,399253336,-1.656522576008932,0.1296243667602539,-1.521893326436178,0.006856100168079138,0.0007669904152862728,0.6743062734603882,0.0,-0.0,0.0,0.0,0.0,0.0
1782666634,407425044,-1.656522576008932,0.1296243667602539,-1.5218337217914026,0.006832132115960121,0.0007310377550311387,0.6743302345275879,0.0,-0.0,0.0,0.0,0.0,0.0
1782666634,415250694,-1.6564863363849085,0.12958860397338867,-1.5218694845782679,0.006856100168079138,0.0007310377550311387,0.6743542551994324,0.0,-0.0,0.0,0.0,0.0,0.0
1782666634,423286012,-1.656534496937887,0.12960100173950195,-1.5218575636493128,0.006880068685859442,0.0007310377550311387,0.6743302345275879,0.0,-0.0,0.0,0.0,0.0,0.0
1782666634,431882742,-1.656534496937887,0.12966012954711914,-1.5218575636493128,0.006856100168079138,0.0007190534961409867,0.6743422150611877,0.0,-0.0,0.0,0.0,0.0,0.0
1782666634,439280944,-1.6565106550799769,0.1296243667602539,-1.521881405507223,0.006892052944749594,0.0007789746159687638,0.6743662357330322,0.0,-0.0,0.0,0.0,0.0,0.0
1782666634,447429467,-1.6564863363849085,0.1295766830444336,-1.5218694845782679,0.006856100168079138,0.0007669904152862728,0.674318253993988,0.0,-0.0,0.0,0.0,0.0,0.0
1782666634,455231857,-1.6564863363849085,0.1295766830444336,-1.521881405507223,0.006856100168079138,0.0007909588748589158,0.6743782162666321,0.0,-0.0,0.0,0.0,0.0,0.0
1782666634,463230009,-1.656546417866842,0.12966012954711914,-1.5218337217914026,0.006856100168079138,0.0007310377550311387,0.6743542551994324,0.0,-0.0,0.0,0.0,0.0,0.0
1782666634,471240160,-1.656522576008932,0.12960100173950195,-1.5219295660602015,0.006844115909188986,0.0007550062146037817,0.6743542551994324,0.0,-0.0,0.0,0.0,0.0,0.0
1782666634,479269552,-1.656546417866842,0.12964820861816406,-1.5218337217914026,0.006856100168079138,0.0007789746159687638,0.6743542551994324,0.0,-0.0,0.0,0.0,0.0,0.0
1782666634,487234092,-1.656522576008932,0.12955284118652344,-1.5218575636493128,0.006880068685859442,0.0007909588748589158,0.6743302345275879,0.0,-0.0,0.0,0.0,0.0,0.0
1782666634,495261262,-1.656522576008932,0.12963628768920898,-1.5218094030963343,0.006856100168079138,0.0007550062146037817,0.6743662357330322,0.0,-0.0,0.0,0.0,0.0,0.0
1782666634,503548675,-1.656546417866842,0.12958860397338867,-1.5218337217914026,0.006856100168079138,0.0007310377550311387,0.6743302345275879,0.0,-0.0,0.0,0.0,0.0,0.0
1782666634,511630771,-1.656522576008932,0.12966012954711914,-1.5218456427203577,0.006832132115960121,0.0007550062146037817,0.6743542551994324,0.0,-0.0,0.0,0.0,0.0,0.0
1782666634,519509032,-1.656534496937887,0.12960100173950195,-1.5218575636493128,0.006904037203639746,0.0007190534961409867,0.6743302345275879,0.0,-0.0,0.0,0.0,0.0,0.0
1782666634,528181448,-1.656522576008932,0.12960100173950195,-1.5218456427203577,0.006892052944749594,0.0007430219557136297,0.6743422150611877,0.0,-0.0,0.0,0.0,0.0,0.0
1782666634,535375427,-1.6564863363849085,0.12966012954711914,-1.5218456427203577,0.006880068685859442,0.0007070692954584956,0.6743901968002319,0.0,-0.0,0.0,0.0,0.0,0.0
1782666634,543269133,-1.6565106550799769,0.1296243667602539,-1.521881405507223,0.006832132115960121,0.0007550062146037817,0.6743422150611877,0.0,-0.0,0.0,0.0,0.0,0.0
1782666634,551250784,-1.6565583387957972,0.12964820861816406,-1.521881405507223,0.00686808442696929,0.0006711166352033615,0.6743901968002319,0.0,-0.0,0.0,0.0,0.0,0.0
1782666634,559247972,-1.656534496937887,0.12967252731323242,-1.5218575636493128,0.006880068685859442,0.0007310377550311387,0.674318253993988,0.0,-0.0,0.0,0.0,0.0,0.0
1782666634,568184408,-1.656534496937887,0.12961292266845703,-1.5218456427203577,0.006880068685859442,0.0007550062146037817,0.6743422150611877,0.0,-0.0,0.0,0.0,0.0,0.0
1782666634,575384239,-1.6565106550799769,0.1296243667602539,-1.5218213240252894,0.00686808442696929,0.0007310377550311387,0.6743662357330322,0.0,-0.0,0.0,0.0,0.0,0.0
1782666634,583260481,-1.6564987341510218,0.12966012954711914,-1.5218694845782679,0.006856100168079138,0.0008033175836317241,0.6743422150611877,0.0,-0.0,0.0,0.0,0.0,0.0
1782666634,592384660,-1.6565583387957972,0.12958860397338867,-1.5218694845782679,0.00686808442696929,0.0007550062146037817,0.6743542551994324,0.0,-0.0,0.0,0.0,0.0,0.0
1782666634,599246006,-1.6565583387957972,0.1296243667602539,-1.5218694845782679,0.00686808442696929,0.0007190534961409867,0.6743782162666321,0.0,-0.0,0.0,0.0,0.0,0.0
1782666634,608041089,-1.656534496937887,0.12964820861816406,-1.521893326436178,0.006916021462529898,0.0007310377550311387,0.6742942929267883,0.0,-0.0,0.0,0.0,0.0,0.0
1782666634,615285272,-1.656546417866842,0.12956476211547852,-1.521905247365133,0.006880068685859442,0.0007310377550311387,0.6743422150611877,0.0,-0.0,0.0,0.0,0.0,0.0
1782666634,623285756,-1.6564744154559534,0.12961292266845703,-1.521881405507223,0.006856100168079138,0.0007430219557136297,0.6743542551994324,0.0,-0.0,0.0,0.0,0.0,0.0
1782666634,631246445,-1.656522576008932,0.12960100173950195,-1.5218694845782679,0.006892052944749594,0.0007310377550311387,0.6743062734603882,0.0,-0.0,0.0,0.0,0.0,0.0
1782666634,639360263,-1.6564863363849085,0.12960100173950195,-1.5218337217914026,0.006904037203639746,0.0007430219557136297,0.6742942929267883,0.0,-0.0,0.0,0.0,0.0,0.0
1782666634,647373341,-1.6564863363849085,0.12961292266845703,-1.5218456427203577,0.00686808442696929,0.0007310377550311387,0.6743302345275879,0.0,-0.0,0.0,0.0,0.0,0.0
1782666634,655270417,-1.6565106550799769,0.12961292266845703,-1.5218694845782679,0.006820147857069969,0.0007310377550311387,0.674318253993988,0.0,-0.0,0.0,0.0,0.0,0.0
1782666634,663446014,-1.6565945784198206,0.12963628768920898,-1.5218575636493128,0.006856100168079138,0.0007310377550311387,0.6743662357330322,0.0,-0.0,0.0,0.0,0.0,0.0
1782666634,671954502,-1.6565106550799769,0.12960100173950195,-1.521881405507223,0.006880068685859442,0.0007669904152862728,0.6743542551994324,0.0,-0.0,0.0,0.0,0.0,0.0
1782666634,680146248,-1.656534496937887,0.12960100173950195,-1.521905247365133,0.006880068685859442,0.0007430219557136297,0.6743542551994324,0.0,-0.0,0.0,0.0,0.0,0.0
1782666634,687943934,-1.6565106550799769,0.12964820861816406,-1.521905247365133,0.00686808442696929,0.0007190534961409867,0.6743542551994324,0.0,-0.0,0.0,0.0,0.0,0.0
1782666634,695269766,-1.6564624945269983,0.12963628768920898,-1.5218337217914026,0.006880068685859442,0.0007430219557136297,0.674318253993988,0.0,-0.0,0.0,0.0,0.0,0.0
1782666634,703261065,-1.656534496937887,0.12963628768920898,-1.521881405507223,0.006880068685859442,0.0007789746159687638,0.6743542551994324,0.0,-0.0,0.0,0.0,0.0,0.0
1782666634,711430496,-1.6564863363849085,0.12960100173950195,-1.5218694845782679,0.006832132115960121,0.0007669904152862728,0.6743542551994324,0.0,-0.0,0.0,0.0,0.0,0.0
1782666634,726194733,-1.6565106550799769,0.1296243667602539,-1.521893326436178,0.00686808442696929,0.0007310377550311387,0.6743662357330322,0.0,-0.0,0.0,0.0,0.0,0.0
1782666634,735335375,-1.6565702597247522,0.1295766830444336,-1.521881405507223,0.006832132115960121,0.0007550062146037817,0.6743302345275879,0.0,-0.0,0.0,0.0,0.0,0.0
1782666634,743379193,-1.656534496937887,0.1296243667602539,-1.5218213240252894,0.006892052944749594,0.0007789746159687638,0.674318253993988,0.0,-0.0,0.0,0.0,0.0,0.0
1782666634,751270436,-1.6565106550799769,0.12961292266845703,-1.521881405507223,0.00686808442696929,0.0007789746159687638,0.6743542551994324,0.0,-0.0,0.0,0.0,0.0,0.0
1782666634,764295939,-1.656534496937887,0.12967252731323242,-1.5218337217914026,0.006880068685859442,0.0007070692954584956,0.6743302345275879,0.0,-0.0,0.0,0.0,0.0,0.0
1782666634,776952365,-1.656546417866842,0.12961292266845703,-1.5218575636493128,0.006880068685859442,0.0007310377550311387,0.674318253993988,0.0,-0.0,0.0,0.0,0.0,0.0
1782666634,780578929,-1.656546417866842,0.12961292266845703,-1.5218575636493128,0.006880068685859442,0.0007310377550311387,0.674318253993988,0.0,-0.0,0.0,0.0,0.0,0.0
1782666634,784346178,-1.656534496937887,0.12963628768920898,-1.521905247365133,0.006844115909188986,0.0007310377550311387,0.6743302345275879,0.0,-0.0,0.0,0.0,0.0,0.0
1782666634,791354396,-1.6564987341510218,0.12963628768920898,-1.5218337217914026,0.00686808442696929,0.0007190534961409867,0.6743782162666321,0.0,-0.0,0.0,0.0,0.0,0.0
1782666634,799363159,-1.656534496937887,0.12961292266845703,-1.5218694845782679,0.006832132115960121,0.0007310377550311387,0.674318253993988,0.0,-0.0,0.0,0.0,0.0,0.0
1782666634,807346329,-1.656534496937887,0.12961292266845703,-1.5218694845782679,0.006832132115960121,0.0007310377550311387,0.674318253993988,0.0,-0.0,0.0,0.0,0.0,0.0
1782666634,815844632,-1.6564744154559534,0.1296243667602539,-1.5218694845782679,0.006916021462529898,0.0007550062146037817,0.6743422150611877,0.0,-0.0,0.0,0.0,0.0,0.0
1782666634,823258945,-1.656546417866842,0.12960100173950195,-1.5218456427203577,0.006880068685859442,0.0007430219557136297,0.6743782162666321,0.0,-0.0,0.0,0.0,0.0,0.0
1782666634,831408320,-1.656534496937887,0.1296243667602539,-1.5218694845782679,0.00686808442696929,0.0007669904152862728,0.6743422150611877,0.0,-0.0,0.0,0.0,0.0,0.0
1782666634,839724307,-1.6564987341510218,0.12960100173950195,-1.5218694845782679,0.006832132115960121,0.0007669904152862728,0.674318253993988,0.0,-0.0,0.0,0.0,0.0,0.0
1782666634,847498586,-1.656522576008932,0.12963628768920898,-1.5218456427203577,0.00686808442696929,0.0007310377550311387,0.6742942929267883,0.0,-0.0,0.0,0.0,0.0,0.0
1782666634,858079182,-1.6564863363849085,0.12958860397338867,-1.5218575636493128,0.00686808442696929,0.0007070692954584956,0.6743542551994324,0.0,-0.0,0.0,0.0,0.0,0.0
1782666634,864048670,-1.656522576008932,0.12964820861816406,-1.5218694845782679,0.006856100168079138,0.0007909588748589158,0.6742942929267883,0.0,-0.0,0.0,0.0,0.0,0.0
1782666634,871499558,-1.656522576008932,0.12964820861816406,-1.521893326436178,0.006892052944749594,0.0007310377550311387,0.6744141578674316,0.0,-0.0,0.0,0.0,0.0,0.0
1782666634,879444654,-1.656534496937887,0.12964820861816406,-1.521881405507223,0.00686808442696929,0.0008033175836317241,0.6743542551994324,0.0,-0.0,0.0,0.0,0.0,0.0
1782666634,887354971,-1.656546417866842,0.12966012954711914,-1.521893326436178,0.006892052944749594,0.0007310377550311387,0.6743662357330322,0.0,-0.0,0.0,0.0,0.0,0.0
1782666634,903775443,-1.656546417866842,0.12956476211547852,-1.521881405507223,0.006892052944749594,0.0007310377550311387,0.674318253993988,0.0,-0.0,0.0,0.0,0.0,0.0
1782666634,911501166,-1.656546417866842,0.12964820861816406,-1.521881405507223,0.006880068685859442,0.0007669904152862728,0.6743302345275879,0.0,-0.0,0.0,0.0,0.0,0.0
1782666634,919449169,-1.656522576008932,0.12960100173950195,-1.521893326436178,0.006880068685859442,0.0007190534961409867,0.674318253993988,0.0,-0.0,0.0,0.0,0.0,0.0
1782666634,927365931,-1.656534496937887,0.12964820861816406,-1.521881405507223,0.006880068685859442,0.0007430219557136297,0.6743422150611877,0.0,-0.0,0.0,0.0,0.0,0.0
1782666634,936280293,-1.656522576008932,0.12964820861816406,-1.5218213240252894,0.006892052944749594,0.0007310377550311387,0.6743542551994324,0.0,-0.0,0.0,0.0,0.0,0.0
1782666634,943879515,-1.656534496937887,0.12963628768920898,-1.5218694845782679,0.006832132115960121,0.0007070692954584956,0.6742942929267883,0.0,-0.0,0.0,0.0,0.0,0.0
1782666634,951761721,-1.6564987341510218,0.12961292266845703,-1.5218213240252894,0.006892052944749594,0.0007310377550311387,0.6743542551994324,0.0,-0.0,0.0,0.0,0.0,0.0
1782666634,960410581,-1.656522576008932,0.1296243667602539,-1.5219176451312464,0.006856100168079138,0.0007669904152862728,0.6743542551994324,0.0,-0.0,0.0,0.0,0.0,0.0
1782666634,967470040,-1.656522576008932,0.1296243667602539,-1.5219176451312464,0.006856100168079138,0.0007669904152862728,0.6743542551994324,0.0,-0.0,0.0,0.0,0.0,0.0
1782666634,975383931,-1.656522576008932,0.12956476211547852,-1.521881405507223,0.00692800572142005,0.0007550062146037817,0.6743422150611877,0.0,-0.0,0.0,0.0,0.0,0.0
1782666634,984480628,-1.6564863363849085,0.12961292266845703,-1.521893326436178,0.00686808442696929,0.0007669904152862728,0.6742942929267883,0.0,-0.0,0.0,0.0,0.0,0.0
1782666634,991263844,-1.6564987341510218,0.12961292266845703,-1.5218456427203577,0.006856100168079138,0.0007789746159687638,0.6743422150611877,0.0,-0.0,0.0,0.0,0.0,0.0
1782666634,999260254,-1.6564987341510218,0.1296243667602539,-1.521893326436178,0.006856100168079138,0.0007550062146037817,0.6743302345275879,0.0,-0.0,0.0,0.0,0.0,0.0
1782666635,7815725,-1.6565106550799769,0.12964820861816406,-1.5218575636493128,0.006904037203639746,0.0007310377550311387,0.6743782162666321,0.0,-0.0,0.0,0.0,0.0,0.0
1782666635,15924321,-1.656522576008932,0.12958860397338867,-1.521893326436178,0.006880068685859442,0.0007430219557136297,0.6742942929267883,0.0,-0.0,0.0,0.0,0.0,0.0
1782666635,23281079,-1.6565702597247522,0.1296243667602539,-1.521893326436178,0.00686808442696929,0.0007789746159687638,0.6743302345275879,0.0,-0.0,0.0,0.0,0.0,0.0
1782666635,31247193,-1.6565106550799769,0.12958860397338867,-1.5218213240252894,0.00686808442696929,0.0007190534961409867,0.6743062734603882,0.0,-0.0,0.0,0.0,0.0,0.0
1782666635,39426142,-1.6564987341510218,0.12960100173950195,-1.5219176451312464,0.006880068685859442,0.0007669904152862728,0.674318253993988,0.0,-0.0,0.0,0.0,0.0,0.0
1782666635,47257532,-1.656546417866842,0.12958860397338867,-1.5218456427203577,0.006880068685859442,0.0007310377550311387,0.6743542551994324,0.0,-0.0,0.0,0.0,0.0,0.0
1782666635,60309054,-1.656534496937887,0.12961292266845703,-1.5218337217914026,0.006880068685859442,0.0007669904152862728,0.6743062734603882,0.0,-0.0,0.0,0.0,0.0,0.0
1782666635,63273835,-1.656522576008932,0.12956476211547852,-1.521881405507223,0.006880068685859442,0.0007190534961409867,0.6743782162666321,0.0,-0.0,0.0,0.0,0.0,0.0
1782666635,71230875,-1.656534496937887,0.12966012954711914,-1.521905247365133,0.006856100168079138,0.0007310377550311387,0.6743062734603882,0.0,-0.0,0.0,0.0,0.0,0.0
1782666635,80962409,-1.656546417866842,0.12961292266845703,-1.5218694845782679,0.006904037203639746,0.0007310377550311387,0.674318253993988,0.0,-0.0,0.0,0.0,0.0,0.0
1782666635,87460420,-1.656522576008932,0.12961292266845703,-1.521905247365133,0.006892052944749594,0.0007310377550311387,0.6743542551994324,0.0,-0.0,0.0,0.0,0.0,0.0
1782666635,95230884,-1.6564744154559534,0.12961292266845703,-1.5219176451312464,0.006844115909188986,0.0007430219557136297,0.6743542551994324,0.0,-0.0,0.0,0.0,0.0,0.0
1782666635,103696521,-1.6565583387957972,0.12960100173950195,-1.521905247365133,0.006832132115960121,0.0007190534961409867,0.6743542551994324,0.0,-0.0,0.0,0.0,0.0,0.0
1782666635,111597190,-1.6565106550799769,0.12958860397338867,-1.521881405507223,0.006892052944749594,0.0007430219557136297,0.6743302345275879,0.0,-0.0,0.0,0.0,0.0,0.0
1782666635,119447544,-1.656546417866842,0.12960100173950195,-1.521893326436178,0.006880068685859442,0.0007789746159687638,0.674318253993988,0.0,-0.0,0.0,0.0,0.0,0.0
1782666635,127275694,-1.6565106550799769,0.1296243667602539,-1.521893326436178,0.006892052944749594,0.0007789746159687638,0.6743302345275879,0.0,-0.0,0.0,0.0,0.0,0.0
1782666635,135865479,-1.6564863363849085,0.12964820861816406,-1.521881405507223,0.00686808442696929,0.0007310377550311387,0.6743542551994324,0.0,-0.0,0.0,0.0,0.0,0.0
1782666635,143228162,-1.656522576008932,0.12958860397338867,-1.5218575636493128,0.006880068685859442,0.0007190534961409867,0.674318253993988,0.0,-0.0,0.0,0.0,0.0,0.0
1782666635,151246406,-1.6565106550799769,0.12956476211547852,-1.521893326436178,0.006844115909188986,0.0007430219557136297,0.674318253993988,0.0,-0.0,0.0,0.0,0.0,0.0
1782666635,159250428,-1.6565106550799769,0.12961292266845703,-1.521893326436178,0.006904037203639746,0.0007669904152862728,0.6743422150611877,0.0,-0.0,0.0,0.0,0.0,0.0
1782666635,167271117,-1.656522576008932,0.1295766830444336,-1.5218694845782679,0.006844115909188986,0.0007190534961409867,0.6743422150611877,0.0,-0.0,0.0,0.0,0.0,0.0
1782666635,175241453,-1.6564987341510218,0.12963628768920898,-1.5218337217914026,0.006892052944749594,0.0006950850365683436,0.6743302345275879,0.0,-0.0,0.0,0.0,0.0,0.0
1782666635,183341327,-1.6565106550799769,0.1296243667602539,-1.5218694845782679,0.006832132115960121,0.0007550062146037817,0.6743302345275879,0.0,-0.0,0.0,0.0,0.0,0.0
1782666635,191432757,-1.6564987341510218,0.12955284118652344,-1.521893326436178,0.006856100168079138,0.0007669904152862728,0.6743542551994324,0.0,-0.0,0.0,0.0,0.0,0.0
1782666635,199331815,-1.656546417866842,0.12967252731323242,-1.5218456427203577,0.00692800572142005,0.0007190534961409867,0.6743422150611877,0.0,-0.0,0.0,0.0,0.0,0.0
1782666635,207465819,-1.656522576008932,0.1296243667602539,-1.5218694845782679,0.006892052944749594,0.0007909588748589158,0.6743422150611877,0.0,-0.0,0.0,0.0,0.0,0.0
1782666635,215729268,-1.6564863363849085,0.12964820861816406,-1.521881405507223,0.006904037203639746,0.0007310377550311387,0.6743302345275879,0.0,-0.0,0.0,0.0,0.0,0.0
1782666635,223425195,-1.6564863363849085,0.12964820861816406,-1.521881405507223,0.006904037203639746,0.0007310377550311387,0.6743302345275879,0.0,-0.0,0.0,0.0,0.0,0.0
1782666635,231285383,-1.656522576008932,0.12963628768920898,-1.5218575636493128,0.00686808442696929,0.0007430219557136297,0.6743302345275879,0.0,-0.0,0.0,0.0,0.0,0.0
1782666635,239256441,-1.6565106550799769,0.1296243667602539,-1.5218694845782679,0.00686808442696929,0.0007669904152862728,0.6743302345275879,0.0,-0.0,0.0,0.0,0.0,0.0
1782666635,248062691,-1.656522576008932,0.12964820861816406,-1.521881405507223,0.006892052944749594,0.0007310377550311387,0.6743422150611877,0.0,-0.0,0.0,0.0,0.0,0.0
1782666635,255231892,-1.6565583387957972,0.12961292266845703,-1.521881405507223,0.006892052944749594,0.0007909588748589158,0.6743422150611877,0.0,-0.0,0.0,0.0,0.0,0.0
1782666635,263331488,-1.656534496937887,0.1296243667602539,-1.5218456427203577,0.006880068685859442,0.0007430219557136297,0.6743302345275879,0.0,-0.0,0.0,0.0,0.0,0.0
1782666635,271240990,-1.6564987341510218,0.12960100173950195,-1.521893326436178,0.006892052944749594,0.0007070692954584956,0.674318253993988,0.0,-0.0,0.0,0.0,0.0,0.0
1782666635,279262846,-1.656546417866842,0.12961292266845703,-1.5218456427203577,0.00686808442696929,0.0007430219557136297,0.6743542551994324,0.0,-0.0,0.0,0.0,0.0,0.0
1782666635,287417387,-1.6565106550799769,0.12961292266845703,-1.521905247365133,0.006880068685859442,0.0007550062146037817,0.6743302345275879,0.0,-0.0,0.0,0.0,0.0,0.0
1782666635,295268408,-1.656546417866842,0.12955284118652344,-1.5219176451312464,0.00686808442696929,0.0007669904152862728,0.6743422150611877,0.0,-0.0,0.0,0.0,0.0,0.0
1782666635,303350967,-1.6565106550799769,0.12963628768920898,-1.5218456427203577,0.006820147857069969,0.0007550062146037817,0.6743422150611877,0.0,-0.0,0.0,0.0,0.0,0.0
1782666635,311405118,-1.6565702597247522,0.12963628768920898,-1.5217974821673792,0.006856100168079138,0.0007310377550311387,0.6743422150611877,0.0,-0.0,0.0,0.0,0.0,0.0
1782666635,319388177,-1.6564987341510218,0.12960100173950195,-1.5218337217914026,0.006832132115960121,0.0007310377550311387,0.6742942929267883,0.0,-0.0,0.0,0.0,0.0,0.0
1782666635,327474051,-1.656522576008932,0.12956476211547852,-1.5218694845782679,0.006892052944749594,0.0007550062146037817,0.6743542551994324,0.0,-0.0,0.0,0.0,0.0,0.0
1782666635,336054485,-1.656522576008932,0.12956476211547852,-1.5218694845782679,0.006892052944749594,0.0007550062146037817,0.6743542551994324,0.0,-0.0,0.0,0.0,0.0,0.0
1782666635,343270445,-1.6564987341510218,0.12960100173950195,-1.521881405507223,0.00686808442696929,0.0007190534961409867,0.674318253993988,0.0,-0.0,0.0,0.0,0.0,0.0
1782666635,351254596,-1.656522576008932,0.12966012954711914,-1.5218456427203577,0.006844115909188986,0.0007669904152862728,0.6743542551994324,0.0,-0.0,0.0,0.0,0.0,0.0
1782666635,359247007,-1.656522576008932,0.12964820861816406,-1.5218456427203577,0.00686808442696929,0.0007310377550311387,0.6742942929267883,0.0,-0.0,0.0,0.0,0.0,0.0
1782666635,367732532,-1.656522576008932,0.12958860397338867,-1.521893326436178,0.006880068685859442,0.0007550062146037817,0.674318253993988,0.0,-0.0,0.0,0.0,0.0,0.0
1782666635,375999241,-1.6564863363849085,0.1296243667602539,-1.5218575636493128,0.006856100168079138,0.0007430219557136297,0.674318253993988,0.0,-0.0,0.0,0.0,0.0,0.0
1782666635,383237238,-1.6564863363849085,0.12958860397338867,-1.521893326436178,0.00686808442696929,0.0007550062146037817,0.6743422150611877,0.0,-0.0,0.0,0.0,0.0,0.0
1782666635,391358687,-1.6564744154559534,0.12961292266845703,-1.5218337217914026,0.006880068685859442,0.0007550062146037817,0.6743422150611877,0.0,-0.0,0.0,0.0,0.0,0.0
1782666635,399340245,-1.656534496937887,0.12958860397338867,-1.521905247365133,0.006880068685859442,0.0007310377550311387,0.6743422150611877,0.0,-0.0,0.0,0.0,0.0,0.0
1782666635,407502286,-1.6564744154559534,0.12963628768920898,-1.5218575636493128,0.006880068685859442,0.0007669904152862728,0.6743542551994324,0.0,-0.0,0.0,0.0,0.0,0.0
1782666635,415242732,-1.6565106550799769,0.12963628768920898,-1.5218213240252894,0.006892052944749594,0.0007310377550311387,0.6743901968002319,0.0,-0.0,0.0,0.0,0.0,0.0
1782666635,423246050,-1.6565821806537073,0.12963628768920898,-1.5218694845782679,0.006880068685859442,0.0007430219557136297,0.6743302345275879,0.0,-0.0,0.0,0.0,0.0,0.0
1782666635,431265127,-1.656522576008932,0.12958860397338867,-1.5218575636493128,0.006904037203639746,0.0007669904152862728,0.6743542551994324,0.0,-0.0,0.0,0.0,0.0,0.0
1782666635,439249853,-1.656522576008932,0.12958860397338867,-1.5218694845782679,0.006856100168079138,0.0007430219557136297,0.6743422150611877,0.0,-0.0,0.0,0.0,0.0,0.0
1782666635,453582828,-1.656534496937887,0.1296243667602539,-1.521881405507223,0.006844115909188986,0.0007789746159687638,0.674318253993988,0.0,-0.0,0.0,0.0,0.0,0.0
1782666635,456909297,-1.6565583387957972,0.12961292266845703,-1.521893326436178,0.00686808442696929,0.0007070692954584956,0.6743062734603882,0.0,-0.0,0.0,0.0,0.0,0.0
1782666635,463244677,-1.6564987341510218,0.12966012954711914,-1.5218694845782679,0.006880068685859442,0.0007789746159687638,0.6743062734603882,0.0,-0.0,0.0,0.0,0.0,0.0
1782666635,471255050,-1.6565106550799769,0.12964820861816406,-1.5218456427203577,0.006880068685859442,0.0007310377550311387,0.6743662357330322,0.0,-0.0,0.0,0.0,0.0,0.0
1782666635,479238535,-1.656522576008932,0.1296243667602539,-1.5218575636493128,0.006832132115960121,0.0007310377550311387,0.6743422150611877,0.0,-0.0,0.0,0.0,0.0,0.0
1782666635,487243575,-1.656522576008932,0.12961292266845703,-1.5218694845782679,0.006892052944749594,0.0007550062146037817,0.6743782162666321,0.0,-0.0,0.0,0.0,0.0,0.0
1782666635,495425043,-1.656546417866842,0.12958860397338867,-1.5218575636493128,0.006832132115960121,0.0007550062146037817,0.6743542551994324,0.0,-0.0,0.0,0.0,0.0,0.0
1782666635,503382119,-1.6564987341510218,0.12958860397338867,-1.5219176451312464,0.006880068685859442,0.0007550062146037817,0.6743542551994324,0.0,-0.0,0.0,0.0,0.0,0.0
1782666635,512321611,-1.656522576008932,0.12963628768920898,-1.5218694845782679,0.006892052944749594,0.0007310377550311387,0.6743662357330322,0.0,-0.0,0.0,0.0,0.0,0.0
1782666635,519644128,-1.656522576008932,0.1295766830444336,-1.5218575636493128,0.00686808442696929,0.0007669904152862728,0.6743542551994324,0.0,-0.0,0.0,0.0,0.0,0.0
1782666635,527395573,-1.6565702597247522,0.12966012954711914,-1.5218456427203577,0.006892052944749594,0.0007789746159687638,0.6743062734603882,0.0,-0.0,0.0,0.0,0.0,0.0
1782666635,535384984,-1.6564987341510218,0.12960100173950195,-1.5218694845782679,0.006856100168079138,0.0007190534961409867,0.6743422150611877,0.0,-0.0,0.0,0.0,0.0,0.0
1782666635,543362098,-1.6564987341510218,0.12961292266845703,-1.521893326436178,0.006832132115960121,0.0007310377550311387,0.6743542551994324,0.0,-0.0,0.0,0.0,0.0,0.0
1782666635,551389490,-1.6564863363849085,0.1296243667602539,-1.5218694845782679,0.006904037203639746,0.0007430219557136297,0.674318253993988,0.0,-0.0,0.0,0.0,0.0,0.0
1782666635,559620476,-1.656522576008932,0.12958860397338867,-1.521881405507223,0.006880068685859442,0.0007909588748589158,0.6743782162666321,0.0,-0.0,0.0,0.0,0.0,0.0
1782666635,567399330,-1.6565106550799769,0.1296243667602539,-1.521893326436178,0.006844115909188986,0.0007909588748589158,0.6743302345275879,0.0,-0.0,0.0,0.0,0.0,0.0
1782666635,575388222,-1.656546417866842,0.12963628768920898,-1.5218337217914026,0.006856100168079138,0.0007789746159687638,0.674318253993988,0.0,-0.0,0.0,0.0,0.0,0.0
1782666635,583380132,-1.656534496937887,0.12966012954711914,-1.5218575636493128,0.00686808442696929,0.0007550062146037817,0.6743422150611877,0.0,-0.0,0.0,0.0,0.0,0.0
1782666635,591355209,-1.656534496937887,0.12955284118652344,-1.5218694845782679,0.006856100168079138,0.0007310377550311387,0.6743542551994324,0.0,-0.0,0.0,0.0,0.0,0.0
1782666635,599263638,-1.6565106550799769,0.12960100173950195,-1.5218456427203577,0.006892052944749594,0.0007190534961409867,0.6742823123931885,0.0,-0.0,0.0,0.0,0.0,0.0
1782666635,607284771,-1.6565106550799769,0.12958860397338867,-1.5218456427203577,0.006904037203639746,0.0007430219557136297,0.6743542551994324,0.0,-0.0,0.0,0.0,0.0,0.0
1782666635,615392145,-1.656534496937887,0.1295766830444336,-1.5218694845782679,0.00686808442696929,0.0007550062146037817,0.674318253993988,0.0,-0.0,0.0,0.0,0.0,0.0
1782666635,623545705,-1.656534496937887,0.1295766830444336,-1.5218694845782679,0.00686808442696929,0.0007550062146037817,0.674318253993988,0.0,-0.0,0.0,0.0,0.0,0.0
1782666635,631336910,-1.656522576008932,0.12958860397338867,-1.5218694845782679,0.006832132115960121,0.0007789746159687638,0.6743422150611877,0.0,-0.0,0.0,0.0,0.0,0.0
1782666635,639272931,-1.656522576008932,0.12964820861816406,-1.521881405507223,0.006856100168079138,0.0007789746159687638,0.6742942929267883,0.0,-0.0,0.0,0.0,0.0,0.0
1782666635,647376880,-1.656546417866842,0.12964820861816406,-1.5218694845782679,0.00692800572142005,0.0007190534961409867,0.6743302345275879,0.0,-0.0,0.0,0.0,0.0,0.0
1782666635,655369253,-1.656534496937887,0.1296243667602539,-1.5218694845782679,0.006856100168079138,0.0007909588748589158,0.6743422150611877,0.0,-0.0,0.0,0.0,0.0,0.0
1782666635,663284348,-1.6564987341510218,0.1296243667602539,-1.521893326436178,0.006880068685859442,0.0007909588748589158,0.674318253993988,0.0,-0.0,0.0,0.0,0.0,0.0
1782666635,671334907,-1.6564744154559534,0.1296243667602539,-1.5218456427203577,0.006892052944749594,0.0007190534961409867,0.6743901968002319,0.0,-0.0,0.0,0.0,0.0,0.0
1782666635,679375244,-1.656546417866842,0.12958860397338867,-1.521905247365133,0.006844115909188986,0.0007190534961409867,0.674318253993988,0.0,-0.0,0.0,0.0,0.0,0.0
1782666635,687380025,-1.6565583387957972,0.12958860397338867,-1.5218575636493128,0.006880068685859442,0.0007550062146037817,0.6743542551994324,0.0,-0.0,0.0,0.0,0.0,0.0
1782666635,695244416,-1.6565106550799769,0.12960100173950195,-1.5218694845782679,0.006856100168079138,0.0007310377550311387,0.674318253993988,0.0,-0.0,0.0,0.0,0.0,0.0
1782666635,703230419,-1.6565583387957972,0.12961292266845703,-1.5218337217914026,0.006832132115960121,0.0007310377550311387,0.6743542551994324,0.0,-0.0,0.0,0.0,0.0,0.0
1782666635,711274811,-1.6565106550799769,0.1296243667602539,-1.5218694845782679,0.006904037203639746,0.0007550062146037817,0.6742823123931885,0.0,-0.0,0.0,0.0,0.0,0.0
1782666635,719252518,-1.6564987341510218,0.12958860397338867,-1.5218456427203577,0.006832132115960121,0.0007550062146037817,0.6743542551994324,0.0,-0.0,0.0,0.0,0.0,0.0
1782666635,727256317,-1.6565106550799769,0.1296243667602539,-1.5218694845782679,0.006880068685859442,0.0007550062146037817,0.6743422150611877,0.0,-0.0,0.0,0.0,0.0,0.0
1782666635,735252358,-1.656546417866842,0.1296243667602539,-1.5218694845782679,0.006880068685859442,0.0007789746159687638,0.6743422150611877,0.0,-0.0,0.0,0.0,0.0,0.0
1782666635,743242324,-1.6564987341510218,0.12963628768920898,-1.5218694845782679,0.00686808442696929,0.0007669904152862728,0.6743901968002319,0.0,-0.0,0.0,0.0,0.0,0.0
1782666635,751262531,-1.656546417866842,0.1296243667602539,-1.5218456427203577,0.006904037203639746,0.0007310377550311387,0.6743542551994324,0.0,-0.0,0.0,0.0,0.0,0.0
1782666635,759254237,-1.656534496937887,0.1296844482421875,-1.521893326436178,0.006916021462529898,0.0007789746159687638,0.6743062734603882,0.0,-0.0,0.0,0.0,0.0,0.0
1782666635,767354538,-1.6564987341510218,0.12963628768920898,-1.521893326436178,0.006880068685859442,0.0007190534961409867,0.6743422150611877,0.0,-0.0,0.0,0.0,0.0,0.0
1782666635,775262447,-1.656522576008932,0.12963628768920898,-1.5218575636493128,0.00686808442696929,0.0007550062146037817,0.6743302345275879,0.0,-0.0,0.0,0.0,0.0,0.0
1782666635,783283858,-1.656546417866842,0.1295766830444336,-1.5218575636493128,0.006832132115960121,0.0007310377550311387,0.674318253993988,0.0,-0.0,0.0,0.0,0.0,0.0
1782666635,791259324,-1.6565702597247522,0.1295766830444336,-1.521893326436178,0.006916021462529898,0.0007789746159687638,0.6743302345275879,0.0,-0.0,0.0,0.0,0.0,0.0
1782666635,799277012,-1.6564863363849085,0.12963628768920898,-1.5218694845782679,0.006844115909188986,0.0007310377550311387,0.6743422150611877,0.0,-0.0,0.0,0.0,0.0,0.0
1782666635,807276830,-1.656534496937887,0.12963628768920898,-1.521881405507223,0.006939989980310202,0.0007310377550311387,0.6743302345275879,0.0,-0.0,0.0,0.0,0.0,0.0
1782666635,815226370,-1.6565106550799769,0.1295766830444336,-1.5218575636493128,0.006856100168079138,0.0007310377550311387,0.6743422150611877,0.0,-0.0,0.0,0.0,0.0,0.0
1782666635,823255744,-1.6565106550799769,0.12964820861816406,-1.5218694845782679,0.006904037203639746,0.0007909588748589158,0.6743662357330322,0.0,-0.0,0.0,0.0,0.0,0.0
1782666635,831255395,-1.656534496937887,0.12958860397338867,-1.5218456427203577,0.006916021462529898,0.0007550062146037817,0.6743302345275879,0.0,-0.0,0.0,0.0,0.0,0.0
1782666635,839264621,-1.656546417866842,0.12960100173950195,-1.5218575636493128,0.00686808442696929,0.0007190534961409867,0.6743422150611877,0.0,-0.0,0.0,0.0,0.0,0.0
1782666635,847271179,-1.6565702597247522,0.1296243667602539,-1.5218575636493128,0.006832132115960121,0.0007430219557136297,0.6743302345275879,0.0,-0.0,0.0,0.0,0.0,0.0
1782666635,855233756,-1.656522576008932,0.12960100173950195,-1.5218694845782679,0.006880068685859442,0.0007909588748589158,0.6743782162666321,0.0,-0.0,0.0,0.0,0.0,0.0
1782666635,863262371,-1.6565106550799769,0.12964820861816406,-1.5218213240252894,0.00686808442696929,0.0007190534961409867,0.6743302345275879,0.0,-0.0,0.0,0.0,0.0,0.0
1782666635,871343004,-1.6564987341510218,0.12958860397338867,-1.5218575636493128,0.006892052944749594,0.0007669904152862728,0.6743302345275879,0.0,-0.0,0.0,0.0,0.0,0.0
1782666635,879259340,-1.656522576008932,0.12961292266845703,-1.5218694845782679,0.006916021462529898,0.0007430219557136297,0.6743782162666321,0.0,-0.0,0.0,0.0,0.0,0.0
1782666635,887260843,-1.656546417866842,0.1296243667602539,-1.5218575636493128,0.006832132115960121,0.0007070692954584956,0.6743302345275879,0.0,-0.0,0.0,0.0,0.0,0.0
1782666635,895857277,-1.656546417866842,0.12961292266845703,-1.521881405507223,0.006892052944749594,0.0007789746159687638,0.6743062734603882,0.0,-0.0,0.0,0.0,0.0,0.0
1782666635,903269979,-1.6565106550799769,0.1296243667602539,-1.5218456427203577,0.006892052944749594,0.0007430219557136297,0.674318253993988,0.0,-0.0,0.0,0.0,0.0,0.0
1782666635,911240797,-1.6565702597247522,0.1296243667602539,-1.5218337217914026,0.006880068685859442,0.0007669904152862728,0.674318253993988,0.0,-0.0,0.0,0.0,0.0,0.0
1782666635,919252911,-1.6565106550799769,0.12961292266845703,-1.5218094030963343,0.006856100168079138,0.0007789746159687638,0.6743302345275879,0.0,-0.0,0.0,0.0,0.0,0.0
1782666635,927253840,-1.6565106550799769,0.1296243667602539,-1.521881405507223,0.00686808442696929,0.0007789746159687638,0.6743542551994324,0.0,-0.0,0.0,0.0,0.0,0.0
1782666635,935279158,-1.6564987341510218,0.12961292266845703,-1.5218456427203577,0.006856100168079138,0.0007190534961409867,0.6743662357330322,0.0,-0.0,0.0,0.0,0.0,0.0
1782666635,943265810,-1.656522576008932,0.12963628768920898,-1.5218694845782679,0.00686808442696929,0.0007669904152862728,0.6743302345275879,0.0,-0.0,0.0,0.0,0.0,0.0
1782666635,951395943,-1.6565945784198206,0.12963628768920898,-1.5218456427203577,0.006904037203639746,0.0007310377550311387,0.6743542551994324,0.0,-0.0,0.0,0.0,0.0,0.0
1782666635,959267094,-1.6565583387957972,0.1295766830444336,-1.5218575636493128,0.006832132115960121,0.0007430219557136297,0.6743422150611877,0.0,-0.0,0.0,0.0,0.0,0.0
1782666635,967246134,-1.656546417866842,0.12964820861816406,-1.521893326436178,0.006880068685859442,0.0007430219557136297,0.6743062734603882,0.0,-0.0,0.0,0.0,0.0,0.0
1782666635,975268952,-1.6564987341510218,0.12966012954711914,-1.521881405507223,0.006880068685859442,0.0007789746159687638,0.6743662357330322,0.0,-0.0,0.0,0.0,0.0,0.0
1782666635,983248270,-1.6565106550799769,0.12963628768920898,-1.5218575636493128,0.00686808442696929,0.0007310377550311387,0.6743422150611877,0.0,-0.0,0.0,0.0,0.0,0.0
1782666635,991267810,-1.6565106550799769,0.1296243667602539,-1.521881405507223,0.006904037203639746,0.0007310377550311387,0.6743062734603882,0.0,-0.0,0.0,0.0,0.0,0.0
1782666635,999334702,-1.6564863363849085,0.12964820861816406,-1.5218575636493128,0.006832132115960121,0.0007550062146037817,0.6743422150611877,0.0,-0.0,0.0,0.0,0.0,0.0
1782666636,7280594,-1.6564744154559534,0.12961292266845703,-1.5218337217914026,0.006880068685859442,0.0007430219557136297,0.6743782162666321,0.0,-0.0,0.0,0.0,0.0,0.0
1782666636,15259004,-1.656534496937887,0.12958860397338867,-1.521881405507223,0.006892052944749594,0.0007550062146037817,0.6743302345275879,0.0,-0.0,0.0,0.0,0.0,0.0
1782666636,23247156,-1.6565106550799769,0.12964820861816406,-1.521881405507223,0.006880068685859442,0.0007550062146037817,0.6743542551994324,0.0,-0.0,0.0,0.0,0.0,0.0
1782666636,31246418,-1.656522576008932,0.12961292266845703,-1.5218694845782679,0.006832132115960121,0.0007310377550311387,0.6743422150611877,0.0,-0.0,0.0,0.0,0.0,0.0
1782666636,39273033,-1.6565583387957972,0.1296243667602539,-1.5218694845782679,0.00686808442696929,0.0007310377550311387,0.6743542551994324,0.0,-0.0,0.0,0.0,0.0,0.0
1782666636,47247924,-1.6565106550799769,0.12961292266845703,-1.5218337217914026,0.006844115909188986,0.0007190534961409867,0.6743662357330322,0.0,-0.0,0.0,0.0,0.0,0.0
1782666636,55257316,-1.656546417866842,0.12966012954711914,-1.5218456427203577,0.00692800572142005,0.0007310377550311387,0.6743302345275879,0.0,-0.0,0.0,0.0,0.0,0.0
1782666636,63258097,-1.6564624945269983,0.12966012954711914,-1.521893326436178,0.006856100168079138,0.0007909588748589158,0.674318253993988,0.0,-0.0,0.0,0.0,0.0,0.0
1782666636,71266545,-1.656546417866842,0.12964820861816406,-1.5218213240252894,0.006856100168079138,0.0007310377550311387,0.6743422150611877,0.0,-0.0,0.0,0.0,0.0,0.0
1782666636,79233307,-1.656534496937887,0.12960100173950195,-1.5218337217914026,0.006856100168079138,0.0007550062146037817,0.6743302345275879,0.0,-0.0,0.0,0.0,0.0,0.0
1782666636,87246311,-1.6564987341510218,0.12960100173950195,-1.5218575636493128,0.006892052944749594,0.0007669904152862728,0.674318253993988,0.0,-0.0,0.0,0.0,0.0,0.0
1782666636,95338648,-1.6565106550799769,0.12958860397338867,-1.521893326436178,0.006856100168079138,0.0007310377550311387,0.6742942929267883,0.0,-0.0,0.0,0.0,0.0,0.0
1782666636,103347614,-1.656522576008932,0.12960100173950195,-1.5218456427203577,0.006856100168079138,0.0007310377550311387,0.6743302345275879,0.0,-0.0,0.0,0.0,0.0,0.0
1782666636,111253302,-1.6565106550799769,0.12960100173950195,-1.5218337217914026,0.006880068685859442,0.0007310377550311387,0.6743662357330322,0.0,-0.0,0.0,0.0,0.0,0.0
1782666636,119271731,-1.656546417866842,0.1296243667602539,-1.5218337217914026,0.006916021462529898,0.0007909588748589158,0.6743422150611877,0.0,-0.0,0.0,0.0,0.0,0.0
1782666636,127412679,-1.6565583387957972,0.12967252731323242,-1.5218456427203577,0.00686808442696929,0.0007789746159687638,0.6743302345275879,0.0,-0.0,0.0,0.0,0.0,0.0
1782666636,135239366,-1.656534496937887,0.1296243667602539,-1.521893326436178,0.006880068685859442,0.0007310377550311387,0.674318253993988,0.0,-0.0,0.0,0.0,0.0,0.0
1782666636,143265462,-1.6565106550799769,0.12966012954711914,-1.521893326436178,0.006832132115960121,0.0007669904152862728,0.6743662357330322,0.0,-0.0,0.0,0.0,0.0,0.0
1782666636,151265151,-1.6564744154559534,0.12958860397338867,-1.521881405507223,0.006892052944749594,0.0007310377550311387,0.6743422150611877,0.0,-0.0,0.0,0.0,0.0,0.0
1782666636,159441100,-1.6564863363849085,0.12964820861816406,-1.5218694845782679,0.006880068685859442,0.0007909588748589158,0.6743662357330322,0.0,-0.0,0.0,0.0,0.0,0.0
1782666636,167252416,-1.656522576008932,0.1296243667602539,-1.5218575636493128,0.00686808442696929,0.0007550062146037817,0.674318253993988,0.0,-0.0,0.0,0.0,0.0,0.0
1782666636,175275494,-1.6564744154559534,0.12960100173950195,-1.5218213240252894,0.006844115909188986,0.0007669904152862728,0.6743422150611877,0.0,-0.0,0.0,0.0,0.0,0.0
1782666636,183276182,-1.656522576008932,0.12963628768920898,-1.521881405507223,0.006820147857069969,0.0007550062146037817,0.6743302345275879,0.0,-0.0,0.0,0.0,0.0,0.0
1782666636,191330593,-1.6565583387957972,0.12958860397338867,-1.5218575636493128,0.006856100168079138,0.0007669904152862728,0.6743302345275879,0.0,-0.0,0.0,0.0,0.0,0.0
1782666636,199259855,-1.656522576008932,0.12964820861816406,-1.521893326436178,0.006892052944749594,0.0007550062146037817,0.6743782162666321,0.0,-0.0,0.0,0.0,0.0,0.0
1782666636,207264136,-1.6565106550799769,0.1295766830444336,-1.521893326436178,0.006856100168079138,0.0007310377550311387,0.6743542551994324,0.0,-0.0,0.0,0.0,0.0,0.0
1782666636,215265361,-1.6564987341510218,0.12963628768920898,-1.521881405507223,0.006856100168079138,0.0007190534961409867,0.674318253993988,0.0,-0.0,0.0,0.0,0.0,0.0
1782666636,223319476,-1.6564987341510218,0.12961292266845703,-1.521881405507223,0.006856100168079138,0.0007190534961409867,0.674318253993988,0.0,-0.0,0.0,0.0,0.0,0.0
1782666636,231260812,-1.656546417866842,0.12960100173950195,-1.5218694845782679,0.00686808442696929,0.0007550062146037817,0.6743542551994324,0.0,-0.0,0.0,0.0,0.0,0.0
1782666636,239366612,-1.6564863363849085,0.12960100173950195,-1.5218213240252894,0.006892052944749594,0.0007430219557136297,0.6743782162666321,0.0,-0.0,0.0,0.0,0.0,0.0
1782666636,247273411,-1.6564987341510218,0.12958860397338867,-1.5218575636493128,0.00686808442696929,0.0007310377550311387,0.674318253993988,0.0,-0.0,0.0,0.0,0.0,0.0
1782666636,255239136,-1.6564624945269983,0.12964820861816406,-1.521893326436178,0.006856100168079138,0.0007550062146037817,0.6742942929267883,0.0,-0.0,0.0,0.0,0.0,0.0
1782666636,263271862,-1.6564744154559534,0.1296243667602539,-1.5218694845782679,0.006796179339289665,0.0007310377550311387,0.6743422150611877,0.0,-0.0,0.0,0.0,0.0,0.0
1782666636,271261531,-1.6565583387957972,0.12963628768920898,-1.521881405507223,0.006832132115960121,0.0007669904152862728,0.6743662357330322,0.0,-0.0,0.0,0.0,0.0,0.0
1782666636,279257016,-1.6565583387957972,0.12964820861816406,-1.5218337217914026,0.006832132115960121,0.0007789746159687638,0.6743302345275879,0.0,-0.0,0.0,0.0,0.0,0.0
1782666636,287283593,-1.6565702597247522,0.12961292266845703,-1.5218694845782679,0.006844115909188986,0.0007430219557136297,0.6742942929267883,0.0,-0.0,0.0,0.0,0.0,0.0
1782666636,295268430,-1.6565106550799769,0.1296243667602539,-1.5219176451312464,0.006844115909188986,0.0007550062146037817,0.674318253993988,0.0,-0.0,0.0,0.0,0.0,0.0
1782666636,303239173,-1.656534496937887,0.1295766830444336,-1.5218456427203577,0.006904037203639746,0.0007550062146037817,0.6743422150611877,0.0,-0.0,0.0,0.0,0.0,0.0
1782666636,311277603,-1.656522576008932,0.1296243667602539,-1.5218337217914026,0.006880068685859442,0.0007789746159687638,0.6743662357330322,0.0,-0.0,0.0,0.0,0.0,0.0
1782666636,319385681,-1.656546417866842,0.12955284118652344,-1.5218694845782679,0.006880068685859442,0.0007430219557136297,0.6742823123931885,0.0,-0.0,0.0,0.0,0.0,0.0
1782666636,327262294,-1.6565106550799769,0.12958860397338867,-1.5218456427203577,0.006892052944749594,0.0007310377550311387,0.6742942929267883,0.0,-0.0,0.0,0.0,0.0,0.0
1782666636,335260371,-1.6564987341510218,0.12960100173950195,-1.5218456427203577,0.00686808442696929,0.0007430219557136297,0.6743302345275879,0.0,-0.0,0.0,0.0,0.0,0.0
1782666636,343264893,-1.6565583387957972,0.12956476211547852,-1.5218694845782679,0.00686808442696929,0.0008033175836317241,0.6743662357330322,0.0,-0.0,0.0,0.0,0.0,0.0
1782666636,351412546,-1.656522576008932,0.12960100173950195,-1.521905247365133,0.00686808442696929,0.0007669904152862728,0.6743662357330322,0.0,-0.0,0.0,0.0,0.0,0.0
1782666636,359239362,-1.6565583387957972,0.12964820861816406,-1.5218456427203577,0.006856100168079138,0.0007430219557136297,0.6743542551994324,0.0,-0.0,0.0,0.0,0.0,0.0
1782666636,367246569,-1.656534496937887,0.12963628768920898,-1.5218575636493128,0.006880068685859442,0.0007789746159687638,0.6743542551994324,0.0,-0.0,0.0,0.0,0.0,0.0
1782666636,375262776,-1.6564987341510218,0.12958860397338867,-1.521893326436178,0.006820147857069969,0.0007310377550311387,0.6743542551994324,0.0,-0.0,0.0,0.0,0.0,0.0
1782666636,383262761,-1.6565106550799769,0.12963628768920898,-1.5218575636493128,0.00686808442696929,0.0007190534961409867,0.6743901968002319,0.0,-0.0,0.0,0.0,0.0,0.0
1782666636,391261301,-1.6565106550799769,0.1296243667602539,-1.521881405507223,0.006880068685859442,0.0007310377550311387,0.674318253993988,0.0,-0.0,0.0,0.0,0.0,0.0
1782666636,399346508,-1.656522576008932,0.1295766830444336,-1.521905247365133,0.00686808442696929,0.0007430219557136297,0.6743302345275879,0.0,-0.0,0.0,0.0,0.0,0.0
1782666636,407267178,-1.656522576008932,0.12958860397338867,-1.521905247365133,0.006892052944749594,0.0007550062146037817,0.6742942929267883,0.0,-0.0,0.0,0.0,0.0,0.0
1782666636,415262477,-1.6565821806537073,0.1296243667602539,-1.5218575636493128,0.006832132115960121,0.0007550062146037817,0.6743542551994324,0.0,-0.0,0.0,0.0,0.0,0.0
1782666636,423242036,-1.656546417866842,0.1296243667602539,-1.521881405507223,0.006904037203639746,0.0007190534961409867,0.6743302345275879,0.0,-0.0,0.0,0.0,0.0,0.0
1782666636,431263669,-1.6564744154559534,0.1296243667602539,-1.5218694845782679,0.00692800572142005,0.0007550062146037817,0.674318253993988,0.0,-0.0,0.0,0.0,0.0,0.0
1782666636,439251338,-1.656522576008932,0.1296243667602539,-1.5218694845782679,0.006880068685859442,0.0007550062146037817,0.6743542551994324,0.0,-0.0,0.0,0.0,0.0,0.0
1782666636,447259730,-1.656546417866842,0.12963628768920898,-1.521881405507223,0.00686808442696929,0.0007430219557136297,0.6743542551994324,0.0,-0.0,0.0,0.0,0.0,0.0
1782666636,455383105,-1.656534496937887,0.12958860397338867,-1.5218575636493128,0.00686808442696929,0.0007310377550311387,0.6744021773338318,0.0,-0.0,0.0,0.0,0.0,0.0
1782666636,463698740,-1.6564987341510218,0.12961292266845703,-1.521893326436178,0.006856100168079138,0.0007909588748589158,0.6743302345275879,0.0,-0.0,0.0,0.0,0.0,0.0
1782666636,471241981,-1.6565106550799769,0.12964820861816406,-1.521881405507223,0.006880068685859442,0.0007909588748589158,0.6743542551994324,0.0,-0.0,0.0,0.0,0.0,0.0
1782666636,479259576,-1.656522576008932,0.12956476211547852,-1.5218337217914026,0.006880068685859442,0.0007669904152862728,0.674318253993988,0.0,-0.0,0.0,0.0,0.0,0.0
1782666636,487266561,-1.656522576008932,0.12960100173950195,-1.521893326436178,0.006880068685859442,0.0007789746159687638,0.6743542551994324,0.0,-0.0,0.0,0.0,0.0,0.0
1782666636,495254323,-1.6565106550799769,0.12958860397338867,-1.521893326436178,0.006892052944749594,0.0007550062146037817,0.6743782162666321,0.0,-0.0,0.0,0.0,0.0,0.0
1782666636,503248345,-1.6565106550799769,0.1296243667602539,-1.521905247365133,0.006856100168079138,0.0007789746159687638,0.674318253993988,0.0,-0.0,0.0,0.0,0.0,0.0
1782666636,511276256,-1.6564987341510218,0.1296243667602539,-1.5218456427203577,0.006880068685859442,0.0007550062146037817,0.674318253993988,0.0,-0.0,0.0,0.0,0.0,0.0
1782666636,519411760,-1.656546417866842,0.12960100173950195,-1.5218694845782679,0.006880068685859442,0.0007310377550311387,0.674318253993988,0.0,-0.0,0.0,0.0,0.0,0.0
1782666636,527244280,-1.656534496937887,0.12963628768920898,-1.5218575636493128,0.006916021462529898,0.0007789746159687638,0.674318253993988,0.0,-0.0,0.0,0.0,0.0,0.0
1782666636,535250987,-1.6565106550799769,0.12960100173950195,-1.521881405507223,0.006844115909188986,0.0007550062146037817,0.6743542551994324,0.0,-0.0,0.0,0.0,0.0,0.0
1782666636,543264435,-1.656534496937887,0.12958860397338867,-1.5218694845782679,0.006856100168079138,0.0007310377550311387,0.6743662357330322,0.0,-0.0,0.0,0.0,0.0,0.0
1782666636,551265420,-1.6565583387957972,0.12958860397338867,-1.521881405507223,0.00686808442696929,0.0007430219557136297,0.6743422150611877,0.0,-0.0,0.0,0.0,0.0,0.0
1782666636,559269608,-1.6565702597247522,0.12960100173950195,-1.5218337217914026,0.006880068685859442,0.0007310377550311387,0.6743302345275879,0.0,-0.0,0.0,0.0,0.0,0.0
1782666636,567268167,-1.656534496937887,0.1296243667602539,-1.521881405507223,0.006856100168079138,0.0007550062146037817,0.674318253993988,0.0,-0.0,0.0,0.0,0.0,0.0
1782666636,575269485,-1.656522576008932,0.1296243667602539,-1.5218456427203577,0.006820147857069969,0.0007550062146037817,0.6743422150611877,0.0,-0.0,0.0,0.0,0.0,0.0
1782666636,583260784,-1.6565106550799769,0.1296243667602539,-1.5218694845782679,0.006892052944749594,0.0007190534961409867,0.6743062734603882,0.0,-0.0,0.0,0.0,0.0,0.0
1782666636,591248028,-1.656534496937887,0.12963628768920898,-1.5218337217914026,0.006856100168079138,0.0007550062146037817,0.6743782162666321,0.0,-0.0,0.0,0.0,0.0,0.0
1782666636,599260327,-1.656522576008932,0.1296243667602539,-1.5218575636493128,0.006832132115960121,0.0007310377550311387,0.6743901968002319,0.0,-0.0,0.0,0.0,0.0,0.0
1782666636,607289664,-1.6564744154559534,0.12964820861816406,-1.521881405507223,0.006916021462529898,0.0007550062146037817,0.6743542551994324,0.0,-0.0,0.0,0.0,0.0,0.0
1782666636,615266297,-1.6565583387957972,0.12960100173950195,-1.5218575636493128,0.006856100168079138,0.0007190534961409867,0.674318253993988,0.0,-0.0,0.0,0.0,0.0,0.0
1782666636,623348134,-1.6565702597247522,0.12961292266845703,-1.5218694845782679,0.006844115909188986,0.0007310377550311387,0.6743782162666321,0.0,-0.0,0.0,0.0,0.0,0.0
1782666636,631268377,-1.6565106550799769,0.1296243667602539,-1.5218575636493128,0.006844115909188986,0.0007310377550311387,0.6743782162666321,0.0,-0.0,0.0,0.0,0.0,0.0
1782666636,639240473,-1.656546417866842,0.1296243667602539,-1.5218694845782679,0.006856100168079138,0.0007909588748589158,0.6743422150611877,0.0,-0.0,0.0,0.0,0.0,0.0
1782666636,647271161,-1.6564863363849085,0.12963628768920898,-1.5218456427203577,0.006856100168079138,0.0007909588748589158,0.6743422150611877,0.0,-0.0,0.0,0.0,0.0,0.0
1782666636,655399795,-1.656534496937887,0.1296243667602539,-1.521881405507223,0.006856100168079138,0.0007190534961409867,0.6743542551994324,0.0,-0.0,0.0,0.0,0.0,0.0
1782666636,663262927,-1.6565106550799769,0.12961292266845703,-1.521881405507223,0.006844115909188986,0.0007789746159687638,0.6743542551994324,0.0,-0.0,0.0,0.0,0.0,0.0
1782666636,671256893,-1.656534496937887,0.12958860397338867,-1.521881405507223,0.006880068685859442,0.0007310377550311387,0.674318253993988,0.0,-0.0,0.0,0.0,0.0,0.0
1782666636,679522028,-1.656534496937887,0.12964820861816406,-1.5218337217914026,0.006916021462529898,0.0007669904152862728,0.6743302345275879,0.0,-0.0,0.0,0.0,0.0,0.0
1782666636,687401419,-1.6564863363849085,0.1296243667602539,-1.521893326436178,0.006880068685859442,0.0007070692954584956,0.6743422150611877,0.0,-0.0,0.0,0.0,0.0,0.0
1782666636,695286032,-1.6564863363849085,0.12961292266845703,-1.5218575636493128,0.00686808442696929,0.0007430219557136297,0.6743782162666321,0.0,-0.0,0.0,0.0,0.0,0.0
1782666636,703252091,-1.6564863363849085,0.12964820861816406,-1.5218575636493128,0.006844115909188986,0.0007550062146037817,0.6743302345275879,0.0,-0.0,0.0,0.0,0.0,0.0
1782666636,711946580,-1.656546417866842,0.12963628768920898,-1.5218213240252894,0.006832132115960121,0.0007430219557136297,0.6743422150611877,0.0,-0.0,0.0,0.0,0.0,0.0
1782666636,719267838,-1.656546417866842,0.1296243667602539,-1.5218456427203577,0.00686808442696929,0.0007789746159687638,0.6743662357330322,0.0,-0.0,0.0,0.0,0.0,0.0
1782666636,727265841,-1.6564987341510218,0.12958860397338867,-1.521905247365133,0.006904037203639746,0.0007310377550311387,0.674318253993988,0.0,-0.0,0.0,0.0,0.0,0.0
1782666636,735256270,-1.656534496937887,0.12960100173950195,-1.5218213240252894,0.006904037203639746,0.0007430219557136297,0.6742823123931885,0.0,-0.0,0.0,0.0,0.0,0.0
1782666636,743253625,-1.6565106550799769,0.1296243667602539,-1.5218575636493128,0.00686808442696929,0.0007669904152862728,0.6743542551994324,0.0,-0.0,0.0,0.0,0.0,0.0
1782666636,751255647,-1.656522576008932,0.12963628768920898,-1.5218337217914026,0.006844115909188986,0.0007789746159687638,0.6743062734603882,0.0,-0.0,0.0,0.0,0.0,0.0
1782666636,759365262,-1.656534496937887,0.1296243667602539,-1.5218575636493128,0.006880068685859442,0.0007909588748589158,0.6743302345275879,0.0,-0.0,0.0,0.0,0.0,0.0
1782666636,767259023,-1.6565583387957972,0.1296243667602539,-1.521881405507223,0.006880068685859442,0.0007310377550311387,0.6743422150611877,0.0,-0.0,0.0,0.0,0.0,0.0
1782666636,775242489,-1.6564863363849085,0.12960100173950195,-1.521905247365133,0.006892052944749594,0.0007430219557136297,0.674318253993988,0.0,-0.0,0.0,0.0,0.0,0.0
1782666636,783264585,-1.6565583387957972,0.1296243667602539,-1.521881405507223,0.006844115909188986,0.0007310377550311387,0.6743302345275879,0.0,-0.0,0.0,0.0,0.0,0.0
1782666636,791394923,-1.6564987341510218,0.12963628768920898,-1.5218694845782679,0.006880068685859442,0.0007789746159687638,0.6743782162666321,0.0,-0.0,0.0,0.0,0.0,0.0
1782666636,799270314,-1.656534496937887,0.12958860397338867,-1.521893326436178,0.006904037203639746,0.0007550062146037817,0.6743422150611877,0.0,-0.0,0.0,0.0,0.0,0.0
1782666636,807235039,-1.656534496937887,0.1295766830444336,-1.5218456427203577,0.006856100168079138,0.0007669904152862728,0.6743302345275879,0.0,-0.0,0.0,0.0,0.0,0.0
1782666636,815264413,-1.6564987341510218,0.12956476211547852,-1.5218456427203577,0.006832132115960121,0.0007310377550311387,0.674318253993988,0.0,-0.0,0.0,0.0,0.0,0.0
1782666636,823380972,-1.6564987341510218,0.12960100173950195,-1.5218694845782679,0.006844115909188986,0.0007909588748589158,0.6743542551994324,0.0,-0.0,0.0,0.0,0.0,0.0
1782666636,831256641,-1.656522576008932,0.12966012954711914,-1.5218575636493128,0.00686808442696929,0.0007310377550311387,0.6743302345275879,0.0,-0.0,0.0,0.0,0.0,0.0
1782666636,839254589,-1.656546417866842,0.12960100173950195,-1.521893326436178,0.006856100168079138,0.0007190534961409867,0.6743662357330322,0.0,-0.0,0.0,0.0,0.0,0.0
1782666636,847265129,-1.6565583387957972,0.12958860397338867,-1.5218213240252894,0.006904037203639746,0.0007669904152862728,0.6743422150611877,0.0,-0.0,0.0,0.0,0.0,0.0
1782666636,855393078,-1.656522576008932,0.12958860397338867,-1.5218694845782679,0.006856100168079138,0.0007190534961409867,0.674318253993988,0.0,-0.0,0.0,0.0,0.0,0.0
1782666636,863236950,-1.6565106550799769,0.1296243667602539,-1.5218456427203577,0.006892052944749594,0.0007310377550311387,0.6743662357330322,0.0,-0.0,0.0,0.0,0.0,0.0
1782666636,871255490,-1.6565106550799769,0.1296243667602539,-1.5218575636493128,0.00686808442696929,0.0007669904152862728,0.6743062734603882,0.0,-0.0,0.0,0.0,0.0,0.0
1782666636,879272938,-1.656546417866842,0.12960100173950195,-1.521881405507223,0.006832132115960121,0.0007789746159687638,0.6743901968002319,0.0,-0.0,0.0,0.0,0.0,0.0
1782666636,887332738,-1.6565106550799769,0.12964820861816406,-1.5218213240252894,0.00686808442696929,0.0007310377550311387,0.674318253993988,0.0,-0.0,0.0,0.0,0.0,0.0
1782666636,895269426,-1.6565583387957972,0.1296243667602539,-1.5218575636493128,0.006856100168079138,0.0007430219557136297,0.6743901968002319,0.0,-0.0,0.0,0.0,0.0,0.0
1782666636,903251836,-1.656534496937887,0.12964820861816406,-1.5218694845782679,0.006892052944749594,0.0007190534961409867,0.6743302345275879,0.0,-0.0,0.0,0.0,0.0,0.0
1782666636,911253006,-1.656546417866842,0.1295766830444336,-1.5218694845782679,0.006832132115960121,0.0007190534961409867,0.6743662357330322,0.0,-0.0,0.0,0.0,0.0,0.0
1782666636,919343899,-1.656534496937887,0.1296243667602539,-1.5218337217914026,0.006880068685859442,0.0007550062146037817,0.674318253993988,0.0,-0.0,0.0,0.0,0.0,0.0
1782666636,927247475,-1.656534496937887,0.12961292266845703,-1.5218694845782679,0.006892052944749594,0.0007789746159687638,0.6743302345275879,0.0,-0.0,0.0,0.0,0.0,0.0
1782666636,935258479,-1.656522576008932,0.1296243667602539,-1.5218575636493128,0.006880068685859442,0.0007190534961409867,0.674318253993988,0.0,-0.0,0.0,0.0,0.0,0.0
1782666636,943265241,-1.6565106550799769,0.12960100173950195,-1.5218575636493128,0.006892052944749594,0.0007669904152862728,0.6743542551994324,0.0,-0.0,0.0,0.0,0.0,0.0
1782666636,951255670,-1.656534496937887,0.12961292266845703,-1.5218694845782679,0.006856100168079138,0.0007669904152862728,0.6743302345275879,0.0,-0.0,0.0,0.0,0.0,0.0
1782666636,959260377,-1.6565106550799769,0.1296243667602539,-1.521881405507223,0.006880068685859442,0.0007190534961409867,0.6743062734603882,0.0,-0.0,0.0,0.0,0.0,0.0
1782666636,967265232,-1.6564863363849085,0.12960100173950195,-1.5218337217914026,0.006880068685859442,0.0007430219557136297,0.6743302345275879,0.0,-0.0,0.0,0.0,0.0,0.0
1782666636,975254068,-1.6564987341510218,0.12961292266845703,-1.521881405507223,0.006880068685859442,0.0007310377550311387,0.6743782162666321,0.0,-0.0,0.0,0.0,0.0,0.0
1782666636,983342665,-1.656534496937887,0.1295766830444336,-1.5218694845782679,0.00686808442696929,0.0007310377550311387,0.6743662357330322,0.0,-0.0,0.0,0.0,0.0,0.0
1782666636,991268945,-1.6564987341510218,0.1296243667602539,-1.5218575636493128,0.006880068685859442,0.0007310377550311387,0.6743662357330322,0.0,-0.0,0.0,0.0,0.0,0.0
1782666636,999244152,-1.6564987341510218,0.12960100173950195,-1.5218456427203577,0.006844115909188986,0.0007669904152862728,0.6743542551994324,0.0,-0.0,0.0,0.0,0.0,0.0
1782666637,7265711,-1.6565106550799769,0.12963628768920898,-1.5218575636493128,0.006904037203639746,0.0007430219557136297,0.6744141578674316,0.0,-0.0,0.0,0.0,0.0,0.0
1782666637,15284492,-1.656534496937887,0.12958860397338867,-1.5218456427203577,0.006856100168079138,0.0007789746159687638,0.6743302345275879,0.0,-0.0,0.0,0.0,0.0,0.0
1782666637,23258847,-1.6565106550799769,0.12964820861816406,-1.5218456427203577,0.006820147857069969,0.0007789746159687638,0.6743782162666321,0.0,-0.0,0.0,0.0,0.0,0.0
1782666637,31235387,-1.656534496937887,0.12961292266845703,-1.5218337217914026,0.006880068685859442,0.0007310377550311387,0.6743901968002319,0.0,-0.0,0.0,0.0,0.0,0.0
