LukePepin/On-Edge/data/archived_logs/deceleration_data_1782665950.csv
timestamp_sec,timestamp_nanosec,shoulder_pan_pos,shoulder_lift_pos,elbow_pos,wrist_1_pos,wrist_2_pos,wrist_3_pos,shoulder_pan_vel,shoulder_lift_vel,elbow_vel,wrist_1_vel,wrist_2_vel,wrist_3_vel
1782665951,138695570,-1.656306568776266,0.12963628768920898,-1.5218694845782679,0.006880068685859442,0.0007909588748589158,0.6743782162666321,0.0,-0.0,0.0,0.0,0.0,0.0
1782665951,146919117,-1.6562822500811976,0.1296243667602539,-1.5218575636493128,0.006892052944749594,0.0007909588748589158,0.6743542551994324,0.0,-0.0,0.0,0.0,0.0,0.0
1782665951,162662411,-1.656306568776266,0.12963628768920898,-1.521905247365133,0.006904037203639746,0.0008392703020945191,0.6743542551994324,0.0,-0.0,0.0,0.0,0.0,0.0
1782665951,170725271,-1.656306568776266,0.12963628768920898,-1.521905247365133,0.006904037203639746,0.0008392703020945191,0.6743542551994324,0.0,-0.0,0.0,0.0,0.0,0.0
1782665951,178658168,-1.656330410634176,0.12963628768920898,-1.5218213240252894,0.006880068685859442,0.0007909588748589158,0.6744021773338318,0.0,-0.0,0.0,0.0,0.0,0.0
1782665951,186660991,-1.656306568776266,0.12961292266845703,-1.521893326436178,0.006880068685859442,0.0008153018425218761,0.6743662357330322,0.0,-0.0,0.0,0.0,0.0,0.0
1782665951,203343566,-1.656306568776266,0.1296243667602539,-1.521893326436178,0.006904037203639746,0.0008272860432043672,0.6743782162666321,0.0,-0.0,0.0,0.0,0.0,0.0
1782665951,211263037,-1.656306568776266,0.1296243667602539,-1.521893326436178,0.006904037203639746,0.0008272860432043672,0.6743782162666321,0.0,-0.0,0.0,0.0,0.0,0.0
1782665951,218894637,-1.6562941710101526,0.1296243667602539,-1.521893326436178,0.006892052944749594,0.0008272860432043672,0.6744021773338318,0.0,-0.0,0.0,0.0,0.0,0.0
1782665951,227417518,-1.656318489705221,0.12958860397338867,-1.521893326436178,0.006832132115960121,0.0007909588748589158,0.6743422150611877,0.0,-0.0,0.0,0.0,0.0,0.0
1782665951,234710302,-1.656318489705221,0.12958860397338867,-1.521893326436178,0.006832132115960121,0.0007909588748589158,0.6743422150611877,0.0,-0.0,0.0,0.0,0.0,0.0
1782665951,242719162,-1.656330410634176,0.12966012954711914,-1.5218575636493128,0.00686808442696929,0.0008512545027770102,0.6744021773338318,0.0,-0.0,0.0,0.0,0.0,0.0
1782665951,250970134,-1.656318489705221,0.12960100173950195,-1.5218456427203577,0.006892052944749594,0.0008512545027770102,0.6743901968002319,0.0,-0.0,0.0,0.0,0.0,0.0
1782665951,394705119,-1.6562584082232874,0.12963628768920898,-1.521905247365133,0.006880068685859442,0.0008392703020945191,0.6743662357330322,0.0,-0.0,0.0,0.0,0.0,0.0
1782665951,403485093,-1.6563542524920862,0.12961292266845703,-1.5218575636493128,0.006904037203639746,0.0007909588748589158,0.6743542551994324,0.0,-0.0,0.0,0.0,0.0,0.0
1782665951,413979517,-1.656330410634176,0.1295766830444336,-1.5218575636493128,0.006880068685859442,0.0008392703020945191,0.6743662357330322,0.0,-0.0,0.0,0.0,0.0,0.0
1782665951,420084538,-1.656330410634176,0.1295766830444336,-1.5218575636493128,0.006880068685859442,0.0008392703020945191,0.6743662357330322,0.0,-0.0,0.0,0.0,0.0,0.0
1782665951,437049280,-1.6563423315631312,0.12964820861816406,-1.521881405507223,0.006844115909188986,0.0008512545027770102,0.6744141578674316,0.0,-0.0,0.0,0.0,0.0,0.0
1782665951,442645040,-1.6563423315631312,0.12964820861816406,-1.521881405507223,0.006844115909188986,0.0008512545027770102,0.6744141578674316,0.0,-0.0,0.0,0.0,0.0,0.0
1782665951,447746965,-1.656330410634176,0.12958860397338867,-1.5218575636493128,0.006880068685859442,0.0007789746159687638,0.6743662357330322,0.0,-0.0,0.0,0.0,0.0,0.0
1782665951,451190958,-1.656330410634176,0.12958860397338867,-1.5218575636493128,0.006880068685859442,0.0007789746159687638,0.6743662357330322,0.0,-0.0,0.0,0.0,0.0,0.0
1782665951,459490689,-1.6563661734210413,0.12960100173950195,-1.521881405507223,0.006844115909188986,0.0008272860432043672,0.6743542551994324,0.0,-0.0,0.0,0.0,0.0,0.0
1782665951,466820436,-1.6563661734210413,0.12960100173950195,-1.521881405507223,0.006844115909188986,0.0008272860432043672,0.6743542551994324,0.0,-0.0,0.0,0.0,0.0,0.0
1782665951,474655481,-1.656330410634176,0.12964820861816406,-1.5218694845782679,0.00692800572142005,0.0008033175836317241,0.6743542551994324,0.0,-0.0,0.0,0.0,0.0,0.0
1782665951,491486927,-1.656318489705221,0.12964820861816406,-1.521893326436178,0.006856100168079138,0.0008512545027770102,0.6743542551994324,0.0,-0.0,0.0,0.0,0.0,0.0
1782665951,498673451,-1.6562941710101526,0.12967252731323242,-1.5218575636493128,0.006892052944749594,0.0008512545027770102,0.6744021773338318,0.0,-0.0,0.0,0.0,0.0,0.0
1782665951,506650348,-1.6562941710101526,0.12963628768920898,-1.5218694845782679,0.006904037203639746,0.0008272860432043672,0.6743901968002319,0.0,-0.0,0.0,0.0,0.0,0.0
1782665951,515162414,-1.656306568776266,0.12961292266845703,-1.5218575636493128,0.006904037203639746,0.0007669904152862728,0.6743662357330322,0.0,-0.0,0.0,0.0,0.0,0.0
1782665951,522758125,-1.656330410634176,0.12963628768920898,-1.521905247365133,0.006820147857069969,0.0007909588748589158,0.6743662357330322,0.0,-0.0,0.0,0.0,0.0,0.0
1782665951,530659744,-1.6563423315631312,0.12961292266845703,-1.5218456427203577,0.006892052944749594,0.0008033175836317241,0.6743901968002319,0.0,-0.0,0.0,0.0,0.0,0.0
1782665951,538696160,-1.656306568776266,0.12963628768920898,-1.5218456427203577,0.006880068685859442,0.0008272860432043672,0.674318253993988,0.0,-0.0,0.0,0.0,0.0,0.0
1782665951,546681669,-1.6562703291522425,0.12960100173950195,-1.5218694845782679,0.00686808442696929,0.0008153018425218761,0.6743901968002319,0.0,-0.0,0.0,0.0,0.0,0.0
1782665951,554660751,-1.656306568776266,0.1296243667602539,-1.521881405507223,0.006880068685859442,0.0007789746159687638,0.6743542551994324,0.0,-0.0,0.0,0.0,0.0,0.0
1782665951,562654815,-1.6562822500811976,0.12960100173950195,-1.5218575636493128,0.006844115909188986,0.0008033175836317241,0.6743422150611877,0.0,-0.0,0.0,0.0,0.0,0.0
1782665951,570708268,-1.6563661734210413,0.12961292266845703,-1.521893326436178,0.006939989980310202,0.0008153018425218761,0.6743542551994324,0.0,-0.0,0.0,0.0,0.0,0.0
1782665951,578740962,-1.6562941710101526,0.12961292266845703,-1.5218456427203577,0.006904037203639746,0.0007789746159687638,0.6744021773338318,0.0,-0.0,0.0,0.0,0.0,0.0
1782665951,586660915,-1.656318489705221,0.12963628768920898,-1.521881405507223,0.006832132115960121,0.0008392703020945191,0.6743901968002319,0.0,-0.0,0.0,0.0,0.0,0.0
1782665951,594712275,-1.656306568776266,0.12966012954711914,-1.5218213240252894,0.006844115909188986,0.0008033175836317241,0.6743901968002319,0.0,-0.0,0.0,0.0,0.0,0.0
1782665951,602764450,-1.6562941710101526,0.12964820861816406,-1.5218337217914026,0.006880068685859442,0.0007669904152862728,0.6743662357330322,0.0,-0.0,0.0,0.0,0.0,0.0
1782665951,610661977,-1.6563423315631312,0.1296243667602539,-1.5218337217914026,0.00686808442696929,0.0007789746159687638,0.6743542551994324,0.0,-0.0,0.0,0.0,0.0,0.0
1782665951,618652004,-1.656318489705221,0.12966012954711914,-1.521881405507223,0.006904037203639746,0.0007669904152862728,0.6743542551994324,0.0,-0.0,0.0,0.0,0.0,0.0
1782665951,626845402,-1.6562822500811976,0.12963628768920898,-1.521881405507223,0.006892052944749594,0.0007789746159687638,0.6744021773338318,0.0,-0.0,0.0,0.0,0.0,0.0
1782665951,634747558,-1.6563423315631312,0.12966012954711914,-1.5218456427203577,0.006880068685859442,0.0008272860432043672,0.6743782162666321,0.0,-0.0,0.0,0.0,0.0,0.0
1782665951,642813678,-1.6563423315631312,0.1296243667602539,-1.5218456427203577,0.006892052944749594,0.0008392703020945191,0.6743302345275879,0.0,-0.0,0.0,0.0,0.0,0.0
1782665951,650670834,-1.6562822500811976,0.1296844482421875,-1.5218456427203577,0.006892052944749594,0.0008153018425218761,0.6743422150611877,0.0,-0.0,0.0,0.0,0.0,0.0
1782665951,658700213,-1.656330410634176,0.1296243667602539,-1.521893326436178,0.006904037203639746,0.0008392703020945191,0.6743422150611877,0.0,-0.0,0.0,0.0,0.0,0.0
1782665951,666706685,-1.656318489705221,0.12958860397338867,-1.5219295660602015,0.006892052944749594,0.0007789746159687638,0.6743542551994324,0.0,-0.0,0.0,0.0,0.0,0.0
1782665951,674678119,-1.6563423315631312,0.1296243667602539,-1.5218575636493128,0.006880068685859442,0.0008272860432043672,0.6743901968002319,0.0,-0.0,0.0,0.0,0.0,0.0
1782665951,682692164,-1.6562822500811976,0.12961292266845703,-1.5218694845782679,0.006904037203639746,0.0008153018425218761,0.6744021773338318,0.0,-0.0,0.0,0.0,0.0,0.0
1782665951,690759821,-1.6562941710101526,0.12964820861816406,-1.521881405507223,0.006856100168079138,0.0008392703020945191,0.6743422150611877,0.0,-0.0,0.0,0.0,0.0,0.0
1782665951,698656403,-1.6562941710101526,0.12964820861816406,-1.521905247365133,0.006939989980310202,0.0008033175836317241,0.6743302345275879,0.0,-0.0,0.0,0.0,0.0,0.0
1782665951,707056284,-1.6563661734210413,0.12963628768920898,-1.5218337217914026,0.006880068685859442,0.0008272860432043672,0.6743542551994324,0.0,-0.0,0.0,0.0,0.0,0.0
1782665951,714671939,-1.6563423315631312,0.12967252731323242,-1.521881405507223,0.006880068685859442,0.0008272860432043672,0.6743422150611877,0.0,-0.0,0.0,0.0,0.0,0.0
1782665951,722664670,-1.656318489705221,0.12961292266845703,-1.5218694845782679,0.006856100168079138,0.0008153018425218761,0.6743901968002319,0.0,-0.0,0.0,0.0,0.0,0.0
1782665951,770967481,-1.6562941710101526,0.12966012954711914,-1.521881405507223,0.006880068685859442,0.0007909588748589158,0.6743662357330322,0.0,-0.0,0.0,0.0,0.0,0.0
1782665951,778652470,-1.656330410634176,0.12964820861816406,-1.5218694845782679,0.006880068685859442,0.0007909588748589158,0.6744261384010315,0.0,-0.0,0.0,0.0,0.0,0.0
1782665951,786678237,-1.6563661734210413,0.12958860397338867,-1.521905247365133,0.00692800572142005,0.0007789746159687638,0.6743542551994324,0.0,-0.0,0.0,0.0,0.0,0.0
1782665951,794693764,-1.656306568776266,0.1296243667602539,-1.5218575636493128,0.006916021462529898,0.0008392703020945191,0.6743302345275879,0.0,-0.0,0.0,0.0,0.0,0.0
1782665951,804791650,-1.6563423315631312,0.12963628768920898,-1.521905247365133,0.006892052944749594,0.0008272860432043672,0.674318253993988,0.0,-0.0,0.0,0.0,0.0,0.0
1782665951,810901967,-1.6563423315631312,0.12963628768920898,-1.521905247365133,0.006892052944749594,0.0008272860432043672,0.674318253993988,0.0,-0.0,0.0,0.0,0.0,0.0
1782665951,823464806,-1.656330410634176,0.12967252731323242,-1.521881405507223,0.00686808442696929,0.0008153018425218761,0.6743422150611877,0.0,-0.0,0.0,0.0,0.0,0.0
1782665951,828128803,-1.6562941710101526,0.12964820861816406,-1.5218694845782679,0.006916021462529898,0.0008153018425218761,0.6743422150611877,0.0,-0.0,0.0,0.0,0.0,0.0
1782665951,839332119,-1.656306568776266,0.12958860397338867,-1.521881405507223,0.006904037203639746,0.0008272860432043672,0.6743422150611877,0.0,-0.0,0.0,0.0,0.0,0.0
1782665951,851248566,-1.6562941710101526,0.12961292266845703,-1.521881405507223,0.006904037203639746,0.0007789746159687638,0.6743302345275879,0.0,-0.0,0.0,0.0,0.0,0.0
1782665951,859280890,-1.6562941710101526,0.12961292266845703,-1.521881405507223,0.006904037203639746,0.0007789746159687638,0.6743302345275879,0.0,-0.0,0.0,0.0,0.0,0.0
1782665951,867501806,-1.6562941710101526,0.12964820861816406,-1.5218694845782679,0.00686808442696929,0.0008033175836317241,0.6743542551994324,0.0,-0.0,0.0,0.0,0.0,0.0
1782665951,874865720,-1.6562941710101526,0.12964820861816406,-1.5218694845782679,0.00686808442696929,0.0008033175836317241,0.6743542551994324,0.0,-0.0,0.0,0.0,0.0,0.0
1782665951,882865654,-1.6563423315631312,0.1296243667602539,-1.5218575636493128,0.00686808442696929,0.0008272860432043672,0.6743662357330322,0.0,-0.0,0.0,0.0,0.0,0.0
1782665951,890768551,-1.6563423315631312,0.12960100173950195,-1.5218094030963343,0.006856100168079138,0.0008033175836317241,0.6744141578674316,0.0,-0.0,0.0,0.0,0.0,0.0
1782665951,917141177,-1.656318489705221,0.12960100173950195,-1.5218456427203577,0.00686808442696929,0.0008272860432043672,0.6743662357330322,0.0,-0.0,0.0,0.0,0.0,0.0
1782665951,931956005,-1.6562941710101526,0.12961292266845703,-1.5218456427203577,0.00686808442696929,0.0007909588748589158,0.6743662357330322,0.0,-0.0,0.0,0.0,0.0,0.0
1782665951,938968492,-1.6562941710101526,0.12961292266845703,-1.5218456427203577,0.00686808442696929,0.0007909588748589158,0.6743662357330322,0.0,-0.0,0.0,0.0,0.0,0.0
1782665951,946753000,-1.656318489705221,0.1296243667602539,-1.5218575636493128,0.00686808442696929,0.0008153018425218761,0.6743782162666321,0.0,-0.0,0.0,0.0,0.0,0.0
1782665951,954782027,-1.656330410634176,0.1296243667602539,-1.5218575636493128,0.006880068685859442,0.0007789746159687638,0.6743782162666321,0.0,-0.0,0.0,0.0,0.0,0.0
1782665951,962882739,-1.6562941710101526,0.12964820861816406,-1.521881405507223,0.00692800572142005,0.0008392703020945191,0.6744141578674316,0.0,-0.0,0.0,0.0,0.0,0.0
1782665951,970987489,-1.6563780943499964,0.1296243667602539,-1.5218694845782679,0.00692800572142005,0.0007909588748589158,0.6743901968002319,0.0,-0.0,0.0,0.0,0.0,0.0
1782665951,986682819,-1.656330410634176,0.1296243667602539,-1.5218575636493128,0.006856100168079138,0.0008153018425218761,0.6743542551994324,0.0,-0.0,0.0,0.0,0.0,0.0
1782665951,994653420,-1.6563423315631312,0.12966012954711914,-1.5218213240252894,0.006880068685859442,0.0008033175836317241,0.6743422150611877,0.0,-0.0,0.0,0.0,0.0,0.0
1782665952,2652484,-1.6562822500811976,0.12967252731323242,-1.5218694845782679,0.006880068685859442,0.0007669904152862728,0.6743662357330322,0.0,-0.0,0.0,0.0,0.0,0.0
1782665952,10737086,-1.6563423315631312,0.1296243667602539,-1.5218575636493128,0.006916021462529898,0.0008033175836317241,0.6743782162666321,0.0,-0.0,0.0,0.0,0.0,0.0
1782665952,18688002,-1.656306568776266,0.12960100173950195,-1.5218694845782679,0.006844115909188986,0.0008033175836317241,0.6743782162666321,0.0,-0.0,0.0,0.0,0.0,0.0
1782665952,90683097,-1.6563423315631312,0.1296844482421875,-1.5218575636493128,0.006880068685859442,0.0008153018425218761,0.6743422150611877,0.0,-0.0,0.0,0.0,0.0,0.0
1782665952,114743586,-1.656330410634176,0.12966012954711914,-1.521881405507223,0.006904037203639746,0.0007909588748589158,0.6744261384010315,0.0,-0.0,0.0,0.0,0.0,0.0
1782665952,138661889,-1.6562941710101526,0.12960100173950195,-1.5218575636493128,0.006880068685859442,0.0007669904152862728,0.6743901968002319,0.0,-0.0,0.0,0.0,0.0,0.0
1782665952,146652509,-1.656330410634176,0.12966012954711914,-1.5218456427203577,0.006820147857069969,0.0007789746159687638,0.6743782162666321,0.0,-0.0,0.0,0.0,0.0,0.0
1782665952,170778942,-1.6563423315631312,0.12967252731323242,-1.521881405507223,0.006904037203639746,0.0008033175836317241,0.6743782162666321,0.0,-0.0,0.0,0.0,0.0,0.0
1782665952,178772451,-1.656330410634176,0.12964820861816406,-1.5218694845782679,0.006832132115960121,0.0007909588748589158,0.674318253993988,0.0,-0.0,0.0,0.0,0.0,0.0
1782665952,186650348,-1.6563661734210413,0.12963628768920898,-1.5218694845782679,0.006904037203639746,0.0007789746159687638,0.6743542551994324,0.0,-0.0,0.0,0.0,0.0,0.0
1782665952,194716153,-1.6563542524920862,0.12966012954711914,-1.521881405507223,0.006904037203639746,0.0008272860432043672,0.6744021773338318,0.0,-0.0,0.0,0.0,0.0,0.0
1782665952,202685161,-1.6562941710101526,0.12967252731323242,-1.521881405507223,0.006856100168079138,0.0008033175836317241,0.6743422150611877,0.0,-0.0,0.0,0.0,0.0,0.0
1782665952,221979782,-1.656318489705221,0.12964820861816406,-1.5218575636493128,0.00692800572142005,0.0008153018425218761,0.6743542551994324,0.0,-0.0,0.0,0.0,0.0,0.0
1782665952,234664066,-1.656330410634176,0.1296243667602539,-1.5218456427203577,0.006880068685859442,0.0008272860432043672,0.6743901968002319,0.0,-0.0,0.0,0.0,0.0,0.0
1782665952,242742167,-1.656306568776266,0.12966012954711914,-1.521893326436178,0.006904037203639746,0.0008272860432043672,0.6743302345275879,0.0,-0.0,0.0,0.0,0.0,0.0
1782665952,282745395,-1.656330410634176,0.12966012954711914,-1.5218456427203577,0.006904037203639746,0.0008153018425218761,0.6743542551994324,0.0,-0.0,0.0,0.0,0.0,0.0
1782665952,290658366,-1.656330410634176,0.12964820861816406,-1.521881405507223,0.006844115909188986,0.0007909588748589158,0.6743662357330322,0.0,-0.0,0.0,0.0,0.0,0.0
1782665952,307029866,-1.6562941710101526,0.12961292266845703,-1.521881405507223,0.006904037203639746,0.0007789746159687638,0.6743662357330322,0.0,-0.0,0.0,0.0,0.0,0.0
1782665952,322775308,-1.656318489705221,0.12967252731323242,-1.5218575636493128,0.006880068685859442,0.0008033175836317241,0.6743542551994324,0.0,-0.0,0.0,0.0,0.0,0.0
1782665952,331011521,-1.6563661734210413,0.12964820861816406,-1.5218094030963343,0.00692800572142005,0.0007789746159687638,0.6743302345275879,0.0,-0.0,0.0,0.0,0.0,0.0
1782665952,338651566,-1.656330410634176,0.1296243667602539,-1.521893326436178,0.00686808442696929,0.0008153018425218761,0.6743662357330322,0.0,-0.0,0.0,0.0,0.0,0.0
1782665952,346670778,-1.656330410634176,0.12967252731323242,-1.5218337217914026,0.006880068685859442,0.0007909588748589158,0.6743422150611877,0.0,-0.0,0.0,0.0,0.0,0.0
1782665952,354682490,-1.656330410634176,0.12960100173950195,-1.5218337217914026,0.006880068685859442,0.0008033175836317241,0.6743542551994324,0.0,-0.0,0.0,0.0,0.0,0.0
1782665952,362734906,-1.6563661734210413,0.1296243667602539,-1.521881405507223,0.006916021462529898,0.0007550062146037817,0.6743662357330322,0.0,-0.0,0.0,0.0,0.0,0.0
1782665952,370759211,-1.6562941710101526,0.1296243667602539,-1.521905247365133,0.00686808442696929,0.0007909588748589158,0.6743542551994324,0.0,-0.0,0.0,0.0,0.0,0.0
1782665952,379289388,-1.656306568776266,0.12963628768920898,-1.521893326436178,0.006880068685859442,0.0008272860432043672,0.6743662357330322,0.0,-0.0,0.0,0.0,0.0,0.0
1782665952,388071325,-1.656306568776266,0.12963628768920898,-1.521893326436178,0.006880068685859442,0.0008272860432043672,0.6743662357330322,0.0,-0.0,0.0,0.0,0.0,0.0
1782665952,394707848,-1.6562941710101526,0.1296243667602539,-1.5218456427203577,0.006904037203639746,0.0007789746159687638,0.6743422150611877,0.0,-0.0,0.0,0.0,0.0,0.0
1782665952,402879875,-1.6562941710101526,0.1296243667602539,-1.5218575636493128,0.006916021462529898,0.0008392703020945191,0.6743782162666321,0.0,-0.0,0.0,0.0,0.0,0.0
1782665952,410691846,-1.6562941710101526,0.12963628768920898,-1.521905247365133,0.00692800572142005,0.0007789746159687638,0.6743782162666321,0.0,-0.0,0.0,0.0,0.0,0.0
1782665952,418669688,-1.656306568776266,0.12964820861816406,-1.521905247365133,0.006892052944749594,0.0008153018425218761,0.6744021773338318,0.0,-0.0,0.0,0.0,0.0,0.0
1782665952,426647845,-1.6562822500811976,0.12966012954711914,-1.5218575636493128,0.006904037203639746,0.0007909588748589158,0.6743662357330322,0.0,-0.0,0.0,0.0,0.0,0.0
1782665952,434650131,-1.656318489705221,0.1296243667602539,-1.521893326436178,0.00686808442696929,0.0008272860432043672,0.6743422150611877,0.0,-0.0,0.0,0.0,0.0,0.0
1782665952,442780677,-1.656318489705221,0.12963628768920898,-1.521893326436178,0.006880068685859442,0.0007909588748589158,0.6743901968002319,0.0,-0.0,0.0,0.0,0.0,0.0
1782665952,450648870,-1.656318489705221,0.12960100173950195,-1.5218337217914026,0.006892052944749594,0.0008033175836317241,0.6743542551994324,0.0,-0.0,0.0,0.0,0.0,0.0
1782665952,458870620,-1.656306568776266,0.12961292266845703,-1.5218337217914026,0.006916021462529898,0.0008512545027770102,0.6744021773338318,0.0,-0.0,0.0,0.0,0.0,0.0
1782665952,466824573,-1.6563423315631312,0.12960100173950195,-1.5218575636493128,0.006880068685859442,0.0008153018425218761,0.6743422150611877,0.0,-0.0,0.0,0.0,0.0,0.0
1782665952,474670748,-1.6563423315631312,0.1296243667602539,-1.5218694845782679,0.006880068685859442,0.0007789746159687638,0.6744141578674316,0.0,-0.0,0.0,0.0,0.0,0.0
1782665952,482725831,-1.6563423315631312,0.1296243667602539,-1.5218456427203577,0.006832132115960121,0.0007789746159687638,0.6744141578674316,0.0,-0.0,0.0,0.0,0.0,0.0
1782665952,490647987,-1.656330410634176,0.12963628768920898,-1.5218456427203577,0.006892052944749594,0.0008153018425218761,0.6744261384010315,0.0,-0.0,0.0,0.0,0.0,0.0
1782665952,498903497,-1.6563423315631312,0.12961292266845703,-1.521881405507223,0.00692800572142005,0.0008392703020945191,0.6743782162666321,0.0,-0.0,0.0,0.0,0.0,0.0
1782665952,506646152,-1.6563423315631312,0.12963628768920898,-1.521905247365133,0.006892052944749594,0.0008033175836317241,0.6743542551994324,0.0,-0.0,0.0,0.0,0.0,0.0
1782665952,514688939,-1.656318489705221,0.12961292266845703,-1.521881405507223,0.00692800572142005,0.0008153018425218761,0.6743062734603882,0.0,-0.0,0.0,0.0,0.0,0.0
1782665952,522743151,-1.656330410634176,0.12964820861816406,-1.521905247365133,0.006856100168079138,0.0007909588748589158,0.6743422150611877,0.0,-0.0,0.0,0.0,0.0,0.0
1782665952,530646900,-1.6562822500811976,0.12964820861816406,-1.521893326436178,0.006880068685859442,0.0007669904152862728,0.6743302345275879,0.0,-0.0,0.0,0.0,0.0,0.0
1782665952,538694965,-1.656318489705221,0.12964820861816406,-1.521893326436178,0.006844115909188986,0.0008272860432043672,0.6743782162666321,0.0,-0.0,0.0,0.0,0.0,0.0
1782665952,546703140,-1.656306568776266,0.12966012954711914,-1.5218456427203577,0.00686808442696929,0.0007909588748589158,0.6744021773338318,0.0,-0.0,0.0,0.0,0.0,0.0
1782665952,554653111,-1.656318489705221,0.12964820861816406,-1.5218694845782679,0.006904037203639746,0.0007909588748589158,0.6743422150611877,0.0,-0.0,0.0,0.0,0.0,0.0
1782665952,562751287,-1.6562464872943323,0.12964820861816406,-1.521881405507223,0.006892052944749594,0.0008153018425218761,0.6743302345275879,0.0,-0.0,0.0,0.0,0.0,0.0
1782665952,570659684,-1.656330410634176,0.12963628768920898,-1.521893326436178,0.006904037203639746,0.0008153018425218761,0.6743422150611877,0.0,-0.0,0.0,0.0,0.0,0.0
1782665952,578705137,-1.6563423315631312,0.1296243667602539,-1.5218575636493128,0.006844115909188986,0.0008033175836317241,0.6743782162666321,0.0,-0.0,0.0,0.0,0.0,0.0
1782665952,586655608,-1.656306568776266,0.12961292266845703,-1.5218694845782679,0.006892052944749594,0.0008392703020945191,0.6743542551994324,0.0,-0.0,0.0,0.0,0.0,0.0
1782665952,594705765,-1.6562941710101526,0.12960100173950195,-1.5218575636493128,0.00686808442696929,0.0008033175836317241,0.6743782162666321,0.0,-0.0,0.0,0.0,0.0,0.0
1782665952,602888015,-1.6562703291522425,0.1296243667602539,-1.521881405507223,0.006892052944749594,0.0007909588748589158,0.6743662357330322,0.0,-0.0,0.0,0.0,0.0,0.0
1782665952,610663764,-1.656306568776266,0.12966012954711914,-1.5218094030963343,0.006880068685859442,0.0008153018425218761,0.6743901968002319,0.0,-0.0,0.0,0.0,0.0,0.0
1782665952,618673457,-1.656330410634176,0.1296243667602539,-1.521881405507223,0.006904037203639746,0.0008272860432043672,0.6743302345275879,0.0,-0.0,0.0,0.0,0.0,0.0
1782665952,626673281,-1.656318489705221,0.1296243667602539,-1.5219176451312464,0.00686808442696929,0.0008033175836317241,0.6743542551994324,0.0,-0.0,0.0,0.0,0.0,0.0
1782665952,634851957,-1.6562464872943323,0.12967252731323242,-1.5218575636493128,0.006904037203639746,0.0007789746159687638,0.6743662357330322,0.0,-0.0,0.0,0.0,0.0,0.0
1782665952,642661539,-1.656306568776266,0.12958860397338867,-1.521905247365133,0.006892052944749594,0.0008153018425218761,0.6743662357330322,0.0,-0.0,0.0,0.0,0.0,0.0
1782665952,650672158,-1.656318489705221,0.12966012954711914,-1.521893326436178,0.006844115909188986,0.0007789746159687638,0.6743422150611877,0.0,-0.0,0.0,0.0,0.0,0.0
1782665952,658740500,-1.6562941710101526,0.12961292266845703,-1.5218337217914026,0.006904037203639746,0.0008272860432043672,0.6743662357330322,0.0,-0.0,0.0,0.0,0.0,0.0
1782665952,666757583,-1.6563423315631312,0.1295766830444336,-1.5218456427203577,0.006892052944749594,0.0008153018425218761,0.6743542551994324,0.0,-0.0,0.0,0.0,0.0,0.0
1782665952,674651573,-1.6563542524920862,0.12966012954711914,-1.521893326436178,0.006904037203639746,0.0007909588748589158,0.6743302345275879,0.0,-0.0,0.0,0.0,0.0,0.0
1782665952,683444288,-1.656330410634176,0.12967252731323242,-1.5218337217914026,0.006892052944749594,0.0007909588748589158,0.6743901968002319,0.0,-0.0,0.0,0.0,0.0,0.0
1782665952,690686164,-1.656330410634176,0.12967252731323242,-1.5218337217914026,0.006892052944749594,0.0007909588748589158,0.6743901968002319,0.0,-0.0,0.0,0.0,0.0,0.0
1782665952,698727673,-1.6563661734210413,0.1296243667602539,-1.5218456427203577,0.006892052944749594,0.0007909588748589158,0.6743901968002319,0.0,-0.0,0.0,0.0,0.0,0.0
1782665952,706660700,-1.656330410634176,0.12966012954711914,-1.5218456427203577,0.00686808442696929,0.0008392703020945191,0.6743782162666321,0.0,-0.0,0.0,0.0,0.0,0.0
1782665952,714808375,-1.656306568776266,0.12967252731323242,-1.5218694845782679,0.00686808442696929,0.0008272860432043672,0.6743782162666321,0.0,-0.0,0.0,0.0,0.0,0.0
1782665952,727286084,-1.6562703291522425,0.12960100173950195,-1.521893326436178,0.006856100168079138,0.0008272860432043672,0.6743302345275879,0.0,-0.0,0.0,0.0,0.0,0.0
1782665952,731193986,-1.6562703291522425,0.12960100173950195,-1.521893326436178,0.006856100168079138,0.0008272860432043672,0.6743302345275879,0.0,-0.0,0.0,0.0,0.0,0.0
1782665952,738708530,-1.656306568776266,0.12961292266845703,-1.521893326436178,0.006892052944749594,0.0007789746159687638,0.6743901968002319,0.0,-0.0,0.0,0.0,0.0,0.0
1782665952,746715668,-1.656318489705221,0.12966012954711914,-1.521881405507223,0.00686808442696929,0.0007550062146037817,0.6743901968002319,0.0,-0.0,0.0,0.0,0.0,0.0
1782665952,754816029,-1.6562941710101526,0.12966012954711914,-1.521881405507223,0.00686808442696929,0.0007669904152862728,0.6743542551994324,0.0,-0.0,0.0,0.0,0.0,0.0
1782665952,762852242,-1.656330410634176,0.12967252731323242,-1.5218575636493128,0.00686808442696929,0.0008033175836317241,0.6743302345275879,0.0,-0.0,0.0,0.0,0.0,0.0
1782665952,775511284,-1.6563542524920862,0.12964820861816406,-1.521881405507223,0.006892052944749594,0.0008272860432043672,0.6744021773338318,0.0,-0.0,0.0,0.0,0.0,0.0
1782665952,779004648,-1.6563542524920862,0.12964820861816406,-1.521881405507223,0.006892052944749594,0.0008272860432043672,0.6744021773338318,0.0,-0.0,0.0,0.0,0.0,0.0
1782665952,786790971,-1.6563423315631312,0.12967252731323242,-1.5218575636493128,0.006892052944749594,0.0008153018425218761,0.6743782162666321,0.0,-0.0,0.0,0.0,0.0,0.0
1782665952,794652423,-1.6562703291522425,0.12964820861816406,-1.5218694845782679,0.006892052944749594,0.0007789746159687638,0.6743782162666321,0.0,-0.0,0.0,0.0,0.0,0.0
1782665952,802947673,-1.656330410634176,0.12963628768920898,-1.521881405507223,0.006880068685859442,0.0008392703020945191,0.674318253993988,0.0,-0.0,0.0,0.0,0.0,0.0
1782665952,813232912,-1.656330410634176,0.12964820861816406,-1.5218694845782679,0.00686808442696929,0.0008272860432043672,0.6743542551994324,0.0,-0.0,0.0,0.0,0.0,0.0
1782665952,827238330,-1.6563661734210413,0.12964820861816406,-1.521905247365133,0.006844115909188986,0.0008272860432043672,0.6743782162666321,0.0,-0.0,0.0,0.0,0.0,0.0
1782665952,837608272,-1.6562941710101526,0.12960100173950195,-1.5218575636493128,0.006892052944749594,0.0007909588748589158,0.6743662357330322,0.0,-0.0,0.0,0.0,0.0,0.0
1782665952,874600527,-1.6563542524920862,0.12961292266845703,-1.5218456427203577,0.006880068685859442,0.0007789746159687638,0.6743901968002319,0.0,-0.0,0.0,0.0,0.0,0.0
1782665952,875786716,-1.6563542524920862,0.12961292266845703,-1.5218456427203577,0.006880068685859442,0.0007789746159687638,0.6743901968002319,0.0,-0.0,0.0,0.0,0.0,0.0
1782665952,876930405,-1.6563542524920862,0.12961292266845703,-1.5218456427203577,0.006880068685859442,0.0007789746159687638,0.6743901968002319,0.0,-0.0,0.0,0.0,0.0,0.0
1782665952,882706591,-1.656330410634176,0.12964820861816406,-1.5218694845782679,0.006939989980310202,0.0008272860432043672,0.6743662357330322,0.0,-0.0,0.0,0.0,0.0,0.0
1782665952,890659230,-1.656318489705221,0.12964820861816406,-1.5218575636493128,0.00686808442696929,0.0007909588748589158,0.6743662357330322,0.0,-0.0,0.0,0.0,0.0,0.0
1782665952,898647090,-1.656330410634176,0.12966012954711914,-1.5218694845782679,0.006832132115960121,0.0008272860432043672,0.6743542551994324,0.0,-0.0,0.0,0.0,0.0,0.0
1782665952,906674913,-1.6562703291522425,0.1296243667602539,-1.521881405507223,0.006892052944749594,0.0007909588748589158,0.6743782162666321,0.0,-0.0,0.0,0.0,0.0,0.0
1782665952,914707626,-1.656318489705221,0.12963628768920898,-1.5218094030963343,0.00692800572142005,0.0008033175836317241,0.6743662357330322,0.0,-0.0,0.0,0.0,0.0,0.0
1782665952,922661467,-1.6562941710101526,0.12966012954711914,-1.5218694845782679,0.006904037203639746,0.0008512545027770102,0.6743782162666321,0.0,-0.0,0.0,0.0,0.0,0.0
1782665952,930666569,-1.656306568776266,0.1296844482421875,-1.5218213240252894,0.006880068685859442,0.0007789746159687638,0.6743901968002319,0.0,-0.0,0.0,0.0,0.0,0.0
1782665952,938690670,-1.6562941710101526,0.1296243667602539,-1.521893326436178,0.006856100168079138,0.0008033175836317241,0.6743302345275879,0.0,-0.0,0.0,0.0,0.0,0.0
1782665952,946664845,-1.656306568776266,0.1296243667602539,-1.5218456427203577,0.006820147857069969,0.0008392703020945191,0.6743901968002319,0.0,-0.0,0.0,0.0,0.0,0.0
1782665952,954655594,-1.6562941710101526,0.12964820861816406,-1.5218337217914026,0.006880068685859442,0.0008033175836317241,0.674318253993988,0.0,-0.0,0.0,0.0,0.0,0.0
1782665952,962699436,-1.6563423315631312,0.12961292266845703,-1.5218456427203577,0.006880068685859442,0.0008033175836317241,0.6743662357330322,0.0,-0.0,0.0,0.0,0.0,0.0
1782665952,970668426,-1.6563423315631312,0.12966012954711914,-1.521881405507223,0.006880068685859442,0.0008272860432043672,0.6743782162666321,0.0,-0.0,0.0,0.0,0.0,0.0
1782665952,978655898,-1.656330410634176,0.12961292266845703,-1.5218337217914026,0.006892052944749594,0.0007909588748589158,0.6743662357330322,0.0,-0.0,0.0,0.0,0.0,0.0
1782665952,986735610,-1.6562941710101526,0.12963628768920898,-1.5218575636493128,0.006832132115960121,0.0008153018425218761,0.6744141578674316,0.0,-0.0,0.0,0.0,0.0,0.0
1782665952,994665118,-1.6563423315631312,0.12961292266845703,-1.521881405507223,0.006880068685859442,0.0007789746159687638,0.6744021773338318,0.0,-0.0,0.0,0.0,0.0,0.0
1782665953,2674238,-1.6563542524920862,0.12964820861816406,-1.5218337217914026,0.006892052944749594,0.0008033175836317241,0.674318253993988,0.0,-0.0,0.0,0.0,0.0,0.0
1782665953,10644376,-1.6562584082232874,0.1296243667602539,-1.5218337217914026,0.006904037203639746,0.0008392703020945191,0.674318253993988,0.0,-0.0,0.0,0.0,0.0,0.0
1782665953,18702663,-1.6562941710101526,0.12966012954711914,-1.5218694845782679,0.006939989980310202,0.0007669904152862728,0.6743422150611877,0.0,-0.0,0.0,0.0,0.0,0.0
1782665953,26678986,-1.6562941710101526,0.12958860397338867,-1.521881405507223,0.00686808442696929,0.0008153018425218761,0.6743782162666321,0.0,-0.0,0.0,0.0,0.0,0.0
1782665953,34652550,-1.6562941710101526,0.1296243667602539,-1.5218213240252894,0.00692800572142005,0.0007909588748589158,0.6743901968002319,0.0,-0.0,0.0,0.0,0.0,0.0
1782665953,42663226,-1.6563542524920862,0.1296243667602539,-1.521881405507223,0.006892052944749594,0.0007550062146037817,0.6743901968002319,0.0,-0.0,0.0,0.0,0.0,0.0
1782665953,50741494,-1.656318489705221,0.12961292266845703,-1.5218575636493128,0.00692800572142005,0.0007909588748589158,0.6743542551994324,0.0,-0.0,0.0,0.0,0.0,0.0
1782665953,58680391,-1.656330410634176,0.12963628768920898,-1.5218094030963343,0.006904037203639746,0.0008512545027770102,0.6743422150611877,0.0,-0.0,0.0,0.0,0.0,0.0
1782665953,66642826,-1.6562703291522425,0.12966012954711914,-1.5218694845782679,0.006904037203639746,0.0008153018425218761,0.6743662357330322,0.0,-0.0,0.0,0.0,0.0,0.0
1782665953,74660390,-1.6563423315631312,0.12958860397338867,-1.5218694845782679,0.006880068685859442,0.0008392703020945191,0.6743662357330322,0.0,-0.0,0.0,0.0,0.0,0.0
1782665953,82734380,-1.6563542524920862,0.12958860397338867,-1.5218694845782679,0.006904037203639746,0.0008153018425218761,0.6743782162666321,0.0,-0.0,0.0,0.0,0.0,0.0
1782665953,90664555,-1.6562822500811976,0.1296243667602539,-1.521881405507223,0.006916021462529898,0.0008272860432043672,0.6743782162666321,0.0,-0.0,0.0,0.0,0.0,0.0
1782665953,98659342,-1.656318489705221,0.12964820861816406,-1.5218456427203577,0.006904037203639746,0.0008272860432043672,0.6743901968002319,0.0,-0.0,0.0,0.0,0.0,0.0
1782665953,106700610,-1.6563423315631312,0.12967252731323242,-1.5218575636493128,0.006844115909188986,0.0007669904152862728,0.6743662357330322,0.0,-0.0,0.0,0.0,0.0,0.0
1782665953,114791452,-1.6562941710101526,0.1296243667602539,-1.521881405507223,0.00686808442696929,0.0008392703020945191,0.6743422150611877,0.0,-0.0,0.0,0.0,0.0,0.0
1782665953,122649293,-1.6562941710101526,0.12958860397338867,-1.5218694845782679,0.006856100168079138,0.0007789746159687638,0.6743901968002319,0.0,-0.0,0.0,0.0,0.0,0.0
1782665953,130663580,-1.656330410634176,0.12961292266845703,-1.521893326436178,0.006916021462529898,0.0008272860432043672,0.6743542551994324,0.0,-0.0,0.0,0.0,0.0,0.0
1782665953,138665644,-1.6563423315631312,0.1296243667602539,-1.5218575636493128,0.006856100168079138,0.0008153018425218761,0.6743542551994324,0.0,-0.0,0.0,0.0,0.0,0.0
1782665953,146770320,-1.6563542524920862,0.12961292266845703,-1.5218575636493128,0.00692800572142005,0.0008033175836317241,0.6743782162666321,0.0,-0.0,0.0,0.0,0.0,0.0
1782665953,154675032,-1.6562584082232874,0.12967252731323242,-1.521881405507223,0.006904037203639746,0.0008033175836317241,0.6742942929267883,0.0,-0.0,0.0,0.0,0.0,0.0
1782665953,162646892,-1.656318489705221,0.1296243667602539,-1.5218694845782679,0.00692800572142005,0.0008033175836317241,0.6743542551994324,0.0,-0.0,0.0,0.0,0.0,0.0
1782665953,170665105,-1.6563423315631312,0.12963628768920898,-1.521881405507223,0.006880068685859442,0.0008512545027770102,0.6743782162666321,0.0,-0.0,0.0,0.0,0.0,0.0
1782665953,178661965,-1.656318489705221,0.12966012954711914,-1.5218694845782679,0.006880068685859442,0.0007789746159687638,0.6743302345275879,0.0,-0.0,0.0,0.0,0.0,0.0
1782665953,186673251,-1.656318489705221,0.12966012954711914,-1.5218694845782679,0.006904037203639746,0.0007789746159687638,0.6743901968002319,0.0,-0.0,0.0,0.0,0.0,0.0
1782665953,194662242,-1.6562941710101526,0.12966012954711914,-1.5218094030963343,0.006856100168079138,0.0008272860432043672,0.6743901968002319,0.0,-0.0,0.0,0.0,0.0,0.0
1782665953,202659250,-1.6562822500811976,0.12963628768920898,-1.5218456427203577,0.006904037203639746,0.0008392703020945191,0.6743422150611877,0.0,-0.0,0.0,0.0,0.0,0.0
1782665953,210674833,-1.656306568776266,0.12966012954711914,-1.5218456427203577,0.006856100168079138,0.0008033175836317241,0.6743662357330322,0.0,-0.0,0.0,0.0,0.0,0.0
1782665953,218676693,-1.6562941710101526,0.1296243667602539,-1.521881405507223,0.006880068685859442,0.0007789746159687638,0.6743542551994324,0.0,-0.0,0.0,0.0,0.0,0.0
1782665953,226675017,-1.656318489705221,0.1296243667602539,-1.521893326436178,0.006880068685859442,0.0008512545027770102,0.6743542551994324,0.0,-0.0,0.0,0.0,0.0,0.0
1782665953,234672192,-1.656330410634176,0.12966012954711914,-1.5218575636493128,0.006939989980310202,0.0008033175836317241,0.674318253993988,0.0,-0.0,0.0,0.0,0.0,0.0
1782665953,242645904,-1.6562822500811976,0.1296243667602539,-1.521881405507223,0.00686808442696929,0.0007669904152862728,0.6743662357330322,0.0,-0.0,0.0,0.0,0.0,0.0
1782665953,250914395,-1.656330410634176,0.12964820861816406,-1.5218694845782679,0.006916021462529898,0.0007909588748589158,0.6743782162666321,0.0,-0.0,0.0,0.0,0.0,0.0
1782665953,258659255,-1.6562822500811976,0.12958860397338867,-1.5218575636493128,0.00692800572142005,0.0008153018425218761,0.6743542551994324,0.0,-0.0,0.0,0.0,0.0,0.0
1782665953,266681560,-1.656330410634176,0.12967252731323242,-1.5218337217914026,0.006856100168079138,0.0008272860432043672,0.6743062734603882,0.0,-0.0,0.0,0.0,0.0,0.0
1782665953,274655754,-1.6562584082232874,0.1296243667602539,-1.521893326436178,0.006939989980310202,0.0008153018425218761,0.6743422150611877,0.0,-0.0,0.0,0.0,0.0,0.0
1782665953,282666559,-1.656306568776266,0.12966012954711914,-1.521881405507223,0.006892052944749594,0.0008033175836317241,0.674318253993988,0.0,-0.0,0.0,0.0,0.0,0.0
1782665953,290653271,-1.656330410634176,0.12966012954711914,-1.5218575636493128,0.006892052944749594,0.0007909588748589158,0.6743542551994324,0.0,-0.0,0.0,0.0,0.0,0.0
1782665953,298659317,-1.656330410634176,0.12963628768920898,-1.5218575636493128,0.006892052944749594,0.0008153018425218761,0.6743782162666321,0.0,-0.0,0.0,0.0,0.0,0.0
1782665953,306735992,-1.6562703291522425,0.1296243667602539,-1.521893326436178,0.006880068685859442,0.0008512545027770102,0.6743662357330322,0.0,-0.0,0.0,0.0,0.0,0.0
1782665953,314674797,-1.656318489705221,0.12963628768920898,-1.521893326436178,0.006880068685859442,0.0008153018425218761,0.6743782162666321,0.0,-0.0,0.0,0.0,0.0,0.0
1782665953,322662398,-1.6562941710101526,0.12960100173950195,-1.521893326436178,0.006904037203639746,0.0007669904152862728,0.6743302345275879,0.0,-0.0,0.0,0.0,0.0,0.0
1782665953,330669351,-1.656306568776266,0.12961292266845703,-1.5218694845782679,0.006892052944749594,0.0008153018425218761,0.6743302345275879,0.0,-0.0,0.0,0.0,0.0,0.0
1782665953,338669971,-1.6562941710101526,0.12961292266845703,-1.5218575636493128,0.00692800572142005,0.0007909588748589158,0.6743542551994324,0.0,-0.0,0.0,0.0,0.0,0.0
1782665953,346650387,-1.6562941710101526,0.12963628768920898,-1.521893326436178,0.006916021462529898,0.0007669904152862728,0.6743422150611877,0.0,-0.0,0.0,0.0,0.0,0.0
1782665953,354658618,-1.6562941710101526,0.12961292266845703,-1.5218575636493128,0.00686808442696929,0.0007789746159687638,0.6743422150611877,0.0,-0.0,0.0,0.0,0.0,0.0
1782665953,362658404,-1.6562941710101526,0.12960100173950195,-1.521881405507223,0.00686808442696929,0.0007909588748589158,0.6743901968002319,0.0,-0.0,0.0,0.0,0.0,0.0
1782665953,370678506,-1.6562822500811976,0.1296243667602539,-1.5218694845782679,0.006880068685859442,0.0007909588748589158,0.6742942929267883,0.0,-0.0,0.0,0.0,0.0,0.0
1782665953,378786237,-1.656330410634176,0.1296243667602539,-1.5218694845782679,0.006880068685859442,0.0007789746159687638,0.6743422150611877,0.0,-0.0,0.0,0.0,0.0,0.0
1782665953,386674449,-1.656306568776266,0.12961292266845703,-1.521893326436178,0.006916021462529898,0.0008033175836317241,0.6743662357330322,0.0,-0.0,0.0,0.0,0.0,0.0
1782665953,394676050,-1.656318489705221,0.12960100173950195,-1.5218694845782679,0.006832132115960121,0.0008153018425218761,0.6743662357330322,0.0,-0.0,0.0,0.0,0.0,0.0
1782665953,402658151,-1.656330410634176,0.12964820861816406,-1.5218694845782679,0.006904037203639746,0.0007909588748589158,0.6743901968002319,0.0,-0.0,0.0,0.0,0.0,0.0
1782665953,410652752,-1.656330410634176,0.1296243667602539,-1.5218575636493128,0.00692800572142005,0.0007789746159687638,0.674318253993988,0.0,-0.0,0.0,0.0,0.0,0.0
1782665953,418671854,-1.656330410634176,0.12961292266845703,-1.5218456427203577,0.006892052944749594,0.0008392703020945191,0.6743782162666321,0.0,-0.0,0.0,0.0,0.0,0.0
1782665953,426656399,-1.656318489705221,0.12961292266845703,-1.5218337217914026,0.006904037203639746,0.0007669904152862728,0.6743542551994324,0.0,-0.0,0.0,0.0,0.0,0.0
1782665953,434669001,-1.656306568776266,0.12963628768920898,-1.5218694845782679,0.006916021462529898,0.0008392703020945191,0.6743901968002319,0.0,-0.0,0.0,0.0,0.0,0.0
1782665953,442702583,-1.6563423315631312,0.12967252731323242,-1.521881405507223,0.006880068685859442,0.0007909588748589158,0.6743422150611877,0.0,-0.0,0.0,0.0,0.0,0.0
1782665953,450674999,-1.656330410634176,0.1296243667602539,-1.521881405507223,0.006916021462529898,0.0008153018425218761,0.6743782162666321,0.0,-0.0,0.0,0.0,0.0,0.0
1782665953,458644397,-1.656318489705221,0.12961292266845703,-1.521905247365133,0.006904037203639746,0.0007909588748589158,0.6744141578674316,0.0,-0.0,0.0,0.0,0.0,0.0
1782665953,466697683,-1.6562703291522425,0.1296243667602539,-1.5218456427203577,0.006880068685859442,0.0008153018425218761,0.6743782162666321,0.0,-0.0,0.0,0.0,0.0,0.0
1782665953,474657284,-1.656318489705221,0.12967252731323242,-1.5217974821673792,0.006904037203639746,0.0008153018425218761,0.6743422150611877,0.0,-0.0,0.0,0.0,0.0,0.0
1782665953,482664071,-1.656318489705221,0.12963628768920898,-1.5218337217914026,0.006880068685859442,0.0008392703020945191,0.6743542551994324,0.0,-0.0,0.0,0.0,0.0,0.0
1782665953,490656894,-1.656318489705221,0.12964820861816406,-1.5218694845782679,0.006856100168079138,0.0007909588748589158,0.6744021773338318,0.0,-0.0,0.0,0.0,0.0,0.0
1782665953,498688847,-1.6562941710101526,0.12963628768920898,-1.5218694845782679,0.006880068685859442,0.0008033175836317241,0.6743542551994324,0.0,-0.0,0.0,0.0,0.0,0.0
1782665953,506803282,-1.6563542524920862,0.1296243667602539,-1.5218575636493128,0.006892052944749594,0.0008033175836317241,0.6743782162666321,0.0,-0.0,0.0,0.0,0.0,0.0
1782665953,514655050,-1.6562941710101526,0.12963628768920898,-1.5218694845782679,0.006904037203639746,0.0007909588748589158,0.6743302345275879,0.0,-0.0,0.0,0.0,0.0,0.0
1782665953,522660651,-1.656318489705221,0.12961292266845703,-1.5218694845782679,0.006904037203639746,0.0007669904152862728,0.6743422150611877,0.0,-0.0,0.0,0.0,0.0,0.0
1782665953,530659993,-1.6562941710101526,0.12967252731323242,-1.521881405507223,0.00692800572142005,0.0007909588748589158,0.6743302345275879,0.0,-0.0,0.0,0.0,0.0,0.0
1782665953,538740724,-1.6562822500811976,0.12961292266845703,-1.521893326436178,0.006904037203639746,0.0008033175836317241,0.6743302345275879,0.0,-0.0,0.0,0.0,0.0,0.0
1782665953,546675732,-1.656306568776266,0.12966012954711914,-1.5218213240252894,0.00686808442696929,0.0007789746159687638,0.6743662357330322,0.0,-0.0,0.0,0.0,0.0,0.0
1782665953,554665241,-1.6563423315631312,0.12961292266845703,-1.5218694845782679,0.006832132115960121,0.0008872071630321443,0.6743782162666321,0.0,-0.0,0.0,0.0,0.0,0.0
1782665953,562670916,-1.6563423315631312,0.12960100173950195,-1.521893326436178,0.00686808442696929,0.0008033175836317241,0.674318253993988,0.0,-0.0,0.0,0.0,0.0,0.0
1782665953,570675184,-1.656306568776266,0.12964820861816406,-1.5218694845782679,0.006856100168079138,0.0008392703020945191,0.6743542551994324,0.0,-0.0,0.0,0.0,0.0,0.0
1782665953,578652934,-1.6563423315631312,0.12967252731323242,-1.5218337217914026,0.006916021462529898,0.0008153018425218761,0.6743542551994324,0.0,-0.0,0.0,0.0,0.0,0.0
1782665953,586651664,-1.6562941710101526,0.1296243667602539,-1.521881405507223,0.006916021462529898,0.0008153018425218761,0.6743062734603882,0.0,-0.0,0.0,0.0,0.0,0.0
1782665953,594671766,-1.656330410634176,0.12966012954711914,-1.5218337217914026,0.00686808442696929,0.0008512545027770102,0.6743542551994324,0.0,-0.0,0.0,0.0,0.0,0.0
1782665953,602702237,-1.6562822500811976,0.12964820861816406,-1.521881405507223,0.006892052944749594,0.0008033175836317241,0.6743422150611877,0.0,-0.0,0.0,0.0,0.0,0.0
1782665953,610670598,-1.656306568776266,0.12958860397338867,-1.5218694845782679,0.006904037203639746,0.0008153018425218761,0.6743782162666321,0.0,-0.0,0.0,0.0,0.0,0.0
1782665953,618673032,-1.656330410634176,0.1296243667602539,-1.521893326436178,0.006880068685859442,0.0008033175836317241,0.6743302345275879,0.0,-0.0,0.0,0.0,0.0,0.0
1782665953,626649411,-1.6562941710101526,0.12967252731323242,-1.5218575636493128,0.006939989980310202,0.0008272860432043672,0.6744021773338318,0.0,-0.0,0.0,0.0,0.0,0.0
1782665953,634653198,-1.656306568776266,0.1296844482421875,-1.5218213240252894,0.006904037203639746,0.0008272860432043672,0.6743662357330322,0.0,-0.0,0.0,0.0,0.0,0.0
1782665953,642684836,-1.656318489705221,0.1296243667602539,-1.521893326436178,0.006892052944749594,0.0008512545027770102,0.6743542551994324,0.0,-0.0,0.0,0.0,0.0,0.0
1782665953,650660326,-1.6563423315631312,0.12966012954711914,-1.5219176451312464,0.00686808442696929,0.0008033175836317241,0.6743422150611877,0.0,-0.0,0.0,0.0,0.0,0.0
1782665953,658645946,-1.6562703291522425,0.12967252731323242,-1.521893326436178,0.006808163598179817,0.0008153018425218761,0.6743542551994324,0.0,-0.0,0.0,0.0,0.0,0.0
1782665953,666701529,-1.656318489705221,0.1296243667602539,-1.5218456427203577,0.006880068685859442,0.0008392703020945191,0.6743782162666321,0.0,-0.0,0.0,0.0,0.0,0.0
1782665953,674686667,-1.6562822500811976,0.12961292266845703,-1.5218456427203577,0.006880068685859442,0.0007789746159687638,0.6743302345275879,0.0,-0.0,0.0,0.0,0.0,0.0
1782665953,682679601,-1.6562941710101526,0.12960100173950195,-1.521881405507223,0.006880068685859442,0.0007909588748589158,0.674318253993988,0.0,-0.0,0.0,0.0,0.0,0.0
1782665953,690671999,-1.656318489705221,0.12963628768920898,-1.5218456427203577,0.006880068685859442,0.0008392703020945191,0.6743542551994324,0.0,-0.0,0.0,0.0,0.0,0.0
1782665953,698756045,-1.6562703291522425,0.12964820861816406,-1.521881405507223,0.006880068685859442,0.0007909588748589158,0.6743782162666321,0.0,-0.0,0.0,0.0,0.0,0.0
1782665953,706683183,-1.6562703291522425,0.12966012954711914,-1.5218337217914026,0.006844115909188986,0.0007789746159687638,0.6743901968002319,0.0,-0.0,0.0,0.0,0.0,0.0
1782665953,714660747,-1.656306568776266,0.1296844482421875,-1.5218337217914026,0.006892052944749594,0.0008272860432043672,0.6743422150611877,0.0,-0.0,0.0,0.0,0.0,0.0
1782665953,722676978,-1.6562703291522425,0.12963628768920898,-1.5218575636493128,0.006904037203639746,0.0008033175836317241,0.6743662357330322,0.0,-0.0,0.0,0.0,0.0,0.0
1782665953,730694690,-1.6563542524920862,0.12969636917114258,-1.5218694845782679,0.006880068685859442,0.0007789746159687638,0.6743901968002319,0.0,-0.0,0.0,0.0,0.0,0.0
1782665953,738662736,-1.656306568776266,0.12967252731323242,-1.521881405507223,0.006916021462529898,0.0008033175836317241,0.6743782162666321,0.0,-0.0,0.0,0.0,0.0,0.0
1782665953,746654689,-1.6562941710101526,0.1296243667602539,-1.5218694845782679,0.006880068685859442,0.0008153018425218761,0.6743302345275879,0.0,-0.0,0.0,0.0,0.0,0.0
1782665953,754675716,-1.6563661734210413,0.12960100173950195,-1.5218337217914026,0.006904037203639746,0.0008272860432043672,0.6743542551994324,0.0,-0.0,0.0,0.0,0.0,0.0
1782665953,762700392,-1.6563423315631312,0.12964820861816406,-1.521893326436178,0.006856100168079138,0.0008033175836317241,0.6743542551994324,0.0,-0.0,0.0,0.0,0.0,0.0
1782665953,770671641,-1.656318489705221,0.12964820861816406,-1.521905247365133,0.006880068685859442,0.0007789746159687638,0.6743662357330322,0.0,-0.0,0.0,0.0,0.0,0.0
1782665953,778654223,-1.6563542524920862,0.12961292266845703,-1.521893326436178,0.006892052944749594,0.0007909588748589158,0.6743422150611877,0.0,-0.0,0.0,0.0,0.0,0.0
1782665953,786658251,-1.656306568776266,0.12960100173950195,-1.5218694845782679,0.006856100168079138,0.0008153018425218761,0.6743542551994324,0.0,-0.0,0.0,0.0,0.0,0.0
1782665953,794733500,-1.6562703291522425,0.1296844482421875,-1.5218694845782679,0.006880068685859442,0.0008033175836317241,0.6743422150611877,0.0,-0.0,0.0,0.0,0.0,0.0
1782665953,802661823,-1.6562941710101526,0.12966012954711914,-1.5218694845782679,0.006832132115960121,0.0008033175836317241,0.6743422150611877,0.0,-0.0,0.0,0.0,0.0,0.0
1782665953,810700240,-1.6563423315631312,0.1296243667602539,-1.5218575636493128,0.006856100168079138,0.0008153018425218761,0.6743302345275879,0.0,-0.0,0.0,0.0,0.0,0.0
1782665953,818673933,-1.6563542524920862,0.12958860397338867,-1.521905247365133,0.006820147857069969,0.0008153018425218761,0.6743901968002319,0.0,-0.0,0.0,0.0,0.0,0.0
1782665953,826758813,-1.6562703291522425,0.12966012954711914,-1.5218213240252894,0.006880068685859442,0.0008153018425218761,0.6743662357330322,0.0,-0.0,0.0,0.0,0.0,0.0
1782665953,834665895,-1.6562822500811976,0.12961292266845703,-1.5218337217914026,0.006880068685859442,0.0007789746159687638,0.6744021773338318,0.0,-0.0,0.0,0.0,0.0,0.0
1782665953,842668552,-1.656330410634176,0.12963628768920898,-1.5218575636493128,0.006892052944749594,0.0008153018425218761,0.6743901968002319,0.0,-0.0,0.0,0.0,0.0,0.0
1782665953,850666764,-1.6563542524920862,0.12963628768920898,-1.521893326436178,0.006880068685859442,0.0008272860432043672,0.6743782162666321,0.0,-0.0,0.0,0.0,0.0,0.0
1782665953,858651236,-1.656330410634176,0.12964820861816406,-1.5218694845782679,0.006892052944749594,0.0008153018425218761,0.6743901968002319,0.0,-0.0,0.0,0.0,0.0,0.0
1782665953,866670856,-1.656318489705221,0.12967252731323242,-1.5218694845782679,0.006892052944749594,0.0008272860432043672,0.6743422150611877,0.0,-0.0,0.0,0.0,0.0,0.0
1782665953,874652790,-1.656318489705221,0.12963628768920898,-1.521881405507223,0.006880068685859442,0.0007909588748589158,0.6743901968002319,0.0,-0.0,0.0,0.0,0.0,0.0
1782665953,882687540,-1.656306568776266,0.12960100173950195,-1.5218575636493128,0.006904037203639746,0.0008153018425218761,0.6743302345275879,0.0,-0.0,0.0,0.0,0.0,0.0
1782665953,890704122,-1.6562941710101526,0.12967252731323242,-1.5218456427203577,0.006892052944749594,0.0008392703020945191,0.6744021773338318,0.0,-0.0,0.0,0.0,0.0,0.0
1782665953,898686890,-1.656318489705221,0.12966012954711914,-1.5218694845782679,0.006880068685859442,0.0008153018425218761,0.674318253993988,0.0,-0.0,0.0,0.0,0.0,0.0
1782665953,906644028,-1.6562941710101526,0.12967252731323242,-1.5218456427203577,0.006856100168079138,0.0008153018425218761,0.6743422150611877,0.0,-0.0,0.0,0.0,0.0,0.0
1782665953,914666555,-1.656330410634176,0.1296243667602539,-1.5218456427203577,0.00692800572142005,0.0008153018425218761,0.6743782162666321,0.0,-0.0,0.0,0.0,0.0,0.0
1782665953,922674120,-1.6563423315631312,0.12960100173950195,-1.521881405507223,0.006892052944749594,0.0008272860432043672,0.6743542551994324,0.0,-0.0,0.0,0.0,0.0,0.0
1782665953,930667554,-1.656318489705221,0.12966012954711914,-1.5218456427203577,0.006892052944749594,0.0007909588748589158,0.6743782162666321,0.0,-0.0,0.0,0.0,0.0,0.0
1782665953,938676563,-1.656330410634176,0.12967252731323242,-1.521905247365133,0.006832132115960121,0.0008153018425218761,0.6743422150611877,0.0,-0.0,0.0,0.0,0.0,0.0
1782665953,946652460,-1.6562941710101526,0.12967252731323242,-1.521893326436178,0.006904037203639746,0.0007909588748589158,0.6743302345275879,0.0,-0.0,0.0,0.0,0.0,0.0
1782665953,954668543,-1.656318489705221,0.12964820861816406,-1.5218575636493128,0.006856100168079138,0.0007909588748589158,0.6744021773338318,0.0,-0.0,0.0,0.0,0.0,0.0
1782665953,962738404,-1.656330410634176,0.12966012954711914,-1.5218694845782679,0.006844115909188986,0.0008033175836317241,0.6743662357330322,0.0,-0.0,0.0,0.0,0.0,0.0
1782665953,970709227,-1.6563661734210413,0.12966012954711914,-1.521893326436178,0.00686808442696929,0.0008272860432043672,0.6743662357330322,0.0,-0.0,0.0,0.0,0.0,0.0
1782665953,978660439,-1.6563542524920862,0.12967252731323242,-1.5218694845782679,0.006880068685859442,0.0008153018425218761,0.6743422150611877,0.0,-0.0,0.0,0.0,0.0,0.0
1782665953,986668096,-1.6562941710101526,0.12961292266845703,-1.5218456427203577,0.006856100168079138,0.0007789746159687638,0.6743662357330322,0.0,-0.0,0.0,0.0,0.0,0.0
1782665953,994704327,-1.6562941710101526,0.12963628768920898,-1.5218456427203577,0.00692800572142005,0.0008033175836317241,0.6744021773338318,0.0,-0.0,0.0,0.0,0.0,0.0
1782665954,2674799,-1.6562941710101526,0.1296243667602539,-1.5218456427203577,0.006880068685859442,0.0007789746159687638,0.6743782162666321,0.0,-0.0,0.0,0.0,0.0,0.0
1782665954,10669363,-1.656330410634176,0.12960100173950195,-1.521893326436178,0.006820147857069969,0.0008272860432043672,0.6743062734603882,0.0,-0.0,0.0,0.0,0.0,0.0
1782665954,18664927,-1.656318489705221,0.12967252731323242,-1.5218456427203577,0.00686808442696929,0.0007909588748589158,0.6743422150611877,0.0,-0.0,0.0,0.0,0.0,0.0
1782665954,26665602,-1.6562822500811976,0.1296243667602539,-1.5218456427203577,0.006916021462529898,0.0008153018425218761,0.6743542551994324,0.0,-0.0,0.0,0.0,0.0,0.0
1782665954,34676815,-1.6562941710101526,0.12958860397338867,-1.521893326436178,0.006904037203639746,0.0007789746159687638,0.6743782162666321,0.0,-0.0,0.0,0.0,0.0,0.0
1782665954,42707564,-1.6562822500811976,0.12963628768920898,-1.5218213240252894,0.00686808442696929,0.0008272860432043672,0.674318253993988,0.0,-0.0,0.0,0.0,0.0,0.0
1782665954,50681684,-1.656306568776266,0.12966012954711914,-1.521881405507223,0.006904037203639746,0.0008392703020945191,0.6743662357330322,0.0,-0.0,0.0,0.0,0.0,0.0
1782665954,58759212,-1.6563423315631312,0.12961292266845703,-1.5218456427203577,0.006892052944749594,0.0008153018425218761,0.6743422150611877,0.0,-0.0,0.0,0.0,0.0,0.0
1782665954,66686979,-1.6563661734210413,0.12961292266845703,-1.521881405507223,0.006844115909188986,0.0008392703020945191,0.6743782162666321,0.0,-0.0,0.0,0.0,0.0,0.0
1782665954,74645932,-1.6563542524920862,0.12958860397338867,-1.5218213240252894,0.006832132115960121,0.0008392703020945191,0.6743662357330322,0.0,-0.0,0.0,0.0,0.0,0.0
1782665954,82670015,-1.656330410634176,0.12960100173950195,-1.5218337217914026,0.006904037203639746,0.0007909588748589158,0.6743782162666321,0.0,-0.0,0.0,0.0,0.0,0.0
1782665954,90705506,-1.656306568776266,0.12967252731323242,-1.5218694845782679,0.006916021462529898,0.0008272860432043672,0.6743422150611877,0.0,-0.0,0.0,0.0,0.0,0.0
1782665954,98667977,-1.656306568776266,0.1296844482421875,-1.5218575636493128,0.00686808442696929,0.0008392703020945191,0.6744021773338318,0.0,-0.0,0.0,0.0,0.0,0.0
1782665954,106658838,-1.656330410634176,0.1296243667602539,-1.521881405507223,0.006892052944749594,0.0008272860432043672,0.6743422150611877,0.0,-0.0,0.0,0.0,0.0,0.0
1782665954,114666772,-1.6562941710101526,0.1296243667602539,-1.5218694845782679,0.006892052944749594,0.0008033175836317241,0.6743662357330322,0.0,-0.0,0.0,0.0,0.0,0.0
1782665954,122782393,-1.656318489705221,0.12961292266845703,-1.5218575636493128,0.006880068685859442,0.0007909588748589158,0.6743302345275879,0.0,-0.0,0.0,0.0,0.0,0.0
1782665954,130649401,-1.6562941710101526,0.1296243667602539,-1.521881405507223,0.00686808442696929,0.0008272860432043672,0.6743542551994324,0.0,-0.0,0.0,0.0,0.0,0.0
1782665954,138650280,-1.656318489705221,0.1296844482421875,-1.5218694845782679,0.006880068685859442,0.0007909588748589158,0.6743542551994324,0.0,-0.0,0.0,0.0,0.0,0.0
1782665954,146677789,-1.656306568776266,0.12964820861816406,-1.5218694845782679,0.006880068685859442,0.0007909588748589158,0.6743782162666321,0.0,-0.0,0.0,0.0,0.0,0.0
1782665954,154766298,-1.656306568776266,0.1296243667602539,-1.5218694845782679,0.006880068685859442,0.0008512545027770102,0.6743782162666321,0.0,-0.0,0.0,0.0,0.0,0.0
1782665954,162672806,-1.656330410634176,0.12964820861816406,-1.5218456427203577,0.006880068685859442,0.0008153018425218761,0.6743901968002319,0.0,-0.0,0.0,0.0,0.0,0.0
1782665954,170655019,-1.656306568776266,0.1296243667602539,-1.521893326436178,0.00692800572142005,0.0008153018425218761,0.674318253993988,0.0,-0.0,0.0,0.0,0.0,0.0
1782665954,178664416,-1.656306568776266,0.12958860397338867,-1.521881405507223,0.006916021462529898,0.0007789746159687638,0.6744141578674316,0.0,-0.0,0.0,0.0,0.0,0.0
1782665954,186731425,-1.656318489705221,0.1296243667602539,-1.5218575636493128,0.006892052944749594,0.0007909588748589158,0.6743542551994324,0.0,-0.0,0.0,0.0,0.0,0.0
1782665954,194659878,-1.6563423315631312,0.12963628768920898,-1.5218337217914026,0.006916021462529898,0.0008153018425218761,0.6743422150611877,0.0,-0.0,0.0,0.0,0.0,0.0
1782665954,202652998,-1.656318489705221,0.12967252731323242,-1.5218575636493128,0.00686808442696929,0.0007909588748589158,0.6743901968002319,0.0,-0.0,0.0,0.0,0.0,0.0
1782665954,210660192,-1.656318489705221,0.1296243667602539,-1.521893326436178,0.006856100168079138,0.0008512545027770102,0.6743782162666321,0.0,-0.0,0.0,0.0,0.0,0.0
1782665954,218707330,-1.656330410634176,0.1296243667602539,-1.521893326436178,0.00686808442696929,0.0008033175836317241,0.6744021773338318,0.0,-0.0,0.0,0.0,0.0,0.0
1782665954,226666043,-1.656318489705221,0.12966012954711914,-1.521905247365133,0.006904037203639746,0.0007789746159687638,0.6743422150611877,0.0,-0.0,0.0,0.0,0.0,0.0
1782665954,234679199,-1.656330410634176,0.12961292266845703,-1.5218337217914026,0.006880068685859442,0.0008392703020945191,0.6744021773338318,0.0,-0.0,0.0,0.0,0.0,0.0
1782665954,242662412,-1.656330410634176,0.12967252731323242,-1.5218456427203577,0.006856100168079138,0.0008033175836317241,0.6744021773338318,0.0,-0.0,0.0,0.0,0.0,0.0
1782665954,250729587,-1.6562822500811976,0.12960100173950195,-1.521881405507223,0.006916021462529898,0.0008153018425218761,0.6743782162666321,0.0,-0.0,0.0,0.0,0.0,0.0
1782665954,258677318,-1.6562941710101526,0.12960100173950195,-1.5218337217914026,0.00686808442696929,0.0008153018425218761,0.6743782162666321,0.0,-0.0,0.0,0.0,0.0,0.0
1782665954,266671457,-1.6563423315631312,0.12963628768920898,-1.5218337217914026,0.006880068685859442,0.0007909588748589158,0.6743662357330322,0.0,-0.0,0.0,0.0,0.0,0.0
1782665954,274664928,-1.6562941710101526,0.12958860397338867,-1.5218575636493128,0.006880068685859442,0.0007909588748589158,0.6743782162666321,0.0,-0.0,0.0,0.0,0.0,0.0
1782665954,282738493,-1.6562941710101526,0.12963628768920898,-1.521881405507223,0.006880068685859442,0.0008272860432043672,0.6743901968002319,0.0,-0.0,0.0,0.0,0.0,0.0
1782665954,290683001,-1.656330410634176,0.12966012954711914,-1.5218575636493128,0.00686808442696929,0.0007909588748589158,0.6743782162666321,0.0,-0.0,0.0,0.0,0.0,0.0
1782665954,298646306,-1.656306568776266,0.12961292266845703,-1.5218456427203577,0.006892052944749594,0.0008632387034595013,0.6743901968002319,0.0,-0.0,0.0,0.0,0.0,0.0
1782665954,306663333,-1.656318489705221,0.1296243667602539,-1.5218575636493128,0.006892052944749594,0.0008033175836317241,0.6743302345275879,0.0,-0.0,0.0,0.0,0.0,0.0
1782665954,314701176,-1.656318489705221,0.12963628768920898,-1.521881405507223,0.006844115909188986,0.0007909588748589158,0.6743901968002319,0.0,-0.0,0.0,0.0,0.0,0.0
1782665954,322667314,-1.6563423315631312,0.12961292266845703,-1.521893326436178,0.006892052944749594,0.0008033175836317241,0.6743422150611877,0.0,-0.0,0.0,0.0,0.0,0.0
1782665954,330669804,-1.656306568776266,0.12961292266845703,-1.521881405507223,0.006880068685859442,0.0008033175836317241,0.6743782162666321,0.0,-0.0,0.0,0.0,0.0,0.0
1782665954,338667498,-1.656318489705221,0.12963628768920898,-1.5218213240252894,0.006880068685859442,0.0007909588748589158,0.6743422150611877,0.0,-0.0,0.0,0.0,0.0,0.0
1782665954,346776285,-1.656306568776266,0.12958860397338867,-1.5218575636493128,0.00686808442696929,0.0008512545027770102,0.6743662357330322,0.0,-0.0,0.0,0.0,0.0,0.0
1782665954,354652997,-1.656318489705221,0.12964820861816406,-1.5218575636493128,0.006880068685859442,0.0007909588748589158,0.6743542551994324,0.0,-0.0,0.0,0.0,0.0,0.0
1782665954,362653450,-1.656318489705221,0.12963628768920898,-1.521881405507223,0.006892052944749594,0.0007909588748589158,0.6743901968002319,0.0,-0.0,0.0,0.0,0.0,0.0
1782665954,370672996,-1.656318489705221,0.12961292266845703,-1.5218337217914026,0.006856100168079138,0.0007789746159687638,0.6744021773338318,0.0,-0.0,0.0,0.0,0.0,0.0
1782665954,378771209,-1.6563661734210413,0.12961292266845703,-1.5218456427203577,0.00686808442696929,0.0008392703020945191,0.6743422150611877,0.0,-0.0,0.0,0.0,0.0,0.0
1782665954,386699976,-1.6562941710101526,0.12964820861816406,-1.5218575636493128,0.006880068685859442,0.0008272860432043672,0.6743542551994324,0.0,-0.0,0.0,0.0,0.0,0.0
1782665954,394653744,-1.6563423315631312,0.12964820861816406,-1.521905247365133,0.006880068685859442,0.0008392703020945191,0.6743422150611877,0.0,-0.0,0.0,0.0,0.0,0.0
1782665954,402680586,-1.6563780943499964,0.12966012954711914,-1.521893326436178,0.006892052944749594,0.0008153018425218761,0.6743782162666321,0.0,-0.0,0.0,0.0,0.0,0.0
1782665954,410671299,-1.656330410634176,0.1296243667602539,-1.521881405507223,0.00686808442696929,0.0008033175836317241,0.6743901968002319,0.0,-0.0,0.0,0.0,0.0,0.0
1782665954,418654048,-1.656318489705221,0.12966012954711914,-1.521881405507223,0.006880068685859442,0.0008033175836317241,0.6743901968002319,0.0,-0.0,0.0,0.0,0.0,0.0
1782665954,426677501,-1.656318489705221,0.12963628768920898,-1.5218575636493128,0.00686808442696929,0.0008153018425218761,0.674318253993988,0.0,-0.0,0.0,0.0,0.0,0.0
1782665954,434682603,-1.656330410634176,0.12963628768920898,-1.521893326436178,0.006892052944749594,0.0008153018425218761,0.6744021773338318,0.0,-0.0,0.0,0.0,0.0,0.0
1782665954,442663389,-1.656318489705221,0.12966012954711914,-1.521881405507223,0.006880068685859442,0.0007669904152862728,0.6743782162666321,0.0,-0.0,0.0,0.0,0.0,0.0
1782665954,450732046,-1.656330410634176,0.12967252731323242,-1.521905247365133,0.006844115909188986,0.0008272860432043672,0.6743782162666321,0.0,-0.0,0.0,0.0,0.0,0.0
1782665954,458681462,-1.6562822500811976,0.12963628768920898,-1.521881405507223,0.006880068685859442,0.0007909588748589158,0.6743662357330322,0.0,-0.0,0.0,0.0,0.0,0.0
1782665954,466643526,-1.6562941710101526,0.12961292266845703,-1.5218213240252894,0.006892052944749594,0.0008392703020945191,0.6743302345275879,0.0,-0.0,0.0,0.0,0.0,0.0
1782665954,474692294,-1.6563423315631312,0.12963628768920898,-1.5218575636493128,0.006880068685859442,0.0008153018425218761,0.674318253993988,0.0,-0.0,0.0,0.0,0.0,0.0
1782665954,482742488,-1.656318489705221,0.1296243667602539,-1.521905247365133,0.006856100168079138,0.0008272860432043672,0.6743302345275879,0.0,-0.0,0.0,0.0,0.0,0.0
1782665954,490661997,-1.656306568776266,0.12964820861816406,-1.5218575636493128,0.006916021462529898,0.0008392703020945191,0.6743542551994324,0.0,-0.0,0.0,0.0,0.0,0.0
1782665954,498656209,-1.656318489705221,0.12967252731323242,-1.5218213240252894,0.006880068685859442,0.0007669904152862728,0.6743422150611877,0.0,-0.0,0.0,0.0,0.0,0.0
1782665954,506679829,-1.656318489705221,0.12966012954711914,-1.5218456427203577,0.006904037203639746,0.0007550062146037817,0.6743782162666321,0.0,-0.0,0.0,0.0,0.0,0.0
1782665954,514789764,-1.6563423315631312,0.12966012954711914,-1.5218337217914026,0.006892052944749594,0.0008153018425218761,0.6743542551994324,0.0,-0.0,0.0,0.0,0.0,0.0
1782665954,522656772,-1.656330410634176,0.12963628768920898,-1.5219176451312464,0.006880068685859442,0.0008392703020945191,0.6743662357330322,0.0,-0.0,0.0,0.0,0.0,0.0
1782665954,530645337,-1.6563542524920862,0.12961292266845703,-1.521881405507223,0.006832132115960121,0.0008033175836317241,0.6743901968002319,0.0,-0.0,0.0,0.0,0.0,0.0
1782665954,538664160,-1.656318489705221,0.1296243667602539,-1.5218456427203577,0.006880068685859442,0.0008033175836317241,0.6743542551994324,0.0,-0.0,0.0,0.0,0.0,0.0
1782665954,546669447,-1.6562822500811976,0.1296844482421875,-1.521881405507223,0.006880068685859442,0.0008153018425218761,0.6744021773338318,0.0,-0.0,0.0,0.0,0.0,0.0
1782665954,554676030,-1.6563542524920862,0.12963628768920898,-1.5218694845782679,0.006916021462529898,0.0008272860432043672,0.6743901968002319,0.0,-0.0,0.0,0.0,0.0,0.0
1782665954,562675168,-1.6562941710101526,0.12964820861816406,-1.5218694845782679,0.006892052944749594,0.0008153018425218761,0.6743542551994324,0.0,-0.0,0.0,0.0,0.0,0.0
1782665954,570660010,-1.6563423315631312,0.12964820861816406,-1.5218337217914026,0.00686808442696929,0.0007789746159687638,0.6743662357330322,0.0,-0.0,0.0,0.0,0.0,0.0
1782665954,579418836,-1.6563423315631312,0.12966012954711914,-1.5218213240252894,0.006892052944749594,0.0008033175836317241,0.6742823123931885,0.0,-0.0,0.0,0.0,0.0,0.0
1782665954,586891287,-1.6563542524920862,0.1296243667602539,-1.521893326436178,0.006856100168079138,0.0007669904152862728,0.6743542551994324,0.0,-0.0,0.0,0.0,0.0,0.0
1782665954,594659036,-1.656306568776266,0.1296243667602539,-1.521893326436178,0.00686808442696929,0.0007789746159687638,0.674318253993988,0.0,-0.0,0.0,0.0,0.0,0.0
1782665954,602699971,-1.6563661734210413,0.12966012954711914,-1.521881405507223,0.006856100168079138,0.0007669904152862728,0.6743302345275879,0.0,-0.0,0.0,0.0,0.0,0.0
1782665954,610912314,-1.6562941710101526,0.12964820861816406,-1.5218456427203577,0.006916021462529898,0.0007909588748589158,0.6743662357330322,0.0,-0.0,0.0,0.0,0.0,0.0
1782665954,618949934,-1.6562941710101526,0.1296844482421875,-1.521905247365133,0.006832132115960121,0.0007669904152862728,0.6743422150611877,0.0,-0.0,0.0,0.0,0.0,0.0
1782665954,626829757,-1.6562822500811976,0.12964820861816406,-1.5218337217914026,0.006892052944749594,0.0008033175836317241,0.6743782162666321,0.0,-0.0,0.0,0.0,0.0,0.0
1782665954,634701765,-1.6563542524920862,0.12963628768920898,-1.5218337217914026,0.006892052944749594,0.0008392703020945191,0.6744021773338318,0.0,-0.0,0.0,0.0,0.0,0.0
1782665954,642733348,-1.656306568776266,0.12963628768920898,-1.5218575636493128,0.006916021462529898,0.0008272860432043672,0.6743302345275879,0.0,-0.0,0.0,0.0,0.0,0.0
1782665954,650731560,-1.656306568776266,0.1296243667602539,-1.521893326436178,0.006904037203639746,0.0007550062146037817,0.6743422150611877,0.0,-0.0,0.0,0.0,0.0,0.0
1782665954,658766588,-1.656306568776266,0.1296243667602539,-1.5218456427203577,0.00692800572142005,0.0008153018425218761,0.6743542551994324,0.0,-0.0,0.0,0.0,0.0,0.0
1782665954,666766967,-1.656330410634176,0.12963628768920898,-1.5218694845782679,0.006916021462529898,0.0008153018425218761,0.674318253993988,0.0,-0.0,0.0,0.0,0.0,0.0
1782665954,674737438,-1.6562584082232874,0.1296243667602539,-1.5218575636493128,0.006916021462529898,0.0008392703020945191,0.6743901968002319,0.0,-0.0,0.0,0.0,0.0,0.0
1782665954,682723058,-1.656330410634176,0.1296844482421875,-1.521881405507223,0.006880068685859442,0.0007909588748589158,0.6743422150611877,0.0,-0.0,0.0,0.0,0.0,0.0
1782665954,690696344,-1.656330410634176,0.12963628768920898,-1.521893326436178,0.006904037203639746,0.0008272860432043672,0.6743782162666321,0.0,-0.0,0.0,0.0,0.0,0.0
1782665954,698695353,-1.6562822500811976,0.12967252731323242,-1.521893326436178,0.006880068685859442,0.0008033175836317241,0.6743422150611877,0.0,-0.0,0.0,0.0,0.0,0.0
1782665954,706713695,-1.656306568776266,0.12958860397338867,-1.5218456427203577,0.006892052944749594,0.0008272860432043672,0.6743302345275879,0.0,-0.0,0.0,0.0,0.0,0.0
1782665954,714697074,-1.6562941710101526,0.12966012954711914,-1.5218456427203577,0.006856100168079138,0.0008033175836317241,0.674318253993988,0.0,-0.0,0.0,0.0,0.0,0.0
1782665954,722728528,-1.6562584082232874,0.12966012954711914,-1.5218694845782679,0.006880068685859442,0.0007669904152862728,0.6743782162666321,0.0,-0.0,0.0,0.0,0.0,0.0
1782665954,730741444,-1.656318489705221,0.12963628768920898,-1.5218213240252894,0.006916021462529898,0.0008033175836317241,0.6743542551994324,0.0,-0.0,0.0,0.0,0.0,0.0
1782665954,738704138,-1.6562941710101526,0.12964820861816406,-1.521893326436178,0.00686808442696929,0.0007789746159687638,0.6743422150611877,0.0,-0.0,0.0,0.0,0.0,0.0
1782665954,746684257,-1.6563423315631312,0.12966012954711914,-1.5218694845782679,0.006844115909188986,0.0007909588748589158,0.6743542551994324,0.0,-0.0,0.0,0.0,0.0,0.0
1782665954,754700322,-1.656306568776266,0.12961292266845703,-1.5218456427203577,0.006892052944749594,0.0008512545027770102,0.6743662357330322,0.0,-0.0,0.0,0.0,0.0,0.0
1782665954,762789071,-1.656330410634176,0.12969636917114258,-1.5218694845782679,0.006892052944749594,0.0007669904152862728,0.6744021773338318,0.0,-0.0,0.0,0.0,0.0,0.0
1782665954,771023970,-1.6562941710101526,0.12961292266845703,-1.5218694845782679,0.00686808442696929,0.0008392703020945191,0.6743901968002319,0.0,-0.0,0.0,0.0,0.0,0.0
1782665954,778896700,-1.6563542524920862,0.12966012954711914,-1.521905247365133,0.006880068685859442,0.0008153018425218761,0.6743302345275879,0.0,-0.0,0.0,0.0,0.0,0.0
1782665954,786647708,-1.6563423315631312,0.12967252731323242,-1.5218456427203577,0.006856100168079138,0.0007909588748589158,0.6743662357330322,0.0,-0.0,0.0,0.0,0.0,0.0
1782665954,794675643,-1.6562822500811976,0.1296243667602539,-1.5218694845782679,0.00692800572142005,0.0008153018425218761,0.6744141578674316,0.0,-0.0,0.0,0.0,0.0,0.0
1782665954,802643003,-1.6563542524920862,0.12960100173950195,-1.5218337217914026,0.006844115909188986,0.0008392703020945191,0.6743422150611877,0.0,-0.0,0.0,0.0,0.0,0.0
1782665954,810684253,-1.6563423315631312,0.12963628768920898,-1.521881405507223,0.006904037203639746,0.0008153018425218761,0.6743422150611877,0.0,-0.0,0.0,0.0,0.0,0.0
1782665954,818774706,-1.656330410634176,0.12963628768920898,-1.5218694845782679,0.006892052944749594,0.0007909588748589158,0.6743542551994324,0.0,-0.0,0.0,0.0,0.0,0.0
1782665954,826673400,-1.6563661734210413,0.12967252731323242,-1.5218575636493128,0.006844115909188986,0.0008033175836317241,0.6743662357330322,0.0,-0.0,0.0,0.0,0.0,0.0
1782665954,834654983,-1.656306568776266,0.1296844482421875,-1.5218575636493128,0.006892052944749594,0.0007789746159687638,0.6743542551994324,0.0,-0.0,0.0,0.0,0.0,0.0
1782665954,842680954,-1.656330410634176,0.12967252731323242,-1.5218337217914026,0.00686808442696929,0.0008153018425218761,0.6743662357330322,0.0,-0.0,0.0,0.0,0.0,0.0
1782665954,850788204,-1.6563661734210413,0.12966012954711914,-1.5218337217914026,0.00686808442696929,0.0007909588748589158,0.6743782162666321,0.0,-0.0,0.0,0.0,0.0,0.0
1782665954,858651342,-1.6563542524920862,0.12966012954711914,-1.5218094030963343,0.00686808442696929,0.0008272860432043672,0.6743542551994324,0.0,-0.0,0.0,0.0,0.0,0.0
1782665954,866660388,-1.6562822500811976,0.12967252731323242,-1.5218456427203577,0.006904037203639746,0.0008153018425218761,0.6743782162666321,0.0,-0.0,0.0,0.0,0.0,0.0
1782665954,874660360,-1.656318489705221,0.12966012954711914,-1.5218694845782679,0.006880068685859442,0.0008153018425218761,0.674318253993988,0.0,-0.0,0.0,0.0,0.0,0.0
1782665954,882675017,-1.656318489705221,0.12964820861816406,-1.5218694845782679,0.00692800572142005,0.0007669904152862728,0.6743662357330322,0.0,-0.0,0.0,0.0,0.0,0.0
1782665954,890779655,-1.6562822500811976,0.12958860397338867,-1.521881405507223,0.006856100168079138,0.0008153018425218761,0.6743302345275879,0.0,-0.0,0.0,0.0,0.0,0.0
1782665954,898915276,-1.656330410634176,0.12966012954711914,-1.5218694845782679,0.006880068685859442,0.0008033175836317241,0.6743422150611877,0.0,-0.0,0.0,0.0,0.0,0.0
1782665954,906748950,-1.6562703291522425,0.12967252731323242,-1.5218456427203577,0.006832132115960121,0.0008153018425218761,0.6743542551994324,0.0,-0.0,0.0,0.0,0.0,0.0
1782665954,914674681,-1.6563780943499964,0.12963628768920898,-1.521881405507223,0.006880068685859442,0.0007789746159687638,0.6743062734603882,0.0,-0.0,0.0,0.0,0.0,0.0
1782665954,922833431,-1.656306568776266,0.12963628768920898,-1.521881405507223,0.006880068685859442,0.0008033175836317241,0.6744021773338318,0.0,-0.0,0.0,0.0,0.0,0.0
1782665954,930890366,-1.6562941710101526,0.1296243667602539,-1.5218694845782679,0.006880068685859442,0.0008512545027770102,0.6743422150611877,0.0,-0.0,0.0,0.0,0.0,0.0
1782665954,938758985,-1.656318489705221,0.12961292266845703,-1.5218456427203577,0.006844115909188986,0.0008272860432043672,0.6743422150611877,0.0,-0.0,0.0,0.0,0.0,0.0
1782665954,946781679,-1.656306568776266,0.12964820861816406,-1.5218337217914026,0.006916021462529898,0.0007909588748589158,0.6743782162666321,0.0,-0.0,0.0,0.0,0.0,0.0
1782665954,954711391,-1.656306568776266,0.12966012954711914,-1.521905247365133,0.006951974239200354,0.0008153018425218761,0.6743901968002319,0.0,-0.0,0.0,0.0,0.0,0.0
1782665954,962722048,-1.6563542524920862,0.1296243667602539,-1.521893326436178,0.006916021462529898,0.0007909588748589158,0.6743422150611877,0.0,-0.0,0.0,0.0,0.0,0.0
1782665954,970838483,-1.6563542524920862,0.12964820861816406,-1.5218456427203577,0.006844115909188986,0.0007789746159687638,0.6743782162666321,0.0,-0.0,0.0,0.0,0.0,0.0
1782665954,978755640,-1.6562941710101526,0.12963628768920898,-1.5218213240252894,0.00686808442696929,0.0008153018425218761,0.6743662357330322,0.0,-0.0,0.0,0.0,0.0,0.0
1782665954,986703019,-1.656330410634176,0.12967252731323242,-1.521881405507223,0.006856100168079138,0.0008392703020945191,0.6743422150611877,0.0,-0.0,0.0,0.0,0.0,0.0
1782665954,994644416,-1.656318489705221,0.12963628768920898,-1.5218213240252894,0.00686808442696929,0.0008033175836317241,0.6743662357330322,0.0,-0.0,0.0,0.0,0.0,0.0
1782665955,2646740,-1.656306568776266,0.12960100173950195,-1.5218575636493128,0.006880068685859442,0.0008632387034595013,0.6743782162666321,0.0,-0.0,0.0,0.0,0.0,0.0
1782665955,10673545,-1.656330410634176,0.12961292266845703,-1.5218337217914026,0.006880068685859442,0.0008033175836317241,0.6743782162666321,0.0,-0.0,0.0,0.0,0.0,0.0
1782665955,18768387,-1.656306568776266,0.12960100173950195,-1.5218213240252894,0.006880068685859442,0.0007789746159687638,0.6743782162666321,0.0,-0.0,0.0,0.0,0.0,0.0
1782665955,26656470,-1.656306568776266,0.1296243667602539,-1.521881405507223,0.006904037203639746,0.0007669904152862728,0.6743542551994324,0.0,-0.0,0.0,0.0,0.0,0.0
1782665955,34655775,-1.6563423315631312,0.12961292266845703,-1.5218694845782679,0.006856100168079138,0.0008512545027770102,0.6743782162666321,0.0,-0.0,0.0,0.0,0.0,0.0
1782665955,42671821,-1.656306568776266,0.1296243667602539,-1.5218337217914026,0.00686808442696929,0.0008033175836317241,0.6743422150611877,0.0,-0.0,0.0,0.0,0.0,0.0
1782665955,50778904,-1.656330410634176,0.12963628768920898,-1.5218575636493128,0.00686808442696929,0.0008153018425218761,0.6743782162666321,0.0,-0.0,0.0,0.0,0.0,0.0
1782665955,58669338,-1.656330410634176,0.1296243667602539,-1.5218694845782679,0.006892052944749594,0.0008272860432043672,0.674318253993988,0.0,-0.0,0.0,0.0,0.0,0.0
1782665955,66651310,-1.656318489705221,0.1296844482421875,-1.521881405507223,0.006844115909188986,0.0008392703020945191,0.6743542551994324,0.0,-0.0,0.0,0.0,0.0,0.0
1782665955,74660060,-1.656318489705221,0.12963628768920898,-1.5218575636493128,0.006904037203639746,0.0008272860432043672,0.6743901968002319,0.0,-0.0,0.0,0.0,0.0,0.0
1782665955,82657161,-1.6563423315631312,0.12963628768920898,-1.521905247365133,0.006904037203639746,0.0007909588748589158,0.6743542551994324,0.0,-0.0,0.0,0.0,0.0,0.0
1782665955,90673226,-1.6563542524920862,0.12961292266845703,-1.521881405507223,0.006880068685859442,0.0008153018425218761,0.6743782162666321,0.0,-0.0,0.0,0.0,0.0,0.0
1782665955,98655994,-1.6563423315631312,0.12963628768920898,-1.5218337217914026,0.00686808442696929,0.0008033175836317241,0.6743422150611877,0.0,-0.0,0.0,0.0,0.0,0.0
1782665955,106673799,-1.656330410634176,0.12964820861816406,-1.5218575636493128,0.006880068685859442,0.0008153018425218761,0.6744141578674316,0.0,-0.0,0.0,0.0,0.0,0.0
1782665955,114769771,-1.656306568776266,0.1296844482421875,-1.5218575636493128,0.006844115909188986,0.0008272860432043672,0.6744021773338318,0.0,-0.0,0.0,0.0,0.0,0.0
1782665955,122669057,-1.6563542524920862,0.12966012954711914,-1.5219176451312464,0.006904037203639746,0.0008033175836317241,0.6743782162666321,0.0,-0.0,0.0,0.0,0.0,0.0
1782665955,130674307,-1.6563423315631312,0.12963628768920898,-1.521881405507223,0.00686808442696929,0.0007909588748589158,0.6743782162666321,0.0,-0.0,0.0,0.0,0.0,0.0
1782665955,138658278,-1.656330410634176,0.12961292266845703,-1.5218456427203577,0.006892052944749594,0.0008392703020945191,0.6743782162666321,0.0,-0.0,0.0,0.0,0.0,0.0
1782665955,146649602,-1.656330410634176,0.12963628768920898,-1.5218337217914026,0.006844115909188986,0.0007909588748589158,0.6743542551994324,0.0,-0.0,0.0,0.0,0.0,0.0
1782665955,154682852,-1.6563423315631312,0.12966012954711914,-1.5218456427203577,0.006904037203639746,0.0008392703020945191,0.6743542551994324,0.0,-0.0,0.0,0.0,0.0,0.0
1782665955,162667879,-1.656330410634176,0.12963628768920898,-1.5218456427203577,0.00686808442696929,0.0008392703020945191,0.6743542551994324,0.0,-0.0,0.0,0.0,0.0,0.0
1782665955,170696684,-1.656318489705221,0.12963628768920898,-1.521905247365133,0.00686808442696929,0.0007909588748589158,0.6743901968002319,0.0,-0.0,0.0,0.0,0.0,0.0
1782665955,178709471,-1.656318489705221,0.1296844482421875,-1.5218456427203577,0.006880068685859442,0.0008272860432043672,0.6743901968002319,0.0,-0.0,0.0,0.0,0.0,0.0
1782665955,186678239,-1.656330410634176,0.12963628768920898,-1.521893326436178,0.006892052944749594,0.0007789746159687638,0.6743662357330322,0.0,-0.0,0.0,0.0,0.0,0.0
1782665955,194645469,-1.656306568776266,0.12967252731323242,-1.5218575636493128,0.006880068685859442,0.0008033175836317241,0.674318253993988,0.0,-0.0,0.0,0.0,0.0,0.0
1782665955,202664034,-1.6562941710101526,0.12966012954711914,-1.5218575636493128,0.006916021462529898,0.0008033175836317241,0.6743901968002319,0.0,-0.0,0.0,0.0,0.0,0.0
1782665955,210700802,-1.656330410634176,0.12967252731323242,-1.5218694845782679,0.006880068685859442,0.0008392703020945191,0.6743542551994324,0.0,-0.0,0.0,0.0,0.0,0.0
1782665955,218678181,-1.656330410634176,0.12964820861816406,-1.521893326436178,0.006939989980310202,0.0008272860432043672,0.6743302345275879,0.0,-0.0,0.0,0.0,0.0,0.0
1782665955,226655782,-1.6562941710101526,0.12960100173950195,-1.5218456427203577,0.006916021462529898,0.0007909588748589158,0.6743422150611877,0.0,-0.0,0.0,0.0,0.0,0.0
1782665955,234662217,-1.6562822500811976,0.12963628768920898,-1.5218337217914026,0.006880068685859442,0.0007669904152862728,0.6743062734603882,0.0,-0.0,0.0,0.0,0.0,0.0
1782665955,242774708,-1.656330410634176,0.12966012954711914,-1.521905247365133,0.006880068685859442,0.0008033175836317241,0.6743662357330322,0.0,-0.0,0.0,0.0,0.0,0.0
1782665955,250653716,-1.656330410634176,0.12967252731323242,-1.5218337217914026,0.006880068685859442,0.0008033175836317241,0.6743901968002319,0.0,-0.0,0.0,0.0,0.0,0.0
1782665955,258657132,-1.656306568776266,0.12966012954711914,-1.5218213240252894,0.006892052944749594,0.0008153018425218761,0.6743901968002319,0.0,-0.0,0.0,0.0,0.0,0.0
1782665955,266670289,-1.6562703291522425,0.1296243667602539,-1.5218694845782679,0.006880068685859442,0.0007550062146037817,0.6743782162666321,0.0,-0.0,0.0,0.0,0.0,0.0
1782665955,274709465,-1.6563423315631312,0.1296243667602539,-1.5219176451312464,0.00692800572142005,0.0007789746159687638,0.6743901968002319,0.0,-0.0,0.0,0.0,0.0,0.0
1782665955,282676011,-1.656330410634176,0.12963628768920898,-1.5218337217914026,0.00686808442696929,0.0008272860432043672,0.6743782162666321,0.0,-0.0,0.0,0.0,0.0,0.0
1782665955,290657871,-1.656306568776266,0.12961292266845703,-1.5218456427203577,0.006951974239200354,0.0007669904152862728,0.6743422150611877,0.0,-0.0,0.0,0.0,0.0,0.0
1782665955,298662028,-1.656306568776266,0.12967252731323242,-1.5218575636493128,0.006916021462529898,0.0007909588748589158,0.6743901968002319,0.0,-0.0,0.0,0.0,0.0,0.0
1782665955,306726611,-1.656318489705221,0.12963628768920898,-1.5218694845782679,0.006892052944749594,0.0007909588748589158,0.6743542551994324,0.0,-0.0,0.0,0.0,0.0,0.0
1782665955,314660398,-1.656330410634176,0.12966012954711914,-1.5218337217914026,0.00692800572142005,0.0008392703020945191,0.6743422150611877,0.0,-0.0,0.0,0.0,0.0,0.0
1782665955,322654777,-1.6563542524920862,0.1296844482421875,-1.5218337217914026,0.006892052944749594,0.0007909588748589158,0.6743302345275879,0.0,-0.0,0.0,0.0,0.0,0.0
1782665955,330670323,-1.656306568776266,0.12961292266845703,-1.5218213240252894,0.00686808442696929,0.0007789746159687638,0.6743422150611877,0.0,-0.0,0.0,0.0,0.0,0.0
1782665955,338702906,-1.656306568776266,0.12964820861816406,-1.5218575636493128,0.00686808442696929,0.0008033175836317241,0.674318253993988,0.0,-0.0,0.0,0.0,0.0,0.0
1782665955,346674415,-1.656306568776266,0.12964820861816406,-1.521881405507223,0.00686808442696929,0.0008033175836317241,0.6743901968002319,0.0,-0.0,0.0,0.0,0.0,0.0
1782665955,354666479,-1.656318489705221,0.1296243667602539,-1.5218456427203577,0.006904037203639746,0.0008153018425218761,0.6743422150611877,0.0,-0.0,0.0,0.0,0.0,0.0
1782665955,362649191,-1.6562822500811976,0.12964820861816406,-1.521881405507223,0.006892052944749594,0.0008392703020945191,0.6743782162666321,0.0,-0.0,0.0,0.0,0.0,0.0
1782665955,370720700,-1.6563423315631312,0.12967252731323242,-1.521881405507223,0.006856100168079138,0.0008272860432043672,0.6743542551994324,0.0,-0.0,0.0,0.0,0.0,0.0
1782665955,378676413,-1.656330410634176,0.12961292266845703,-1.521881405507223,0.006904037203639746,0.0008272860432043672,0.6743422150611877,0.0,-0.0,0.0,0.0,0.0,0.0
1782665955,386665958,-1.6563542524920862,0.12961292266845703,-1.5218456427203577,0.006844115909188986,0.0007909588748589158,0.6743542551994324,0.0,-0.0,0.0,0.0,0.0,0.0
1782665955,394700671,-1.656318489705221,0.12966012954711914,-1.521881405507223,0.006880068685859442,0.0008272860432043672,0.6743662357330322,0.0,-0.0,0.0,0.0,0.0,0.0
1782665955,402739106,-1.6563661734210413,0.12963628768920898,-1.5218694845782679,0.006880068685859442,0.0007909588748589158,0.6744021773338318,0.0,-0.0,0.0,0.0,0.0,0.0
1782665955,410694652,-1.6563542524920862,0.12963628768920898,-1.5218694845782679,0.006880068685859442,0.0008392703020945191,0.6743542551994324,0.0,-0.0,0.0,0.0,0.0,0.0
1782665955,418644012,-1.656306568776266,0.12964820861816406,-1.5218213240252894,0.006892052944749594,0.0008392703020945191,0.6743542551994324,0.0,-0.0,0.0,0.0,0.0,0.0
1782665955,426658780,-1.6562822500811976,0.12964820861816406,-1.5218456427203577,0.006916021462529898,0.0008033175836317241,0.6743782162666321,0.0,-0.0,0.0,0.0,0.0,0.0
1782665955,434670993,-1.656306568776266,0.12967252731323242,-1.5218575636493128,0.006844115909188986,0.0008272860432043672,0.674318253993988,0.0,-0.0,0.0,0.0,0.0,0.0
1782665955,442663113,-1.6562822500811976,0.12967252731323242,-1.5218213240252894,0.006844115909188986,0.0008153018425218761,0.6743782162666321,0.0,-0.0,0.0,0.0,0.0,0.0
1782665955,450664270,-1.6562703291522425,0.12960100173950195,-1.5218575636493128,0.006892052944749594,0.0007789746159687638,0.6743542551994324,0.0,-0.0,0.0,0.0,0.0,0.0
1782665955,458669778,-1.6562941710101526,0.12961292266845703,-1.5218694845782679,0.006904037203639746,0.0008153018425218761,0.6743782162666321,0.0,-0.0,0.0,0.0,0.0,0.0
1782665955,466745343,-1.656330410634176,0.1296243667602539,-1.5218337217914026,0.00692800572142005,0.0008153018425218761,0.6743782162666321,0.0,-0.0,0.0,0.0,0.0,0.0
1782665955,474654611,-1.656330410634176,0.12961292266845703,-1.521905247365133,0.006892052944749594,0.0008153018425218761,0.6743302345275879,0.0,-0.0,0.0,0.0,0.0,0.0
1782665955,482650083,-1.6563661734210413,0.12961292266845703,-1.521905247365133,0.00686808442696929,0.0007909588748589158,0.6743901968002319,0.0,-0.0,0.0,0.0,0.0,0.0
1782665955,490631851,-1.656306568776266,0.12960100173950195,-1.5218694845782679,0.006844115909188986,0.0007909588748589158,0.6743302345275879,0.0,-0.0,0.0,0.0,0.0,0.0
1782665955,498775749,-1.6562703291522425,0.12963628768920898,-1.5218337217914026,0.006856100168079138,0.0008033175836317241,0.6743782162666321,0.0,-0.0,0.0,0.0,0.0,0.0
1782665955,506667239,-1.6563423315631312,0.1296243667602539,-1.521881405507223,0.006892052944749594,0.0008153018425218761,0.6743542551994324,0.0,-0.0,0.0,0.0,0.0,0.0
1782665955,514673618,-1.656330410634176,0.12966012954711914,-1.5218337217914026,0.006916021462529898,0.0008033175836317241,0.6743542551994324,0.0,-0.0,0.0,0.0,0.0,0.0
1782665955,522689293,-1.6562941710101526,0.12963628768920898,-1.5218337217914026,0.006856100168079138,0.0007789746159687638,0.6743542551994324,0.0,-0.0,0.0,0.0,0.0,0.0
1782665955,530664117,-1.6562941710101526,0.1296243667602539,-1.521893326436178,0.006892052944749594,0.0008272860432043672,0.6743542551994324,0.0,-0.0,0.0,0.0,0.0,0.0
1782665955,538658070,-1.656306568776266,0.1296243667602539,-1.5218456427203577,0.006880068685859442,0.0008033175836317241,0.6743302345275879,0.0,-0.0,0.0,0.0,0.0,0.0
1782665955,546670523,-1.6563423315631312,0.12964820861816406,-1.521881405507223,0.006916021462529898,0.0008033175836317241,0.6743422150611877,0.0,-0.0,0.0,0.0,0.0,0.0
1782665955,554669662,-1.6562941710101526,0.12966012954711914,-1.5218337217914026,0.006916021462529898,0.0008153018425218761,0.6743302345275879,0.0,-0.0,0.0,0.0,0.0,0.0
1782665955,562699152,-1.656306568776266,0.12963628768920898,-1.5218213240252894,0.006892052944749594,0.0008153018425218761,0.6743542551994324,0.0,-0.0,0.0,0.0,0.0,0.0
1782665955,570662753,-1.656330410634176,0.12964820861816406,-1.5218694845782679,0.006856100168079138,0.0007909588748589158,0.6744021773338318,0.0,-0.0,0.0,0.0,0.0,0.0
1782665955,578663651,-1.6563542524920862,0.12958860397338867,-1.521893326436178,0.006892052944749594,0.0007909588748589158,0.6743901968002319,0.0,-0.0,0.0,0.0,0.0,0.0
1782665955,586658808,-1.6562703291522425,0.1296844482421875,-1.5218337217914026,0.006892052944749594,0.0008272860432043672,0.6743542551994324,0.0,-0.0,0.0,0.0,0.0,0.0
1782665955,594647372,-1.6563542524920862,0.1296844482421875,-1.5218694845782679,0.006892052944749594,0.0007669904152862728,0.6743542551994324,0.0,-0.0,0.0,0.0,0.0,0.0
1782665955,602677900,-1.656330410634176,0.12963628768920898,-1.5218575636493128,0.006880068685859442,0.0007909588748589158,0.6743782162666321,0.0,-0.0,0.0,0.0,0.0,0.0
1782665955,610678705,-1.656330410634176,0.1296243667602539,-1.521893326436178,0.006916021462529898,0.0008033175836317241,0.6743782162666321,0.0,-0.0,0.0,0.0,0.0,0.0
1782665955,619186289,-1.6563542524920862,0.12958860397338867,-1.5218575636493128,0.00686808442696929,0.0008153018425218761,0.6743542551994324,0.0,-0.0,0.0,0.0,0.0,0.0
1782665955,626749260,-1.6563542524920862,0.12958860397338867,-1.5218575636493128,0.00686808442696929,0.0008153018425218761,0.6743542551994324,0.0,-0.0,0.0,0.0,0.0,0.0
1782665955,634679694,-1.6563423315631312,0.12966012954711914,-1.521881405507223,0.00686808442696929,0.0008033175836317241,0.6743782162666321,0.0,-0.0,0.0,0.0,0.0,0.0
1782665955,642639573,-1.6562822500811976,0.12963628768920898,-1.5218575636493128,0.006892052944749594,0.0007669904152862728,0.6743302345275879,0.0,-0.0,0.0,0.0,0.0,0.0
1782665955,650626471,-1.6562941710101526,0.12961292266845703,-1.5218694845782679,0.006880068685859442,0.0008033175836317241,0.6743782162666321,0.0,-0.0,0.0,0.0,0.0,0.0
1782665955,658783240,-1.6562822500811976,0.12966012954711914,-1.5218694845782679,0.006892052944749594,0.0008033175836317241,0.6743302345275879,0.0,-0.0,0.0,0.0,0.0,0.0
1782665955,666662526,-1.656306568776266,0.12960100173950195,-1.5218575636493128,0.006904037203639746,0.0008153018425218761,0.6743901968002319,0.0,-0.0,0.0,0.0,0.0,0.0
1782665955,674654312,-1.6562941710101526,0.1296243667602539,-1.521881405507223,0.006904037203639746,0.0008153018425218761,0.6743782162666321,0.0,-0.0,0.0,0.0,0.0,0.0
1782665955,682714099,-1.656318489705221,0.12961292266845703,-1.521881405507223,0.006892052944749594,0.0008153018425218761,0.6743662357330322,0.0,-0.0,0.0,0.0,0.0,0.0
1782665955,690681089,-1.656306568776266,0.1296243667602539,-1.521881405507223,0.006856100168079138,0.0008153018425218761,0.6743782162666321,0.0,-0.0,0.0,0.0,0.0,0.0
1782665955,698648524,-1.656330410634176,0.1296243667602539,-1.5218337217914026,0.006856100168079138,0.0008392703020945191,0.6743422150611877,0.0,-0.0,0.0,0.0,0.0,0.0
1782665955,706652014,-1.656306568776266,0.12961292266845703,-1.5218575636493128,0.006880068685859442,0.0008153018425218761,0.6743542551994324,0.0,-0.0,0.0,0.0,0.0,0.0
1782665955,714671245,-1.6562941710101526,0.12966012954711914,-1.5218456427203577,0.00686808442696929,0.0007669904152862728,0.6743782162666321,0.0,-0.0,0.0,0.0,0.0,0.0
1782665955,722773736,-1.6562703291522425,0.12966012954711914,-1.5218694845782679,0.00686808442696929,0.0007669904152862728,0.6743782162666321,0.0,-0.0,0.0,0.0,0.0,0.0
1782665955,730672300,-1.656330410634176,0.12964820861816406,-1.5218456427203577,0.006856100168079138,0.0008033175836317241,0.6743901968002319,0.0,-0.0,0.0,0.0,0.0,0.0
1782665955,738656475,-1.6562703291522425,0.12961292266845703,-1.521893326436178,0.006880068685859442,0.0007909588748589158,0.6743901968002319,0.0,-0.0,0.0,0.0,0.0,0.0
1782665955,746653614,-1.656318489705221,0.1296243667602539,-1.5218456427203577,0.006916021462529898,0.0008033175836317241,0.6743662357330322,0.0,-0.0,0.0,0.0,0.0,0.0
1782665955,754682956,-1.656330410634176,0.12958860397338867,-1.5218456427203577,0.006856100168079138,0.0008033175836317241,0.6743302345275879,0.0,-0.0,0.0,0.0,0.0,0.0
1782665955,762649798,-1.6562941710101526,0.1296243667602539,-1.5219176451312464,0.006951974239200354,0.0008153018425218761,0.6744021773338318,0.0,-0.0,0.0,0.0,0.0,0.0
1782665955,770656251,-1.656318489705221,0.1296243667602539,-1.521893326436178,0.006856100168079138,0.0007669904152862728,0.6743422150611877,0.0,-0.0,0.0,0.0,0.0,0.0
1782665955,778786131,-1.656330410634176,0.12967252731323242,-1.5218575636493128,0.00686808442696929,0.0007789746159687638,0.6743662357330322,0.0,-0.0,0.0,0.0,0.0,0.0
1782665955,786674639,-1.656318489705221,0.12961292266845703,-1.5218094030963343,0.006904037203639746,0.0008153018425218761,0.6743901968002319,0.0,-0.0,0.0,0.0,0.0,0.0
1782665955,794672259,-1.656306568776266,0.12963628768920898,-1.5218694845782679,0.006880068685859442,0.0008272860432043672,0.674318253993988,0.0,-0.0,0.0,0.0,0.0,0.0
1782665955,802668490,-1.6562822500811976,0.1296243667602539,-1.521905247365133,0.006904037203639746,0.0007909588748589158,0.6743542551994324,0.0,-0.0,0.0,0.0,0.0,0.0
1782665955,810704203,-1.656318489705221,0.1296243667602539,-1.521893326436178,0.006856100168079138,0.0008153018425218761,0.6743662357330322,0.0,-0.0,0.0,0.0,0.0,0.0
1782665955,818658304,-1.6563661734210413,0.12964820861816406,-1.5218694845782679,0.00692800572142005,0.0007789746159687638,0.6743302345275879,0.0,-0.0,0.0,0.0,0.0,0.0
1782665955,826651294,-1.656318489705221,0.12961292266845703,-1.5218694845782679,0.006939989980310202,0.0008033175836317241,0.6743422150611877,0.0,-0.0,0.0,0.0,0.0,0.0
1782665955,834660599,-1.6562941710101526,0.12966012954711914,-1.521881405507223,0.006904037203639746,0.0008392703020945191,0.6744021773338318,0.0,-0.0,0.0,0.0,0.0,0.0
1782665955,842665738,-1.656330410634176,0.12966012954711914,-1.521881405507223,0.006916021462529898,0.0008153018425218761,0.6743662357330322,0.0,-0.0,0.0,0.0,0.0,0.0
1782665955,850670821,-1.6562941710101526,0.12960100173950195,-1.5218575636493128,0.006856100168079138,0.0008272860432043672,0.6743422150611877,0.0,-0.0,0.0,0.0,0.0,0.0
1782665955,858667015,-1.656330410634176,0.12964820861816406,-1.5218337217914026,0.006916021462529898,0.0008033175836317241,0.6743901968002319,0.0,-0.0,0.0,0.0,0.0,0.0
1782665955,866671283,-1.6563423315631312,0.12964820861816406,-1.5218456427203577,0.00686808442696929,0.0008272860432043672,0.6744021773338318,0.0,-0.0,0.0,0.0,0.0,0.0
1782665955,874643773,-1.656330410634176,0.12963628768920898,-1.521893326436178,0.006892052944749594,0.0008272860432043672,0.6744021773338318,0.0,-0.0,0.0,0.0,0.0,0.0
1782665955,882670171,-1.6563423315631312,0.1296243667602539,-1.5218575636493128,0.006880068685859442,0.0007909588748589158,0.6743542551994324,0.0,-0.0,0.0,0.0,0.0,0.0
1782665955,890658568,-1.656330410634176,0.12967252731323242,-1.5218337217914026,0.006844115909188986,0.0008512545027770102,0.6743782162666321,0.0,-0.0,0.0,0.0,0.0,0.0
1782665955,898731151,-1.6562703291522425,0.12963628768920898,-1.5218337217914026,0.006832132115960121,0.0008153018425218761,0.6743542551994324,0.0,-0.0,0.0,0.0,0.0,0.0
1782665955,906760920,-1.6563542524920862,0.12964820861816406,-1.521893326436178,0.006880068685859442,0.0007909588748589158,0.6743422150611877,0.0,-0.0,0.0,0.0,0.0,0.0
1782665955,914675002,-1.656330410634176,0.12967252731323242,-1.5218456427203577,0.006880068685859442,0.0007789746159687638,0.6743422150611877,0.0,-0.0,0.0,0.0,0.0,0.0
1782665955,922641937,-1.656318489705221,0.12970829010009766,-1.521893326436178,0.006880068685859442,0.0008272860432043672,0.6743422150611877,0.0,-0.0,0.0,0.0,0.0,0.0
1782665955,930666946,-1.6563423315631312,0.12964820861816406,-1.521881405507223,0.006832132115960121,0.0007909588748589158,0.6743542551994324,0.0,-0.0,0.0,0.0,0.0,0.0
1782665955,938688825,-1.6563423315631312,0.1296243667602539,-1.5219176451312464,0.006939989980310202,0.0007789746159687638,0.6743662357330322,0.0,-0.0,0.0,0.0,0.0,0.0
1782665955,946687500,-1.656318489705221,0.12967252731323242,-1.5218575636493128,0.006916021462529898,0.0008392703020945191,0.6743782162666321,0.0,-0.0,0.0,0.0,0.0,0.0
1782665955,954652546,-1.656318489705221,0.12966012954711914,-1.5218337217914026,0.006904037203639746,0.0008153018425218761,0.6743782162666321,0.0,-0.0,0.0,0.0,0.0,0.0
1782665955,962685333,-1.6562822500811976,0.12961292266845703,-1.5218694845782679,0.006892052944749594,0.0007789746159687638,0.6743901968002319,0.0,-0.0,0.0,0.0,0.0,0.0
1782665955,970803861,-1.656306568776266,0.12963628768920898,-1.5218213240252894,0.006880068685859442,0.0008512545027770102,0.6743302345275879,0.0,-0.0,0.0,0.0,0.0,0.0
1782665955,978653517,-1.656330410634176,0.1296243667602539,-1.521893326436178,0.00686808442696929,0.0008392703020945191,0.6743901968002319,0.0,-0.0,0.0,0.0,0.0,0.0
1782665955,986651952,-1.656330410634176,0.12964820861816406,-1.5218575636493128,0.006892052944749594,0.0007669904152862728,0.6743662357330322,0.0,-0.0,0.0,0.0,0.0,0.0
1782665955,994678331,-1.6562941710101526,0.1296243667602539,-1.5219295660602015,0.006904037203639746,0.0007669904152862728,0.6743901968002319,0.0,-0.0,0.0,0.0,0.0,0.0
1782665956,2781710,-1.656306568776266,0.12966012954711914,-1.5218694845782679,0.006916021462529898,0.0008392703020945191,0.6743662357330322,0.0,-0.0,0.0,0.0,0.0,0.0
1782665956,10670886,-1.656318489705221,0.12966012954711914,-1.5218456427203577,0.006904037203639746,0.0008153018425218761,0.6743901968002319,0.0,-0.0,0.0,0.0,0.0,0.0
1782665956,18650931,-1.6562703291522425,0.12966012954711914,-1.5218456427203577,0.006904037203639746,0.0008153018425218761,0.6744021773338318,0.0,-0.0,0.0,0.0,0.0,0.0
1782665956,26659663,-1.656330410634176,0.12961292266845703,-1.5218213240252894,0.006892052944749594,0.0008153018425218761,0.6743302345275879,0.0,-0.0,0.0,0.0,0.0,0.0
1782665956,34650986,-1.656330410634176,0.12963628768920898,-1.5219176451312464,0.006916021462529898,0.0008153018425218761,0.6744021773338318,0.0,-0.0,0.0,0.0,0.0,0.0
1782665956,42672958,-1.6563661734210413,0.12967252731323242,-1.521893326436178,0.006916021462529898,0.0008153018425218761,0.6743662357330322,0.0,-0.0,0.0,0.0,0.0,0.0
1782665956,50658856,-1.6562941710101526,0.12966012954711914,-1.521893326436178,0.006880068685859442,0.0007909588748589158,0.6743782162666321,0.0,-0.0,0.0,0.0,0.0,0.0
1782665956,58644272,-1.656330410634176,0.1296243667602539,-1.5219176451312464,0.006904037203639746,0.0007909588748589158,0.6743422150611877,0.0,-0.0,0.0,0.0,0.0,0.0
1782665956,66755911,-1.6562941710101526,0.1296243667602539,-1.5218337217914026,0.006844115909188986,0.0008033175836317241,0.6743782162666321,0.0,-0.0,0.0,0.0,0.0,0.0
1782665956,74667623,-1.656306568776266,0.12967252731323242,-1.5218456427203577,0.006856100168079138,0.0007909588748589158,0.6743422150611877,0.0,-0.0,0.0,0.0,0.0,0.0
1782665956,82664280,-1.656318489705221,0.1296243667602539,-1.5218575636493128,0.006892052944749594,0.0008512545027770102,0.6743302345275879,0.0,-0.0,0.0,0.0,0.0,0.0
1782665956,90656437,-1.656330410634176,0.1296243667602539,-1.521881405507223,0.006892052944749594,0.0008153018425218761,0.6743901968002319,0.0,-0.0,0.0,0.0,0.0,0.0
1782665956,98731521,-1.656306568776266,0.12963628768920898,-1.5218337217914026,0.006892052944749594,0.0007789746159687638,0.6743782162666321,0.0,-0.0,0.0,0.0,0.0,0.0
1782665956,106673974,-1.6562703291522425,0.12966012954711914,-1.5218456427203577,0.006892052944749594,0.0008272860432043672,0.6743782162666321,0.0,-0.0,0.0,0.0,0.0,0.0
1782665956,114669723,-1.656306568776266,0.12961292266845703,-1.5218456427203577,0.006844115909188986,0.0007669904152862728,0.674318253993988,0.0,-0.0,0.0,0.0,0.0,0.0
1782665956,122672288,-1.656306568776266,0.1296243667602539,-1.5218575636493128,0.006892052944749594,0.0008033175836317241,0.6743901968002319,0.0,-0.0,0.0,0.0,0.0,0.0
1782665956,130669315,-1.6563661734210413,0.1296844482421875,-1.5218337217914026,0.006904037203639746,0.0008153018425218761,0.6743901968002319,0.0,-0.0,0.0,0.0,0.0,0.0
1782665956,138682657,-1.6562703291522425,0.12963628768920898,-1.521881405507223,0.00692800572142005,0.0008153018425218761,0.6743662357330322,0.0,-0.0,0.0,0.0,0.0,0.0
1782665956,146645944,-1.6562703291522425,0.12966012954711914,-1.5218456427203577,0.006939989980310202,0.0007909588748589158,0.6743662357330322,0.0,-0.0,0.0,0.0,0.0,0.0
1782665956,154670434,-1.656306568776266,0.12964820861816406,-1.5217974821673792,0.00686808442696929,0.0008153018425218761,0.6743782162666321,0.0,-0.0,0.0,0.0,0.0,0.0
1782665956,162711388,-1.656318489705221,0.12963628768920898,-1.521893326436178,0.006904037203639746,0.0008153018425218761,0.6743422150611877,0.0,-0.0,0.0,0.0,0.0,0.0
1782665956,170673489,-1.6562941710101526,0.12960100173950195,-1.521893326436178,0.00692800572142005,0.0008153018425218761,0.6743662357330322,0.0,-0.0,0.0,0.0,0.0,0.0
1782665956,178657257,-1.656306568776266,0.12960100173950195,-1.5218337217914026,0.00692800572142005,0.0008272860432043672,0.6743662357330322,0.0,-0.0,0.0,0.0,0.0,0.0
1782665956,186677525,-1.6562703291522425,0.12961292266845703,-1.5218213240252894,0.006844115909188986,0.0007909588748589158,0.6743542551994324,0.0,-0.0,0.0,0.0,0.0,0.0
1782665956,194999369,-1.656318489705221,0.12966012954711914,-1.5218337217914026,0.006904037203639746,0.0008272860432043672,0.6743302345275879,0.0,-0.0,0.0,0.0,0.0,0.0
1782665956,202649432,-1.6563542524920862,0.1296844482421875,-1.5218575636493128,0.006880068685859442,0.0007430219557136297,0.6744021773338318,0.0,-0.0,0.0,0.0,0.0,0.0
1782665956,210655256,-1.6563661734210413,0.1296844482421875,-1.5218094030963343,0.006880068685859442,0.0008392703020945191,0.6743302345275879,0.0,-0.0,0.0,0.0,0.0,0.0
1782665956,218673524,-1.6562822500811976,0.12963628768920898,-1.5218575636493128,0.006892052944749594,0.0008272860432043672,0.6743901968002319,0.0,-0.0,0.0,0.0,0.0,0.0
1782665956,226701514,-1.6563423315631312,0.12967252731323242,-1.5218456427203577,0.006892052944749594,0.0007669904152862728,0.6743542551994324,0.0,-0.0,0.0,0.0,0.0,0.0
1782665956,234665616,-1.6562941710101526,0.1296243667602539,-1.521893326436178,0.006856100168079138,0.0007909588748589158,0.6744021773338318,0.0,-0.0,0.0,0.0,0.0,0.0
1782665956,242649791,-1.6563542524920862,0.12964820861816406,-1.521893326436178,0.006880068685859442,0.0008392703020945191,0.6743782162666321,0.0,-0.0,0.0,0.0,0.0,0.0
1782665956,250984709,-1.656306568776266,0.12966012954711914,-1.5218694845782679,0.006892052944749594,0.0007909588748589158,0.6743542551994324,0.0,-0.0,0.0,0.0,0.0,0.0
1782665956,258660513,-1.656318489705221,0.12961292266845703,-1.5218456427203577,0.00686808442696929,0.0008033175836317241,0.6743782162666321,0.0,-0.0,0.0,0.0,0.0,0.0
1782665956,266666688,-1.656318489705221,0.12967252731323242,-1.521881405507223,0.006904037203639746,0.0008272860432043672,0.6743901968002319,0.0,-0.0,0.0,0.0,0.0,0.0
1782665956,274660049,-1.656330410634176,0.12966012954711914,-1.5218694845782679,0.006904037203639746,0.0007789746159687638,0.6743422150611877,0.0,-0.0,0.0,0.0,0.0,0.0
1782665956,282696984,-1.6563661734210413,0.12963628768920898,-1.521893326436178,0.006844115909188986,0.0007789746159687638,0.6743782162666321,0.0,-0.0,0.0,0.0,0.0,0.0
1782665956,290678289,-1.656318489705221,0.12963628768920898,-1.521881405507223,0.006856100168079138,0.0008153018425218761,0.6743662357330322,0.0,-0.0,0.0,0.0,0.0,0.0
1782665956,298675594,-1.6562941710101526,0.12966012954711914,-1.5218337217914026,0.006904037203639746,0.0008272860432043672,0.6743542551994324,0.0,-0.0,0.0,0.0,0.0,0.0
1782665956,306667529,-1.656306568776266,0.12963628768920898,-1.521905247365133,0.006916021462529898,0.0007669904152862728,0.6743901968002319,0.0,-0.0,0.0,0.0,0.0,0.0
1782665956,314720353,-1.6563423315631312,0.1296844482421875,-1.5218694845782679,0.00686808442696929,0.0007909588748589158,0.6743302345275879,0.0,-0.0,0.0,0.0,0.0,0.0
1782665956,322659010,-1.6562703291522425,0.12963628768920898,-1.5218575636493128,0.006880068685859442,0.0008153018425218761,0.6743542551994324,0.0,-0.0,0.0,0.0,0.0,0.0
1782665956,330667482,-1.6563542524920862,0.12966012954711914,-1.521905247365133,0.00686808442696929,0.0008153018425218761,0.6743542551994324,0.0,-0.0,0.0,0.0,0.0,0.0
1782665956,338670694,-1.656306568776266,0.12963628768920898,-1.521881405507223,0.006844115909188986,0.0007909588748589158,0.6743782162666321,0.0,-0.0,0.0,0.0,0.0,0.0
1782665956,346670536,-1.6563423315631312,0.12964820861816406,-1.5218456427203577,0.006856100168079138,0.0008272860432043672,0.6743901968002319,0.0,-0.0,0.0,0.0,0.0,0.0
1782665956,354700490,-1.6563423315631312,0.12963628768920898,-1.5218456427203577,0.00686808442696929,0.0007669904152862728,0.6743782162666321,0.0,-0.0,0.0,0.0,0.0,0.0
1782665956,362689758,-1.6562822500811976,0.12963628768920898,-1.521905247365133,0.006916021462529898,0.0007909588748589158,0.6743542551994324,0.0,-0.0,0.0,0.0,0.0,0.0
