LukePepin/On-Edge/data/archived_logs/deceleration_data_1782666521.csv
timestamp_sec,timestamp_nanosec,shoulder_pan_pos,shoulder_lift_pos,elbow_pos,wrist_1_pos,wrist_2_pos,wrist_3_pos,shoulder_pan_vel,shoulder_lift_vel,elbow_vel,wrist_1_vel,wrist_2_vel,wrist_3_vel
1782666521,902479583,-1.6565583387957972,0.1295766830444336,-1.5218337217914026,0.00686808442696929,0.0007669904152862728,0.6743302345275879,-1.2783173588104546e-05,-0.0,0.0,0.0,0.0,0.0
1782666521,915016208,-1.6564505735980433,0.1296243667602539,-1.5218575636493128,0.00692800572142005,0.0007669904152862728,0.6743662357330322,-1.2783173588104546e-05,-0.0,0.0,0.0,0.0,0.0
1782666521,921422975,-1.656534496937887,0.1295766830444336,-1.5218456427203577,0.006856100168079138,0.0007789746159687638,0.6743662357330322,-1.2783173588104546e-05,-0.0,0.0,0.0,0.0,0.0
1782666521,961449013,-1.6565702597247522,0.12964820861816406,-1.521881405507223,0.006892052944749594,0.0007550062146037817,0.6743662357330322,-1.2783173588104546e-05,-0.0,0.0,0.0,0.0,0.0
1782666521,969421773,-1.656546417866842,0.12958860397338867,-1.5218694845782679,0.00686808442696929,0.0007669904152862728,0.674318253993988,-1.2783173588104546e-05,-0.0,0.0,0.0,0.0,0.0
1782666521,985421162,-1.656534496937887,0.12958860397338867,-1.521881405507223,0.006856100168079138,0.0008153018425218761,0.6743662357330322,-1.2783173588104546e-05,-0.0,0.0,0.0,0.0,0.0
1782666521,993500793,-1.6565945784198206,0.12964820861816406,-1.521881405507223,0.006880068685859442,0.0008033175836317241,0.6743662357330322,-1.2783173588104546e-05,-0.0,0.0,0.0,0.0,0.0
1782666522,1432756,-1.656522576008932,0.12960100173950195,-1.5218694845782679,0.00686808442696929,0.0007669904152862728,0.674318253993988,-1.2783173588104546e-05,-0.0,0.0,0.0,0.0,0.0
1782666522,9432089,-1.6565106550799769,0.12961292266845703,-1.5218456427203577,0.00686808442696929,0.0007310377550311387,0.6743662357330322,-1.2783173588104546e-05,-0.0,0.0,0.0,0.0,0.0
1782666522,17429460,-1.6565821806537073,0.12958860397338867,-1.521893326436178,0.006880068685859442,0.0007909588748589158,0.6743302345275879,-1.2783173588104546e-05,-0.0,0.0,0.0,0.0,0.0
1782666522,25473609,-1.6565106550799769,0.12966012954711914,-1.5218694845782679,0.00686808442696929,0.0007789746159687638,0.6743422150611877,-1.2783173588104546e-05,-0.0,0.0,0.0,0.0,0.0
1782666522,33494757,-1.656546417866842,0.12960100173950195,-1.5218694845782679,0.006856100168079138,0.0007669904152862728,0.6743662357330322,-1.2783173588104546e-05,-0.0,0.0,0.0,0.0,0.0
1782666522,41420720,-1.6565583387957972,0.12960100173950195,-1.5218694845782679,0.006892052944749594,0.0008272860432043672,0.6743542551994324,-1.2783173588104546e-05,-0.0,0.0,0.0,0.0,0.0
1782666522,49439980,-1.6565106550799769,0.12961292266845703,-1.5218575636493128,0.006844115909188986,0.0007310377550311387,0.6743662357330322,-1.2783173588104546e-05,-0.0,0.0,0.0,0.0,0.0
1782666522,57474721,-1.656534496937887,0.1296243667602539,-1.5218694845782679,0.006880068685859442,0.0007669904152862728,0.6743422150611877,-1.2783173588104546e-05,-0.0,0.0,0.0,0.0,0.0
1782666522,65407703,-1.6565106550799769,0.1295766830444336,-1.521893326436178,0.006832132115960121,0.0007550062146037817,0.6743542551994324,-1.2783173588104546e-05,-0.0,0.0,0.0,0.0,0.0
1782666522,73405962,-1.656534496937887,0.12958860397338867,-1.5218575636493128,0.006904037203639746,0.0007909588748589158,0.674318253993988,-1.2783173588104546e-05,-0.0,0.0,0.0,0.0,0.0
1782666522,81412185,-1.6565583387957972,0.12958860397338867,-1.5218575636493128,0.006892052944749594,0.0007789746159687638,0.6743782162666321,-1.2783173588104546e-05,-0.0,0.0,0.0,0.0,0.0
1782666522,92637263,-1.6564987341510218,0.12960100173950195,-1.521881405507223,0.006844115909188986,0.0008033175836317241,0.6743542551994324,-1.2783173588104546e-05,-0.0,0.0,0.0,0.0,0.0
1782666522,152839388,-1.656522576008932,0.12966012954711914,-1.521893326436178,0.006856100168079138,0.0007669904152862728,0.674318253993988,-1.2783173588104546e-05,-0.0,0.0,0.0,0.0,0.0
1782666522,157100251,-1.6565106550799769,0.12964820861816406,-1.5218213240252894,0.006844115909188986,0.0007789746159687638,0.6743062734603882,-1.2783173588104546e-05,-0.0,0.0,0.0,0.0,0.0
1782666522,162020989,-1.6565106550799769,0.12964820861816406,-1.5218213240252894,0.006844115909188986,0.0007789746159687638,0.6743062734603882,-1.2783173588104546e-05,-0.0,0.0,0.0,0.0,0.0
1782666522,169552690,-1.656546417866842,0.12958860397338867,-1.5218456427203577,0.006892052944749594,0.0007430219557136297,0.674318253993988,-1.2783173588104546e-05,-0.0,0.0,0.0,0.0,0.0
1782666522,187429352,-1.6565945784198206,0.1296243667602539,-1.5218575636493128,0.006880068685859442,0.0008153018425218761,0.6743302345275879,-1.2783173588104546e-05,-0.0,0.0,0.0,0.0,0.0
1782666522,206273483,-1.656546417866842,0.1296243667602539,-1.521893326436178,0.006832132115960121,0.0007430219557136297,0.674318253993988,-1.2783173588104546e-05,-0.0,0.0,0.0,0.0,0.0
1782666522,217426987,-1.6564987341510218,0.12958860397338867,-1.5219176451312464,0.006880068685859442,0.0007909588748589158,0.6743422150611877,-1.2783173588104546e-05,-0.0,0.0,0.0,0.0,0.0
1782666522,231440029,-1.656534496937887,0.12961292266845703,-1.5218456427203577,0.006904037203639746,0.0007909588748589158,0.6743062734603882,-1.2783173588104546e-05,-0.0,0.0,0.0,0.0,0.0
1782666522,239359640,-1.656534496937887,0.12961292266845703,-1.5218456427203577,0.006904037203639746,0.0007909588748589158,0.6743062734603882,-1.2783173588104546e-05,-0.0,0.0,0.0,0.0,0.0
1782666522,244132007,-1.6564987341510218,0.12963628768920898,-1.5218575636493128,0.006904037203639746,0.0007550062146037817,0.6743782162666321,-1.2783173588104546e-05,-0.0,0.0,0.0,0.0,0.0
1782666522,251571837,-1.656534496937887,0.12963628768920898,-1.5218456427203577,0.006844115909188986,0.0008033175836317241,0.6743662357330322,-1.2783173588104546e-05,-0.0,0.0,0.0,0.0,0.0
1782666522,257469359,-1.656534496937887,0.12963628768920898,-1.5218456427203577,0.006844115909188986,0.0008033175836317241,0.6743662357330322,-1.2783173588104546e-05,-0.0,0.0,0.0,0.0,0.0
1782666522,271425161,-1.656534496937887,0.12960100173950195,-1.5218456427203577,0.006892052944749594,0.0008153018425218761,0.6743422150611877,-1.2783173588104546e-05,-0.0,0.0,0.0,0.0,0.0
1782666522,287521292,-1.656522576008932,0.12958860397338867,-1.5218213240252894,0.006856100168079138,0.0007430219557136297,0.6743901968002319,-1.2783173588104546e-05,-0.0,0.0,0.0,0.0,0.0
1782666522,299104465,-1.656534496937887,0.1295766830444336,-1.5218337217914026,0.006904037203639746,0.0008033175836317241,0.6743542551994324,-1.2783173588104546e-05,-0.0,0.0,0.0,0.0,0.0
1782666522,306232515,-1.656522576008932,0.12958860397338867,-1.5218337217914026,0.006880068685859442,0.0007669904152862728,0.674318253993988,-1.2783173588104546e-05,-0.0,0.0,0.0,0.0,0.0
1782666522,313481936,-1.656522576008932,0.12958860397338867,-1.5218337217914026,0.006880068685859442,0.0007669904152862728,0.674318253993988,-1.2783173588104546e-05,-0.0,0.0,0.0,0.0,0.0
1782666522,321443973,-1.6565106550799769,0.1296243667602539,-1.5218456427203577,0.006892052944749594,0.0007550062146037817,0.6743422150611877,-1.2783173588104546e-05,-0.0,0.0,0.0,0.0,0.0
1782666522,335475497,-1.6564987341510218,0.1296243667602539,-1.521881405507223,0.006808163598179817,0.0007669904152862728,0.6743062734603882,-1.2783173588104546e-05,-0.0,0.0,0.0,0.0,0.0
1782666522,345692606,-1.6565583387957972,0.1296243667602539,-1.5218575636493128,0.006856100168079138,0.0007789746159687638,0.6744021773338318,-1.2783173588104546e-05,-0.0,0.0,0.0,0.0,0.0
1782666522,353715199,-1.6564987341510218,0.12960100173950195,-1.521881405507223,0.006880068685859442,0.0008033175836317241,0.6743662357330322,-1.2783173588104546e-05,-0.0,0.0,0.0,0.0,0.0
1782666522,361432197,-1.656522576008932,0.12958860397338867,-1.521881405507223,0.00686808442696929,0.0007430219557136297,0.6743901968002319,-1.2783173588104546e-05,-0.0,0.0,0.0,0.0,0.0
1782666522,372586682,-1.656546417866842,0.1296243667602539,-1.5218694845782679,0.00686808442696929,0.0007430219557136297,0.674318253993988,-1.2783173588104546e-05,-0.0,0.0,0.0,0.0,0.0
1782666522,377458420,-1.656546417866842,0.1296243667602539,-1.5218694845782679,0.00686808442696929,0.0007430219557136297,0.674318253993988,-1.2783173588104546e-05,-0.0,0.0,0.0,0.0,0.0
1782666522,385477402,-1.6565702597247522,0.12961292266845703,-1.521881405507223,0.006856100168079138,0.0007430219557136297,0.6743302345275879,-1.2783173588104546e-05,-0.0,0.0,0.0,0.0,0.0
1782666522,393998017,-1.6565583387957972,0.1296243667602539,-1.521893326436178,0.006880068685859442,0.0007550062146037817,0.6743302345275879,-1.2783173588104546e-05,-0.0,0.0,0.0,0.0,0.0
1782666522,401559996,-1.656546417866842,0.1295766830444336,-1.5218575636493128,0.006892052944749594,0.0007789746159687638,0.6742942929267883,-1.2783173588104546e-05,-0.0,0.0,0.0,0.0,0.0
1782666522,409479940,-1.6565702597247522,0.12963628768920898,-1.521905247365133,0.006904037203639746,0.0007669904152862728,0.6743542551994324,-1.2783173588104546e-05,-0.0,0.0,0.0,0.0,0.0
1782666522,418283576,-1.656546417866842,0.12961292266845703,-1.5218575636493128,0.006856100168079138,0.0007310377550311387,0.6743542551994324,-1.2783173588104546e-05,-0.0,0.0,0.0,0.0,0.0
1782666522,435932755,-1.6565583387957972,0.1296243667602539,-1.521881405507223,0.00686808442696929,0.0007310377550311387,0.6743062734603882,-1.2783173588104546e-05,-0.0,0.0,0.0,0.0,0.0
1782666522,452284480,-1.656534496937887,0.12961292266845703,-1.521881405507223,0.006820147857069969,0.0007909588748589158,0.6743302345275879,-1.2783173588104546e-05,-0.0,0.0,0.0,0.0,0.0
1782666522,480705827,-1.656546417866842,0.12960100173950195,-1.5218575636493128,0.006880068685859442,0.0007909588748589158,0.6743422150611877,-1.2783173588104546e-05,-0.0,0.0,0.0,0.0,0.0
1782666522,485431915,-1.656546417866842,0.12966012954711914,-1.521905247365133,0.006880068685859442,0.0007669904152862728,0.6743422150611877,-1.2783173588104546e-05,-0.0,0.0,0.0,0.0,0.0
1782666522,500004184,-1.6565702597247522,0.1296243667602539,-1.5218213240252894,0.006832132115960121,0.0007430219557136297,0.6743542551994324,-1.2783173588104546e-05,-0.0,0.0,0.0,0.0,0.0
1782666522,515037826,-1.6565583387957972,0.1295766830444336,-1.521893326436178,0.006880068685859442,0.0007909588748589158,0.6743422150611877,-1.2783173588104546e-05,-0.0,0.0,0.0,0.0,0.0
1782666522,522324210,-1.6565583387957972,0.1295766830444336,-1.521893326436178,0.006880068685859442,0.0007909588748589158,0.6743422150611877,-1.2783173588104546e-05,-0.0,0.0,0.0,0.0,0.0
1782666522,529513168,-1.656522576008932,0.1296243667602539,-1.5218694845782679,0.006880068685859442,0.0008033175836317241,0.6743901968002319,-1.2783173588104546e-05,-0.0,0.0,0.0,0.0,0.0
1782666522,536732792,-1.656534496937887,0.1295766830444336,-1.5218694845782679,0.006916021462529898,0.0007669904152862728,0.6743302345275879,-1.2783173588104546e-05,-0.0,0.0,0.0,0.0,0.0
1782666522,542061700,-1.6564863363849085,0.12964820861816406,-1.5218213240252894,0.006880068685859442,0.0007430219557136297,0.6743302345275879,-1.2783173588104546e-05,-0.0,0.0,0.0,0.0,0.0
1782666522,547854740,-1.6564863363849085,0.12964820861816406,-1.5218213240252894,0.006880068685859442,0.0007430219557136297,0.6743302345275879,-1.2783173588104546e-05,-0.0,0.0,0.0,0.0,0.0
1782666522,554712048,-1.6565106550799769,0.1296243667602539,-1.521881405507223,0.006844115909188986,0.0008153018425218761,0.6743542551994324,-1.2783173588104546e-05,-0.0,0.0,0.0,0.0,0.0
1782666522,569397428,-1.6565702597247522,0.1296243667602539,-1.521881405507223,0.00686808442696929,0.0007550062146037817,0.6743062734603882,-1.2783173588104546e-05,-0.0,0.0,0.0,0.0,0.0
1782666522,575160431,-1.6564987341510218,0.1296243667602539,-1.5218456427203577,0.006844115909188986,0.0007310377550311387,0.6743662357330322,-1.2783173588104546e-05,-0.0,0.0,0.0,0.0,0.0
1782666522,585777061,-1.6565106550799769,0.12966012954711914,-1.5218694845782679,0.006856100168079138,0.0007789746159687638,0.6743422150611877,-1.2783173588104546e-05,-0.0,0.0,0.0,0.0,0.0
1782666522,595803168,-1.656546417866842,0.12963628768920898,-1.521893326436178,0.006856100168079138,0.0007669904152862728,0.6743422150611877,-1.2783173588104546e-05,-0.0,0.0,0.0,0.0,0.0
1782666522,601762543,-1.656546417866842,0.12963628768920898,-1.521893326436178,0.006856100168079138,0.0007669904152862728,0.6743422150611877,-1.2783173588104546e-05,-0.0,0.0,0.0,0.0,0.0
1782666522,611012608,-1.656546417866842,0.1296243667602539,-1.5218456427203577,0.006880068685859442,0.0007789746159687638,0.6743662357330322,-1.2783173588104546e-05,-0.0,0.0,0.0,0.0,0.0
1782666522,617564320,-1.656546417866842,0.1296243667602539,-1.5218456427203577,0.006880068685859442,0.0007789746159687638,0.6743662357330322,-1.2783173588104546e-05,-0.0,0.0,0.0,0.0,0.0
1782666522,626111917,-1.656546417866842,0.1296243667602539,-1.5218694845782679,0.006856100168079138,0.0007550062146037817,0.6742823123931885,-1.2783173588104546e-05,-0.0,0.0,0.0,0.0,0.0
1782666522,675500521,-1.656534496937887,0.12963628768920898,-1.5218575636493128,0.006844115909188986,0.0007789746159687638,0.674318253993988,-1.2783173588104546e-05,-0.0,0.0,0.0,0.0,0.0
1782666522,693617944,-1.656534496937887,0.12963628768920898,-1.5218575636493128,0.006844115909188986,0.0007789746159687638,0.674318253993988,-1.2783173588104546e-05,-0.0,0.0,0.0,0.0,0.0
1782666522,715645820,-1.656522576008932,0.1296243667602539,-1.521893326436178,0.006892052944749594,0.0007669904152862728,0.6743542551994324,-1.2783173588104546e-05,-0.0,0.0,0.0,0.0,0.0
1782666522,723110391,-1.6565106550799769,0.12963628768920898,-1.5218575636493128,0.006832132115960121,0.0007789746159687638,0.6743542551994324,-1.2783173588104546e-05,-0.0,0.0,0.0,0.0,0.0
1782666522,741964745,-1.6565106550799769,0.12964820861816406,-1.5218694845782679,0.006844115909188986,0.0007909588748589158,0.6743422150611877,0.0,-0.0,0.0,0.0,0.0,0.0
1782666522,747034688,-1.6564987341510218,0.12958860397338867,-1.521881405507223,0.006892052944749594,0.0007310377550311387,0.6743542551994324,0.0,-0.0,0.0,0.0,0.0,0.0
1782666522,751713868,-1.6564987341510218,0.12958860397338867,-1.521881405507223,0.006892052944749594,0.0007310377550311387,0.6743542551994324,0.0,-0.0,0.0,0.0,0.0,0.0
1782666522,756059380,-1.6564987341510218,0.12963628768920898,-1.5218337217914026,0.00686808442696929,0.0007669904152862728,0.674318253993988,0.0,-0.0,0.0,0.0,0.0,0.0
1782666522,761008952,-1.6564987341510218,0.12963628768920898,-1.5218337217914026,0.00686808442696929,0.0007669904152862728,0.674318253993988,0.0,-0.0,0.0,0.0,0.0,0.0
1782666522,765272945,-1.6564863363849085,0.12958860397338867,-1.5218456427203577,0.006832132115960121,0.0008272860432043672,0.6743542551994324,0.0,-0.0,0.0,0.0,0.0,0.0
1782666522,778056793,-1.6564987341510218,0.12963628768920898,-1.521881405507223,0.006880068685859442,0.0008033175836317241,0.674318253993988,0.0,-0.0,0.0,0.0,0.0,0.0
1782666522,785478716,-1.6565583387957972,0.1295766830444336,-1.5218575636493128,0.00686808442696929,0.0007430219557136297,0.6743302345275879,0.0,-0.0,0.0,0.0,0.0,0.0
1782666522,793476920,-1.656546417866842,0.12960100173950195,-1.521881405507223,0.006844115909188986,0.0007669904152862728,0.6743302345275879,0.0,-0.0,0.0,0.0,0.0,0.0
1782666522,801437864,-1.6565945784198206,0.12961292266845703,-1.5218575636493128,0.006832132115960121,0.0008033175836317241,0.6743422150611877,0.0,-0.0,0.0,0.0,0.0,0.0
1782666522,809427475,-1.656534496937887,0.12958860397338867,-1.521881405507223,0.006856100168079138,0.0007789746159687638,0.6742823123931885,0.0,-0.0,0.0,0.0,0.0,0.0
1782666522,817452772,-1.6565583387957972,0.12960100173950195,-1.5218694845782679,0.00686808442696929,0.0007669904152862728,0.6743662357330322,0.0,-0.0,0.0,0.0,0.0,0.0
1782666522,826900561,-1.656546417866842,0.12961292266845703,-1.5218694845782679,0.006880068685859442,0.0008153018425218761,0.6743302345275879,0.0,-0.0,0.0,0.0,0.0,0.0
1782666522,833464717,-1.656546417866842,0.12961292266845703,-1.5218694845782679,0.006880068685859442,0.0008153018425218761,0.6743302345275879,0.0,-0.0,0.0,0.0,0.0,0.0
1782666522,841415866,-1.6564987341510218,0.12966012954711914,-1.5218575636493128,0.006892052944749594,0.0007550062146037817,0.6743422150611877,0.0,-0.0,0.0,0.0,0.0,0.0
1782666522,849453440,-1.656522576008932,0.1296243667602539,-1.5217974821673792,0.00686808442696929,0.0007669904152862728,0.6743302345275879,0.0,-0.0,0.0,0.0,0.0,0.0
1782666522,857528015,-1.656534496937887,0.12963628768920898,-1.521893326436178,0.00686808442696929,0.0007789746159687638,0.6743542551994324,0.0,-0.0,0.0,0.0,0.0,0.0
1782666522,865416681,-1.656546417866842,0.12966012954711914,-1.5218575636493128,0.006880068685859442,0.0008033175836317241,0.6743542551994324,0.0,-0.0,0.0,0.0,0.0,0.0
1782666522,873418330,-1.656546417866842,0.12960100173950195,-1.5218337217914026,0.00686808442696929,0.0007550062146037817,0.6743542551994324,0.0,-0.0,0.0,0.0,0.0,0.0
1782666522,881426590,-1.656546417866842,0.12960100173950195,-1.5218213240252894,0.00686808442696929,0.0007550062146037817,0.6743542551994324,0.0,-0.0,0.0,0.0,0.0,0.0
1782666522,889437572,-1.656546417866842,0.12963628768920898,-1.5218694845782679,0.006844115909188986,0.0007430219557136297,0.6743062734603882,0.0,-0.0,0.0,0.0,0.0,0.0
1782666522,897442053,-1.6565702597247522,0.1296243667602539,-1.5218456427203577,0.006892052944749594,0.0007909588748589158,0.6742942929267883,0.0,-0.0,0.0,0.0,0.0,0.0
1782666522,905706407,-1.6564987341510218,0.12963628768920898,-1.5218575636493128,0.006844115909188986,0.0008033175836317241,0.6743422150611877,0.0,-0.0,0.0,0.0,0.0,0.0
1782666522,913610870,-1.6564863363849085,0.1296243667602539,-1.5218694845782679,0.006856100168079138,0.0007430219557136297,0.674318253993988,0.0,-0.0,0.0,0.0,0.0,0.0
1782666522,921435925,-1.6564863363849085,0.12964820861816406,-1.521905247365133,0.006892052944749594,0.0007430219557136297,0.674318253993988,0.0,-0.0,0.0,0.0,0.0,0.0
1782666522,929568815,-1.6565702597247522,0.12963628768920898,-1.521881405507223,0.006844115909188986,0.0007789746159687638,0.6743302345275879,0.0,-0.0,0.0,0.0,0.0,0.0
1782666522,937413518,-1.6565702597247522,0.12960100173950195,-1.5218694845782679,0.006880068685859442,0.0007550062146037817,0.6743542551994324,0.0,-0.0,0.0,0.0,0.0,0.0
1782666522,945416926,-1.656546417866842,0.12958860397338867,-1.5217974821673792,0.006856100168079138,0.0007430219557136297,0.6743062734603882,0.0,-0.0,0.0,0.0,0.0,0.0
1782666522,953474315,-1.656534496937887,0.12956476211547852,-1.521881405507223,0.006856100168079138,0.0007669904152862728,0.6743302345275879,0.0,-0.0,0.0,0.0,0.0,0.0
1782666522,961948837,-1.6565583387957972,0.12961292266845703,-1.5218337217914026,0.00686808442696929,0.0007430219557136297,0.6743542551994324,0.0,-0.0,0.0,0.0,0.0,0.0
1782666522,969505038,-1.6565583387957972,0.12961292266845703,-1.5218337217914026,0.00686808442696929,0.0007430219557136297,0.6743542551994324,0.0,-0.0,0.0,0.0,0.0,0.0
1782666522,977742707,-1.6565702597247522,0.12956476211547852,-1.5218337217914026,0.00686808442696929,0.0007789746159687638,0.6742823123931885,0.0,-0.0,0.0,0.0,0.0,0.0
1782666522,985798041,-1.656546417866842,0.12961292266845703,-1.5218575636493128,0.006880068685859442,0.0007430219557136297,0.674318253993988,0.0,-0.0,0.0,0.0,0.0,0.0
1782666522,994197878,-1.656546417866842,0.12961292266845703,-1.5218575636493128,0.006880068685859442,0.0007430219557136297,0.674318253993988,0.0,-0.0,0.0,0.0,0.0,0.0
1782666523,1427206,-1.656522576008932,0.12958860397338867,-1.521893326436178,0.006856100168079138,0.0008153018425218761,0.6743422150611877,0.0,-0.0,0.0,0.0,0.0,0.0
1782666523,9603319,-1.656534496937887,0.12961292266845703,-1.5218337217914026,0.006856100168079138,0.0008033175836317241,0.6743662357330322,0.0,-0.0,0.0,0.0,0.0,0.0
1782666523,18000859,-1.656534496937887,0.12966012954711914,-1.5218337217914026,0.006832132115960121,0.0007909588748589158,0.6743062734603882,0.0,-0.0,0.0,0.0,0.0,0.0
1782666523,25520023,-1.656546417866842,0.12961292266845703,-1.5218694845782679,0.006832132115960121,0.0007430219557136297,0.6743901968002319,0.0,-0.0,0.0,0.0,0.0,0.0
1782666523,33656598,-1.656534496937887,0.12961292266845703,-1.5218694845782679,0.006844115909188986,0.0007550062146037817,0.6743302345275879,0.0,-0.0,0.0,0.0,0.0,0.0
1782666523,41819766,-1.6565583387957972,0.12967252731323242,-1.5218337217914026,0.006880068685859442,0.0007550062146037817,0.6743782162666321,0.0,-0.0,0.0,0.0,0.0,0.0
1782666523,49435467,-1.6565106550799769,0.12963628768920898,-1.521881405507223,0.006904037203639746,0.0007909588748589158,0.6743302345275879,0.0,-0.0,0.0,0.0,0.0,0.0
1782666523,57415245,-1.6565106550799769,0.12961292266845703,-1.5218575636493128,0.006892052944749594,0.0007430219557136297,0.6743422150611877,0.0,-0.0,0.0,0.0,0.0,0.0
1782666523,65512950,-1.656546417866842,0.12966012954711914,-1.521905247365133,0.006880068685859442,0.0008153018425218761,0.6742823123931885,0.0,-0.0,0.0,0.0,0.0,0.0
1782666523,90696904,-1.656522576008932,0.12963628768920898,-1.5218575636493128,0.006916021462529898,0.0008033175836317241,0.6743662357330322,0.0,-0.0,0.0,0.0,0.0,0.0
1782666523,97467470,-1.656522576008932,0.12963628768920898,-1.5218575636493128,0.006916021462529898,0.0008033175836317241,0.6743662357330322,0.0,-0.0,0.0,0.0,0.0,0.0
1782666523,105555804,-1.656546417866842,0.12961292266845703,-1.5218575636493128,0.006892052944749594,0.0008033175836317241,0.6743542551994324,0.0,-0.0,0.0,0.0,0.0,0.0
1782666523,113439952,-1.656522576008932,0.12960100173950195,-1.5218456427203577,0.006832132115960121,0.0007669904152862728,0.6743422150611877,0.0,-0.0,0.0,0.0,0.0,0.0
1782666523,121505879,-1.656546417866842,0.12960100173950195,-1.5218575636493128,0.006904037203639746,0.0007789746159687638,0.6743062734603882,0.0,-0.0,0.0,0.0,0.0,0.0
1782666523,129546509,-1.6565106550799769,0.12963628768920898,-1.521893326436178,0.006880068685859442,0.0007909588748589158,0.6743302345275879,0.0,-0.0,0.0,0.0,0.0,0.0
1782666523,137457749,-1.6565106550799769,0.12966012954711914,-1.5218337217914026,0.006856100168079138,0.0007909588748589158,0.6743062734603882,0.0,-0.0,0.0,0.0,0.0,0.0
1782666523,145442694,-1.656546417866842,0.1295766830444336,-1.5218694845782679,0.006880068685859442,0.0008153018425218761,0.6743302345275879,0.0,-0.0,0.0,0.0,0.0,0.0
1782666523,153470176,-1.656522576008932,0.12963628768920898,-1.521881405507223,0.006844115909188986,0.0007789746159687638,0.6743422150611877,0.0,-0.0,0.0,0.0,0.0,0.0
1782666523,161425769,-1.6565583387957972,0.1295766830444336,-1.5218337217914026,0.006880068685859442,0.0007909588748589158,0.6743422150611877,0.0,-0.0,0.0,0.0,0.0,0.0
1782666523,169402954,-1.656534496937887,0.1296243667602539,-1.521893326436178,0.006856100168079138,0.0007669904152862728,0.6743422150611877,0.0,-0.0,0.0,0.0,0.0,0.0
1782666523,177399010,-1.6565583387957972,0.12964820861816406,-1.521881405507223,0.006880068685859442,0.0008033175836317241,0.6743422150611877,0.0,-0.0,0.0,0.0,0.0,0.0
1782666523,185462141,-1.6564987341510218,0.12960100173950195,-1.5218337217914026,0.006832132115960121,0.0007430219557136297,0.6743782162666321,0.0,-0.0,0.0,0.0,0.0,0.0
1782666523,193426585,-1.656546417866842,0.12958860397338867,-1.5218456427203577,0.006880068685859442,0.0007789746159687638,0.6742942929267883,0.0,-0.0,0.0,0.0,0.0,0.0
1782666523,201453771,-1.656546417866842,0.1295766830444336,-1.5218575636493128,0.006880068685859442,0.0007909588748589158,0.674318253993988,0.0,-0.0,0.0,0.0,0.0,0.0
1782666523,209439234,-1.6564987341510218,0.12964820861816406,-1.5218337217914026,0.006904037203639746,0.0008033175836317241,0.6743422150611877,0.0,-0.0,0.0,0.0,0.0,0.0
1782666523,217444383,-1.656534496937887,0.12963628768920898,-1.5218575636493128,0.006880068685859442,0.0007430219557136297,0.6743302345275879,0.0,-0.0,0.0,0.0,0.0,0.0
1782666523,225413235,-1.656546417866842,0.12961292266845703,-1.5218456427203577,0.00686808442696929,0.0007430219557136297,0.6742942929267883,0.0,-0.0,0.0,0.0,0.0,0.0
1782666523,233455421,-1.656522576008932,0.12956476211547852,-1.5218337217914026,0.006856100168079138,0.0007669904152862728,0.6743422150611877,0.0,-0.0,0.0,0.0,0.0,0.0
1782666523,241450532,-1.6564863363849085,0.12964820861816406,-1.521905247365133,0.006892052944749594,0.0007430219557136297,0.6743302345275879,0.0,-0.0,0.0,0.0,0.0,0.0
1782666523,249459884,-1.6565106550799769,0.1296243667602539,-1.5218337217914026,0.006904037203639746,0.0008033175836317241,0.6742823123931885,0.0,-0.0,0.0,0.0,0.0,0.0
1782666523,257417533,-1.656534496937887,0.1296243667602539,-1.521905247365133,0.006820147857069969,0.0008033175836317241,0.6742942929267883,0.0,-0.0,0.0,0.0,0.0,0.0
1782666523,265457755,-1.6565106550799769,0.1296243667602539,-1.5218694845782679,0.006844115909188986,0.0008033175836317241,0.6743062734603882,0.0,-0.0,0.0,0.0,0.0,0.0
1782666523,274245206,-1.6564863363849085,0.12961292266845703,-1.5218575636493128,0.006892052944749594,0.0008033175836317241,0.6743422150611877,0.0,-0.0,0.0,0.0,0.0,0.0
1782666523,281455978,-1.6564863363849085,0.12961292266845703,-1.5218575636493128,0.006892052944749594,0.0008033175836317241,0.6743422150611877,0.0,-0.0,0.0,0.0,0.0,0.0
1782666523,289432330,-1.656534496937887,0.12958860397338867,-1.5218694845782679,0.006844115909188986,0.0008033175836317241,0.6743422150611877,0.0,-0.0,0.0,0.0,0.0,0.0
1782666523,301214376,-1.6565821806537073,0.12963628768920898,-1.5218694845782679,0.006880068685859442,0.0007909588748589158,0.6743302345275879,0.0,-0.0,0.0,0.0,0.0,0.0
1782666523,305504035,-1.6565821806537073,0.12963628768920898,-1.5218694845782679,0.006880068685859442,0.0007909588748589158,0.6743302345275879,0.0,-0.0,0.0,0.0,0.0,0.0
1782666523,313432406,-1.6564987341510218,0.12961292266845703,-1.5218337217914026,0.006832132115960121,0.0008033175836317241,0.674318253993988,0.0,-0.0,0.0,0.0,0.0,0.0
1782666523,368422679,-1.656522576008932,0.12960100173950195,-1.521905247365133,0.006856100168079138,0.0007550062146037817,0.6742942929267883,0.0,-0.0,0.0,0.0,0.0,0.0
1782666523,405582420,-1.6564863363849085,0.12960100173950195,-1.5218694845782679,0.006880068685859442,0.0008033175836317241,0.6743422150611877,0.0,-0.0,0.0,0.0,0.0,0.0
1782666523,408107642,-1.6564863363849085,0.12960100173950195,-1.5218694845782679,0.006880068685859442,0.0008033175836317241,0.6743422150611877,0.0,-0.0,0.0,0.0,0.0,0.0
1782666523,409067333,-1.6564863363849085,0.12960100173950195,-1.5218694845782679,0.006880068685859442,0.0008033175836317241,0.6743422150611877,0.0,-0.0,0.0,0.0,0.0,0.0
1782666523,409967506,-1.6564863363849085,0.12960100173950195,-1.5218694845782679,0.006880068685859442,0.0008033175836317241,0.6743422150611877,0.0,-0.0,0.0,0.0,0.0,0.0
1782666523,411066421,-1.6564863363849085,0.12960100173950195,-1.5218694845782679,0.006880068685859442,0.0008033175836317241,0.6743422150611877,0.0,-0.0,0.0,0.0,0.0,0.0
1782666523,412106688,-1.6564863363849085,0.12960100173950195,-1.5218694845782679,0.006880068685859442,0.0008033175836317241,0.6743422150611877,0.0,-0.0,0.0,0.0,0.0,0.0
1782666523,419510018,-1.6565106550799769,0.12960100173950195,-1.5218575636493128,0.006880068685859442,0.0007789746159687638,0.6743422150611877,0.0,-0.0,0.0,0.0,0.0,0.0
1782666523,425474707,-1.6565106550799769,0.12960100173950195,-1.5218575636493128,0.006880068685859442,0.0007789746159687638,0.6743422150611877,0.0,-0.0,0.0,0.0,0.0,0.0
1782666523,433419541,-1.656546417866842,0.12961292266845703,-1.521881405507223,0.006916021462529898,0.0008033175836317241,0.6743542551994324,0.0,-0.0,0.0,0.0,0.0,0.0
1782666523,441414874,-1.6564987341510218,0.12964820861816406,-1.5218694845782679,0.006904037203639746,0.0008033175836317241,0.6743422150611877,0.0,-0.0,0.0,0.0,0.0,0.0
1782666523,449415764,-1.6565702597247522,0.12960100173950195,-1.5218575636493128,0.006832132115960121,0.0007310377550311387,0.6743422150611877,0.0,-0.0,0.0,0.0,0.0,0.0
1782666523,457459875,-1.6565702597247522,0.1295766830444336,-1.5218575636493128,0.006892052944749594,0.0007909588748589158,0.6743302345275879,0.0,-0.0,0.0,0.0,0.0,0.0
1782666523,465483006,-1.6565106550799769,0.12960100173950195,-1.5218337217914026,0.006892052944749594,0.0007789746159687638,0.6743662357330322,0.0,-0.0,0.0,0.0,0.0,0.0
1782666523,473437450,-1.656522576008932,0.1296243667602539,-1.5218337217914026,0.006844115909188986,0.0007310377550311387,0.6743662357330322,0.0,-0.0,0.0,0.0,0.0,0.0
1782666523,481434913,-1.6565583387957972,0.12966012954711914,-1.5217855612384241,0.006880068685859442,0.0007550062146037817,0.6743302345275879,0.0,-0.0,0.0,0.0,0.0,0.0
1782666523,489412803,-1.6564987341510218,0.12958860397338867,-1.5218575636493128,0.00692800572142005,0.0007430219557136297,0.6743422150611877,0.0,-0.0,0.0,0.0,0.0,0.0
1782666523,497414081,-1.6565583387957972,0.12961292266845703,-1.5219176451312464,0.00686808442696929,0.0008153018425218761,0.6743062734603882,0.0,-0.0,0.0,0.0,0.0,0.0
1782666523,505452674,-1.6565821806537073,0.12961292266845703,-1.5218694845782679,0.006856100168079138,0.0007789746159687638,0.674318253993988,0.0,-0.0,0.0,0.0,0.0,0.0
1782666523,521453008,-1.6564987341510218,0.12958860397338867,-1.5218337217914026,0.006856100168079138,0.0007669904152862728,0.6743062734603882,0.0,-0.0,0.0,0.0,0.0,0.0
1782666523,529465305,-1.6564987341510218,0.12958860397338867,-1.5218337217914026,0.006856100168079138,0.0007669904152862728,0.6743062734603882,0.0,-0.0,0.0,0.0,0.0,0.0
1782666523,537450101,-1.6565106550799769,0.1296243667602539,-1.5218694845782679,0.00686808442696929,0.0007669904152862728,0.674318253993988,0.0,-0.0,0.0,0.0,0.0,0.0
1782666523,545468546,-1.656522576008932,0.12958860397338867,-1.5218456427203577,0.006880068685859442,0.0007909588748589158,0.6743302345275879,0.0,-0.0,0.0,0.0,0.0,0.0
1782666523,561413139,-1.6565106550799769,0.12958860397338867,-1.5218575636493128,0.006844115909188986,0.0007909588748589158,0.6743062734603882,0.0,-0.0,0.0,0.0,0.0,0.0
1782666523,569417899,-1.656522576008932,0.12964820861816406,-1.521893326436178,0.006820147857069969,0.0007789746159687638,0.674318253993988,0.0,-0.0,0.0,0.0,0.0,0.0
1782666523,578290831,-1.656546417866842,0.1295766830444336,-1.5218575636493128,0.006844115909188986,0.0007909588748589158,0.674318253993988,0.0,-0.0,0.0,0.0,0.0,0.0
1782666523,585477085,-1.656546417866842,0.1295766830444336,-1.5218575636493128,0.006844115909188986,0.0007909588748589158,0.674318253993988,0.0,-0.0,0.0,0.0,0.0,0.0
1782666523,593480030,-1.656546417866842,0.12961292266845703,-1.5218456427203577,0.006880068685859442,0.0007550062146037817,0.6743302345275879,0.0,-0.0,0.0,0.0,0.0,0.0
1782666523,601424234,-1.656534496937887,0.1296243667602539,-1.5218575636493128,0.006844115909188986,0.0007789746159687638,0.6743662357330322,0.0,-0.0,0.0,0.0,0.0,0.0
1782666523,609427530,-1.656522576008932,0.12963628768920898,-1.521905247365133,0.006856100168079138,0.0008033175836317241,0.6742942929267883,0.0,-0.0,0.0,0.0,0.0,0.0
1782666523,625474309,-1.6564863363849085,0.12963628768920898,-1.5218575636493128,0.006856100168079138,0.0007310377550311387,0.6743062734603882,0.0,-0.0,0.0,0.0,0.0,0.0
1782666523,633522273,-1.656522576008932,0.12960100173950195,-1.5218337217914026,0.006832132115960121,0.0007430219557136297,0.674318253993988,0.0,-0.0,0.0,0.0,0.0,0.0
1782666523,649436384,-1.6565583387957972,0.12960100173950195,-1.521893326436178,0.006892052944749594,0.0007669904152862728,0.6743662357330322,0.0,-0.0,0.0,0.0,0.0,0.0
1782666523,672069320,-1.6565106550799769,0.12960100173950195,-1.5218456427203577,0.006880068685859442,0.0007909588748589158,0.674318253993988,0.0,-0.0,0.0,0.0,0.0,0.0
1782666523,687597410,-1.656534496937887,0.1296243667602539,-1.521893326436178,0.006880068685859442,0.0008033175836317241,0.6743542551994324,0.0,-0.0,0.0,0.0,0.0,0.0
1782666523,709447081,-1.6565583387957972,0.12961292266845703,-1.5218575636493128,0.006892052944749594,0.0007190534961409867,0.6743302345275879,0.0,-0.0,0.0,0.0,0.0,0.0
1782666523,713471128,-1.6565583387957972,0.12961292266845703,-1.5218575636493128,0.006892052944749594,0.0007190534961409867,0.6743302345275879,0.0,-0.0,0.0,0.0,0.0,0.0
1782666523,724381982,-1.6565583387957972,0.12960100173950195,-1.5218575636493128,0.006820147857069969,0.0008033175836317241,0.674318253993988,0.0,-0.0,0.0,0.0,0.0,0.0
1782666523,729526463,-1.6565583387957972,0.12960100173950195,-1.5218575636493128,0.006820147857069969,0.0008033175836317241,0.674318253993988,0.0,-0.0,0.0,0.0,0.0,0.0
1782666523,738477155,-1.6565583387957972,0.12958860397338867,-1.5218213240252894,0.00686808442696929,0.0008033175836317241,0.6743782162666321,0.0,-0.0,0.0,0.0,0.0,0.0
1782666523,745463833,-1.6565583387957972,0.12958860397338867,-1.5218213240252894,0.00686808442696929,0.0008033175836317241,0.6743782162666321,0.0,-0.0,0.0,0.0,0.0,0.0
1782666523,753433648,-1.656546417866842,0.12961292266845703,-1.521881405507223,0.006844115909188986,0.0007430219557136297,0.6743302345275879,0.0,-0.0,0.0,0.0,0.0,0.0
1782666523,761435797,-1.656534496937887,0.12958860397338867,-1.521893326436178,0.006844115909188986,0.0007909588748589158,0.6743542551994324,0.0,-0.0,0.0,0.0,0.0,0.0
1782666523,769484649,-1.6565583387957972,0.12960100173950195,-1.521881405507223,0.006844115909188986,0.0007430219557136297,0.6743542551994324,0.0,-0.0,0.0,0.0,0.0,0.0
1782666523,778490472,-1.656522576008932,0.12963628768920898,-1.5218456427203577,0.006904037203639746,0.0007669904152862728,0.6743302345275879,0.0,-0.0,0.0,0.0,0.0,0.0
1782666523,785464131,-1.656522576008932,0.12963628768920898,-1.5218456427203577,0.006904037203639746,0.0007669904152862728,0.6743302345275879,0.0,-0.0,0.0,0.0,0.0,0.0
1782666523,793412113,-1.656522576008932,0.12958860397338867,-1.5218575636493128,0.006844115909188986,0.0007909588748589158,0.6743062734603882,0.0,-0.0,0.0,0.0,0.0,0.0
1782666523,801810635,-1.656546417866842,0.1296243667602539,-1.5218694845782679,0.006856100168079138,0.0007550062146037817,0.6743062734603882,0.0,-0.0,0.0,0.0,0.0,0.0
1782666523,809726431,-1.6565821806537073,0.12960100173950195,-1.5218694845782679,0.006880068685859442,0.0007310377550311387,0.6743662357330322,0.0,-0.0,0.0,0.0,0.0,0.0
1782666523,819494166,-1.6565702597247522,0.1296243667602539,-1.521893326436178,0.006856100168079138,0.0007310377550311387,0.6743422150611877,0.0,-0.0,0.0,0.0,0.0,0.0
1782666523,825453689,-1.6565702597247522,0.1296243667602539,-1.521893326436178,0.006856100168079138,0.0007310377550311387,0.6743422150611877,0.0,-0.0,0.0,0.0,0.0,0.0
1782666523,833451559,-1.656522576008932,0.12958860397338867,-1.5218456427203577,0.00686808442696929,0.0007669904152862728,0.6743422150611877,0.0,-0.0,0.0,0.0,0.0,0.0
1782666523,841410097,-1.656534496937887,0.12958860397338867,-1.5218575636493128,0.006856100168079138,0.0007430219557136297,0.6743542551994324,0.0,-0.0,0.0,0.0,0.0,0.0
1782666523,849561765,-1.6564987341510218,0.12960100173950195,-1.5218456427203577,0.006916021462529898,0.0007909588748589158,0.674318253993988,0.0,-0.0,0.0,0.0,0.0,0.0
1782666523,857421301,-1.6565106550799769,0.12956476211547852,-1.521905247365133,0.006832132115960121,0.0007909588748589158,0.6743542551994324,0.0,-0.0,0.0,0.0,0.0,0.0
1782666523,865860305,-1.6564987341510218,0.12960100173950195,-1.5218213240252894,0.006844115909188986,0.0007550062146037817,0.674318253993988,0.0,-0.0,0.0,0.0,0.0,0.0
1782666523,873427950,-1.656522576008932,0.1296243667602539,-1.521893326436178,0.006880068685859442,0.0007669904152862728,0.6743542551994324,0.0,-0.0,0.0,0.0,0.0,0.0
1782666523,881430969,-1.6564987341510218,0.12963628768920898,-1.5218694845782679,0.006844115909188986,0.0007550062146037817,0.6743901968002319,0.0,-0.0,0.0,0.0,0.0,0.0
1782666523,893427831,-1.656522576008932,0.1296243667602539,-1.5218694845782679,0.00686808442696929,0.0007310377550311387,0.6742942929267883,0.0,-0.0,0.0,0.0,0.0,0.0
1782666523,897460766,-1.656522576008932,0.1296243667602539,-1.5218694845782679,0.00686808442696929,0.0007310377550311387,0.6742942929267883,0.0,-0.0,0.0,0.0,0.0,0.0
1782666523,948682421,-1.656522576008932,0.12960100173950195,-1.5218575636493128,0.006880068685859442,0.0007550062146037817,0.6743422150611877,0.0,-0.0,0.0,0.0,0.0,0.0
1782666523,955211781,-1.6564987341510218,0.12961292266845703,-1.5218575636493128,0.006856100168079138,0.0008272860432043672,0.6743662357330322,0.0,-0.0,0.0,0.0,0.0,0.0
1782666523,962971095,-1.656546417866842,0.12961292266845703,-1.5218694845782679,0.006832132115960121,0.0007789746159687638,0.6743302345275879,0.0,-0.0,0.0,0.0,0.0,0.0
1782666523,969474677,-1.656546417866842,0.12961292266845703,-1.5218694845782679,0.006832132115960121,0.0007789746159687638,0.6743302345275879,0.0,-0.0,0.0,0.0,0.0,0.0
1782666523,985452048,-1.656546417866842,0.1296243667602539,-1.5218337217914026,0.006880068685859442,0.0007430219557136297,0.674318253993988,0.0,-0.0,0.0,0.0,0.0,0.0
1782666524,17486272,-1.6565945784198206,0.12961292266845703,-1.521893326436178,0.006892052944749594,0.0007550062146037817,0.6743422150611877,0.0,-0.0,0.0,0.0,0.0,0.0
1782666524,25561829,-1.6565106550799769,0.1296243667602539,-1.5218694845782679,0.006844115909188986,0.0007789746159687638,0.6743782162666321,0.0,-0.0,0.0,0.0,0.0,0.0
1782666524,33520903,-1.6565106550799769,0.12955284118652344,-1.521893326436178,0.00686808442696929,0.0007669904152862728,0.6743302345275879,0.0,-0.0,0.0,0.0,0.0,0.0
1782666524,42787523,-1.6565106550799769,0.12958860397338867,-1.521905247365133,0.006856100168079138,0.0008153018425218761,0.674318253993988,0.0,-0.0,0.0,0.0,0.0,0.0
1782666524,49473385,-1.6565106550799769,0.12958860397338867,-1.521905247365133,0.006856100168079138,0.0008153018425218761,0.674318253993988,0.0,-0.0,0.0,0.0,0.0,0.0
1782666524,57429422,-1.656546417866842,0.12964820861816406,-1.5218575636493128,0.006904037203639746,0.0007909588748589158,0.6743062734603882,0.0,-0.0,0.0,0.0,0.0,0.0
1782666524,65420607,-1.6564987341510218,0.12961292266845703,-1.521893326436178,0.006856100168079138,0.0008153018425218761,0.6744021773338318,0.0,-0.0,0.0,0.0,0.0,0.0
1782666524,73426460,-1.656546417866842,0.12958860397338867,-1.5218575636493128,0.006856100168079138,0.0007909588748589158,0.6743062734603882,0.0,-0.0,0.0,0.0,0.0,0.0
1782666524,82234077,-1.656546417866842,0.12958860397338867,-1.5218456427203577,0.006844115909188986,0.0007789746159687638,0.674318253993988,0.0,-0.0,0.0,0.0,0.0,0.0
1782666524,90487079,-1.6565583387957972,0.12961292266845703,-1.5218694845782679,0.006892052944749594,0.0007789746159687638,0.6743302345275879,0.0,-0.0,0.0,0.0,0.0,0.0
1782666524,97853130,-1.656522576008932,0.12963628768920898,-1.5218456427203577,0.00686808442696929,0.0007669904152862728,0.6743542551994324,0.0,-0.0,0.0,0.0,0.0,0.0
1782666524,105471406,-1.656522576008932,0.12963628768920898,-1.5218456427203577,0.00686808442696929,0.0007669904152862728,0.6743542551994324,0.0,-0.0,0.0,0.0,0.0,0.0
1782666524,121583741,-1.6565702597247522,0.1295766830444336,-1.5218694845782679,0.006904037203639746,0.0007430219557136297,0.6743422150611877,0.0,-0.0,0.0,0.0,0.0,0.0
1782666524,129425555,-1.6565106550799769,0.12960100173950195,-1.5219176451312464,0.006880068685859442,0.0007909588748589158,0.6743422150611877,0.0,-0.0,0.0,0.0,0.0,0.0
1782666524,137572871,-1.6565702597247522,0.12961292266845703,-1.521893326436178,0.006892052944749594,0.0007550062146037817,0.6743422150611877,0.0,-0.0,0.0,0.0,0.0,0.0
1782666524,145506167,-1.6565583387957972,0.12963628768920898,-1.5218456427203577,0.00686808442696929,0.0007550062146037817,0.6743422150611877,0.0,-0.0,0.0,0.0,0.0,0.0
1782666524,153624502,-1.656522576008932,0.12956476211547852,-1.5218575636493128,0.00686808442696929,0.0007909588748589158,0.6743422150611877,0.0,-0.0,0.0,0.0,0.0,0.0
1782666524,161442871,-1.656522576008932,0.1296243667602539,-1.5218575636493128,0.006832132115960121,0.0007550062146037817,0.6743542551994324,0.0,-0.0,0.0,0.0,0.0,0.0
1782666524,177448354,-1.656522576008932,0.1296243667602539,-1.5218575636493128,0.006880068685859442,0.0007669904152862728,0.6743542551994324,0.0,-0.0,0.0,0.0,0.0,0.0
1782666524,187443646,-1.656522576008932,0.1296243667602539,-1.521881405507223,0.006832132115960121,0.0007430219557136297,0.674318253993988,0.0,-0.0,0.0,0.0,0.0,0.0
1782666524,193451244,-1.656522576008932,0.1296243667602539,-1.521881405507223,0.006832132115960121,0.0007430219557136297,0.674318253993988,0.0,-0.0,0.0,0.0,0.0,0.0
1782666524,201980822,-1.6565106550799769,0.1296243667602539,-1.5218337217914026,0.006856100168079138,0.0007669904152862728,0.6743062734603882,0.0,-0.0,0.0,0.0,0.0,0.0
1782666524,219496148,-1.656546417866842,0.12955284118652344,-1.5218694845782679,0.006892052944749594,0.0007789746159687638,0.674318253993988,0.0,-0.0,0.0,0.0,0.0,0.0
1782666524,233880137,-1.656534496937887,0.12961292266845703,-1.521893326436178,0.006844115909188986,0.0007909588748589158,0.6743782162666321,0.0,-0.0,0.0,0.0,0.0,0.0
1782666524,241557580,-1.6565583387957972,0.12961292266845703,-1.5218456427203577,0.006856100168079138,0.0007789746159687638,0.6744021773338318,0.0,-0.0,0.0,0.0,0.0,0.0
1782666524,249705767,-1.656546417866842,0.12964820861816406,-1.5218575636493128,0.006880068685859442,0.0007430219557136297,0.6743542551994324,0.0,-0.0,0.0,0.0,0.0,0.0
1782666524,257417450,-1.6565583387957972,0.1296243667602539,-1.5218575636493128,0.006844115909188986,0.0008153018425218761,0.6744021773338318,0.0,-0.0,0.0,0.0,0.0,0.0
1782666524,267224982,-1.6565583387957972,0.1296243667602539,-1.5218456427203577,0.006832132115960121,0.0007909588748589158,0.6743782162666321,0.0,-0.0,0.0,0.0,0.0,0.0
1782666524,273448414,-1.6565583387957972,0.1296243667602539,-1.5218456427203577,0.006832132115960121,0.0007909588748589158,0.6743782162666321,0.0,-0.0,0.0,0.0,0.0,0.0
1782666524,281422748,-1.6565583387957972,0.12961292266845703,-1.521881405507223,0.006880068685859442,0.0008033175836317241,0.6743901968002319,0.0,-0.0,0.0,0.0,0.0,0.0
1782666524,289816399,-1.6564987341510218,0.12963628768920898,-1.521893326436178,0.006844115909188986,0.0007310377550311387,0.6743302345275879,0.0,-0.0,0.0,0.0,0.0,0.0
1782666524,297439582,-1.656546417866842,0.12966012954711914,-1.521881405507223,0.006844115909188986,0.0007909588748589158,0.6743422150611877,0.0,-0.0,0.0,0.0,0.0,0.0
1782666524,305420360,-1.656522576008932,0.12961292266845703,-1.5218337217914026,0.006880068685859442,0.0007430219557136297,0.6743901968002319,0.0,-0.0,0.0,0.0,0.0,0.0
1782666524,313504454,-1.656534496937887,0.1295766830444336,-1.5218694845782679,0.006856100168079138,0.0007909588748589158,0.6742942929267883,0.0,-0.0,0.0,0.0,0.0,0.0
1782666524,321439509,-1.656522576008932,0.1296243667602539,-1.521893326436178,0.00686808442696929,0.0007430219557136297,0.6743542551994324,0.0,-0.0,0.0,0.0,0.0,0.0
1782666524,329422046,-1.656522576008932,0.1296243667602539,-1.521881405507223,0.00692800572142005,0.0007789746159687638,0.6743302345275879,0.0,-0.0,0.0,0.0,0.0,0.0
1782666524,337422028,-1.656522576008932,0.12958860397338867,-1.521881405507223,0.006916021462529898,0.0007789746159687638,0.674318253993988,0.0,-0.0,0.0,0.0,0.0,0.0
1782666524,347163133,-1.656522576008932,0.1296243667602539,-1.5218694845782679,0.006844115909188986,0.0008033175836317241,0.6743542551994324,0.0,-0.0,0.0,0.0,0.0,0.0
1782666524,354922595,-1.6565583387957972,0.12961292266845703,-1.521893326436178,0.006880068685859442,0.0008153018425218761,0.6743542551994324,0.0,-0.0,0.0,0.0,0.0,0.0
1782666524,361461011,-1.6565583387957972,0.12961292266845703,-1.521893326436178,0.006880068685859442,0.0008153018425218761,0.6743542551994324,0.0,-0.0,0.0,0.0,0.0,0.0
1782666524,369423789,-1.656546417866842,0.12961292266845703,-1.5218694845782679,0.006892052944749594,0.0007310377550311387,0.674318253993988,0.0,-0.0,0.0,0.0,0.0,0.0
1782666524,377419049,-1.6565702597247522,0.1296243667602539,-1.5218694845782679,0.006856100168079138,0.0007550062146037817,0.674318253993988,0.0,-0.0,0.0,0.0,0.0,0.0
1782666524,385447235,-1.6565106550799769,0.12960100173950195,-1.5218213240252894,0.006832132115960121,0.0007430219557136297,0.6743302345275879,0.0,-0.0,0.0,0.0,0.0,0.0
1782666524,393412531,-1.656522576008932,0.12958860397338867,-1.5218694845782679,0.00686808442696929,0.0007909588748589158,0.674318253993988,0.0,-0.0,0.0,0.0,0.0,0.0
1782666524,401423161,-1.656522576008932,0.12960100173950195,-1.5218337217914026,0.006880068685859442,0.0008033175836317241,0.6743422150611877,0.0,-0.0,0.0,0.0,0.0,0.0
1782666524,409683830,-1.6565702597247522,0.12963628768920898,-1.521893326436178,0.006892052944749594,0.0007430219557136297,0.6743542551994324,0.0,-0.0,0.0,0.0,0.0,0.0
1782666524,425429866,-1.6565702597247522,0.1296243667602539,-1.5218337217914026,0.006820147857069969,0.0007909588748589158,0.6743302345275879,0.0,-0.0,0.0,0.0,0.0,0.0
1782666524,433856443,-1.6565583387957972,0.12963628768920898,-1.5219414869891565,0.006904037203639746,0.0007669904152862728,0.6743062734603882,0.0,-0.0,0.0,0.0,0.0,0.0
1782666524,441821907,-1.656534496937887,0.1296243667602539,-1.5218575636493128,0.006880068685859442,0.0008033175836317241,0.674318253993988,0.0,-0.0,0.0,0.0,0.0,0.0
1782666524,458868563,-1.6564987341510218,0.12963628768920898,-1.521881405507223,0.00686808442696929,0.0007550062146037817,0.6743062734603882,0.0,-0.0,0.0,0.0,0.0,0.0
1782666524,461400895,-1.6564987341510218,0.12963628768920898,-1.521881405507223,0.00686808442696929,0.0007550062146037817,0.6743062734603882,0.0,-0.0,0.0,0.0,0.0,0.0
1782666524,475184029,-1.656546417866842,0.12960100173950195,-1.521905247365133,0.006892052944749594,0.0007669904152862728,0.6743542551994324,0.0,-0.0,0.0,0.0,0.0,0.0
1782666524,497491074,-1.6565583387957972,0.12960100173950195,-1.5218694845782679,0.006880068685859442,0.0008033175836317241,0.6743782162666321,0.0,-0.0,0.0,0.0,0.0,0.0
1782666524,529449334,-1.6565583387957972,0.12963628768920898,-1.521893326436178,0.00686808442696929,0.0008033175836317241,0.6743662357330322,0.0,-0.0,0.0,0.0,0.0,0.0
1782666524,537431390,-1.6565106550799769,0.12967252731323242,-1.5218213240252894,0.006832132115960121,0.0007789746159687638,0.674318253993988,0.0,-0.0,0.0,0.0,0.0,0.0
1782666524,545416076,-1.6565583387957972,0.1296243667602539,-1.521881405507223,0.006880068685859442,0.0007789746159687638,0.6743062734603882,0.0,-0.0,0.0,0.0,0.0,0.0
1782666524,554943439,-1.6565106550799769,0.12964820861816406,-1.5218575636493128,0.006892052944749594,0.0007430219557136297,0.6743542551994324,0.0,-0.0,0.0,0.0,0.0,0.0
1782666524,569503966,-1.656534496937887,0.12963628768920898,-1.5218094030963343,0.006832132115960121,0.0007669904152862728,0.6743422150611877,0.0,-0.0,0.0,0.0,0.0,0.0
1782666524,577503837,-1.6565702597247522,0.12961292266845703,-1.521881405507223,0.006832132115960121,0.0007789746159687638,0.6743302345275879,0.0,-0.0,0.0,0.0,0.0,0.0
1782666524,585430115,-1.6565821806537073,0.12961292266845703,-1.521893326436178,0.006856100168079138,0.0007669904152862728,0.6743422150611877,0.0,-0.0,0.0,0.0,0.0,0.0
1782666524,601437153,-1.6565583387957972,0.12961292266845703,-1.5218694845782679,0.006904037203639746,0.0007789746159687638,0.6743302345275879,0.0,-0.0,0.0,0.0,0.0,0.0
1782666524,609637969,-1.656546417866842,0.12961292266845703,-1.521881405507223,0.006892052944749594,0.0007550062146037817,0.6743422150611877,0.0,-0.0,0.0,0.0,0.0,0.0
1782666524,617656044,-1.656546417866842,0.12964820861816406,-1.521881405507223,0.00686808442696929,0.0008033175836317241,0.6743062734603882,0.0,-0.0,0.0,0.0,0.0,0.0
1782666524,625404894,-1.6565106550799769,0.12964820861816406,-1.5218213240252894,0.00686808442696929,0.0008153018425218761,0.6743422150611877,0.0,-0.0,0.0,0.0,0.0,0.0
1782666524,633447710,-1.6565945784198206,0.1296243667602539,-1.5218456427203577,0.006880068685859442,0.0008272860432043672,0.6743302345275879,0.0,-0.0,0.0,0.0,0.0,0.0
1782666524,641451655,-1.6564863363849085,0.12961292266845703,-1.5218337217914026,0.006856100168079138,0.0007550062146037817,0.6743062734603882,0.0,-0.0,0.0,0.0,0.0,0.0
1782666524,649414840,-1.656546417866842,0.12961292266845703,-1.5219176451312464,0.006844115909188986,0.0008033175836317241,0.6743901968002319,0.0,-0.0,0.0,0.0,0.0,0.0
1782666524,657411618,-1.6565106550799769,0.1295766830444336,-1.5218694845782679,0.006832132115960121,0.0007789746159687638,0.6743542551994324,0.0,-0.0,0.0,0.0,0.0,0.0
1782666524,665439322,-1.6565702597247522,0.12964820861816406,-1.521881405507223,0.006880068685859442,0.0007430219557136297,0.6743422150611877,0.0,-0.0,0.0,0.0,0.0,0.0
1782666524,673648102,-1.656546417866842,0.12958860397338867,-1.5218694845782679,0.006832132115960121,0.0007789746159687638,0.6743062734603882,0.0,-0.0,0.0,0.0,0.0,0.0
1782666524,689412046,-1.656546417866842,0.12961292266845703,-1.521893326436178,0.006904037203639746,0.0007430219557136297,0.6743662357330322,0.0,-0.0,0.0,0.0,0.0,0.0
1782666524,697439398,-1.656534496937887,0.12961292266845703,-1.521881405507223,0.006844115909188986,0.0007550062146037817,0.6743542551994324,0.0,-0.0,0.0,0.0,0.0,0.0
1782666524,713410862,-1.6565702597247522,0.12966012954711914,-1.5218213240252894,0.006856100168079138,0.0007430219557136297,0.6743422150611877,0.0,-0.0,0.0,0.0,0.0,0.0
1782666524,721421584,-1.6564744154559534,0.12960100173950195,-1.5218456427203577,0.006880068685859442,0.0007430219557136297,0.6743662357330322,0.0,-0.0,0.0,0.0,0.0,0.0
1782666524,729425696,-1.656522576008932,0.12960100173950195,-1.5218575636493128,0.006832132115960121,0.0007909588748589158,0.6743422150611877,0.0,-0.0,0.0,0.0,0.0,0.0
1782666524,737425844,-1.6565583387957972,0.12958860397338867,-1.521881405507223,0.00686808442696929,0.0007789746159687638,0.6743422150611877,0.0,-0.0,0.0,0.0,0.0,0.0
1782666524,745511234,-1.6564863363849085,0.1296243667602539,-1.5218694845782679,0.006880068685859442,0.0007669904152862728,0.6743062734603882,0.0,-0.0,0.0,0.0,0.0,0.0
1782666524,753423067,-1.656534496937887,0.1295766830444336,-1.521881405507223,0.006880068685859442,0.0007789746159687638,0.6743302345275879,0.0,-0.0,0.0,0.0,0.0,0.0
1782666524,761610606,-1.656546417866842,0.12966012954711914,-1.5218337217914026,0.006856100168079138,0.0007550062146037817,0.6743542551994324,0.0,-0.0,0.0,0.0,0.0,0.0
1782666524,779859104,-1.656546417866842,0.1296243667602539,-1.521881405507223,0.00686808442696929,0.0008033175836317241,0.6743422150611877,0.0,-0.0,0.0,0.0,0.0,0.0
1782666524,817398589,-1.656522576008932,0.12964820861816406,-1.5218575636493128,0.00686808442696929,0.0007430219557136297,0.6743542551994324,0.0,-0.0,0.0,0.0,0.0,0.0
1782666524,825461775,-1.656534496937887,0.12960100173950195,-1.5218694845782679,0.006820147857069969,0.0007909588748589158,0.6743422150611877,0.0,-0.0,0.0,0.0,0.0,0.0
1782666524,833440683,-1.656534496937887,0.1296243667602539,-1.5218694845782679,0.00686808442696929,0.0007430219557136297,0.6743302345275879,0.0,-0.0,0.0,0.0,0.0,0.0
1782666524,841434146,-1.656546417866842,0.12963628768920898,-1.5218694845782679,0.006880068685859442,0.0007909588748589158,0.6743901968002319,0.0,-0.0,0.0,0.0,0.0,0.0
1782666524,849398683,-1.6565583387957972,0.12963628768920898,-1.5218694845782679,0.00686808442696929,0.0007310377550311387,0.6743302345275879,0.0,-0.0,0.0,0.0,0.0,0.0
1782666524,857430332,-1.6565702597247522,0.12958860397338867,-1.5218575636493128,0.00686808442696929,0.0007669904152862728,0.6743422150611877,0.0,-0.0,0.0,0.0,0.0,0.0
1782666524,865458481,-1.6565583387957972,0.12960100173950195,-1.521881405507223,0.006892052944749594,0.0007310377550311387,0.6743422150611877,0.0,-0.0,0.0,0.0,0.0,0.0
1782666524,873424925,-1.6565702597247522,0.1296243667602539,-1.521893326436178,0.006832132115960121,0.0007669904152862728,0.6742942929267883,0.0,-0.0,0.0,0.0,0.0,0.0
1782666524,881423870,-1.6564987341510218,0.1296243667602539,-1.5218575636493128,0.006844115909188986,0.0007430219557136297,0.6743542551994324,0.0,-0.0,0.0,0.0,0.0,0.0
1782666524,889442704,-1.6565106550799769,0.12960100173950195,-1.5218694845782679,0.006880068685859442,0.0007669904152862728,0.6743542551994324,0.0,-0.0,0.0,0.0,0.0,0.0
1782666524,897555335,-1.6565583387957972,0.1296243667602539,-1.5218575636493128,0.006856100168079138,0.0007550062146037817,0.674318253993988,0.0,-0.0,0.0,0.0,0.0,0.0
1782666524,905423908,-1.656546417866842,0.12958860397338867,-1.521905247365133,0.006856100168079138,0.0007789746159687638,0.6742823123931885,0.0,-0.0,0.0,0.0,0.0,0.0
1782666524,913408261,-1.656522576008932,0.1296243667602539,-1.5218456427203577,0.006880068685859442,0.0007909588748589158,0.6743542551994324,0.0,-0.0,0.0,0.0,0.0,0.0
1782666524,921443669,-1.656546417866842,0.1295766830444336,-1.5218337217914026,0.006880068685859442,0.0007909588748589158,0.674318253993988,0.0,-0.0,0.0,0.0,0.0,0.0
1782666524,929466225,-1.656522576008932,0.1296243667602539,-1.5218337217914026,0.006832132115960121,0.0008033175836317241,0.6743302345275879,0.0,-0.0,0.0,0.0,0.0,0.0
1782666524,937436262,-1.656534496937887,0.12963628768920898,-1.5218456427203577,0.006904037203639746,0.0007669904152862728,0.6743302345275879,0.0,-0.0,0.0,0.0,0.0,0.0
1782666524,945423170,-1.656546417866842,0.12964820861816406,-1.521905247365133,0.00686808442696929,0.0007550062146037817,0.6743422150611877,0.0,-0.0,0.0,0.0,0.0,0.0
1782666524,953427781,-1.6565702597247522,0.1296243667602539,-1.5218694845782679,0.006892052944749594,0.0007669904152862728,0.674318253993988,0.0,-0.0,0.0,0.0,0.0,0.0
1782666524,961506338,-1.6565583387957972,0.12963628768920898,-1.521905247365133,0.006904037203639746,0.0008272860432043672,0.6743062734603882,0.0,-0.0,0.0,0.0,0.0,0.0
1782666524,969468930,-1.6564987341510218,0.12961292266845703,-1.521905247365133,0.006904037203639746,0.0007430219557136297,0.6743062734603882,0.0,-0.0,0.0,0.0,0.0,0.0
1782666524,977424819,-1.656522576008932,0.12958860397338867,-1.5218337217914026,0.006904037203639746,0.0008153018425218761,0.6743302345275879,0.0,-0.0,0.0,0.0,0.0,0.0
1782666524,985425227,-1.656546417866842,0.1296243667602539,-1.5218456427203577,0.006844115909188986,0.0007070692954584956,0.6743302345275879,0.0,-0.0,0.0,0.0,0.0,0.0
1782666524,993469969,-1.656546417866842,0.12963628768920898,-1.521905247365133,0.006844115909188986,0.0007789746159687638,0.6742942929267883,0.0,-0.0,0.0,0.0,0.0,0.0
1782666525,1433673,-1.656522576008932,0.12961292266845703,-1.5218456427203577,0.006856100168079138,0.0007310377550311387,0.6742942929267883,0.0,-0.0,0.0,0.0,0.0,0.0
1782666525,9427673,-1.6565821806537073,0.12961292266845703,-1.5218575636493128,0.006832132115960121,0.0007550062146037817,0.6743422150611877,0.0,-0.0,0.0,0.0,0.0,0.0
1782666525,17406432,-1.656546417866842,0.12961292266845703,-1.5218575636493128,0.00686808442696929,0.0007669904152862728,0.6743422150611877,0.0,-0.0,0.0,0.0,0.0,0.0
1782666525,25462081,-1.6565702597247522,0.1295766830444336,-1.5218456427203577,0.006892052944749594,0.0007669904152862728,0.6743782162666321,0.0,-0.0,0.0,0.0,0.0,0.0
1782666525,33432952,-1.656546417866842,0.12967252731323242,-1.5218456427203577,0.006856100168079138,0.0007550062146037817,0.6743662357330322,0.0,-0.0,0.0,0.0,0.0,0.0
1782666525,41420582,-1.6565821806537073,0.1296243667602539,-1.5218694845782679,0.006880068685859442,0.0007789746159687638,0.6743062734603882,0.0,-0.0,0.0,0.0,0.0,0.0
1782666525,49424582,-1.656534496937887,0.12964820861816406,-1.5218456427203577,0.006820147857069969,0.0007550062146037817,0.6743422150611877,0.0,-0.0,0.0,0.0,0.0,0.0
1782666525,57547176,-1.656546417866842,0.12960100173950195,-1.5218575636493128,0.006856100168079138,0.0007310377550311387,0.6743062734603882,0.0,-0.0,0.0,0.0,0.0,0.0
1782666525,65438491,-1.656546417866842,0.12958860397338867,-1.521881405507223,0.00686808442696929,0.0007550062146037817,0.6743422150611877,0.0,-0.0,0.0,0.0,0.0,0.0
1782666525,73412398,-1.656534496937887,0.12961292266845703,-1.5218575636493128,0.006880068685859442,0.0008033175836317241,0.6743542551994324,0.0,-0.0,0.0,0.0,0.0,0.0
1782666525,81425843,-1.6564624945269983,0.12961292266845703,-1.5218337217914026,0.006880068685859442,0.0007310377550311387,0.6743422150611877,0.0,-0.0,0.0,0.0,0.0,0.0
1782666525,89469363,-1.656534496937887,0.12956476211547852,-1.5219295660602015,0.006856100168079138,0.0007550062146037817,0.6743901968002319,0.0,-0.0,0.0,0.0,0.0,0.0
1782666525,97444715,-1.6565702597247522,0.12964820861816406,-1.5218575636493128,0.00686808442696929,0.0007550062146037817,0.6743302345275879,0.0,-0.0,0.0,0.0,0.0,0.0
1782666525,105418215,-1.656546417866842,0.12961292266845703,-1.5218694845782679,0.006880068685859442,0.0008153018425218761,0.6742942929267883,0.0,-0.0,0.0,0.0,0.0,0.0
1782666525,113442327,-1.6565106550799769,0.12961292266845703,-1.521881405507223,0.006880068685859442,0.0007789746159687638,0.6743302345275879,0.0,-0.0,0.0,0.0,0.0,0.0
1782666525,121546698,-1.6565821806537073,0.12960100173950195,-1.5218694845782679,0.006892052944749594,0.0007789746159687638,0.674318253993988,0.0,-0.0,0.0,0.0,0.0,0.0
1782666525,129423253,-1.6564987341510218,0.12963628768920898,-1.521881405507223,0.006856100168079138,0.0007789746159687638,0.6743542551994324,0.0,-0.0,0.0,0.0,0.0,0.0
1782666525,137416531,-1.6565583387957972,0.12960100173950195,-1.5218694845782679,0.00686808442696929,0.0007430219557136297,0.6742942929267883,0.0,-0.0,0.0,0.0,0.0,0.0
1782666525,145449180,-1.656534496937887,0.12961292266845703,-1.521881405507223,0.006832132115960121,0.0007789746159687638,0.6743662357330322,0.0,-0.0,0.0,0.0,0.0,0.0
1782666525,153550218,-1.6565106550799769,0.1295766830444336,-1.521881405507223,0.006904037203639746,0.0007550062146037817,0.6743422150611877,0.0,-0.0,0.0,0.0,0.0,0.0
1782666525,161445292,-1.6566064993487757,0.12964820861816406,-1.5218456427203577,0.006880068685859442,0.0007909588748589158,0.6743422150611877,0.0,-0.0,0.0,0.0,0.0,0.0
1782666525,169433774,-1.6564863363849085,0.12966012954711914,-1.5218575636493128,0.00686808442696929,0.0008033175836317241,0.6743542551994324,0.0,-0.0,0.0,0.0,0.0,0.0
1782666525,177438571,-1.6565583387957972,0.12963628768920898,-1.5218694845782679,0.00686808442696929,0.0007310377550311387,0.6743542551994324,0.0,-0.0,0.0,0.0,0.0,0.0
1782666525,185503016,-1.6565702597247522,0.1296243667602539,-1.5218456427203577,0.006904037203639746,0.0007310377550311387,0.6743662357330322,0.0,-0.0,0.0,0.0,0.0,0.0
1782666525,193407997,-1.6565106550799769,0.12963628768920898,-1.5218694845782679,0.006880068685859442,0.0007909588748589158,0.6743302345275879,0.0,-0.0,0.0,0.0,0.0,0.0
1782666525,201434276,-1.6564987341510218,0.1295766830444336,-1.5218456427203577,0.006808163598179817,0.0007909588748589158,0.674318253993988,0.0,-0.0,0.0,0.0,0.0,0.0
1782666525,209423183,-1.656534496937887,0.12960100173950195,-1.521893326436178,0.006856100168079138,0.0007430219557136297,0.6743662357330322,0.0,-0.0,0.0,0.0,0.0,0.0
1782666525,217503610,-1.6565702597247522,0.1296243667602539,-1.5218694845782679,0.006832132115960121,0.0007669904152862728,0.6742942929267883,0.0,-0.0,0.0,0.0,0.0,0.0
1782666525,225434666,-1.6565106550799769,0.12958860397338867,-1.521881405507223,0.006916021462529898,0.0007430219557136297,0.6743662357330322,0.0,-0.0,0.0,0.0,0.0,0.0
1782666525,233424796,-1.6565583387957972,0.12960100173950195,-1.5218456427203577,0.00686808442696929,0.0007789746159687638,0.6743302345275879,0.0,-0.0,0.0,0.0,0.0,0.0
1782666525,241412685,-1.6565583387957972,0.12958860397338867,-1.5218456427203577,0.00686808442696929,0.0007430219557136297,0.6743422150611877,0.0,-0.0,0.0,0.0,0.0,0.0
1782666525,249405500,-1.6565583387957972,0.1295766830444336,-1.5218337217914026,0.006892052944749594,0.0008033175836317241,0.6743422150611877,0.0,-0.0,0.0,0.0,0.0,0.0
1782666525,257425834,-1.6565106550799769,0.12958860397338867,-1.521881405507223,0.00686808442696929,0.0007550062146037817,0.6743062734603882,0.0,-0.0,0.0,0.0,0.0,0.0
1782666525,265441242,-1.6565583387957972,0.12961292266845703,-1.5218456427203577,0.006832132115960121,0.0007430219557136297,0.6743542551994324,0.0,-0.0,0.0,0.0,0.0,0.0
1782666525,273426798,-1.6565583387957972,0.12955284118652344,-1.5218337217914026,0.006892052944749594,0.0007550062146037817,0.674318253993988,0.0,-0.0,0.0,0.0,0.0,0.0
1782666525,281439373,-1.6565106550799769,0.12956476211547852,-1.5218213240252894,0.006844115909188986,0.0008033175836317241,0.6743302345275879,0.0,-0.0,0.0,0.0,0.0,0.0
1782666525,289457558,-1.6564987341510218,0.12960100173950195,-1.5218337217914026,0.006880068685859442,0.0007310377550311387,0.6743062734603882,0.0,-0.0,0.0,0.0,0.0,0.0
1782666525,297413799,-1.6564987341510218,0.12956476211547852,-1.5218337217914026,0.006844115909188986,0.0007430219557136297,0.6743542551994324,0.0,-0.0,0.0,0.0,0.0,0.0
1782666525,305442633,-1.656522576008932,0.12960100173950195,-1.5218575636493128,0.006856100168079138,0.0007909588748589158,0.6742942929267883,0.0,-0.0,0.0,0.0,0.0,0.0
1782666525,313458467,-1.656546417866842,0.12964820861816406,-1.5218337217914026,0.006892052944749594,0.0007550062146037817,0.674318253993988,0.0,-0.0,0.0,0.0,0.0,0.0
1782666525,321417189,-1.656546417866842,0.1296243667602539,-1.5218213240252894,0.006880068685859442,0.0007430219557136297,0.6743422150611877,0.0,-0.0,0.0,0.0,0.0,0.0
1782666525,329419190,-1.656522576008932,0.1296243667602539,-1.5218337217914026,0.006856100168079138,0.0008153018425218761,0.6743062734603882,0.0,-0.0,0.0,0.0,0.0,0.0
1782666525,337420783,-1.6565583387957972,0.12961292266845703,-1.521905247365133,0.006844115909188986,0.0008153018425218761,0.6743302345275879,0.0,-0.0,0.0,0.0,0.0,0.0
1782666525,345452932,-1.656534496937887,0.1296243667602539,-1.5218575636493128,0.006856100168079138,0.0007190534961409867,0.6743422150611877,0.0,-0.0,0.0,0.0,0.0,0.0
1782666525,353445228,-1.656534496937887,0.12961292266845703,-1.521881405507223,0.00686808442696929,0.0007310377550311387,0.6743302345275879,0.0,-0.0,0.0,0.0,0.0,0.0
1782666525,361430099,-1.656522576008932,0.12956476211547852,-1.5218575636493128,0.00686808442696929,0.0007669904152862728,0.6743422150611877,0.0,-0.0,0.0,0.0,0.0,0.0
1782666525,369425914,-1.656534496937887,0.1296243667602539,-1.521893326436178,0.006844115909188986,0.0007789746159687638,0.6743542551994324,0.0,-0.0,0.0,0.0,0.0,0.0
1782666525,377430970,-1.656534496937887,0.12966012954711914,-1.521893326436178,0.006916021462529898,0.0007789746159687638,0.6743302345275879,0.0,-0.0,0.0,0.0,0.0,0.0
1782666525,385558286,-1.656546417866842,0.12960100173950195,-1.5218694845782679,0.006892052944749594,0.0007550062146037817,0.6743782162666321,0.0,-0.0,0.0,0.0,0.0,0.0
1782666525,393487731,-1.6565106550799769,0.12960100173950195,-1.5218694845782679,0.006880068685859442,0.0008153018425218761,0.6743542551994324,0.0,-0.0,0.0,0.0,0.0,0.0
1782666525,401461157,-1.6565702597247522,0.12963628768920898,-1.5218213240252894,0.006832132115960121,0.0007550062146037817,0.6743422150611877,0.0,-0.0,0.0,0.0,0.0,0.0
1782666525,409464639,-1.6565583387957972,0.1295766830444336,-1.5218575636493128,0.006916021462529898,0.0008153018425218761,0.6743302345275879,0.0,-0.0,0.0,0.0,0.0,0.0
1782666525,417442213,-1.6564505735980433,0.12961292266845703,-1.5218456427203577,0.006892052944749594,0.0007909588748589158,0.6743782162666321,0.0,-0.0,0.0,0.0,0.0,0.0
1782666525,427062169,-1.6565106550799769,0.12961292266845703,-1.5218694845782679,0.006856100168079138,0.0007909588748589158,0.6743542551994324,0.0,-0.0,0.0,0.0,0.0,0.0
1782666525,433870050,-1.6565106550799769,0.12961292266845703,-1.5218694845782679,0.006856100168079138,0.0007909588748589158,0.6743542551994324,0.0,-0.0,0.0,0.0,0.0,0.0
1782666525,441938977,-1.6565583387957972,0.1296243667602539,-1.5218337217914026,0.006892052944749594,0.0007909588748589158,0.6743662357330322,0.0,-0.0,0.0,0.0,0.0,0.0
1782666525,449490345,-1.6565583387957972,0.1296243667602539,-1.5218337217914026,0.006892052944749594,0.0007909588748589158,0.6743662357330322,0.0,-0.0,0.0,0.0,0.0,0.0
1782666525,457498697,-1.6565106550799769,0.12958860397338867,-1.5218337217914026,0.006856100168079138,0.0007669904152862728,0.6743062734603882,0.0,-0.0,0.0,0.0,0.0,0.0
1782666525,465491790,-1.6565702597247522,0.1296243667602539,-1.5218575636493128,0.006880068685859442,0.0007310377550311387,0.6743302345275879,0.0,-0.0,0.0,0.0,0.0,0.0
1782666525,473545310,-1.6565106550799769,0.12956476211547852,-1.5218575636493128,0.00686808442696929,0.0007550062146037817,0.6743302345275879,0.0,-0.0,0.0,0.0,0.0,0.0
1782666525,481482050,-1.656534496937887,0.12960100173950195,-1.5218337217914026,0.00686808442696929,0.0008033175836317241,0.6743422150611877,0.0,-0.0,0.0,0.0,0.0,0.0
1782666525,489457328,-1.6565702597247522,0.1295766830444336,-1.5218694845782679,0.00686808442696929,0.0008033175836317241,0.6743302345275879,0.0,-0.0,0.0,0.0,0.0,0.0
1782666525,497500662,-1.6565702597247522,0.12963628768920898,-1.521905247365133,0.006820147857069969,0.0008033175836317241,0.6743542551994324,0.0,-0.0,0.0,0.0,0.0,0.0
1782666525,505488626,-1.6565583387957972,0.12961292266845703,-1.5218575636493128,0.006844115909188986,0.0008033175836317241,0.6743422150611877,0.0,-0.0,0.0,0.0,0.0,0.0
1782666525,513477515,-1.6565945784198206,0.12961292266845703,-1.5218575636493128,0.006856100168079138,0.0007430219557136297,0.6743782162666321,0.0,-0.0,0.0,0.0,0.0,0.0
1782666525,521432219,-1.656534496937887,0.1296243667602539,-1.5218456427203577,0.006904037203639746,0.0008033175836317241,0.6743422150611877,0.0,-0.0,0.0,0.0,0.0,0.0
1782666525,529560887,-1.6565702597247522,0.12958860397338867,-1.521893326436178,0.006856100168079138,0.0007430219557136297,0.6743422150611877,0.0,-0.0,0.0,0.0,0.0,0.0
1782666525,537520794,-1.656546417866842,0.1296243667602539,-1.521893326436178,0.006904037203639746,0.0008033175836317241,0.6743662357330322,0.0,-0.0,0.0,0.0,0.0,0.0
1782666525,545468072,-1.6565583387957972,0.12960100173950195,-1.521905247365133,0.00686808442696929,0.0007669904152862728,0.6743062734603882,0.0,-0.0,0.0,0.0,0.0,0.0
1782666525,553492110,-1.6564863363849085,0.1296243667602539,-1.5218694845782679,0.006856100168079138,0.0007789746159687638,0.6743542551994324,0.0,-0.0,0.0,0.0,0.0,0.0
1782666525,561453462,-1.656534496937887,0.12958860397338867,-1.5218094030963343,0.006844115909188986,0.0007669904152862728,0.6743422150611877,0.0,-0.0,0.0,0.0,0.0,0.0
1782666525,569494814,-1.656522576008932,0.12961292266845703,-1.5218694845782679,0.00686808442696929,0.0007669904152862728,0.6743901968002319,0.0,-0.0,0.0,0.0,0.0,0.0
1782666525,577612130,-1.656522576008932,0.12958860397338867,-1.521893326436178,0.00686808442696929,0.0007430219557136297,0.6742823123931885,0.0,-0.0,0.0,0.0,0.0,0.0
1782666525,585481204,-1.6565106550799769,0.1296243667602539,-1.521881405507223,0.006844115909188986,0.0007430219557136297,0.6743302345275879,0.0,-0.0,0.0,0.0,0.0,0.0
1782666525,593643780,-1.6565702597247522,0.12961292266845703,-1.521881405507223,0.00686808442696929,0.0007909588748589158,0.6743422150611877,0.0,-0.0,0.0,0.0,0.0,0.0
1782666525,601406482,-1.6565106550799769,0.12960100173950195,-1.5218575636493128,0.006856100168079138,0.0008033175836317241,0.674318253993988,0.0,-0.0,0.0,0.0,0.0,0.0
1782666525,609593558,-1.6564987341510218,0.12956476211547852,-1.5218456427203577,0.00686808442696929,0.0007430219557136297,0.6743542551994324,0.0,-0.0,0.0,0.0,0.0,0.0
1782666525,617455650,-1.656534496937887,0.12964820861816406,-1.5218456427203577,0.006844115909188986,0.0007430219557136297,0.6743422150611877,0.0,-0.0,0.0,0.0,0.0,0.0
1782666525,625443780,-1.6565821806537073,0.12961292266845703,-1.5218213240252894,0.006880068685859442,0.0008033175836317241,0.6743302345275879,0.0,-0.0,0.0,0.0,0.0,0.0
1782666525,633413947,-1.6564987341510218,0.12960100173950195,-1.521905247365133,0.006916021462529898,0.0007310377550311387,0.6743302345275879,0.0,-0.0,0.0,0.0,0.0,0.0
1782666525,641451003,-1.6565702597247522,0.12961292266845703,-1.5218694845782679,0.00686808442696929,0.0008153018425218761,0.6743542551994324,0.0,-0.0,0.0,0.0,0.0,0.0
1782666525,649598912,-1.6564863363849085,0.12964820861816406,-1.521893326436178,0.006916021462529898,0.0007669904152862728,0.6743422150611877,0.0,-0.0,0.0,0.0,0.0,0.0
1782666525,657441615,-1.6565106550799769,0.12964820861816406,-1.521893326436178,0.006856100168079138,0.0007909588748589158,0.6743302345275879,0.0,-0.0,0.0,0.0,0.0,0.0
1782666525,665411874,-1.6565821806537073,0.12956476211547852,-1.521905247365133,0.006880068685859442,0.0008153018425218761,0.6743422150611877,0.0,-0.0,0.0,0.0,0.0,0.0
1782666525,673452171,-1.656546417866842,0.12961292266845703,-1.5218456427203577,0.006880068685859442,0.0008153018425218761,0.6743302345275879,0.0,-0.0,0.0,0.0,0.0,0.0
1782666525,681561024,-1.656534496937887,0.12958860397338867,-1.521905247365133,0.006916021462529898,0.0007550062146037817,0.6743302345275879,0.0,-0.0,0.0,0.0,0.0,0.0
1782666525,689415709,-1.656546417866842,0.1296243667602539,-1.5218575636493128,0.00686808442696929,0.0007310377550311387,0.6743782162666321,0.0,-0.0,0.0,0.0,0.0,0.0
1782666525,697416821,-1.6565106550799769,0.1295766830444336,-1.5218694845782679,0.00686808442696929,0.0007310377550311387,0.6743422150611877,0.0,-0.0,0.0,0.0,0.0,0.0
1782666525,705462840,-1.6565106550799769,0.12956476211547852,-1.5218337217914026,0.006856100168079138,0.0008033175836317241,0.6743662357330322,0.0,-0.0,0.0,0.0,0.0,0.0
1782666525,713565359,-1.656546417866842,0.12963628768920898,-1.521881405507223,0.006832132115960121,0.0007789746159687638,0.6743302345275879,0.0,-0.0,0.0,0.0,0.0,0.0
1782666525,721463600,-1.6564987341510218,0.12960100173950195,-1.5218337217914026,0.006844115909188986,0.0007789746159687638,0.6743542551994324,0.0,-0.0,0.0,0.0,0.0,0.0
1782666525,729460248,-1.6565106550799769,0.12958860397338867,-1.5218694845782679,0.006820147857069969,0.0007789746159687638,0.6743422150611877,0.0,-0.0,0.0,0.0,0.0,0.0
1782666525,737836548,-1.6565583387957972,0.1296243667602539,-1.521893326436178,0.006892052944749594,0.0008033175836317241,0.6743662357330322,0.0,-0.0,0.0,0.0,0.0,0.0
1782666525,745704047,-1.6564987341510218,0.12961292266845703,-1.5218337217914026,0.006844115909188986,0.0007669904152862728,0.6743422150611877,0.0,-0.0,0.0,0.0,0.0,0.0
1782666525,753475972,-1.656522576008932,0.12960100173950195,-1.521881405507223,0.006880068685859442,0.0007789746159687638,0.6743542551994324,0.0,-0.0,0.0,0.0,0.0,0.0
1782666525,761679196,-1.656534496937887,0.12960100173950195,-1.521881405507223,0.006832132115960121,0.0007909588748589158,0.6743542551994324,0.0,-0.0,0.0,0.0,0.0,0.0
1782666525,769490343,-1.656534496937887,0.12963628768920898,-1.521893326436178,0.006892052944749594,0.0007789746159687638,0.6743782162666321,0.0,-0.0,0.0,0.0,0.0,0.0
1782666525,777483566,-1.656534496937887,0.12960100173950195,-1.521905247365133,0.006880068685859442,0.0007550062146037817,0.6743302345275879,0.0,-0.0,0.0,0.0,0.0,0.0
1782666525,785456363,-1.656546417866842,0.12958860397338867,-1.521881405507223,0.006880068685859442,0.0007430219557136297,0.6743422150611877,0.0,-0.0,0.0,0.0,0.0,0.0
1782666525,793478326,-1.6565106550799769,0.12961292266845703,-1.521893326436178,0.006856100168079138,0.0007909588748589158,0.6743542551994324,0.0,-0.0,0.0,0.0,0.0,0.0
1782666525,801661513,-1.656534496937887,0.12961292266845703,-1.5218694845782679,0.006880068685859442,0.0007430219557136297,0.6743782162666321,0.0,-0.0,0.0,0.0,0.0,0.0
1782666525,809410530,-1.656534496937887,0.12960100173950195,-1.5218575636493128,0.006832132115960121,0.0007430219557136297,0.6743422150611877,0.0,-0.0,0.0,0.0,0.0,0.0
1782666525,817434197,-1.656522576008932,0.12961292266845703,-1.521881405507223,0.00686808442696929,0.0007789746159687638,0.674318253993988,0.0,-0.0,0.0,0.0,0.0,0.0
1782666525,825432883,-1.656546417866842,0.12961292266845703,-1.5218575636493128,0.00686808442696929,0.0007669904152862728,0.6743302345275879,0.0,-0.0,0.0,0.0,0.0,0.0
1782666525,833471087,-1.6565583387957972,0.1296243667602539,-1.5218456427203577,0.006832132115960121,0.0007909588748589158,0.6743422150611877,0.0,-0.0,0.0,0.0,0.0,0.0
1782666525,841440014,-1.656546417866842,0.12958860397338867,-1.5218575636493128,0.006880068685859442,0.0007550062146037817,0.6743782162666321,0.0,-0.0,0.0,0.0,0.0,0.0
1782666525,849433144,-1.656546417866842,0.12960100173950195,-1.5218694845782679,0.006892052944749594,0.0007669904152862728,0.674318253993988,0.0,-0.0,0.0,0.0,0.0,0.0
1782666525,857427292,-1.656522576008932,0.12958860397338867,-1.5218694845782679,0.00686808442696929,0.0007669904152862728,0.6743782162666321,0.0,-0.0,0.0,0.0,0.0,0.0
1782666525,865401311,-1.656546417866842,0.12961292266845703,-1.5218337217914026,0.006904037203639746,0.0007550062146037817,0.674318253993988,0.0,-0.0,0.0,0.0,0.0,0.0
1782666525,873435423,-1.6565106550799769,0.12961292266845703,-1.521893326436178,0.006880068685859442,0.0007550062146037817,0.6743302345275879,0.0,-0.0,0.0,0.0,0.0,0.0
1782666525,881430090,-1.656546417866842,0.12963628768920898,-1.521881405507223,0.006880068685859442,0.0007669904152862728,0.6743542551994324,0.0,-0.0,0.0,0.0,0.0,0.0
1782666525,889458813,-1.656546417866842,0.1296243667602539,-1.5218213240252894,0.00686808442696929,0.0007789746159687638,0.6743062734603882,0.0,-0.0,0.0,0.0,0.0,0.0
1782666525,897492924,-1.656522576008932,0.1296243667602539,-1.5218456427203577,0.006844115909188986,0.0008033175836317241,0.674318253993988,0.0,-0.0,0.0,0.0,0.0,0.0
1782666525,905462573,-1.656534496937887,0.12958860397338867,-1.521893326436178,0.006892052944749594,0.0007909588748589158,0.6743542551994324,0.0,-0.0,0.0,0.0,0.0,0.0
1782666525,913407221,-1.656522576008932,0.12960100173950195,-1.521893326436178,0.006832132115960121,0.0007669904152862728,0.6743062734603882,0.0,-0.0,0.0,0.0,0.0,0.0
1782666525,921421666,-1.656546417866842,0.12960100173950195,-1.5218456427203577,0.006844115909188986,0.0007430219557136297,0.6743422150611877,0.0,-0.0,0.0,0.0,0.0,0.0
1782666525,929501389,-1.6565106550799769,0.1295766830444336,-1.5218337217914026,0.006880068685859442,0.0007550062146037817,0.674318253993988,0.0,-0.0,0.0,0.0,0.0,0.0
1782666525,937433148,-1.656522576008932,0.12966012954711914,-1.521881405507223,0.006904037203639746,0.0007909588748589158,0.6743542551994324,0.0,-0.0,0.0,0.0,0.0,0.0
1782666525,945415500,-1.656546417866842,0.12958860397338867,-1.5218694845782679,0.006844115909188986,0.0007789746159687638,0.674318253993988,0.0,-0.0,0.0,0.0,0.0,0.0
1782666525,953426168,-1.6564987341510218,0.12963628768920898,-1.5218456427203577,0.006844115909188986,0.0007430219557136297,0.6743062734603882,0.0,-0.0,0.0,0.0,0.0,0.0
1782666525,961638632,-1.656522576008932,0.12961292266845703,-1.521881405507223,0.00686808442696929,0.0008153018425218761,0.6743422150611877,0.0,-0.0,0.0,0.0,0.0,0.0
1782666525,969422724,-1.656534496937887,0.12964820861816406,-1.5218213240252894,0.006892052944749594,0.0008153018425218761,0.674318253993988,0.0,-0.0,0.0,0.0,0.0,0.0
1782666525,977464188,-1.656546417866842,0.12960100173950195,-1.5218575636493128,0.006856100168079138,0.0007669904152862728,0.6743422150611877,0.0,-0.0,0.0,0.0,0.0,0.0
1782666525,985436836,-1.656522576008932,0.1295766830444336,-1.5218575636493128,0.006880068685859442,0.0007789746159687638,0.6743662357330322,0.0,-0.0,0.0,0.0,0.0,0.0
1782666525,993477559,-1.6565702597247522,0.1296243667602539,-1.5219176451312464,0.006856100168079138,0.0007310377550311387,0.6743302345275879,0.0,-0.0,0.0,0.0,0.0,0.0
1782666526,1435170,-1.6565583387957972,0.12960100173950195,-1.5219176451312464,0.006880068685859442,0.0007909588748589158,0.6743062734603882,0.0,-0.0,0.0,0.0,0.0,0.0
1782666526,9426282,-1.6564987341510218,0.12958860397338867,-1.5218575636493128,0.00686808442696929,0.0008153018425218761,0.6743302345275879,0.0,-0.0,0.0,0.0,0.0,0.0
1782666526,17436153,-1.6564987341510218,0.12966012954711914,-1.521893326436178,0.006844115909188986,0.0007430219557136297,0.6743542551994324,0.0,-0.0,0.0,0.0,0.0,0.0
1782666526,25581117,-1.6565583387957972,0.12963628768920898,-1.5218575636493128,0.006892052944749594,0.0007669904152862728,0.6743542551994324,0.0,-0.0,0.0,0.0,0.0,0.0
1782666526,33426913,-1.656546417866842,0.12958860397338867,-1.5218575636493128,0.00686808442696929,0.0007430219557136297,0.6743302345275879,0.0,-0.0,0.0,0.0,0.0,0.0
1782666526,41422950,-1.656522576008932,0.12960100173950195,-1.5218213240252894,0.006892052944749594,0.0007669904152862728,0.6743422150611877,0.0,-0.0,0.0,0.0,0.0,0.0
1782666526,49434821,-1.656522576008932,0.12961292266845703,-1.5218337217914026,0.00686808442696929,0.0007789746159687638,0.6743302345275879,0.0,-0.0,0.0,0.0,0.0,0.0
1782666526,57642638,-1.656534496937887,0.1296243667602539,-1.521905247365133,0.006844115909188986,0.0007669904152862728,0.6743302345275879,0.0,-0.0,0.0,0.0,0.0,0.0
1782666526,65431859,-1.6565583387957972,0.1296243667602539,-1.521905247365133,0.006832132115960121,0.0007789746159687638,0.6742942929267883,0.0,-0.0,0.0,0.0,0.0,0.0
1782666526,73462323,-1.6565583387957972,0.12961292266845703,-1.521905247365133,0.006832132115960121,0.0007430219557136297,0.674318253993988,0.0,-0.0,0.0,0.0,0.0,0.0
1782666526,81403823,-1.656522576008932,0.12960100173950195,-1.5218694845782679,0.006856100168079138,0.0008153018425218761,0.6743782162666321,0.0,-0.0,0.0,0.0,0.0,0.0
1782666526,89461046,-1.656534496937887,0.12964820861816406,-1.5218575636493128,0.006832132115960121,0.0007669904152862728,0.6743062734603882,0.0,-0.0,0.0,0.0,0.0,0.0
1782666526,97444120,-1.656522576008932,0.12960100173950195,-1.5218694845782679,0.00692800572142005,0.0007669904152862728,0.6743422150611877,0.0,-0.0,0.0,0.0,0.0,0.0
1782666526,105416769,-1.6565583387957972,0.1296243667602539,-1.521893326436178,0.006844115909188986,0.0007310377550311387,0.6743422150611877,0.0,-0.0,0.0,0.0,0.0,0.0
1782666526,113435843,-1.6564987341510218,0.1296243667602539,-1.5218694845782679,0.006820147857069969,0.0007789746159687638,0.6742942929267883,0.0,-0.0,0.0,0.0,0.0,0.0
1782666526,121463788,-1.656534496937887,0.1296243667602539,-1.5218094030963343,0.006892052944749594,0.0007550062146037817,0.6743062734603882,0.0,-0.0,0.0,0.0,0.0,0.0
1782666526,129434733,-1.656534496937887,0.1296243667602539,-1.5218213240252894,0.006892052944749594,0.0007430219557136297,0.6743542551994324,0.0,-0.0,0.0,0.0,0.0,0.0
1782666526,137402937,-1.6565106550799769,0.12960100173950195,-1.521893326436178,0.006880068685859442,0.0007909588748589158,0.6743422150611877,0.0,-0.0,0.0,0.0,0.0,0.0
1782666526,145439993,-1.656534496937887,0.12964820861816406,-1.5219176451312464,0.006892052944749594,0.0007669904152862728,0.674318253993988,0.0,-0.0,0.0,0.0,0.0,0.0
1782666526,153665940,-1.6565583387957972,0.12955284118652344,-1.5218575636493128,0.006880068685859442,0.0007909588748589158,0.674318253993988,0.0,-0.0,0.0,0.0,0.0,0.0
1782666526,161427809,-1.6564987341510218,0.12964820861816406,-1.521893326436178,0.006916021462529898,0.0007669904152862728,0.6743062734603882,0.0,-0.0,0.0,0.0,0.0,0.0
1782666526,169423217,-1.656546417866842,0.1296243667602539,-1.5218575636493128,0.006880068685859442,0.0007430219557136297,0.6743422150611877,0.0,-0.0,0.0,0.0,0.0,0.0
1782666526,177424180,-1.656546417866842,0.12960100173950195,-1.521881405507223,0.006892052944749594,0.0007550062146037817,0.6743422150611877,0.0,-0.0,0.0,0.0,0.0,0.0
1782666526,185474162,-1.656546417866842,0.12963628768920898,-1.5218337217914026,0.00686808442696929,0.0007909588748589158,0.6743422150611877,0.0,-0.0,0.0,0.0,0.0,0.0
1782666526,193413496,-1.656522576008932,0.12958860397338867,-1.5218694845782679,0.006844115909188986,0.0007550062146037817,0.6743542551994324,0.0,-0.0,0.0,0.0,0.0,0.0
1782666526,201420959,-1.656546417866842,0.1295766830444336,-1.5218694845782679,0.006880068685859442,0.0007550062146037817,0.6743422150611877,0.0,-0.0,0.0,0.0,0.0,0.0
1782666526,209426978,-1.656546417866842,0.12958860397338867,-1.521881405507223,0.006880068685859442,0.0008153018425218761,0.674318253993988,0.0,-0.0,0.0,0.0,0.0,0.0
1782666526,217451349,-1.6564987341510218,0.12958860397338867,-1.5218575636493128,0.00686808442696929,0.0007430219557136297,0.6743062734603882,0.0,-0.0,0.0,0.0,0.0,0.0
1782666526,225434146,-1.656522576008932,0.1295766830444336,-1.5218694845782679,0.00686808442696929,0.0007550062146037817,0.674318253993988,0.0,-0.0,0.0,0.0,0.0,0.0
1782666526,233414128,-1.656534496937887,0.12961292266845703,-1.5218456427203577,0.006880068685859442,0.0007310377550311387,0.6743662357330322,0.0,-0.0,0.0,0.0,0.0,0.0
1782666526,241442462,-1.656522576008932,0.12960100173950195,-1.5218694845782679,0.006856100168079138,0.0007669904152862728,0.6743542551994324,0.0,-0.0,0.0,0.0,0.0,0.0
1782666526,249499796,-1.6565583387957972,0.12966012954711914,-1.5218575636493128,0.006880068685859442,0.0007669904152862728,0.6743662357330322,0.0,-0.0,0.0,0.0,0.0,0.0
1782666526,257421259,-1.656546417866842,0.1295766830444336,-1.521893326436178,0.006844115909188986,0.0007310377550311387,0.6743542551994324,0.0,-0.0,0.0,0.0,0.0,0.0
1782666526,265422204,-1.6565702597247522,0.12961292266845703,-1.5218694845782679,0.006832132115960121,0.0007789746159687638,0.6743062734603882,0.0,-0.0,0.0,0.0,0.0,0.0
1782666526,273438223,-1.6565583387957972,0.1296243667602539,-1.5218337217914026,0.00686808442696929,0.0007550062146037817,0.6743662357330322,0.0,-0.0,0.0,0.0,0.0,0.0
1782666526,281469279,-1.6565106550799769,0.1296243667602539,-1.521893326436178,0.00686808442696929,0.0007550062146037817,0.674318253993988,0.0,-0.0,0.0,0.0,0.0,0.0
1782666526,289434446,-1.6564987341510218,0.12960100173950195,-1.5218337217914026,0.006832132115960121,0.0007909588748589158,0.6743901968002319,0.0,-0.0,0.0,0.0,0.0,0.0
1782666526,297435039,-1.6565583387957972,0.12966012954711914,-1.5218094030963343,0.00686808442696929,0.0007789746159687638,0.6742942929267883,0.0,-0.0,0.0,0.0,0.0,0.0
1782666526,305412835,-1.656522576008932,0.12958860397338867,-1.521881405507223,0.00686808442696929,0.0007550062146037817,0.6742942929267883,0.0,-0.0,0.0,0.0,0.0,0.0
1782666526,313481003,-1.6564744154559534,0.12964820861816406,-1.5218456427203577,0.00686808442696929,0.0007669904152862728,0.6743662357330322,0.0,-0.0,0.0,0.0,0.0,0.0
1782666526,321445485,-1.656522576008932,0.12964820861816406,-1.521893326436178,0.006892052944749594,0.0008033175836317241,0.6743542551994324,0.0,-0.0,0.0,0.0,0.0,0.0
1782666526,329424744,-1.656534496937887,0.1296243667602539,-1.5218456427203577,0.00686808442696929,0.0007789746159687638,0.6743422150611877,0.0,-0.0,0.0,0.0,0.0,0.0
1782666526,337426522,-1.6565583387957972,0.12960100173950195,-1.521893326436178,0.006892052944749594,0.0007550062146037817,0.6743782162666321,0.0,-0.0,0.0,0.0,0.0,0.0
1782666526,345416949,-1.656522576008932,0.12967252731323242,-1.5218694845782679,0.006796179339289665,0.0007550062146037817,0.6743422150611877,0.0,-0.0,0.0,0.0,0.0,0.0
1782666526,353445820,-1.6565106550799769,0.1296243667602539,-1.521881405507223,0.006904037203639746,0.0007310377550311387,0.6743542551994324,0.0,-0.0,0.0,0.0,0.0,0.0
1782666526,361416487,-1.6565106550799769,0.12958860397338867,-1.5218213240252894,0.006832132115960121,0.0008033175836317241,0.6743901968002319,0.0,-0.0,0.0,0.0,0.0,0.0
1782666526,369427358,-1.656522576008932,0.1295766830444336,-1.5218456427203577,0.006916021462529898,0.0007909588748589158,0.6744261384010315,0.0,-0.0,0.0,0.0,0.0,0.0
1782666526,377427469,-1.6565106550799769,0.12961292266845703,-1.521881405507223,0.006856100168079138,0.0008033175836317241,0.6743662357330322,0.0,-0.0,0.0,0.0,0.0,0.0
1782666526,385428636,-1.656522576008932,0.12956476211547852,-1.5218456427203577,0.006856100168079138,0.0007789746159687638,0.674318253993988,0.0,-0.0,0.0,0.0,0.0,0.0
1782666526,393452267,-1.6565583387957972,0.12956476211547852,-1.5218694845782679,0.00686808442696929,0.0007789746159687638,0.6743542551994324,0.0,-0.0,0.0,0.0,0.0,0.0
1782666526,401413396,-1.6564987341510218,0.12958860397338867,-1.5218575636493128,0.006892052944749594,0.0008033175836317241,0.6743422150611877,0.0,-0.0,0.0,0.0,0.0,0.0
1782666526,409638324,-1.6564987341510218,0.12958860397338867,-1.5218575636493128,0.006844115909188986,0.0008033175836317241,0.674318253993988,0.0,-0.0,0.0,0.0,0.0,0.0
1782666526,417425731,-1.656534496937887,0.12964820861816406,-1.5218456427203577,0.006844115909188986,0.0008033175836317241,0.6743302345275879,0.0,-0.0,0.0,0.0,0.0,0.0
1782666526,425419453,-1.656546417866842,0.12963628768920898,-1.5218456427203577,0.006856100168079138,0.0007550062146037817,0.6743542551994324,0.0,-0.0,0.0,0.0,0.0,0.0
1782666526,433452010,-1.656546417866842,0.1296243667602539,-1.521893326436178,0.006844115909188986,0.0008033175836317241,0.6743422150611877,0.0,-0.0,0.0,0.0,0.0,0.0
1782666526,441634141,-1.6565583387957972,0.12961292266845703,-1.5219176451312464,0.006880068685859442,0.0007310377550311387,0.6743782162666321,0.0,-0.0,0.0,0.0,0.0,0.0
1782666526,449436307,-1.6565702597247522,0.1296243667602539,-1.521881405507223,0.006880068685859442,0.0007789746159687638,0.6743542551994324,0.0,-0.0,0.0,0.0,0.0,0.0
1782666526,457433585,-1.6564863363849085,0.12963628768920898,-1.521881405507223,0.006856100168079138,0.0007310377550311387,0.6743422150611877,0.0,-0.0,0.0,0.0,0.0,0.0
1782666526,465437511,-1.6565702597247522,0.12966012954711914,-1.5218575636493128,0.006820147857069969,0.0007310377550311387,0.6743542551994324,0.0,-0.0,0.0,0.0,0.0,0.0
1782666526,473426345,-1.6565106550799769,0.12960100173950195,-1.521881405507223,0.006880068685859442,0.0007310377550311387,0.6743782162666321,0.0,-0.0,0.0,0.0,0.0,0.0
1782666526,481407308,-1.656546417866842,0.12960100173950195,-1.5218694845782679,0.006892052944749594,0.0007909588748589158,0.6743662357330322,0.0,-0.0,0.0,0.0,0.0,0.0
1782666526,489439846,-1.6565106550799769,0.12958860397338867,-1.5218694845782679,0.006856100168079138,0.0007789746159687638,0.6742942929267883,0.0,-0.0,0.0,0.0,0.0,0.0
1782666526,497433050,-1.656534496937887,0.12956476211547852,-1.5218575636493128,0.006844115909188986,0.0007430219557136297,0.6743302345275879,0.0,-0.0,0.0,0.0,0.0,0.0
1782666526,505444717,-1.6565583387957972,0.12961292266845703,-1.521893326436178,0.006844115909188986,0.0008033175836317241,0.6743542551994324,0.0,-0.0,0.0,0.0,0.0,0.0
1782666526,513444718,-1.656546417866842,0.12964820861816406,-1.5218694845782679,0.006856100168079138,0.0007430219557136297,0.6743422150611877,0.0,-0.0,0.0,0.0,0.0,0.0
1782666526,521445718,-1.6565106550799769,0.12958860397338867,-1.5218094030963343,0.006880068685859442,0.0007669904152862728,0.674318253993988,0.0,-0.0,0.0,0.0,0.0,0.0
1782666526,529407311,-1.656534496937887,0.12960100173950195,-1.5218694845782679,0.006856100168079138,0.0007430219557136297,0.6743302345275879,0.0,-0.0,0.0,0.0,0.0,0.0
1782666526,537438108,-1.6565106550799769,0.1296243667602539,-1.521893326436178,0.00686808442696929,0.0007789746159687638,0.6742942929267883,0.0,-0.0,0.0,0.0,0.0,0.0
1782666526,545616424,-1.656534496937887,0.12963628768920898,-1.5218094030963343,0.006880068685859442,0.0007550062146037817,0.6743662357330322,0.0,-0.0,0.0,0.0,0.0,0.0
1782666526,553463109,-1.6564987341510218,0.12961292266845703,-1.5218575636493128,0.006856100168079138,0.0007550062146037817,0.6743302345275879,0.0,-0.0,0.0,0.0,0.0,0.0
1782666526,561433591,-1.6565106550799769,0.1295766830444336,-1.5218694845782679,0.00686808442696929,0.0007789746159687638,0.6743782162666321,0.0,-0.0,0.0,0.0,0.0,0.0
1782666526,569435091,-1.6564987341510218,0.12961292266845703,-1.5218694845782679,0.006880068685859442,0.0008033175836317241,0.6742942929267883,0.0,-0.0,0.0,0.0,0.0,0.0
1782666526,577555093,-1.656546417866842,0.12964820861816406,-1.5218456427203577,0.006856100168079138,0.0007669904152862728,0.674318253993988,0.0,-0.0,0.0,0.0,0.0,0.0
1782666526,585413685,-1.656546417866842,0.12960100173950195,-1.5218575636493128,0.006880068685859442,0.0007669904152862728,0.6743662357330322,0.0,-0.0,0.0,0.0,0.0,0.0
1782666526,593412537,-1.6565702597247522,0.12958860397338867,-1.5218694845782679,0.006856100168079138,0.0007550062146037817,0.6742823123931885,0.0,-0.0,0.0,0.0,0.0,0.0
1782666526,601440834,-1.656522576008932,0.12956476211547852,-1.5218694845782679,0.006856100168079138,0.0007909588748589158,0.674318253993988,0.0,-0.0,0.0,0.0,0.0,0.0
1782666526,609517631,-1.6565583387957972,0.12955284118652344,-1.5218456427203577,0.006856100168079138,0.0008033175836317241,0.6743422150611877,0.0,-0.0,0.0,0.0,0.0,0.0
1782666526,617436187,-1.6565702597247522,0.12964820861816406,-1.5218575636493128,0.006856100168079138,0.0007430219557136297,0.6743302345275879,0.0,-0.0,0.0,0.0,0.0,0.0
1782666526,625426113,-1.656522576008932,0.1296243667602539,-1.5218213240252894,0.006892052944749594,0.0007550062146037817,0.6743422150611877,0.0,-0.0,0.0,0.0,0.0,0.0
1782666526,633446150,-1.656522576008932,0.1296243667602539,-1.521905247365133,0.006880068685859442,0.0007550062146037817,0.6743302345275879,0.0,-0.0,0.0,0.0,0.0,0.0
1782666526,641444299,-1.656546417866842,0.12958860397338867,-1.5218456427203577,0.006856100168079138,0.0008153018425218761,0.674318253993988,0.0,-0.0,0.0,0.0,0.0,0.0
1782666526,649397855,-1.656546417866842,0.12963628768920898,-1.521881405507223,0.006880068685859442,0.0007190534961409867,0.6743782162666321,0.0,-0.0,0.0,0.0,0.0,0.0
1782666526,657433318,-1.6564987341510218,0.12961292266845703,-1.5218456427203577,0.00686808442696929,0.0007430219557136297,0.6743422150611877,0.0,-0.0,0.0,0.0,0.0,0.0
1782666526,665415152,-1.6565945784198206,0.12964820861816406,-1.521881405507223,0.006844115909188986,0.0007789746159687638,0.674318253993988,0.0,-0.0,0.0,0.0,0.0,0.0
1782666526,673431653,-1.6564987341510218,0.12960100173950195,-1.5218575636493128,0.00686808442696929,0.0007430219557136297,0.6743302345275879,0.0,-0.0,0.0,0.0,0.0,0.0
1782666526,681433209,-1.6565702597247522,0.1296243667602539,-1.5218213240252894,0.00686808442696929,0.0007550062146037817,0.6742823123931885,0.0,-0.0,0.0,0.0,0.0,0.0
1782666526,689430098,-1.6564863363849085,0.12966012954711914,-1.521881405507223,0.006844115909188986,0.0007550062146037817,0.674318253993988,0.0,-0.0,0.0,0.0,0.0,0.0
1782666526,697403672,-1.656534496937887,0.12963628768920898,-1.5218456427203577,0.006856100168079138,0.0007550062146037817,0.6743302345275879,0.0,-0.0,0.0,0.0,0.0,0.0
1782666526,705438358,-1.656534496937887,0.1296243667602539,-1.5218456427203577,0.006856100168079138,0.0007550062146037817,0.6743302345275879,0.0,-0.0,0.0,0.0,0.0,0.0
1782666526,713522378,-1.6564987341510218,0.1296243667602539,-1.521893326436178,0.006904037203639746,0.0007909588748589158,0.6743062734603882,0.0,-0.0,0.0,0.0,0.0,0.0
1782666526,721429748,-1.656546417866842,0.12963628768920898,-1.5218337217914026,0.006856100168079138,0.0007669904152862728,0.6743422150611877,0.0,-0.0,0.0,0.0,0.0,0.0
1782666526,729422934,-1.6565106550799769,0.12961292266845703,-1.5218337217914026,0.006880068685859442,0.0008033175836317241,0.6743302345275879,0.0,-0.0,0.0,0.0,0.0,0.0
1782666526,737437101,-1.656546417866842,0.1295766830444336,-1.5218575636493128,0.006892052944749594,0.0007550062146037817,0.674318253993988,0.0,-0.0,0.0,0.0,0.0,0.0
1782666526,745450435,-1.6564987341510218,0.12964820861816406,-1.521905247365133,0.006820147857069969,0.0007669904152862728,0.6743782162666321,0.0,-0.0,0.0,0.0,0.0,0.0
1782666526,753419287,-1.656522576008932,0.1296243667602539,-1.5218337217914026,0.006904037203639746,0.0007789746159687638,0.674318253993988,0.0,-0.0,0.0,0.0,0.0,0.0
1782666526,761430398,-1.6564987341510218,0.12963628768920898,-1.5218456427203577,0.006844115909188986,0.0007430219557136297,0.6743302345275879,0.0,-0.0,0.0,0.0,0.0,0.0
1782666526,769443547,-1.6564863363849085,0.1296243667602539,-1.5219176451312464,0.006904037203639746,0.0007669904152862728,0.6743422150611877,0.0,-0.0,0.0,0.0,0.0,0.0
1782666526,777541289,-1.656534496937887,0.1295766830444336,-1.5218337217914026,0.006880068685859442,0.0007430219557136297,0.6743662357330322,0.0,-0.0,0.0,0.0,0.0,0.0
1782666526,785438715,-1.6564987341510218,0.1296243667602539,-1.521881405507223,0.006832132115960121,0.0007430219557136297,0.6743422150611877,0.0,-0.0,0.0,0.0,0.0,0.0
1782666526,793412993,-1.656546417866842,0.12964820861816406,-1.5218337217914026,0.006892052944749594,0.0007430219557136297,0.6743302345275879,0.0,-0.0,0.0,0.0,0.0,0.0
1782666526,801443845,-1.656546417866842,0.12964820861816406,-1.521881405507223,0.006880068685859442,0.0007669904152862728,0.6743302345275879,0.0,-0.0,0.0,0.0,0.0,0.0
1782666526,809453179,-1.656546417866842,0.12961292266845703,-1.521905247365133,0.006844115909188986,0.0007070692954584956,0.6743302345275879,0.0,-0.0,0.0,0.0,0.0,0.0
1782666526,817417735,-1.656546417866842,0.1296243667602539,-1.5218456427203577,0.006832132115960121,0.0007310377550311387,0.6743062734603882,0.0,-0.0,0.0,0.0,0.0,0.0
1782666526,825434680,-1.6564863363849085,0.12958860397338867,-1.521881405507223,0.006880068685859442,0.0007430219557136297,0.6743062734603882,0.0,-0.0,0.0,0.0,0.0,0.0
1782666526,833443051,-1.6564987341510218,0.1296243667602539,-1.5218575636493128,0.006820147857069969,0.0007310377550311387,0.6743542551994324,0.0,-0.0,0.0,0.0,0.0,0.0
1782666526,841440070,-1.656522576008932,0.12960100173950195,-1.5218575636493128,0.006880068685859442,0.0008033175836317241,0.6743062734603882,0.0,-0.0,0.0,0.0,0.0,0.0
1782666526,849469181,-1.6565106550799769,0.12960100173950195,-1.5219176451312464,0.00686808442696929,0.0007789746159687638,0.6743662357330322,0.0,-0.0,0.0,0.0,0.0,0.0
1782666526,857458330,-1.6565583387957972,0.12960100173950195,-1.521893326436178,0.006892052944749594,0.0008033175836317241,0.674318253993988,0.0,-0.0,0.0,0.0,0.0,0.0
1782666526,865406237,-1.656534496937887,0.1295766830444336,-1.5218456427203577,0.006844115909188986,0.0007669904152862728,0.6743302345275879,0.0,-0.0,0.0,0.0,0.0,0.0
1782666526,873425275,-1.6564987341510218,0.1295766830444336,-1.5218575636493128,0.006856100168079138,0.0008033175836317241,0.6743662357330322,0.0,-0.0,0.0,0.0,0.0,0.0
1782666526,881464850,-1.656522576008932,0.12960100173950195,-1.5218575636493128,0.00686808442696929,0.0008033175836317241,0.674318253993988,0.0,-0.0,0.0,0.0,0.0,0.0
1782666526,889435646,-1.6565583387957972,0.1296243667602539,-1.521893326436178,0.00686808442696929,0.0007550062146037817,0.6743542551994324,0.0,-0.0,0.0,0.0,0.0,0.0
1782666526,897468536,-1.656522576008932,0.1296243667602539,-1.5218575636493128,0.006880068685859442,0.0007430219557136297,0.6743782162666321,0.0,-0.0,0.0,0.0,0.0,0.0
1782666526,905420666,-1.656534496937887,0.12963628768920898,-1.5218456427203577,0.006856100168079138,0.0007669904152862728,0.6743542551994324,0.0,-0.0,0.0,0.0,0.0,0.0
1782666526,913415870,-1.656522576008932,0.12960100173950195,-1.5217974821673792,0.006832132115960121,0.0007789746159687638,0.674318253993988,0.0,-0.0,0.0,0.0,0.0,0.0
1782666526,921418352,-1.656546417866842,0.12958860397338867,-1.521881405507223,0.006892052944749594,0.0007550062146037817,0.6743062734603882,0.0,-0.0,0.0,0.0,0.0,0.0
1782666526,929431834,-1.6564863363849085,0.12961292266845703,-1.5218337217914026,0.006856100168079138,0.0007789746159687638,0.6743542551994324,0.0,-0.0,0.0,0.0,0.0,0.0
1782666526,937424964,-1.6564987341510218,0.12963628768920898,-1.521893326436178,0.00686808442696929,0.0007430219557136297,0.6742703318595886,0.0,-0.0,0.0,0.0,0.0,0.0
1782666526,945463279,-1.6565106550799769,0.12958860397338867,-1.5218456427203577,0.006880068685859442,0.0007550062146037817,0.674318253993988,0.0,-0.0,0.0,0.0,0.0,0.0
1782666526,953439261,-1.656534496937887,0.12960100173950195,-1.5218456427203577,0.006904037203639746,0.0007310377550311387,0.6743542551994324,0.0,-0.0,0.0,0.0,0.0,0.0
1782666526,961426447,-1.656522576008932,0.12960100173950195,-1.521881405507223,0.006856100168079138,0.0007669904152862728,0.674318253993988,0.0,-0.0,0.0,0.0,0.0,0.0
1782666526,969427318,-1.656534496937887,0.1296243667602539,-1.521881405507223,0.006832132115960121,0.0007310377550311387,0.6743901968002319,0.0,-0.0,0.0,0.0,0.0,0.0
1782666526,977508393,-1.6565583387957972,0.12960100173950195,-1.5218694845782679,0.006880068685859442,0.0008033175836317241,0.6743542551994324,0.0,-0.0,0.0,0.0,0.0,0.0
1782666526,985425726,-1.6565702597247522,0.12961292266845703,-1.5218575636493128,0.006844115909188986,0.0007909588748589158,0.6743782162666321,0.0,-0.0,0.0,0.0,0.0,0.0
1782666526,993432949,-1.6565583387957972,0.1296243667602539,-1.5218337217914026,0.006856100168079138,0.0007789746159687638,0.674318253993988,0.0,-0.0,0.0,0.0,0.0,0.0
1782666527,1430782,-1.656546417866842,0.12960100173950195,-1.5218694845782679,0.006820147857069969,0.0007310377550311387,0.6743422150611877,0.0,-0.0,0.0,0.0,0.0,0.0
1782666527,9499450,-1.656522576008932,0.12961292266845703,-1.5218575636493128,0.006892052944749594,0.0008033175836317241,0.6743302345275879,0.0,-0.0,0.0,0.0,0.0,0.0
1782666527,17436209,-1.6565702597247522,0.12961292266845703,-1.521881405507223,0.00686808442696929,0.0008033175836317241,0.6743062734603882,0.0,-0.0,0.0,0.0,0.0,0.0
1782666527,25457228,-1.656546417866842,0.12963628768920898,-1.5218456427203577,0.00686808442696929,0.0007310377550311387,0.674318253993988,0.0,-0.0,0.0,0.0,0.0,0.0
1782666527,33405710,-1.656534496937887,0.12963628768920898,-1.5218694845782679,0.006880068685859442,0.0007310377550311387,0.6743422150611877,0.0,-0.0,0.0,0.0,0.0,0.0
1782666527,41463878,-1.6565583387957972,0.12964820861816406,-1.5218094030963343,0.006904037203639746,0.0007430219557136297,0.6743542551994324,0.0,-0.0,0.0,0.0,0.0,0.0
1782666527,49437359,-1.6565106550799769,0.1295766830444336,-1.5218575636493128,0.006892052944749594,0.0007430219557136297,0.674318253993988,0.0,-0.0,0.0,0.0,0.0,0.0
1782666527,57432989,-1.656534496937887,0.12960100173950195,-1.5218456427203577,0.006844115909188986,0.0007550062146037817,0.6743542551994324,0.0,-0.0,0.0,0.0,0.0,0.0
1782666527,65550139,-1.656522576008932,0.1296243667602539,-1.521893326436178,0.006892052944749594,0.0007310377550311387,0.6743302345275879,0.0,-0.0,0.0,0.0,0.0,0.0
1782666527,73581621,-1.6565106550799769,0.12960100173950195,-1.5218694845782679,0.006904037203639746,0.0007430219557136297,0.6743422150611877,0.0,-0.0,0.0,0.0,0.0,0.0
1782666527,81454769,-1.6565106550799769,0.12967252731323242,-1.521893326436178,0.00686808442696929,0.0007789746159687638,0.6743302345275879,0.0,-0.0,0.0,0.0,0.0,0.0
1782666527,89412899,-1.656546417866842,0.12961292266845703,-1.521893326436178,0.006844115909188986,0.0008033175836317241,0.6743302345275879,0.0,-0.0,0.0,0.0,0.0,0.0
1782666527,97433047,-1.656522576008932,0.12963628768920898,-1.5218694845782679,0.006856100168079138,0.0007550062146037817,0.6743302345275879,0.0,-0.0,0.0,0.0,0.0,0.0
1782666527,105477363,-1.656534496937887,0.1296243667602539,-1.521881405507223,0.006892052944749594,0.0008033175836317241,0.6743302345275879,0.0,-0.0,0.0,0.0,0.0,0.0
1782666527,113432141,-1.656522576008932,0.12963628768920898,-1.521893326436178,0.006844115909188986,0.0007669904152862728,0.6743422150611877,0.0,-0.0,0.0,0.0,0.0,0.0
1782666527,121431715,-1.656522576008932,0.1296243667602539,-1.5218575636493128,0.006892052944749594,0.0007310377550311387,0.6743422150611877,0.0,-0.0,0.0,0.0,0.0,0.0
1782666527,129435068,-1.656534496937887,0.12956476211547852,-1.521881405507223,0.006856100168079138,0.0007550062146037817,0.6742942929267883,0.0,-0.0,0.0,0.0,0.0,0.0
1782666527,137542291,-1.6565106550799769,0.1296243667602539,-1.521905247365133,0.00686808442696929,0.0007430219557136297,0.6743062734603882,0.0,-0.0,0.0,0.0,0.0,0.0
1782666527,145421569,-1.6564744154559534,0.12960100173950195,-1.5218456427203577,0.006892052944749594,0.0007669904152862728,0.6743782162666321,0.0,-0.0,0.0,0.0,0.0,0.0
1782666527,153424754,-1.656522576008932,0.12960100173950195,-1.5218456427203577,0.006844115909188986,0.0007789746159687638,0.6743062734603882,0.0,-0.0,0.0,0.0,0.0,0.0
1782666527,161437070,-1.6565106550799769,0.12960100173950195,-1.5218337217914026,0.006808163598179817,0.0007669904152862728,0.6743302345275879,0.0,-0.0,0.0,0.0,0.0,0.0
1782666527,169522830,-1.6565583387957972,0.12958860397338867,-1.521881405507223,0.006844115909188986,0.0007550062146037817,0.674318253993988,0.0,-0.0,0.0,0.0,0.0,0.0
1782666527,177428423,-1.6565583387957972,0.12961292266845703,-1.5218337217914026,0.006856100168079138,0.0007550062146037817,0.6743662357330322,0.0,-0.0,0.0,0.0,0.0,0.0
1782666527,185428238,-1.6564987341510218,0.12958860397338867,-1.5218337217914026,0.006856100168079138,0.0007669904152862728,0.674318253993988,0.0,-0.0,0.0,0.0,0.0,0.0
1782666527,193423590,-1.656534496937887,0.12964820861816406,-1.5218337217914026,0.006892052944749594,0.0007789746159687638,0.6743302345275879,0.0,-0.0,0.0,0.0,0.0,0.0
1782666527,201452832,-1.6565583387957972,0.1296243667602539,-1.5218213240252894,0.006844115909188986,0.0008033175836317241,0.6743302345275879,0.0,-0.0,0.0,0.0,0.0,0.0
1782666527,209414239,-1.6565106550799769,0.1295766830444336,-1.5218575636493128,0.006916021462529898,0.0007430219557136297,0.6743662357330322,0.0,-0.0,0.0,0.0,0.0,0.0
1782666527,217422517,-1.6565583387957972,0.12960100173950195,-1.521905247365133,0.006844115909188986,0.0007789746159687638,0.6743662357330322,0.0,-0.0,0.0,0.0,0.0,0.0
