LukePepin/On-Edge/data/archived_logs/deceleration_data_1782666335.csv
timestamp_sec,timestamp_nanosec,shoulder_pan_pos,shoulder_lift_pos,elbow_pos,wrist_1_pos,wrist_2_pos,wrist_3_pos,shoulder_pan_vel,shoulder_lift_vel,elbow_vel,wrist_1_vel,wrist_2_vel,wrist_3_vel
1782666335,226620476,-1.656414810811178,0.12966012954711914,-1.521893326436178,0.006844115909188986,0.0007909588748589158,0.6743542551994324,0.0,-0.0,0.0,0.0,0.0,0.0
1782666335,234626674,-1.6564386526690882,0.1296844482421875,-1.5218575636493128,0.006892052944749594,0.0007909588748589158,0.6743062734603882,0.0,-0.0,0.0,0.0,0.0,0.0
1782666335,242877651,-1.6564505735980433,0.12969636917114258,-1.5218456427203577,0.006892052944749594,0.0008153018425218761,0.6743542551994324,0.0,-0.0,0.0,0.0,0.0,0.0
1782666335,251019091,-1.6563904921161097,0.12966012954711914,-1.5218575636493128,0.006832132115960121,0.0008272860432043672,0.6743662357330322,0.0,-0.0,0.0,0.0,0.0,0.0
1782666335,258794454,-1.6564386526690882,0.12970829010009766,-1.5219176451312464,0.006820147857069969,0.0008272860432043672,0.6742942929267883,0.0,-0.0,0.0,0.0,0.0,0.0
1782666335,266590243,-1.656414810811178,0.1296844482421875,-1.5218213240252894,0.00686808442696929,0.0008033175836317241,0.6743662357330322,0.0,-0.0,0.0,0.0,0.0,0.0
1782666335,274657793,-1.6564624945269983,0.12967252731323242,-1.521881405507223,0.006880068685859442,0.0008033175836317241,0.6743542551994324,0.0,-0.0,0.0,0.0,0.0,0.0
1782666335,282618639,-1.6564505735980433,0.12964820861816406,-1.5218456427203577,0.006856100168079138,0.0008033175836317241,0.674318253993988,0.0,-0.0,0.0,0.0,0.0,0.0
1782666335,290622911,-1.656426731740133,0.12972021102905273,-1.5218694845782679,0.006880068685859442,0.0007909588748589158,0.6743782162666321,0.0,-0.0,0.0,0.0,0.0,0.0
1782666335,322586609,-1.6564024130450647,0.12963628768920898,-1.521893326436178,0.006832132115960121,0.0007669904152862728,0.6743422150611877,0.0,-0.0,0.0,0.0,0.0,0.0
1782666335,330595344,-1.6564505735980433,0.12967252731323242,-1.5218456427203577,0.006844115909188986,0.0008153018425218761,0.6743422150611877,0.0,-0.0,0.0,0.0,0.0,0.0
1782666335,338599635,-1.6564624945269983,0.12966012954711914,-1.521881405507223,0.006880068685859442,0.0008033175836317241,0.6743302345275879,0.0,-0.0,0.0,0.0,0.0,0.0
1782666335,346622555,-1.6564386526690882,0.12969636917114258,-1.521881405507223,0.006904037203639746,0.0008512545027770102,0.6743662357330322,0.0,-0.0,0.0,0.0,0.0,0.0
1782666335,354621382,-1.6564624945269983,0.1296844482421875,-1.521881405507223,0.006880068685859442,0.0008392703020945191,0.6743901968002319,0.0,-0.0,0.0,0.0,0.0,0.0
1782666335,362609747,-1.6564624945269983,0.12969636917114258,-1.5218337217914026,0.00686808442696929,0.0007909588748589158,0.674318253993988,0.0,-0.0,0.0,0.0,0.0,0.0
1782666335,370609611,-1.656426731740133,0.12966012954711914,-1.5219176451312464,0.006856100168079138,0.0007909588748589158,0.6743302345275879,0.0,-0.0,0.0,0.0,0.0,0.0
1782666335,378620587,-1.656414810811178,0.1296243667602539,-1.5218337217914026,0.006844115909188986,0.0007789746159687638,0.6743542551994324,0.0,-0.0,0.0,0.0,0.0,0.0
1782666335,386861879,-1.656426731740133,0.12967252731323242,-1.521881405507223,0.006832132115960121,0.0008272860432043672,0.6743662357330322,0.0,-0.0,0.0,0.0,0.0,0.0
1782666335,394656853,-1.6564386526690882,0.12966012954711914,-1.5218694845782679,0.006844115909188986,0.0008392703020945191,0.674318253993988,0.0,-0.0,0.0,0.0,0.0,0.0
1782666335,402596865,-1.6564386526690882,0.12966012954711914,-1.521893326436178,0.006856100168079138,0.0007789746159687638,0.6743062734603882,0.0,-0.0,0.0,0.0,0.0,0.0
1782666335,410614582,-1.656414810811178,0.12967252731323242,-1.5218456427203577,0.006892052944749594,0.0008033175836317241,0.6743422150611877,0.0,-0.0,0.0,0.0,0.0,0.0
1782666335,418604595,-1.656414810811178,0.12970829010009766,-1.5218694845782679,0.006808163598179817,0.0008153018425218761,0.674318253993988,0.0,-0.0,0.0,0.0,0.0,0.0
1782666335,426604829,-1.656414810811178,0.12961292266845703,-1.5218213240252894,0.006916021462529898,0.0007909588748589158,0.6743542551994324,0.0,-0.0,0.0,0.0,0.0,0.0
1782666335,434610305,-1.656414810811178,0.1296844482421875,-1.521881405507223,0.006856100168079138,0.0008512545027770102,0.6743662357330322,0.0,-0.0,0.0,0.0,0.0,0.0
1782666335,442615670,-1.656426731740133,0.12964820861816406,-1.5218337217914026,0.006892052944749594,0.0008153018425218761,0.6743302345275879,0.0,-0.0,0.0,0.0,0.0,0.0
1782666335,450612756,-1.6563780943499964,0.12963628768920898,-1.5217974821673792,0.006832132115960121,0.0008153018425218761,0.6743542551994324,0.0,-0.0,0.0,0.0,0.0,0.0
1782666335,458631362,-1.6564624945269983,0.12970829010009766,-1.5218694845782679,0.006880068685859442,0.0008033175836317241,0.6743302345275879,0.0,-0.0,0.0,0.0,0.0,0.0
1782666335,466615522,-1.6564624945269983,0.12963628768920898,-1.5218456427203577,0.006916021462529898,0.0008153018425218761,0.6743422150611877,0.0,-0.0,0.0,0.0,0.0,0.0
1782666335,474596794,-1.6564386526690882,0.12964820861816406,-1.5218575636493128,0.006844115909188986,0.0008272860432043672,0.674318253993988,0.0,-0.0,0.0,0.0,0.0,0.0
1782666335,483214440,-1.6564024130450647,0.1296844482421875,-1.5218575636493128,0.00686808442696929,0.0008033175836317241,0.6743422150611877,0.0,-0.0,0.0,0.0,0.0,0.0
1782666335,490587393,-1.656426731740133,0.12970829010009766,-1.5218456427203577,0.00686808442696929,0.0007909588748589158,0.6743062734603882,0.0,-0.0,0.0,0.0,0.0,0.0
1782666335,498583147,-1.6563904921161097,0.1296844482421875,-1.5218094030963343,0.00686808442696929,0.0007789746159687638,0.6743062734603882,0.0,-0.0,0.0,0.0,0.0,0.0
1782666335,506572770,-1.656426731740133,0.12969636917114258,-1.5218337217914026,0.006880068685859442,0.0008272860432043672,0.6743062734603882,0.0,-0.0,0.0,0.0,0.0,0.0
1782666335,514578505,-1.6564624945269983,0.12970829010009766,-1.521893326436178,0.006892052944749594,0.0008153018425218761,0.6743422150611877,0.0,-0.0,0.0,0.0,0.0,0.0
1782666335,522607463,-1.656426731740133,0.12964820861816406,-1.5218694845782679,0.006856100168079138,0.0008153018425218761,0.6743422150611877,0.0,-0.0,0.0,0.0,0.0,0.0
1782666335,530584660,-1.656414810811178,0.12966012954711914,-1.521881405507223,0.006892052944749594,0.0008272860432043672,0.6743542551994324,0.0,-0.0,0.0,0.0,0.0,0.0
1782666335,538579525,-1.656426731740133,0.12970829010009766,-1.5218456427203577,0.006892052944749594,0.0008033175836317241,0.6743302345275879,0.0,-0.0,0.0,0.0,0.0,0.0
1782666335,546579593,-1.656426731740133,0.12964820861816406,-1.5218094030963343,0.006856100168079138,0.0007909588748589158,0.6743422150611877,0.0,-0.0,0.0,0.0,0.0,0.0
1782666335,554600606,-1.6563904921161097,0.12967252731323242,-1.5218575636493128,0.006856100168079138,0.0008153018425218761,0.674318253993988,0.0,-0.0,0.0,0.0,0.0,0.0
1782666335,562585674,-1.6564024130450647,0.1296844482421875,-1.5218337217914026,0.006844115909188986,0.0008033175836317241,0.6743302345275879,0.0,-0.0,0.0,0.0,0.0,0.0
1782666335,570581761,-1.656414810811178,0.12967252731323242,-1.521881405507223,0.006844115909188986,0.0007909588748589158,0.6743662357330322,0.0,-0.0,0.0,0.0,0.0,0.0
1782666335,578592384,-1.656414810811178,0.12964820861816406,-1.521881405507223,0.006856100168079138,0.0007789746159687638,0.6742942929267883,0.0,-0.0,0.0,0.0,0.0,0.0
1782666335,586584545,-1.6564386526690882,0.1296243667602539,-1.5218213240252894,0.00686808442696929,0.0008153018425218761,0.6743782162666321,0.0,-0.0,0.0,0.0,0.0,0.0
1782666335,594587539,-1.6563780943499964,0.1296844482421875,-1.5218694845782679,0.006844115909188986,0.0008033175836317241,0.6743782162666321,0.0,-0.0,0.0,0.0,0.0,0.0
1782666335,602616645,-1.656426731740133,0.1296243667602539,-1.521881405507223,0.006844115909188986,0.0007789746159687638,0.6743542551994324,0.0,-0.0,0.0,0.0,0.0,0.0
1782666335,610597639,-1.6564863363849085,0.12966012954711914,-1.5218694845782679,0.006844115909188986,0.0007789746159687638,0.6743782162666321,0.0,-0.0,0.0,0.0,0.0,0.0
1782666335,618588022,-1.656426731740133,0.12967252731323242,-1.5218456427203577,0.006844115909188986,0.0008033175836317241,0.6743422150611877,0.0,-0.0,0.0,0.0,0.0,0.0
1782666335,626686016,-1.6564505735980433,0.12970829010009766,-1.521881405507223,0.006904037203639746,0.0007909588748589158,0.6743662357330322,0.0,-0.0,0.0,0.0,0.0,0.0
1782666335,634608880,-1.656426731740133,0.12963628768920898,-1.5218456427203577,0.006856100168079138,0.0008392703020945191,0.6743302345275879,0.0,-0.0,0.0,0.0,0.0,0.0
1782666335,642614986,-1.656426731740133,0.12970829010009766,-1.5218213240252894,0.006856100168079138,0.0007550062146037817,0.6743302345275879,0.0,-0.0,0.0,0.0,0.0,0.0
1782666335,650621221,-1.6564024130450647,0.1296243667602539,-1.521905247365133,0.006892052944749594,0.0008153018425218761,0.674318253993988,0.0,-0.0,0.0,0.0,0.0,0.0
1782666335,658611307,-1.6564505735980433,0.12966012954711914,-1.5218337217914026,0.006880068685859442,0.0007909588748589158,0.6743542551994324,0.0,-0.0,0.0,0.0,0.0,0.0
1782666335,666606913,-1.656426731740133,0.1296844482421875,-1.5218694845782679,0.006832132115960121,0.0008153018425218761,0.6743782162666321,0.0,-0.0,0.0,0.0,0.0,0.0
1782666335,674575981,-1.6564386526690882,0.12967252731323242,-1.5218575636493128,0.006892052944749594,0.0007789746159687638,0.674318253993988,0.0,-0.0,0.0,0.0,0.0,0.0
1782666335,682620364,-1.6564505735980433,0.12963628768920898,-1.5218575636493128,0.006892052944749594,0.0007789746159687638,0.6743302345275879,0.0,-0.0,0.0,0.0,0.0,0.0
1782666335,690704655,-1.6564386526690882,0.1296243667602539,-1.5218575636493128,0.00686808442696929,0.0008512545027770102,0.6743542551994324,0.0,-0.0,0.0,0.0,0.0,0.0
1782666335,698613463,-1.6563904921161097,0.12967252731323242,-1.5218575636493128,0.006880068685859442,0.0008392703020945191,0.674318253993988,0.0,-0.0,0.0,0.0,0.0,0.0
1782666335,706598772,-1.6564386526690882,0.1296844482421875,-1.521881405507223,0.006856100168079138,0.0007909588748589158,0.6742942929267883,0.0,-0.0,0.0,0.0,0.0,0.0
1782666335,714625192,-1.6564744154559534,0.12967252731323242,-1.521881405507223,0.00686808442696929,0.0008392703020945191,0.6743422150611877,0.0,-0.0,0.0,0.0,0.0,0.0
1782666335,722657983,-1.6563780943499964,0.12966012954711914,-1.521893326436178,0.006856100168079138,0.0008392703020945191,0.674318253993988,0.0,-0.0,0.0,0.0,0.0,0.0
1782666335,730577180,-1.656414810811178,0.12964820861816406,-1.5218456427203577,0.00686808442696929,0.0008272860432043672,0.6743542551994324,0.0,-0.0,0.0,0.0,0.0,0.0
1782666335,738589711,-1.656414810811178,0.12966012954711914,-1.521881405507223,0.006880068685859442,0.0008033175836317241,0.6743422150611877,0.0,-0.0,0.0,0.0,0.0,0.0
1782666335,746604095,-1.6564624945269983,0.12961292266845703,-1.5218456427203577,0.00686808442696929,0.0008392703020945191,0.6743062734603882,0.0,-0.0,0.0,0.0,0.0,0.0
1782666335,754647644,-1.656414810811178,0.1296844482421875,-1.521881405507223,0.006892052944749594,0.0007909588748589158,0.6743422150611877,0.0,-0.0,0.0,0.0,0.0,0.0
1782666335,762612231,-1.656426731740133,0.12963628768920898,-1.521893326436178,0.00692800572142005,0.0008272860432043672,0.6743302345275879,0.0,-0.0,0.0,0.0,0.0,0.0
1782666335,770602132,-1.6564624945269983,0.12969636917114258,-1.5218694845782679,0.006880068685859442,0.0008153018425218761,0.6743782162666321,0.0,-0.0,0.0,0.0,0.0,0.0
1782666335,778590682,-1.6564024130450647,0.12970829010009766,-1.521881405507223,0.006844115909188986,0.0008033175836317241,0.6743302345275879,0.0,-0.0,0.0,0.0,0.0,0.0
1782666335,786580324,-1.6564386526690882,0.12963628768920898,-1.521881405507223,0.00686808442696929,0.0007789746159687638,0.6743302345275879,0.0,-0.0,0.0,0.0,0.0,0.0
1782666335,794619133,-1.656414810811178,0.12961292266845703,-1.5217974821673792,0.00686808442696929,0.0008033175836317241,0.6742942929267883,0.0,-0.0,0.0,0.0,0.0,0.0
1782666335,802605313,-1.6564624945269983,0.12964820861816406,-1.521881405507223,0.006880068685859442,0.0007909588748589158,0.6743542551994324,0.0,-0.0,0.0,0.0,0.0,0.0
1782666335,810747604,-1.6564744154559534,0.12966012954711914,-1.5218575636493128,0.006892052944749594,0.0008153018425218761,0.6743662357330322,0.0,-0.0,0.0,0.0,0.0,0.0
1782666335,818642227,-1.6564386526690882,0.1296243667602539,-1.521881405507223,0.006880068685859442,0.0008392703020945191,0.6743542551994324,0.0,-0.0,0.0,0.0,0.0,0.0
1782666335,826886482,-1.6564505735980433,0.1296243667602539,-1.5218575636493128,0.006892052944749594,0.0007909588748589158,0.6743302345275879,0.0,-0.0,0.0,0.0,0.0,0.0
1782666335,834613697,-1.6564505735980433,0.1296844482421875,-1.5218575636493128,0.006856100168079138,0.0007909588748589158,0.6743901968002319,0.0,-0.0,0.0,0.0,0.0,0.0
1782666335,842590876,-1.6564024130450647,0.1297321319580078,-1.5218337217914026,0.006892052944749594,0.0008512545027770102,0.6743662357330322,0.0,-0.0,0.0,0.0,0.0,0.0
1782666335,850659185,-1.6564505735980433,0.12967252731323242,-1.5218575636493128,0.006880068685859442,0.0008272860432043672,0.6743302345275879,0.0,-0.0,0.0,0.0,0.0,0.0
1782666335,858619827,-1.656414810811178,0.12967252731323242,-1.521881405507223,0.00686808442696929,0.0008272860432043672,0.6742823123931885,0.0,-0.0,0.0,0.0,0.0,0.0
1782666335,866602451,-1.6564744154559534,0.12969636917114258,-1.5218456427203577,0.00686808442696929,0.0008033175836317241,0.6743062734603882,0.0,-0.0,0.0,0.0,0.0,0.0
1782666335,874612278,-1.656426731740133,0.12967252731323242,-1.521881405507223,0.006844115909188986,0.0008392703020945191,0.6743422150611877,0.0,-0.0,0.0,0.0,0.0,0.0
1782666335,882694662,-1.6564386526690882,0.12969636917114258,-1.5218337217914026,0.00686808442696929,0.0008392703020945191,0.674318253993988,0.0,-0.0,0.0,0.0,0.0,0.0
1782666335,890604804,-1.6564386526690882,0.12967252731323242,-1.5218575636493128,0.006856100168079138,0.0007909588748589158,0.6743542551994324,0.0,-0.0,0.0,0.0,0.0,0.0
1782666335,898589853,-1.656426731740133,0.1296243667602539,-1.521893326436178,0.00686808442696929,0.0007669904152862728,0.6743782162666321,0.0,-0.0,0.0,0.0,0.0,0.0
1782666335,906614459,-1.656414810811178,0.12967252731323242,-1.5218694845782679,0.006856100168079138,0.0008153018425218761,0.674318253993988,0.0,-0.0,0.0,0.0,0.0,0.0
1782666335,914710453,-1.6564744154559534,0.12967252731323242,-1.5218337217914026,0.006880068685859442,0.0008153018425218761,0.6743542551994324,0.0,-0.0,0.0,0.0,0.0,0.0
1782666335,922598502,-1.6564386526690882,0.12966012954711914,-1.521881405507223,0.006844115909188986,0.0008272860432043672,0.6743542551994324,0.0,-0.0,0.0,0.0,0.0,0.0
1782666335,930604330,-1.656426731740133,0.12966012954711914,-1.5218456427203577,0.006892052944749594,0.0008153018425218761,0.6743422150611877,0.0,-0.0,0.0,0.0,0.0,0.0
1782666335,938613268,-1.656414810811178,0.1296844482421875,-1.521881405507223,0.006832132115960121,0.0008272860432043672,0.6742703318595886,0.0,-0.0,0.0,0.0,0.0,0.0
1782666335,946615726,-1.6564624945269983,0.12967252731323242,-1.5218694845782679,0.006844115909188986,0.0007669904152862728,0.6743422150611877,0.0,-0.0,0.0,0.0,0.0,0.0
1782666335,954570368,-1.656414810811178,0.1296243667602539,-1.521893326436178,0.006856100168079138,0.0008512545027770102,0.6743542551994324,0.0,-0.0,0.0,0.0,0.0,0.0
1782666335,962593325,-1.6563661734210413,0.12966012954711914,-1.521881405507223,0.006820147857069969,0.0008153018425218761,0.6743782162666321,0.0,-0.0,0.0,0.0,0.0,0.0
1782666335,970598541,-1.6564024130450647,0.12964820861816406,-1.5218456427203577,0.006892052944749594,0.0007909588748589158,0.6742942929267883,0.0,-0.0,0.0,0.0,0.0,0.0
1782666335,978605276,-1.6564624945269983,0.12964820861816406,-1.521881405507223,0.006856100168079138,0.0008392703020945191,0.6743302345275879,0.0,-0.0,0.0,0.0,0.0,0.0
1782666335,986615363,-1.656426731740133,0.12967252731323242,-1.5218213240252894,0.00686808442696929,0.0008033175836317241,0.674318253993988,0.0,-0.0,0.0,0.0,0.0,0.0
1782666335,994616172,-1.6563904921161097,0.12963628768920898,-1.5218694845782679,0.006892052944749594,0.0007789746159687638,0.6743542551994324,0.0,-0.0,0.0,0.0,0.0,0.0
1782666336,2609999,-1.6564505735980433,0.12967252731323242,-1.5218575636493128,0.006880068685859442,0.0007909588748589158,0.674318253993988,0.0,-0.0,0.0,0.0,0.0,0.0
1782666336,10588382,-1.6563904921161097,0.12966012954711914,-1.5218575636493128,0.00686808442696929,0.0008272860432043672,0.6743302345275879,0.0,-0.0,0.0,0.0,0.0,0.0
1782666336,18662655,-1.6564386526690882,0.1297321319580078,-1.5218694845782679,0.006892052944749594,0.0007909588748589158,0.6744141578674316,0.0,-0.0,0.0,0.0,0.0,0.0
1782666336,26602704,-1.6564024130450647,0.12963628768920898,-1.5218694845782679,0.006844115909188986,0.0008272860432043672,0.6743901968002319,0.0,-0.0,0.0,0.0,0.0,0.0
1782666336,34604550,-1.6563780943499964,0.12961292266845703,-1.521881405507223,0.006880068685859442,0.0008153018425218761,0.674318253993988,0.0,-0.0,0.0,0.0,0.0,0.0
1782666336,42605637,-1.656426731740133,0.1296243667602539,-1.521881405507223,0.00686808442696929,0.0008392703020945191,0.6743901968002319,0.0,-0.0,0.0,0.0,0.0,0.0
1782666336,50689335,-1.656414810811178,0.12969636917114258,-1.521893326436178,0.006856100168079138,0.0008033175836317241,0.6743302345275879,0.0,-0.0,0.0,0.0,0.0,0.0
1782666336,58607070,-1.6564386526690882,0.1296243667602539,-1.5218337217914026,0.006880068685859442,0.0007789746159687638,0.6743422150611877,0.0,-0.0,0.0,0.0,0.0,0.0
1782666336,66587267,-1.6564386526690882,0.12969636917114258,-1.5218694845782679,0.006892052944749594,0.0008392703020945191,0.6743422150611877,0.0,-0.0,0.0,0.0,0.0,0.0
1782666336,74604539,-1.6564624945269983,0.1296243667602539,-1.5218694845782679,0.006832132115960121,0.0008153018425218761,0.6743302345275879,0.0,-0.0,0.0,0.0,0.0,0.0
1782666336,82675923,-1.6564744154559534,0.1296243667602539,-1.5218575636493128,0.006808163598179817,0.0008272860432043672,0.6743302345275879,0.0,-0.0,0.0,0.0,0.0,0.0
1782666336,90602713,-1.656426731740133,0.12969636917114258,-1.5218456427203577,0.006856100168079138,0.0007909588748589158,0.6743422150611877,0.0,-0.0,0.0,0.0,0.0,0.0
1782666336,98606059,-1.656426731740133,0.12963628768920898,-1.521881405507223,0.006856100168079138,0.0007909588748589158,0.6743542551994324,0.0,-0.0,0.0,0.0,0.0,0.0
1782666336,106623905,-1.6564744154559534,0.12967252731323242,-1.5218694845782679,0.006892052944749594,0.0007789746159687638,0.6742942929267883,0.0,-0.0,0.0,0.0,0.0,0.0
1782666336,114626992,-1.656414810811178,0.12967252731323242,-1.521881405507223,0.006856100168079138,0.0007789746159687638,0.6743302345275879,0.0,-0.0,0.0,0.0,0.0,0.0
1782666336,122580782,-1.656426731740133,0.12967252731323242,-1.5218456427203577,0.006832132115960121,0.0007909588748589158,0.6743901968002319,0.0,-0.0,0.0,0.0,0.0,0.0
1782666336,130609962,-1.6564386526690882,0.12958860397338867,-1.521905247365133,0.006856100168079138,0.0008153018425218761,0.6742942929267883,0.0,-0.0,0.0,0.0,0.0,0.0
1782666336,138628048,-1.656414810811178,0.1296243667602539,-1.5218456427203577,0.006856100168079138,0.0008512545027770102,0.6743662357330322,0.0,-0.0,0.0,0.0,0.0,0.0
1782666336,146609857,-1.656426731740133,0.1296243667602539,-1.5218575636493128,0.006856100168079138,0.0007909588748589158,0.674318253993988,0.0,-0.0,0.0,0.0,0.0,0.0
1782666336,154611963,-1.656426731740133,0.12963628768920898,-1.5218575636493128,0.006856100168079138,0.0008272860432043672,0.6743542551994324,0.0,-0.0,0.0,0.0,0.0,0.0
1782666336,162609049,-1.656414810811178,0.12963628768920898,-1.521893326436178,0.006892052944749594,0.0007909588748589158,0.6743422150611877,0.0,-0.0,0.0,0.0,0.0,0.0
1782666336,170589358,-1.656426731740133,0.12970829010009766,-1.5218575636493128,0.00686808442696929,0.0008153018425218761,0.6743662357330322,0.0,-0.0,0.0,0.0,0.0,0.0
1782666336,178612019,-1.656426731740133,0.12966012954711914,-1.5218575636493128,0.00692800572142005,0.0008272860432043672,0.6743302345275879,0.0,-0.0,0.0,0.0,0.0,0.0
1782666336,186646514,-1.6564505735980433,0.1296243667602539,-1.5218575636493128,0.00686808442696929,0.0008033175836317241,0.6743302345275879,0.0,-0.0,0.0,0.0,0.0,0.0
1782666336,194611545,-1.6564386526690882,0.1296844482421875,-1.5218337217914026,0.00686808442696929,0.0007909588748589158,0.6743542551994324,0.0,-0.0,0.0,0.0,0.0,0.0
1782666336,202595242,-1.6564505735980433,0.12963628768920898,-1.5218575636493128,0.006880068685859442,0.0008272860432043672,0.6743062734603882,0.0,-0.0,0.0,0.0,0.0,0.0
1782666336,210606440,-1.6564386526690882,0.12964820861816406,-1.5218694845782679,0.006880068685859442,0.0007789746159687638,0.6743422150611877,0.0,-0.0,0.0,0.0,0.0,0.0
1782666336,218692805,-1.6564505735980433,0.1296844482421875,-1.521893326436178,0.006844115909188986,0.0008033175836317241,0.674318253993988,0.0,-0.0,0.0,0.0,0.0,0.0
1782666336,226651984,-1.6564386526690882,0.12969636917114258,-1.5218213240252894,0.006832132115960121,0.0008033175836317241,0.6743422150611877,0.0,-0.0,0.0,0.0,0.0,0.0
1782666336,234590756,-1.6564505735980433,0.12967252731323242,-1.5218456427203577,0.006904037203639746,0.0007909588748589158,0.674318253993988,0.0,-0.0,0.0,0.0,0.0,0.0
1782666336,242618306,-1.656414810811178,0.12966012954711914,-1.5218575636493128,0.006856100168079138,0.0008272860432043672,0.6743542551994324,0.0,-0.0,0.0,0.0,0.0,0.0
1782666336,250699856,-1.656426731740133,0.1296844482421875,-1.5218456427203577,0.006856100168079138,0.0008153018425218761,0.6742942929267883,0.0,-0.0,0.0,0.0,0.0,0.0
1782666336,258605239,-1.6564386526690882,0.12966012954711914,-1.5219176451312464,0.006832132115960121,0.0008033175836317241,0.6743302345275879,0.0,-0.0,0.0,0.0,0.0,0.0
1782666336,266590677,-1.6564386526690882,0.12966012954711914,-1.5218575636493128,0.006856100168079138,0.0007789746159687638,0.6743542551994324,0.0,-0.0,0.0,0.0,0.0,0.0
1782666336,274618820,-1.656414810811178,0.12964820861816406,-1.5218575636493128,0.006916021462529898,0.0008272860432043672,0.674318253993988,0.0,-0.0,0.0,0.0,0.0,0.0
1782666336,282709092,-1.656426731740133,0.1296243667602539,-1.521893326436178,0.006892052944749594,0.0008153018425218761,0.674318253993988,0.0,-0.0,0.0,0.0,0.0,0.0
1782666336,290581622,-1.656426731740133,0.1296243667602539,-1.521881405507223,0.006951974239200354,0.0008632387034595013,0.6744021773338318,0.0,-0.0,0.0,0.0,0.0,0.0
1782666336,298591061,-1.656426731740133,0.12967252731323242,-1.5218456427203577,0.006856100168079138,0.0008033175836317241,0.6743422150611877,0.0,-0.0,0.0,0.0,0.0,0.0
1782666336,306606148,-1.656414810811178,0.12970829010009766,-1.5218456427203577,0.00686808442696929,0.0007909588748589158,0.6743542551994324,0.0,-0.0,0.0,0.0,0.0,0.0
1782666336,314612864,-1.6564505735980433,0.12963628768920898,-1.5218456427203577,0.006880068685859442,0.0007789746159687638,0.6743422150611877,0.0,-0.0,0.0,0.0,0.0,0.0
1782666336,322983176,-1.6564863363849085,0.12969636917114258,-1.5218575636493128,0.006856100168079138,0.0007909588748589158,0.6743062734603882,0.0,-0.0,0.0,0.0,0.0,0.0
1782666336,330586204,-1.6563904921161097,0.1296844482421875,-1.521881405507223,0.006856100168079138,0.0008153018425218761,0.6743662357330322,0.0,-0.0,0.0,0.0,0.0,0.0
1782666336,338580995,-1.6563904921161097,0.12961292266845703,-1.5218456427203577,0.006844115909188986,0.0007789746159687638,0.6743662357330322,0.0,-0.0,0.0,0.0,0.0,0.0
1782666336,346574545,-1.656414810811178,0.12964820861816406,-1.5218694845782679,0.00686808442696929,0.0008033175836317241,0.6743542551994324,0.0,-0.0,0.0,0.0,0.0,0.0
1782666336,354621317,-1.6564624945269983,0.12969636917114258,-1.5218456427203577,0.006880068685859442,0.0008033175836317241,0.6743302345275879,0.0,-0.0,0.0,0.0,0.0,0.0
1782666336,362604681,-1.6564505735980433,0.1296844482421875,-1.521905247365133,0.00686808442696929,0.0008632387034595013,0.6743302345275879,0.0,-0.0,0.0,0.0,0.0,0.0
1782666336,370693269,-1.6564863363849085,0.12966012954711914,-1.5218337217914026,0.006856100168079138,0.0008272860432043672,0.6743422150611877,0.0,-0.0,0.0,0.0,0.0,0.0
1782666336,378693929,-1.6564505735980433,0.12969636917114258,-1.5218694845782679,0.006880068685859442,0.0007909588748589158,0.6743302345275879,0.0,-0.0,0.0,0.0,0.0,0.0
1782666336,386614090,-1.656426731740133,0.12967252731323242,-1.5218694845782679,0.00686808442696929,0.0007789746159687638,0.674318253993988,0.0,-0.0,0.0,0.0,0.0,0.0
1782666336,394593528,-1.656414810811178,0.12963628768920898,-1.521881405507223,0.006856100168079138,0.0008272860432043672,0.6743662357330322,0.0,-0.0,0.0,0.0,0.0,0.0
1782666336,402585485,-1.656426731740133,0.12966012954711914,-1.5218094030963343,0.006856100168079138,0.0008392703020945191,0.6742942929267883,0.0,-0.0,0.0,0.0,0.0,0.0
1782666336,410588461,-1.6564744154559534,0.12970829010009766,-1.5218575636493128,0.006856100168079138,0.0008033175836317241,0.6743662357330322,0.0,-0.0,0.0,0.0,0.0,0.0
1782666336,418624344,-1.6564386526690882,0.1296243667602539,-1.5218456427203577,0.006832132115960121,0.0007909588748589158,0.6742942929267883,0.0,-0.0,0.0,0.0,0.0,0.0
1782666336,426595894,-1.6564386526690882,0.12966012954711914,-1.5217974821673792,0.006880068685859442,0.0007789746159687638,0.6743542551994324,0.0,-0.0,0.0,0.0,0.0,0.0
1782666336,434606295,-1.6564386526690882,0.1296844482421875,-1.5218337217914026,0.006820147857069969,0.0008272860432043672,0.6743662357330322,0.0,-0.0,0.0,0.0,0.0,0.0
1782666336,442615623,-1.6564624945269983,0.12969636917114258,-1.521893326436178,0.006856100168079138,0.0008153018425218761,0.6743422150611877,0.0,-0.0,0.0,0.0,0.0,0.0
1782666336,450622006,-1.6564386526690882,0.1296243667602539,-1.521881405507223,0.00686808442696929,0.0008392703020945191,0.6743901968002319,0.0,-0.0,0.0,0.0,0.0,0.0
1782666336,458576537,-1.656414810811178,0.12967252731323242,-1.521905247365133,0.006892052944749594,0.0007669904152862728,0.6743542551994324,0.0,-0.0,0.0,0.0,0.0,0.0
1782666336,466608976,-1.6564024130450647,0.12966012954711914,-1.521881405507223,0.006892052944749594,0.0008033175836317241,0.6742823123931885,0.0,-0.0,0.0,0.0,0.0,0.0
1782666336,474609229,-1.656426731740133,0.12967252731323242,-1.521881405507223,0.006904037203639746,0.0008392703020945191,0.6743782162666321,0.0,-0.0,0.0,0.0,0.0,0.0
1782666336,482604631,-1.656426731740133,0.12967252731323242,-1.5218575636493128,0.006880068685859442,0.0007669904152862728,0.6743302345275879,0.0,-0.0,0.0,0.0,0.0,0.0
1782666336,490613718,-1.656426731740133,0.1296844482421875,-1.5218456427203577,0.006916021462529898,0.0007789746159687638,0.674318253993988,0.0,-0.0,0.0,0.0,0.0,0.0
1782666336,498593878,-1.6564024130450647,0.12963628768920898,-1.521893326436178,0.006904037203639746,0.0008512545027770102,0.6743302345275879,0.0,-0.0,0.0,0.0,0.0,0.0
1782666336,506567113,-1.6564624945269983,0.12969636917114258,-1.5218456427203577,0.00686808442696929,0.0007909588748589158,0.6743302345275879,0.0,-0.0,0.0,0.0,0.0,0.0
1782666336,514663663,-1.6564024130450647,0.12966012954711914,-1.5218575636493128,0.006892052944749594,0.0008512545027770102,0.674318253993988,0.0,-0.0,0.0,0.0,0.0,0.0
1782666336,522604194,-1.6564386526690882,0.12967252731323242,-1.5218694845782679,0.006880068685859442,0.0007669904152862728,0.6743302345275879,0.0,-0.0,0.0,0.0,0.0,0.0
1782666336,530606522,-1.656414810811178,0.12967252731323242,-1.5218694845782679,0.00686808442696929,0.0008272860432043672,0.6743302345275879,0.0,-0.0,0.0,0.0,0.0,0.0
1782666336,538610738,-1.6564505735980433,0.1296844482421875,-1.5218094030963343,0.00686808442696929,0.0008392703020945191,0.6743542551994324,0.0,-0.0,0.0,0.0,0.0,0.0
1782666336,546612121,-1.6564624945269983,0.12964820861816406,-1.5218575636493128,0.006880068685859442,0.0008512545027770102,0.6742942929267883,0.0,-0.0,0.0,0.0,0.0,0.0
1782666336,554625356,-1.656426731740133,0.12966012954711914,-1.5218694845782679,0.00686808442696929,0.0008153018425218761,0.6743302345275879,0.0,-0.0,0.0,0.0,0.0,0.0
1782666336,562602850,-1.6564024130450647,0.12966012954711914,-1.521893326436178,0.006844115909188986,0.0007909588748589158,0.6743302345275879,0.0,-0.0,0.0,0.0,0.0,0.0
1782666336,570593993,-1.656414810811178,0.1296243667602539,-1.5218575636493128,0.00686808442696929,0.0007909588748589158,0.6743302345275879,0.0,-0.0,0.0,0.0,0.0,0.0
1782666336,578673358,-1.6564024130450647,0.1296844482421875,-1.5218337217914026,0.00686808442696929,0.0007909588748589158,0.6743542551994324,0.0,-0.0,0.0,0.0,0.0,0.0
1782666336,586607777,-1.6564505735980433,0.12967252731323242,-1.5218337217914026,0.006880068685859442,0.0008153018425218761,0.674318253993988,0.0,-0.0,0.0,0.0,0.0,0.0
1782666336,594591901,-1.656414810811178,0.12969636917114258,-1.521881405507223,0.006808163598179817,0.0008033175836317241,0.6743302345275879,0.0,-0.0,0.0,0.0,0.0,0.0
1782666336,602607062,-1.6564024130450647,0.1296844482421875,-1.5218337217914026,0.00686808442696929,0.0007430219557136297,0.6743302345275879,0.0,-0.0,0.0,0.0,0.0,0.0
1782666336,610638149,-1.656426731740133,0.12969636917114258,-1.521881405507223,0.006844115909188986,0.0008272860432043672,0.6743062734603882,0.0,-0.0,0.0,0.0,0.0,0.0
1782666336,618624402,-1.6563904921161097,0.12967252731323242,-1.5218575636493128,0.006892052944749594,0.0007909588748589158,0.6743422150611877,0.0,-0.0,0.0,0.0,0.0,0.0
1782666336,626585970,-1.6563904921161097,0.12966012954711914,-1.5218694845782679,0.00686808442696929,0.0007669904152862728,0.674318253993988,0.0,-0.0,0.0,0.0,0.0,0.0
1782666336,634617205,-1.656426731740133,0.12960100173950195,-1.521893326436178,0.006880068685859442,0.0007909588748589158,0.6743302345275879,0.0,-0.0,0.0,0.0,0.0,0.0
1782666336,642742108,-1.6564024130450647,0.12967252731323242,-1.5218337217914026,0.006856100168079138,0.0007909588748589158,0.6743662357330322,0.0,-0.0,0.0,0.0,0.0,0.0
1782666336,650609990,-1.656426731740133,0.12963628768920898,-1.5218694845782679,0.006892052944749594,0.0008272860432043672,0.6743302345275879,0.0,-0.0,0.0,0.0,0.0,0.0
1782666336,658592002,-1.6563904921161097,0.12964820861816406,-1.5218694845782679,0.00686808442696929,0.0007909588748589158,0.6743302345275879,0.0,-0.0,0.0,0.0,0.0,0.0
1782666336,666615034,-1.6564386526690882,0.1296844482421875,-1.5218094030963343,0.006856100168079138,0.0008392703020945191,0.6743422150611877,0.0,-0.0,0.0,0.0,0.0,0.0
1782666336,674714029,-1.656414810811178,0.1296844482421875,-1.521881405507223,0.006880068685859442,0.0008153018425218761,0.674318253993988,0.0,-0.0,0.0,0.0,0.0,0.0
1782666336,682575448,-1.6564024130450647,0.12970829010009766,-1.521893326436178,0.006856100168079138,0.0008272860432043672,0.6743901968002319,0.0,-0.0,0.0,0.0,0.0,0.0
1782666336,690599442,-1.656426731740133,0.12967252731323242,-1.5218456427203577,0.006904037203639746,0.0007909588748589158,0.674318253993988,0.0,-0.0,0.0,0.0,0.0,0.0
1782666336,698605047,-1.6564386526690882,0.12966012954711914,-1.5218094030963343,0.00686808442696929,0.0008272860432043672,0.6743542551994324,0.0,-0.0,0.0,0.0,0.0,0.0
1782666336,706645116,-1.656414810811178,0.12964820861816406,-1.521881405507223,0.006832132115960121,0.0007909588748589158,0.6742823123931885,0.0,-0.0,0.0,0.0,0.0,0.0
1782666336,714605702,-1.6563904921161097,0.12970829010009766,-1.5218694845782679,0.006856100168079138,0.0008033175836317241,0.6743782162666321,0.0,-0.0,0.0,0.0,0.0,0.0
1782666336,722592678,-1.6563904921161097,0.1296243667602539,-1.521881405507223,0.00686808442696929,0.0008033175836317241,0.6743782162666321,0.0,-0.0,0.0,0.0,0.0,0.0
1782666336,730638654,-1.656426731740133,0.12966012954711914,-1.5218694845782679,0.00686808442696929,0.0008153018425218761,0.6743302345275879,0.0,-0.0,0.0,0.0,0.0,0.0
1782666336,738594259,-1.656426731740133,0.12970829010009766,-1.5218694845782679,0.006892052944749594,0.0007909588748589158,0.6743662357330322,0.0,-0.0,0.0,0.0,0.0,0.0
1782666336,746615401,-1.656414810811178,0.12966012954711914,-1.521881405507223,0.006844115909188986,0.0008392703020945191,0.6743422150611877,0.0,-0.0,0.0,0.0,0.0,0.0
1782666336,754590655,-1.6564386526690882,0.12963628768920898,-1.521893326436178,0.006844115909188986,0.0008153018425218761,0.6743302345275879,0.0,-0.0,0.0,0.0,0.0,0.0
1782666336,762616538,-1.6564505735980433,0.12969636917114258,-1.5218575636493128,0.006856100168079138,0.0008392703020945191,0.6743302345275879,0.0,-0.0,0.0,0.0,0.0,0.0
1782666336,770620384,-1.6563904921161097,0.12967252731323242,-1.521881405507223,0.006892052944749594,0.0008153018425218761,0.6743662357330322,0.0,-0.0,0.0,0.0,0.0,0.0
1782666336,778612804,-1.6564505735980433,0.1296243667602539,-1.5219176451312464,0.006856100168079138,0.0007669904152862728,0.6743542551994324,0.0,-0.0,0.0,0.0,0.0,0.0
1782666336,786598039,-1.6564744154559534,0.1296844482421875,-1.5218094030963343,0.006844115909188986,0.0008033175836317241,0.6743782162666321,0.0,-0.0,0.0,0.0,0.0,0.0
1782666336,794583607,-1.656426731740133,0.1296243667602539,-1.5218575636493128,0.006880068685859442,0.0008392703020945191,0.6743302345275879,0.0,-0.0,0.0,0.0,0.0,0.0
1782666336,802658713,-1.656426731740133,0.1296844482421875,-1.521893326436178,0.00686808442696929,0.0008153018425218761,0.6743782162666321,0.0,-0.0,0.0,0.0,0.0,0.0
1782666336,810602373,-1.6564386526690882,0.1296844482421875,-1.5218213240252894,0.006856100168079138,0.0008272860432043672,0.6743302345275879,0.0,-0.0,0.0,0.0,0.0,0.0
1782666336,818598997,-1.656426731740133,0.12967252731323242,-1.521881405507223,0.006880068685859442,0.0008392703020945191,0.6743302345275879,0.0,-0.0,0.0,0.0,0.0,0.0
1782666336,826606232,-1.656426731740133,0.12964820861816406,-1.5218213240252894,0.00686808442696929,0.0008153018425218761,0.6742942929267883,0.0,-0.0,0.0,0.0,0.0,0.0
1782666336,834635115,-1.656426731740133,0.12963628768920898,-1.521881405507223,0.006844115909188986,0.0007909588748589158,0.674318253993988,0.0,-0.0,0.0,0.0,0.0,0.0
1782666336,842623406,-1.656414810811178,0.12969636917114258,-1.521893326436178,0.006880068685859442,0.0008272860432043672,0.6743302345275879,0.0,-0.0,0.0,0.0,0.0,0.0
1782666336,850592566,-1.656426731740133,0.12966012954711914,-1.521905247365133,0.00686808442696929,0.0007669904152862728,0.6743542551994324,0.0,-0.0,0.0,0.0,0.0,0.0
1782666336,858613635,-1.656414810811178,0.12969636917114258,-1.5218456427203577,0.006832132115960121,0.0007789746159687638,0.674318253993988,0.0,-0.0,0.0,0.0,0.0,0.0
1782666336,866703907,-1.656414810811178,0.12966012954711914,-1.521905247365133,0.006904037203639746,0.0008272860432043672,0.6743302345275879,0.0,-0.0,0.0,0.0,0.0,0.0
1782666336,874614160,-1.6564386526690882,0.1296844482421875,-1.5218456427203577,0.00686808442696929,0.0008272860432043672,0.6743542551994324,0.0,-0.0,0.0,0.0,0.0,0.0
1782666336,882591747,-1.656414810811178,0.12967252731323242,-1.5218575636493128,0.006904037203639746,0.0008153018425218761,0.6743782162666321,0.0,-0.0,0.0,0.0,0.0,0.0
1782666336,890604926,-1.6564024130450647,0.1296844482421875,-1.521881405507223,0.006832132115960121,0.0008392703020945191,0.6743901968002319,0.0,-0.0,0.0,0.0,0.0,0.0
1782666336,898621272,-1.6564386526690882,0.12967252731323242,-1.5218456427203577,0.00686808442696929,0.0008512545027770102,0.6743422150611877,0.0,-0.0,0.0,0.0,0.0,0.0
1782666336,906579377,-1.6564505735980433,0.12967252731323242,-1.5219295660602015,0.006892052944749594,0.0008153018425218761,0.6743542551994324,0.0,-0.0,0.0,0.0,0.0,0.0
1782666336,914597390,-1.656414810811178,0.12969636917114258,-1.5218213240252894,0.006880068685859442,0.0008153018425218761,0.6743422150611877,0.0,-0.0,0.0,0.0,0.0,0.0
1782666336,922604755,-1.6564744154559534,0.12970829010009766,-1.521881405507223,0.006844115909188986,0.0008272860432043672,0.674318253993988,0.0,-0.0,0.0,0.0,0.0,0.0
1782666336,930687305,-1.6564624945269983,0.12963628768920898,-1.5218456427203577,0.006832132115960121,0.0008153018425218761,0.6743542551994324,0.0,-0.0,0.0,0.0,0.0,0.0
1782666336,938618317,-1.6564386526690882,0.12963628768920898,-1.5218456427203577,0.006880068685859442,0.0008033175836317241,0.6743422150611877,0.0,-0.0,0.0,0.0,0.0,0.0
1782666336,946627478,-1.656426731740133,0.12966012954711914,-1.5218694845782679,0.00686808442696929,0.0008272860432043672,0.6743422150611877,0.0,-0.0,0.0,0.0,0.0,0.0
1782666336,954589787,-1.6564386526690882,0.12963628768920898,-1.5218337217914026,0.006856100168079138,0.0008392703020945191,0.6743422150611877,0.0,-0.0,0.0,0.0,0.0,0.0
1782666336,962658800,-1.656426731740133,0.12967252731323242,-1.5219176451312464,0.00686808442696929,0.0007789746159687638,0.6743782162666321,0.0,-0.0,0.0,0.0,0.0,0.0
1782666336,970616479,-1.656414810811178,0.12963628768920898,-1.5218694845782679,0.00686808442696929,0.0007909588748589158,0.674318253993988,0.0,-0.0,0.0,0.0,0.0,0.0
1782666336,978620547,-1.656426731740133,0.12969636917114258,-1.5218575636493128,0.006832132115960121,0.0007669904152862728,0.6742823123931885,0.0,-0.0,0.0,0.0,0.0,0.0
1782666336,986601837,-1.6564024130450647,0.12969636917114258,-1.5218456427203577,0.006892052944749594,0.0008033175836317241,0.6743302345275879,0.0,-0.0,0.0,0.0,0.0,0.0
1782666336,994666906,-1.656426731740133,0.12963628768920898,-1.5218575636493128,0.006880068685859442,0.0007550062146037817,0.674318253993988,0.0,-0.0,0.0,0.0,0.0,0.0
1782666337,2613956,-1.6564505735980433,0.12964820861816406,-1.5218694845782679,0.006892052944749594,0.0008153018425218761,0.6743901968002319,0.0,-0.0,0.0,0.0,0.0,0.0
1782666337,10609561,-1.6564624945269983,0.12970829010009766,-1.5218337217914026,0.006904037203639746,0.0008512545027770102,0.6743782162666321,0.0,-0.0,0.0,0.0,0.0,0.0
1782666337,18591814,-1.6563904921161097,0.12969636917114258,-1.5218456427203577,0.006844115909188986,0.0007909588748589158,0.6743422150611877,0.0,-0.0,0.0,0.0,0.0,0.0
1782666337,26668735,-1.6564024130450647,0.12967252731323242,-1.5218694845782679,0.006856100168079138,0.0007909588748589158,0.6743422150611877,0.0,-0.0,0.0,0.0,0.0,0.0
1782666337,34609080,-1.6564505735980433,0.12970829010009766,-1.5219295660602015,0.00686808442696929,0.0008033175836317241,0.6743422150611877,0.0,-0.0,0.0,0.0,0.0,0.0
1782666337,42597760,-1.6564744154559534,0.12961292266845703,-1.5218694845782679,0.006880068685859442,0.0008153018425218761,0.6743782162666321,0.0,-0.0,0.0,0.0,0.0,0.0
1782666337,50610958,-1.6564386526690882,0.12967252731323242,-1.521881405507223,0.006916021462529898,0.0008392703020945191,0.6743422150611877,0.0,-0.0,0.0,0.0,0.0,0.0
1782666337,58639989,-1.6564505735980433,0.12966012954711914,-1.5218694845782679,0.006856100168079138,0.0007550062146037817,0.6743542551994324,0.0,-0.0,0.0,0.0,0.0,0.0
1782666337,66623391,-1.656426731740133,0.12963628768920898,-1.5218694845782679,0.006880068685859442,0.0008153018425218761,0.6743422150611877,0.0,-0.0,0.0,0.0,0.0,0.0
1782666337,74578588,-1.6564386526690882,0.12969636917114258,-1.5218694845782679,0.006880068685859442,0.0007789746159687638,0.6743062734603882,0.0,-0.0,0.0,0.0,0.0,0.0
1782666337,82615064,-1.6564386526690882,0.1296243667602539,-1.521905247365133,0.006832132115960121,0.0008153018425218761,0.674318253993988,0.0,-0.0,0.0,0.0,0.0,0.0
1782666337,90704615,-1.6564024130450647,0.12966012954711914,-1.5218694845782679,0.006892052944749594,0.0008153018425218761,0.6742942929267883,0.0,-0.0,0.0,0.0,0.0,0.0
1782666337,98610330,-1.6564024130450647,0.12964820861816406,-1.521881405507223,0.00686808442696929,0.0007909588748589158,0.6743422150611877,0.0,-0.0,0.0,0.0,0.0,0.0
1782666337,106594010,-1.6564505735980433,0.1296844482421875,-1.5218456427203577,0.006856100168079138,0.0008392703020945191,0.6743302345275879,0.0,-0.0,0.0,0.0,0.0,0.0
1782666337,114598411,-1.6564386526690882,0.12967252731323242,-1.5218694845782679,0.006904037203639746,0.0008512545027770102,0.6743302345275879,0.0,-0.0,0.0,0.0,0.0,0.0
1782666337,122613443,-1.6564744154559534,0.1296844482421875,-1.521893326436178,0.006856100168079138,0.0008392703020945191,0.6743542551994324,0.0,-0.0,0.0,0.0,0.0,0.0
1782666337,130582715,-1.656414810811178,0.12969636917114258,-1.521893326436178,0.006832132115960121,0.0008272860432043672,0.6743422150611877,0.0,-0.0,0.0,0.0,0.0,0.0
1782666337,138613227,-1.6564744154559534,0.12966012954711914,-1.5218694845782679,0.006856100168079138,0.0007550062146037817,0.6743302345275879,0.0,-0.0,0.0,0.0,0.0,0.0
1782666337,146640870,-1.6564744154559534,0.1296844482421875,-1.521881405507223,0.006832132115960121,0.0008033175836317241,0.674318253993988,0.0,-0.0,0.0,0.0,0.0,0.0
1782666337,154606919,-1.6563904921161097,0.12969636917114258,-1.521905247365133,0.006880068685859442,0.0007669904152862728,0.6743782162666321,0.0,-0.0,0.0,0.0,0.0,0.0
1782666337,162711174,-1.6564624945269983,0.1296243667602539,-1.5218456427203577,0.006832132115960121,0.0008033175836317241,0.6742942929267883,0.0,-0.0,0.0,0.0,0.0,0.0
1782666337,170604778,-1.656414810811178,0.12964820861816406,-1.5218694845782679,0.006832132115960121,0.0008272860432043672,0.6743302345275879,0.0,-0.0,0.0,0.0,0.0,0.0
1782666337,178598365,-1.6564386526690882,0.12964820861816406,-1.5218337217914026,0.006880068685859442,0.0007909588748589158,0.674318253993988,0.0,-0.0,0.0,0.0,0.0,0.0
1782666337,186600544,-1.6564024130450647,0.12966012954711914,-1.5218694845782679,0.00686808442696929,0.0008272860432043672,0.674318253993988,0.0,-0.0,0.0,0.0,0.0,0.0
1782666337,194669095,-1.656414810811178,0.12967252731323242,-1.521881405507223,0.006856100168079138,0.0007909588748589158,0.6743062734603882,0.0,-0.0,0.0,0.0,0.0,0.0
1782666337,202603144,-1.6564744154559534,0.12963628768920898,-1.5218456427203577,0.006820147857069969,0.0008033175836317241,0.6743542551994324,0.0,-0.0,0.0,0.0,0.0,0.0
1782666337,210598434,-1.656414810811178,0.1296844482421875,-1.5218694845782679,0.006892052944749594,0.0008153018425218761,0.674318253993988,0.0,-0.0,0.0,0.0,0.0,0.0
1782666337,218609744,-1.6564024130450647,0.12963628768920898,-1.5218213240252894,0.006856100168079138,0.0008033175836317241,0.6743542551994324,0.0,-0.0,0.0,0.0,0.0,0.0
1782666337,226611441,-1.6564505735980433,0.1296243667602539,-1.521905247365133,0.006939989980310202,0.0008153018425218761,0.6743542551994324,0.0,-0.0,0.0,0.0,0.0,0.0
1782666337,234648121,-1.6564386526690882,0.12963628768920898,-1.521893326436178,0.006880068685859442,0.0007909588748589158,0.6742942929267883,0.0,-0.0,0.0,0.0,0.0,0.0
1782666337,242576226,-1.656426731740133,0.1296243667602539,-1.521881405507223,0.00686808442696929,0.0007669904152862728,0.6743422150611877,0.0,-0.0,0.0,0.0,0.0,0.0
1782666337,250595276,-1.656426731740133,0.1296243667602539,-1.521881405507223,0.006892052944749594,0.0007669904152862728,0.6742942929267883,0.0,-0.0,0.0,0.0,0.0,0.0
1782666337,258722141,-1.656414810811178,0.12966012954711914,-1.5218337217914026,0.006844115909188986,0.0008033175836317241,0.674318253993988,0.0,-0.0,0.0,0.0,0.0,0.0
1782666337,266726117,-1.6563780943499964,0.12967252731323242,-1.521905247365133,0.006832132115960121,0.0007789746159687638,0.6744021773338318,0.0,-0.0,0.0,0.0,0.0,0.0
1782666337,274597296,-1.6563904921161097,0.1296243667602539,-1.5218694845782679,0.006832132115960121,0.0008272860432043672,0.6743662357330322,0.0,-0.0,0.0,0.0,0.0,0.0
1782666337,282609808,-1.6564744154559534,0.12967252731323242,-1.5218694845782679,0.00686808442696929,0.0007669904152862728,0.6742823123931885,0.0,-0.0,0.0,0.0,0.0,0.0
1782666337,290586802,-1.6563904921161097,0.1296243667602539,-1.5218456427203577,0.006832132115960121,0.0008033175836317241,0.6743062734603882,0.0,-0.0,0.0,0.0,0.0,0.0
1782666337,298602463,-1.6564386526690882,0.12972021102905273,-1.5218575636493128,0.006880068685859442,0.0007669904152862728,0.6743782162666321,0.0,-0.0,0.0,0.0,0.0,0.0
1782666337,306609921,-1.6564024130450647,0.12970829010009766,-1.521881405507223,0.006904037203639746,0.0008033175836317241,0.6743062734603882,0.0,-0.0,0.0,0.0,0.0,0.0
1782666337,314615656,-1.6564386526690882,0.12966012954711914,-1.5218456427203577,0.006856100168079138,0.0007789746159687638,0.6742942929267883,0.0,-0.0,0.0,0.0,0.0,0.0
1782666337,323601656,-1.6564386526690882,0.12966012954711914,-1.5218213240252894,0.006844115909188986,0.0007669904152862728,0.6743422150611877,0.0,-0.0,0.0,0.0,0.0,0.0
1782666337,330594977,-1.656426731740133,0.12964820861816406,-1.5218456427203577,0.00692800572142005,0.0008033175836317241,0.6742942929267883,0.0,-0.0,0.0,0.0,0.0,0.0
1782666337,338629601,-1.6564624945269983,0.1296844482421875,-1.521881405507223,0.006856100168079138,0.0008033175836317241,0.6743062734603882,0.0,-0.0,0.0,0.0,0.0,0.0
1782666337,346619336,-1.656414810811178,0.12963628768920898,-1.5218694845782679,0.006880068685859442,0.0008392703020945191,0.6743062734603882,0.0,-0.0,0.0,0.0,0.0,0.0
1782666337,354585238,-1.656414810811178,0.12967252731323242,-1.5218456427203577,0.00686808442696929,0.0007909588748589158,0.6743062734603882,0.0,-0.0,0.0,0.0,0.0,0.0
1782666337,362613973,-1.656414810811178,0.12961292266845703,-1.5218575636493128,0.006880068685859442,0.0008033175836317241,0.6743422150611877,0.0,-0.0,0.0,0.0,0.0,0.0
1782666337,370607448,-1.656414810811178,0.1296844482421875,-1.5218694845782679,0.00686808442696929,0.0008033175836317241,0.6743662357330322,0.0,-0.0,0.0,0.0,0.0,0.0
1782666337,378612961,-1.6564624945269983,0.12967252731323242,-1.521893326436178,0.00686808442696929,0.0008033175836317241,0.674318253993988,0.0,-0.0,0.0,0.0,0.0,0.0
1782666337,386605677,-1.6563904921161097,0.12967252731323242,-1.5218575636493128,0.00692800572142005,0.0008272860432043672,0.6743302345275879,0.0,-0.0,0.0,0.0,0.0,0.0
1782666337,394600209,-1.6563904921161097,0.12966012954711914,-1.5218694845782679,0.006820147857069969,0.0007669904152862728,0.6743422150611877,0.0,-0.0,0.0,0.0,0.0,0.0
1782666337,402587184,-1.6564744154559534,0.1296844482421875,-1.5218213240252894,0.00686808442696929,0.0008033175836317241,0.6743302345275879,0.0,-0.0,0.0,0.0,0.0,0.0
1782666337,410606716,-1.656426731740133,0.1296243667602539,-1.5218575636493128,0.006880068685859442,0.0007909588748589158,0.6742942929267883,0.0,-0.0,0.0,0.0,0.0,0.0
1782666337,418588136,-1.6564024130450647,0.12967252731323242,-1.5218456427203577,0.006880068685859442,0.0008153018425218761,0.6743782162666321,0.0,-0.0,0.0,0.0,0.0,0.0
1782666337,426598667,-1.6564386526690882,0.12966012954711914,-1.5218694845782679,0.00686808442696929,0.0008272860432043672,0.6743062734603882,0.0,-0.0,0.0,0.0,0.0,0.0
1782666337,434592124,-1.6564024130450647,0.12966012954711914,-1.521881405507223,0.006796179339289665,0.0008632387034595013,0.6743422150611877,0.0,-0.0,0.0,0.0,0.0,0.0
1782666337,442589729,-1.656414810811178,0.12964820861816406,-1.5218337217914026,0.006892052944749594,0.0008153018425218761,0.6743782162666321,0.0,-0.0,0.0,0.0,0.0,0.0
1782666337,450624798,-1.6564386526690882,0.12966012954711914,-1.521893326436178,0.006892052944749594,0.0008153018425218761,0.6743542551994324,0.0,-0.0,0.0,0.0,0.0,0.0
1782666337,458595218,-1.656426731740133,0.12967252731323242,-1.521905247365133,0.00686808442696929,0.0008033175836317241,0.6743542551994324,0.0,-0.0,0.0,0.0,0.0,0.0
1782666337,466611842,-1.6564386526690882,0.12966012954711914,-1.5218694845782679,0.006892052944749594,0.0008033175836317241,0.6743901968002319,0.0,-0.0,0.0,0.0,0.0,0.0
1782666337,474617984,-1.6564024130450647,0.12967252731323242,-1.521893326436178,0.006880068685859442,0.0007909588748589158,0.6743062734603882,0.0,-0.0,0.0,0.0,0.0,0.0
1782666337,482615201,-1.6564024130450647,0.12963628768920898,-1.5218213240252894,0.00686808442696929,0.0008392703020945191,0.6743542551994324,0.0,-0.0,0.0,0.0,0.0,0.0
1782666337,490598991,-1.656426731740133,0.12967252731323242,-1.5218694845782679,0.006880068685859442,0.0008153018425218761,0.674318253993988,0.0,-0.0,0.0,0.0,0.0,0.0
1782666337,498597170,-1.6564744154559534,0.12967252731323242,-1.521881405507223,0.006904037203639746,0.0008272860432043672,0.6743302345275879,0.0,-0.0,0.0,0.0,0.0,0.0
1782666337,506609776,-1.656414810811178,0.12967252731323242,-1.5218456427203577,0.006880068685859442,0.0008153018425218761,0.6743422150611877,0.0,-0.0,0.0,0.0,0.0,0.0
1782666337,514614140,-1.656426731740133,0.12972021102905273,-1.5218337217914026,0.00686808442696929,0.0008153018425218761,0.6743542551994324,0.0,-0.0,0.0,0.0,0.0,0.0
1782666337,522619320,-1.6564386526690882,0.1296844482421875,-1.521881405507223,0.006892052944749594,0.0008512545027770102,0.674318253993988,0.0,-0.0,0.0,0.0,0.0,0.0
1782666337,530601999,-1.6564505735980433,0.12964820861816406,-1.5218337217914026,0.006856100168079138,0.0008512545027770102,0.6743542551994324,0.0,-0.0,0.0,0.0,0.0,0.0
1782666337,538602290,-1.6563904921161097,0.12963628768920898,-1.5218094030963343,0.006880068685859442,0.0007789746159687638,0.674318253993988,0.0,-0.0,0.0,0.0,0.0,0.0
1782666337,546621469,-1.6564505735980433,0.12969636917114258,-1.5218575636493128,0.006856100168079138,0.0007909588748589158,0.6743782162666321,0.0,-0.0,0.0,0.0,0.0,0.0
1782666337,554715223,-1.6564624945269983,0.12966012954711914,-1.521893326436178,0.006832132115960121,0.0007789746159687638,0.6743422150611877,0.0,-0.0,0.0,0.0,0.0,0.0
1782666337,562612291,-1.6564024130450647,0.12969636917114258,-1.5218456427203577,0.006844115909188986,0.0007909588748589158,0.674318253993988,0.0,-0.0,0.0,0.0,0.0,0.0
1782666337,570641507,-1.6564624945269983,0.1296844482421875,-1.521905247365133,0.006892052944749594,0.0008033175836317241,0.674318253993988,0.0,-0.0,0.0,0.0,0.0,0.0
1782666337,579029060,-1.6564386526690882,0.12963628768920898,-1.521881405507223,0.006880068685859442,0.0008392703020945191,0.6743901968002319,0.0,-0.0,0.0,0.0,0.0,0.0
1782666337,586596533,-1.6563780943499964,0.12969636917114258,-1.5218213240252894,0.006844115909188986,0.0008153018425218761,0.674318253993988,0.0,-0.0,0.0,0.0,0.0,0.0
1782666337,594900029,-1.6563780943499964,0.12969636917114258,-1.5218213240252894,0.006844115909188986,0.0008153018425218761,0.674318253993988,0.0,-0.0,0.0,0.0,0.0,0.0
1782666337,602738837,-1.6563780943499964,0.12969636917114258,-1.5218213240252894,0.006844115909188986,0.0008153018425218761,0.674318253993988,0.0,-0.0,0.0,0.0,0.0,0.0
1782666337,618175655,-1.6564505735980433,0.12963628768920898,-1.5219176451312464,0.00686808442696929,0.0008153018425218761,0.674318253993988,0.0,-0.0,0.0,0.0,0.0,0.0
1782666337,620223612,-1.6564505735980433,0.12963628768920898,-1.5219176451312464,0.00686808442696929,0.0008153018425218761,0.674318253993988,0.0,-0.0,0.0,0.0,0.0,0.0
1782666337,634846722,-1.656414810811178,0.12967252731323242,-1.521893326436178,0.006820147857069969,0.0008153018425218761,0.6743062734603882,0.0,-0.0,0.0,0.0,0.0,0.0
1782666337,641401855,-1.6564386526690882,0.12967252731323242,-1.521893326436178,0.006880068685859442,0.0008153018425218761,0.6742942929267883,0.0,-0.0,0.0,0.0,0.0,0.0
1782666337,672902458,-1.6564024130450647,0.12963628768920898,-1.5218694845782679,0.006832132115960121,0.0008153018425218761,0.6742942929267883,0.0,-0.0,0.0,0.0,0.0,0.0
1782666337,676835927,-1.6564024130450647,0.12963628768920898,-1.5218694845782679,0.006832132115960121,0.0008153018425218761,0.6742942929267883,0.0,-0.0,0.0,0.0,0.0,0.0
1782666337,679992243,-1.6564024130450647,0.12963628768920898,-1.5218694845782679,0.006832132115960121,0.0008153018425218761,0.6742942929267883,0.0,-0.0,0.0,0.0,0.0,0.0
1782666337,680782063,-1.6564024130450647,0.12963628768920898,-1.5218694845782679,0.006832132115960121,0.0008153018425218761,0.6742942929267883,0.0,-0.0,0.0,0.0,0.0,0.0
1782666337,681798069,-1.6564024130450647,0.12963628768920898,-1.5218694845782679,0.006832132115960121,0.0008153018425218761,0.6742942929267883,0.0,-0.0,0.0,0.0,0.0,0.0
1782666337,682673778,-1.6564024130450647,0.12963628768920898,-1.5218694845782679,0.006832132115960121,0.0008153018425218761,0.6742942929267883,0.0,-0.0,0.0,0.0,0.0,0.0
1782666337,694154979,-1.656426731740133,0.12969636917114258,-1.5218456427203577,0.006916021462529898,0.0008272860432043672,0.6743422150611877,0.0,-0.0,0.0,0.0,0.0,0.0
1782666337,706652372,-1.6563780943499964,0.1296243667602539,-1.521881405507223,0.006820147857069969,0.0008272860432043672,0.6743901968002319,0.0,-0.0,0.0,0.0,0.0,0.0
1782666337,721187462,-1.6563904921161097,0.12964820861816406,-1.5218456427203577,0.00686808442696929,0.0008153018425218761,0.6743662357330322,0.0,-0.0,0.0,0.0,0.0,0.0
1782666337,725158469,-1.6563904921161097,0.12964820861816406,-1.5218456427203577,0.00686808442696929,0.0008153018425218761,0.6743662357330322,0.0,-0.0,0.0,0.0,0.0,0.0
1782666337,730585447,-1.6564024130450647,0.12964820861816406,-1.521893326436178,0.006880068685859442,0.0008153018425218761,0.6743062734603882,0.0,-0.0,0.0,0.0,0.0,0.0
1782666337,739672540,-1.6564624945269983,0.12963628768920898,-1.5218575636493128,0.006892052944749594,0.0008153018425218761,0.674318253993988,0.0,-0.0,0.0,0.0,0.0,0.0
1782666337,746604398,-1.6564386526690882,0.12967252731323242,-1.5218694845782679,0.00686808442696929,0.0008272860432043672,0.6743662357330322,0.0,-0.0,0.0,0.0,0.0,0.0
1782666337,754590448,-1.656414810811178,0.12966012954711914,-1.5218694845782679,0.006844115909188986,0.0008033175836317241,0.6743542551994324,0.0,-0.0,0.0,0.0,0.0,0.0
1782666337,764212230,-1.656414810811178,0.12967252731323242,-1.5218337217914026,0.006832132115960121,0.0008392703020945191,0.674318253993988,0.0,-0.0,0.0,0.0,0.0,0.0
1782666337,770605899,-1.6564624945269983,0.1296844482421875,-1.5218456427203577,0.006832132115960121,0.0008153018425218761,0.6743662357330322,0.0,-0.0,0.0,0.0,0.0,0.0
1782666337,779636641,-1.6563780943499964,0.1296844482421875,-1.5218213240252894,0.006880068685859442,0.0007669904152862728,0.6743422150611877,0.0,-0.0,0.0,0.0,0.0,0.0
1782666337,793757340,-1.656426731740133,0.12967252731323242,-1.5218456427203577,0.006880068685859442,0.0008272860432043672,0.674318253993988,0.0,-0.0,0.0,0.0,0.0,0.0
1782666337,794833050,-1.656426731740133,0.12967252731323242,-1.5218456427203577,0.006880068685859442,0.0008272860432043672,0.674318253993988,0.0,-0.0,0.0,0.0,0.0,0.0
1782666337,802661080,-1.6564624945269983,0.12967252731323242,-1.5218456427203577,0.006904037203639746,0.0007789746159687638,0.6743542551994324,0.0,-0.0,0.0,0.0,0.0,0.0
1782666337,810589648,-1.656414810811178,0.12967252731323242,-1.521893326436178,0.00686808442696929,0.0008153018425218761,0.6743662357330322,0.0,-0.0,0.0,0.0,0.0,0.0
1782666337,818591957,-1.656426731740133,0.12967252731323242,-1.521893326436178,0.006892052944749594,0.0007909588748589158,0.6743302345275879,0.0,-0.0,0.0,0.0,0.0,0.0
1782666337,826597488,-1.6564744154559534,0.12967252731323242,-1.521893326436178,0.00686808442696929,0.0008033175836317241,0.6743302345275879,0.0,-0.0,0.0,0.0,0.0,0.0
1782666337,835444636,-1.6564505735980433,0.12967252731323242,-1.521881405507223,0.006892052944749594,0.0007909588748589158,0.674318253993988,0.0,-0.0,0.0,0.0,0.0,0.0
1782666337,847434581,-1.656426731740133,0.12966012954711914,-1.5218694845782679,0.006808163598179817,0.0008153018425218761,0.6743422150611877,0.0,-0.0,0.0,0.0,0.0,0.0
1782666337,850640268,-1.656426731740133,0.12966012954711914,-1.5218694845782679,0.006808163598179817,0.0008153018425218761,0.6743422150611877,0.0,-0.0,0.0,0.0,0.0,0.0
1782666337,858618614,-1.6563904921161097,0.12966012954711914,-1.5218213240252894,0.006916021462529898,0.0007789746159687638,0.6742942929267883,0.0,-0.0,0.0,0.0,0.0,0.0
1782666337,866594811,-1.656426731740133,0.1296844482421875,-1.5218694845782679,0.006832132115960121,0.0008153018425218761,0.6743662357330322,0.0,-0.0,0.0,0.0,0.0,0.0
1782666337,874610009,-1.6564386526690882,0.1296844482421875,-1.521881405507223,0.006916021462529898,0.0007669904152862728,0.6743542551994324,0.0,-0.0,0.0,0.0,0.0,0.0
1782666337,882609763,-1.6564744154559534,0.12963628768920898,-1.5218337217914026,0.006844115909188986,0.0008033175836317241,0.6743302345275879,0.0,-0.0,0.0,0.0,0.0,0.0
1782666337,890595275,-1.6564024130450647,0.12966012954711914,-1.5218575636493128,0.006880068685859442,0.0007909588748589158,0.6743422150611877,0.0,-0.0,0.0,0.0,0.0,0.0
1782666337,903718561,-1.656426731740133,0.12969636917114258,-1.5218337217914026,0.006844115909188986,0.0008272860432043672,0.6743422150611877,0.0,-0.0,0.0,0.0,0.0,0.0
1782666337,907681789,-1.656426731740133,0.12969636917114258,-1.5218337217914026,0.006844115909188986,0.0008272860432043672,0.6743422150611877,0.0,-0.0,0.0,0.0,0.0,0.0
1782666337,914626925,-1.656426731740133,0.12967252731323242,-1.521905247365133,0.006856100168079138,0.0007789746159687638,0.6743901968002319,0.0,-0.0,0.0,0.0,0.0,0.0
1782666337,922675919,-1.6564744154559534,0.12967252731323242,-1.521905247365133,0.006892052944749594,0.0008153018425218761,0.6743542551994324,0.0,-0.0,0.0,0.0,0.0,0.0
1782666337,930715377,-1.6563904921161097,0.1296243667602539,-1.5218575636493128,0.006880068685859442,0.0008272860432043672,0.6743662357330322,0.0,-0.0,0.0,0.0,0.0,0.0
1782666337,938755186,-1.6564024130450647,0.12964820861816406,-1.5219295660602015,0.006892052944749594,0.0007789746159687638,0.6743302345275879,0.0,-0.0,0.0,0.0,0.0,0.0
1782666337,946600087,-1.656414810811178,0.12970829010009766,-1.5218337217914026,0.006880068685859442,0.0008153018425218761,0.674318253993988,0.0,-0.0,0.0,0.0,0.0,0.0
1782666337,954595692,-1.656426731740133,0.12967252731323242,-1.521881405507223,0.006844115909188986,0.0008033175836317241,0.6743302345275879,0.0,-0.0,0.0,0.0,0.0,0.0
1782666337,962601779,-1.6564386526690882,0.12964820861816406,-1.521893326436178,0.00686808442696929,0.0008033175836317241,0.6743542551994324,0.0,-0.0,0.0,0.0,0.0,0.0
1782666337,970643273,-1.6564024130450647,0.12966012954711914,-1.5218575636493128,0.00686808442696929,0.0007789746159687638,0.6743782162666321,0.0,-0.0,0.0,0.0,0.0,0.0
1782666337,978590415,-1.656414810811178,0.12967252731323242,-1.521881405507223,0.006880068685859442,0.0008033175836317241,0.674318253993988,0.0,-0.0,0.0,0.0,0.0,0.0
1782666337,986590465,-1.6563904921161097,0.12964820861816406,-1.521881405507223,0.006820147857069969,0.0008153018425218761,0.6743422150611877,0.0,-0.0,0.0,0.0,0.0,0.0
1782666337,994897906,-1.656414810811178,0.12966012954711914,-1.5218694845782679,0.006904037203639746,0.0007789746159687638,0.6743782162666321,0.0,-0.0,0.0,0.0,0.0,0.0
1782666338,6625164,-1.6564744154559534,0.1296243667602539,-1.521881405507223,0.006844115909188986,0.0007909588748589158,0.6743302345275879,0.0,-0.0,0.0,0.0,0.0,0.0
1782666338,10715412,-1.6564024130450647,0.12966012954711914,-1.521905247365133,0.00686808442696929,0.0008033175836317241,0.674318253993988,0.0,-0.0,0.0,0.0,0.0,0.0
1782666338,18600498,-1.6563904921161097,0.12967252731323242,-1.5218575636493128,0.006844115909188986,0.0007789746159687638,0.6743542551994324,0.0,-0.0,0.0,0.0,0.0,0.0
1782666338,26600029,-1.656426731740133,0.12967252731323242,-1.5218456427203577,0.006892052944749594,0.0008153018425218761,0.6743422150611877,0.0,-0.0,0.0,0.0,0.0,0.0
1782666338,34601245,-1.656414810811178,0.12967252731323242,-1.521893326436178,0.006880068685859442,0.0007789746159687638,0.6743422150611877,0.0,-0.0,0.0,0.0,0.0,0.0
1782666338,42683333,-1.6563780943499964,0.1296844482421875,-1.521893326436178,0.006832132115960121,0.0008272860432043672,0.6743302345275879,0.0,-0.0,0.0,0.0,0.0,0.0
1782666338,50625512,-1.656414810811178,0.12966012954711914,-1.5218213240252894,0.006916021462529898,0.0007789746159687638,0.6743302345275879,0.0,-0.0,0.0,0.0,0.0,0.0
1782666338,58614025,-1.656414810811178,0.12963628768920898,-1.5218213240252894,0.006892052944749594,0.0007789746159687638,0.6743662357330322,0.0,-0.0,0.0,0.0,0.0,0.0
1782666338,66641963,-1.6564624945269983,0.12964820861816406,-1.5218456427203577,0.006844115909188986,0.0007909588748589158,0.6743422150611877,0.0,-0.0,0.0,0.0,0.0,0.0
1782666338,74594383,-1.6563904921161097,0.12961292266845703,-1.5218456427203577,0.006880068685859442,0.0008033175836317241,0.6743542551994324,0.0,-0.0,0.0,0.0,0.0,0.0
1782666338,82760416,-1.6563904921161097,0.12969636917114258,-1.5218575636493128,0.00686808442696929,0.0007789746159687638,0.6743542551994324,0.0,-0.0,0.0,0.0,0.0,0.0
1782666338,90771003,-1.6563661734210413,0.12972021102905273,-1.5218213240252894,0.006844115909188986,0.0008033175836317241,0.6743302345275879,0.0,-0.0,0.0,0.0,0.0,0.0
1782666338,98584829,-1.6564505735980433,0.12967252731323242,-1.5218337217914026,0.006844115909188986,0.0007789746159687638,0.6743422150611877,0.0,-0.0,0.0,0.0,0.0,0.0
1782666338,106664083,-1.6564987341510218,0.12963628768920898,-1.5219176451312464,0.006880068685859442,0.0007909588748589158,0.6743782162666321,0.0,-0.0,0.0,0.0,0.0,0.0
1782666338,114690614,-1.656426731740133,0.12961292266845703,-1.5218575636493128,0.006820147857069969,0.0008272860432043672,0.6743542551994324,0.0,-0.0,0.0,0.0,0.0,0.0
1782666338,122686220,-1.656426731740133,0.1296243667602539,-1.521893326436178,0.006856100168079138,0.0008392703020945191,0.6743542551994324,0.0,-0.0,0.0,0.0,0.0,0.0
1782666338,131157143,-1.6564505735980433,0.1296243667602539,-1.5218456427203577,0.006880068685859442,0.0007789746159687638,0.674318253993988,0.0,-0.0,0.0,0.0,0.0,0.0
1782666338,186726470,-1.656426731740133,0.12967252731323242,-1.521893326436178,0.00686808442696929,0.0008272860432043672,0.6743662357330322,0.0,-0.0,0.0,0.0,0.0,0.0
1782666338,194736446,-1.656414810811178,0.12969636917114258,-1.5218575636493128,0.006832132115960121,0.0007909588748589158,0.6742823123931885,0.0,-0.0,0.0,0.0,0.0,0.0
1782666338,202588106,-1.656426731740133,0.12964820861816406,-1.5218694845782679,0.006844115909188986,0.0008153018425218761,0.674318253993988,0.0,-0.0,0.0,0.0,0.0,0.0
1782666338,210605471,-1.656414810811178,0.12964820861816406,-1.5218694845782679,0.006892052944749594,0.0008392703020945191,0.6743422150611877,0.0,-0.0,0.0,0.0,0.0,0.0
1782666338,218593909,-1.6564744154559534,0.12966012954711914,-1.521881405507223,0.006844115909188986,0.0008153018425218761,0.6743662357330322,0.0,-0.0,0.0,0.0,0.0,0.0
1782666338,226648904,-1.6563904921161097,0.12967252731323242,-1.5218094030963343,0.006844115909188986,0.0007909588748589158,0.674318253993988,0.0,-0.0,0.0,0.0,0.0,0.0
1782666338,239155408,-1.656414810811178,0.12970829010009766,-1.5218456427203577,0.006880068685859442,0.0008272860432043672,0.674318253993988,0.0,-0.0,0.0,0.0,0.0,0.0
1782666338,242795079,-1.656414810811178,0.12964820861816406,-1.5219295660602015,0.006856100168079138,0.0007669904152862728,0.6743662357330322,0.0,-0.0,0.0,0.0,0.0,0.0
1782666338,250551849,-1.6564505735980433,0.12972021102905273,-1.5218694845782679,0.006892052944749594,0.0007909588748589158,0.6743302345275879,0.0,-0.0,0.0,0.0,0.0,0.0
1782666338,258589214,-1.6564386526690882,0.12970829010009766,-1.5218694845782679,0.00686808442696929,0.0008272860432043672,0.674318253993988,0.0,-0.0,0.0,0.0,0.0,0.0
1782666338,266591597,-1.6564386526690882,0.12966012954711914,-1.521881405507223,0.006832132115960121,0.0008392703020945191,0.6743542551994324,0.0,-0.0,0.0,0.0,0.0,0.0
1782666338,274631499,-1.6564386526690882,0.12964820861816406,-1.521881405507223,0.00686808442696929,0.0007909588748589158,0.6743542551994324,0.0,-0.0,0.0,0.0,0.0,0.0
1782666338,282599956,-1.656426731740133,0.12963628768920898,-1.5218337217914026,0.006880068685859442,0.0007909588748589158,0.6743062734603882,0.0,-0.0,0.0,0.0,0.0,0.0
1782666338,295632019,-1.6564744154559534,0.1296844482421875,-1.5218337217914026,0.006856100168079138,0.0008392703020945191,0.6743542551994324,0.0,-0.0,0.0,0.0,0.0,0.0
1782666338,298656334,-1.6564744154559534,0.1296844482421875,-1.5218337217914026,0.006856100168079138,0.0008392703020945191,0.6743542551994324,0.0,-0.0,0.0,0.0,0.0,0.0
1782666338,306600124,-1.6564386526690882,0.12963628768920898,-1.521881405507223,0.006844115909188986,0.0008153018425218761,0.6743302345275879,0.0,-0.0,0.0,0.0,0.0,0.0
1782666338,314649693,-1.6564024130450647,0.12969636917114258,-1.521893326436178,0.006892052944749594,0.0007669904152862728,0.6742942929267883,0.0,-0.0,0.0,0.0,0.0,0.0
1782666338,322596835,-1.6564505735980433,0.1296844482421875,-1.5218337217914026,0.00686808442696929,0.0008033175836317241,0.6743422150611877,0.0,-0.0,0.0,0.0,0.0,0.0
1782666338,330595459,-1.656414810811178,0.12964820861816406,-1.5218337217914026,0.006856100168079138,0.0007669904152862728,0.6743901968002319,0.0,-0.0,0.0,0.0,0.0,0.0
1782666338,338599342,-1.6564386526690882,0.12967252731323242,-1.5218456427203577,0.006880068685859442,0.0007789746159687638,0.6743422150611877,0.0,-0.0,0.0,0.0,0.0,0.0
1782666338,352078055,-1.656426731740133,0.12970829010009766,-1.521905247365133,0.006880068685859442,0.0008033175836317241,0.6743302345275879,0.0,-0.0,0.0,0.0,0.0,0.0
1782666338,357385866,-1.6563780943499964,0.12966012954711914,-1.5218575636493128,0.006951974239200354,0.0007909588748589158,0.6743422150611877,0.0,-0.0,0.0,0.0,0.0,0.0
1782666338,362599695,-1.656414810811178,0.12963628768920898,-1.5218337217914026,0.006844115909188986,0.0007909588748589158,0.6743782162666321,0.0,-0.0,0.0,0.0,0.0,0.0
1782666338,370596059,-1.656426731740133,0.12966012954711914,-1.521881405507223,0.006856100168079138,0.0008392703020945191,0.6743422150611877,0.0,-0.0,0.0,0.0,0.0,0.0
1782666338,378600868,-1.6564386526690882,0.12967252731323242,-1.5218575636493128,0.006844115909188986,0.0008153018425218761,0.6743542551994324,0.0,-0.0,0.0,0.0,0.0,0.0
1782666338,386609215,-1.656426731740133,0.1296844482421875,-1.521893326436178,0.00686808442696929,0.0008033175836317241,0.6743422150611877,0.0,-0.0,0.0,0.0,0.0,0.0
1782666338,394592135,-1.656426731740133,0.12967252731323242,-1.521881405507223,0.006880068685859442,0.0008392703020945191,0.674318253993988,0.0,-0.0,0.0,0.0,0.0,0.0
1782666338,407980274,-1.6563780943499964,0.1296243667602539,-1.5218694845782679,0.006880068685859442,0.0008272860432043672,0.6743542551994324,0.0,-0.0,0.0,0.0,0.0,0.0
1782666338,410635531,-1.6563780943499964,0.1296243667602539,-1.5218694845782679,0.006880068685859442,0.0008272860432043672,0.6743542551994324,0.0,-0.0,0.0,0.0,0.0,0.0
1782666338,419186677,-1.6563904921161097,0.12967252731323242,-1.521893326436178,0.006892052944749594,0.0008392703020945191,0.6743422150611877,0.0,-0.0,0.0,0.0,0.0,0.0
1782666338,427547136,-1.6564386526690882,0.1296844482421875,-1.5218694845782679,0.006856100168079138,0.0007789746159687638,0.6743782162666321,0.0,-0.0,0.0,0.0,0.0,0.0
1782666338,436212023,-1.6564386526690882,0.1296844482421875,-1.5218694845782679,0.006856100168079138,0.0007789746159687638,0.6743782162666321,0.0,-0.0,0.0,0.0,0.0,0.0
1782666338,443110955,-1.6564624945269983,0.12969636917114258,-1.5218213240252894,0.006856100168079138,0.0008272860432043672,0.6743422150611877,0.0,-0.0,0.0,0.0,0.0,0.0
1782666338,450596743,-1.6564386526690882,0.12967252731323242,-1.521893326436178,0.00686808442696929,0.0007909588748589158,0.674318253993988,0.0,-0.0,0.0,0.0,0.0,0.0
1782666338,463362544,-1.656426731740133,0.12964820861816406,-1.5218575636493128,0.006892052944749594,0.0008033175836317241,0.6743302345275879,0.0,-0.0,0.0,0.0,0.0,0.0
1782666338,474613466,-1.6564386526690882,0.12964820861816406,-1.5218575636493128,0.00686808442696929,0.0007789746159687638,0.6743302345275879,0.0,-0.0,0.0,0.0,0.0,0.0
1782666338,483004722,-1.6564386526690882,0.12970829010009766,-1.5218456427203577,0.00692800572142005,0.0008153018425218761,0.6743062734603882,0.0,-0.0,0.0,0.0,0.0,0.0
1782666338,491122254,-1.6563904921161097,0.12964820861816406,-1.521881405507223,0.006856100168079138,0.0007789746159687638,0.674318253993988,0.0,-0.0,0.0,0.0,0.0,0.0
1782666338,510925785,-1.6563780943499964,0.1296243667602539,-1.5218694845782679,0.006856100168079138,0.0008033175836317241,0.674318253993988,0.0,-0.0,0.0,0.0,0.0,0.0
1782666338,530858631,-1.6564624945269983,0.1296243667602539,-1.5218694845782679,0.006856100168079138,0.0007669904152862728,0.6743422150611877,0.0,-0.0,0.0,0.0,0.0,0.0
1782666338,538646698,-1.6564505735980433,0.12963628768920898,-1.5218337217914026,0.00686808442696929,0.0008153018425218761,0.674318253993988,0.0,-0.0,0.0,0.0,0.0,0.0
1782666338,550219307,-1.6564744154559534,0.12967252731323242,-1.5218694845782679,0.006880068685859442,0.0008033175836317241,0.6743542551994324,0.0,-0.0,0.0,0.0,0.0,0.0
1782666338,554600094,-1.6564024130450647,0.12966012954711914,-1.5218694845782679,0.00686808442696929,0.0007789746159687638,0.6743302345275879,0.0,-0.0,0.0,0.0,0.0,0.0
1782666338,562603940,-1.6564624945269983,0.12969636917114258,-1.521881405507223,0.006892052944749594,0.0008153018425218761,0.6743782162666321,0.0,-0.0,0.0,0.0,0.0,0.0
1782666338,577161031,-1.6564386526690882,0.12967252731323242,-1.5218213240252894,0.006904037203639746,0.0008033175836317241,0.6743062734603882,0.0,-0.0,0.0,0.0,0.0,0.0
1782666338,578805448,-1.6564386526690882,0.12967252731323242,-1.5218213240252894,0.006904037203639746,0.0008033175836317241,0.6743062734603882,0.0,-0.0,0.0,0.0,0.0,0.0
1782666338,587021814,-1.6563661734210413,0.12970829010009766,-1.5218575636493128,0.006856100168079138,0.0007909588748589158,0.6743302345275879,0.0,-0.0,0.0,0.0,0.0,0.0
1782666338,594603454,-1.656426731740133,0.12967252731323242,-1.5218694845782679,0.006856100168079138,0.0007909588748589158,0.6743662357330322,0.0,-0.0,0.0,0.0,0.0,0.0
1782666338,602610059,-1.656414810811178,0.12958860397338867,-1.521881405507223,0.006844115909188986,0.0008512545027770102,0.674318253993988,0.0,-0.0,0.0,0.0,0.0,0.0
1782666338,610600998,-1.656426731740133,0.12966012954711914,-1.521881405507223,0.006916021462529898,0.0007909588748589158,0.6743422150611877,0.0,-0.0,0.0,0.0,0.0,0.0
1782666338,618755604,-1.6564505735980433,0.1296844482421875,-1.5218694845782679,0.006856100168079138,0.0007909588748589158,0.6743542551994324,0.0,-0.0,0.0,0.0,0.0,0.0
1782666338,626634283,-1.6564024130450647,0.12969636917114258,-1.5218575636493128,0.006832132115960121,0.0008153018425218761,0.6743662357330322,0.0,-0.0,0.0,0.0,0.0,0.0
1782666338,634595814,-1.656426731740133,0.12970829010009766,-1.5218094030963343,0.00686808442696929,0.0008272860432043672,0.6743302345275879,0.0,-0.0,0.0,0.0,0.0,0.0
1782666338,642614234,-1.6564024130450647,0.12972021102905273,-1.521881405507223,0.00686808442696929,0.0008272860432043672,0.6743422150611877,0.0,-0.0,0.0,0.0,0.0,0.0
1782666338,650604136,-1.6564624945269983,0.12961292266845703,-1.5218694845782679,0.006832132115960121,0.0007909588748589158,0.6742942929267883,0.0,-0.0,0.0,0.0,0.0,0.0
1782666338,658672297,-1.6564386526690882,0.1296844482421875,-1.5218575636493128,0.006808163598179817,0.0007909588748589158,0.6743422150611877,0.0,-0.0,0.0,0.0,0.0,0.0
1782666338,666612661,-1.6564024130450647,0.12964820861816406,-1.521893326436178,0.006880068685859442,0.0008153018425218761,0.6744021773338318,0.0,-0.0,0.0,0.0,0.0,0.0
1782666338,674608304,-1.656414810811178,0.1296243667602539,-1.5218694845782679,0.006880068685859442,0.0008392703020945191,0.6743422150611877,0.0,-0.0,0.0,0.0,0.0,0.0
1782666338,682611205,-1.656426731740133,0.12967252731323242,-1.521881405507223,0.006820147857069969,0.0008392703020945191,0.674318253993988,0.0,-0.0,0.0,0.0,0.0,0.0
1782666338,690638589,-1.6564744154559534,0.12966012954711914,-1.5218575636493128,0.006844115909188986,0.0008033175836317241,0.6743542551994324,0.0,-0.0,0.0,0.0,0.0,0.0
1782666338,698590749,-1.6564624945269983,0.12964820861816406,-1.5218337217914026,0.006916021462529898,0.0007789746159687638,0.674318253993988,0.0,-0.0,0.0,0.0,0.0,0.0
1782666338,706589744,-1.656426731740133,0.12966012954711914,-1.5218575636493128,0.006892052944749594,0.0008392703020945191,0.6743662357330322,0.0,-0.0,0.0,0.0,0.0,0.0
1782666338,714586127,-1.6564624945269983,0.1296844482421875,-1.5218575636493128,0.00686808442696929,0.0008033175836317241,0.6743422150611877,0.0,-0.0,0.0,0.0,0.0,0.0
1782666338,722584547,-1.656426731740133,0.1296844482421875,-1.5218456427203577,0.006892052944749594,0.0008033175836317241,0.6743422150611877,0.0,-0.0,0.0,0.0,0.0,0.0
1782666338,730609541,-1.6564386526690882,0.12969636917114258,-1.521881405507223,0.006904037203639746,0.0008033175836317241,0.6743302345275879,0.0,-0.0,0.0,0.0,0.0,0.0
1782666338,738624406,-1.656414810811178,0.12966012954711914,-1.5218694845782679,0.00686808442696929,0.0007789746159687638,0.6743542551994324,0.0,-0.0,0.0,0.0,0.0,0.0
1782666338,746613585,-1.6564386526690882,0.12961292266845703,-1.521893326436178,0.00686808442696929,0.0008153018425218761,0.6743422150611877,0.0,-0.0,0.0,0.0,0.0,0.0
1782666338,754637302,-1.6564024130450647,0.12963628768920898,-1.5218694845782679,0.006880068685859442,0.0008153018425218761,0.6743422150611877,0.0,-0.0,0.0,0.0,0.0,0.0
1782666338,762621704,-1.6564386526690882,0.12966012954711914,-1.521893326436178,0.006892052944749594,0.0007909588748589158,0.6743542551994324,0.0,-0.0,0.0,0.0,0.0,0.0
1782666338,770609253,-1.6564386526690882,0.1296844482421875,-1.5218337217914026,0.006832132115960121,0.0008272860432043672,0.6743302345275879,0.0,-0.0,0.0,0.0,0.0,0.0
1782666338,778618322,-1.656426731740133,0.1296844482421875,-1.5218694845782679,0.00692800572142005,0.0007789746159687638,0.6743302345275879,0.0,-0.0,0.0,0.0,0.0,0.0
1782666338,786679835,-1.6564624945269983,0.12967252731323242,-1.521905247365133,0.006844115909188986,0.0008272860432043672,0.6743662357330322,0.0,-0.0,0.0,0.0,0.0,0.0
1782666338,794610403,-1.6564386526690882,0.1296844482421875,-1.5218456427203577,0.00686808442696929,0.0008632387034595013,0.6742823123931885,0.0,-0.0,0.0,0.0,0.0,0.0
1782666338,802607378,-1.6564505735980433,0.12963628768920898,-1.521881405507223,0.006880068685859442,0.0007789746159687638,0.6743782162666321,0.0,-0.0,0.0,0.0,0.0,0.0
1782666338,810648447,-1.656414810811178,0.12967252731323242,-1.521893326436178,0.006880068685859442,0.0008392703020945191,0.6743542551994324,0.0,-0.0,0.0,0.0,0.0,0.0
1782666338,818594922,-1.6564863363849085,0.12961292266845703,-1.5218575636493128,0.006856100168079138,0.0008153018425218761,0.6743422150611877,0.0,-0.0,0.0,0.0,0.0,0.0
1782666338,827769831,-1.6564386526690882,0.12963628768920898,-1.521881405507223,0.006880068685859442,0.0008033175836317241,0.6742942929267883,0.0,-0.0,0.0,0.0,0.0,0.0
1782666338,834591133,-1.656414810811178,0.12969636917114258,-1.521881405507223,0.00686808442696929,0.0007909588748589158,0.6743782162666321,0.0,-0.0,0.0,0.0,0.0,0.0
1782666338,842633924,-1.656414810811178,0.12966012954711914,-1.521893326436178,0.006844115909188986,0.0008153018425218761,0.6742823123931885,0.0,-0.0,0.0,0.0,0.0,0.0
1782666338,850638826,-1.6564386526690882,0.12967252731323242,-1.521893326436178,0.00686808442696929,0.0007669904152862728,0.6743302345275879,0.0,-0.0,0.0,0.0,0.0,0.0
1782666338,858601727,-1.6564386526690882,0.1296844482421875,-1.5218694845782679,0.006856100168079138,0.0008272860432043672,0.6743542551994324,0.0,-0.0,0.0,0.0,0.0,0.0
1782666338,866611036,-1.656426731740133,0.12966012954711914,-1.5218694845782679,0.006844115909188986,0.0008153018425218761,0.6743542551994324,0.0,-0.0,0.0,0.0,0.0,0.0
1782666338,874604530,-1.656414810811178,0.12963628768920898,-1.521881405507223,0.00686808442696929,0.0008153018425218761,0.674318253993988,0.0,-0.0,0.0,0.0,0.0,0.0
1782666338,882633469,-1.656426731740133,0.12969636917114258,-1.521881405507223,0.006880068685859442,0.0007789746159687638,0.6743782162666321,0.0,-0.0,0.0,0.0,0.0,0.0
1782666338,890599963,-1.6564024130450647,0.12964820861816406,-1.5218575636493128,0.006892052944749594,0.0008272860432043672,0.6743302345275879,0.0,-0.0,0.0,0.0,0.0,0.0
1782666338,898612198,-1.6564624945269983,0.12969636917114258,-1.521893326436178,0.006892052944749594,0.0007909588748589158,0.6743302345275879,0.0,-0.0,0.0,0.0,0.0,0.0
1782666338,906616341,-1.6564624945269983,0.1296844482421875,-1.5218337217914026,0.006880068685859442,0.0008033175836317241,0.6742942929267883,0.0,-0.0,0.0,0.0,0.0,0.0
1782666338,914645150,-1.6564024130450647,0.12969636917114258,-1.5218575636493128,0.006880068685859442,0.0008033175836317241,0.6743662357330322,0.0,-0.0,0.0,0.0,0.0,0.0
1782666338,922612440,-1.6564024130450647,0.12967252731323242,-1.5218456427203577,0.00686808442696929,0.0008153018425218761,0.6743782162666321,0.0,-0.0,0.0,0.0,0.0,0.0
1782666338,930608120,-1.656426731740133,0.12964820861816406,-1.521905247365133,0.006880068685859442,0.0007789746159687638,0.6743782162666321,0.0,-0.0,0.0,0.0,0.0,0.0
1782666338,938602984,-1.656414810811178,0.1296243667602539,-1.5218575636493128,0.006856100168079138,0.0007909588748589158,0.674318253993988,0.0,-0.0,0.0,0.0,0.0,0.0
1782666338,946591756,-1.656414810811178,0.12963628768920898,-1.5218575636493128,0.006880068685859442,0.0008392703020945191,0.6743422150611877,0.0,-0.0,0.0,0.0,0.0,0.0
1782666338,954605436,-1.6564744154559534,0.1296844482421875,-1.5218694845782679,0.00686808442696929,0.0008153018425218761,0.6742823123931885,0.0,-0.0,0.0,0.0,0.0,0.0
1782666338,962623949,-1.6563780943499964,0.12966012954711914,-1.521905247365133,0.006844115909188986,0.0008272860432043672,0.6743302345275879,0.0,-0.0,0.0,0.0,0.0,0.0
1782666338,970618239,-1.656426731740133,0.12964820861816406,-1.521881405507223,0.006856100168079138,0.0008272860432043672,0.6742942929267883,0.0,-0.0,0.0,0.0,0.0,0.0
1782666338,978614511,-1.6564744154559534,0.12966012954711914,-1.5218337217914026,0.006784195080399513,0.0008392703020945191,0.6743542551994324,0.0,-0.0,0.0,0.0,0.0,0.0
1782666338,986613172,-1.6563780943499964,0.1296243667602539,-1.521881405507223,0.006904037203639746,0.0007669904152862728,0.6743782162666321,0.0,-0.0,0.0,0.0,0.0,0.0
1782666338,994613907,-1.6564386526690882,0.1296243667602539,-1.521881405507223,0.006892052944749594,0.0007909588748589158,0.6742942929267883,0.0,-0.0,0.0,0.0,0.0,0.0
1782666339,2610235,-1.656426731740133,0.12966012954711914,-1.521881405507223,0.006880068685859442,0.0007789746159687638,0.6744021773338318,0.0,-0.0,0.0,0.0,0.0,0.0
1782666339,10725767,-1.656414810811178,0.12970829010009766,-1.521881405507223,0.006892052944749594,0.0008033175836317241,0.6743302345275879,0.0,-0.0,0.0,0.0,0.0,0.0
1782666339,18607057,-1.656426731740133,0.12964820861816406,-1.521881405507223,0.00686808442696929,0.0007789746159687638,0.6743302345275879,0.0,-0.0,0.0,0.0,0.0,0.0
1782666339,26601717,-1.6564744154559534,0.12966012954711914,-1.521881405507223,0.006844115909188986,0.0008033175836317241,0.6743062734603882,0.0,-0.0,0.0,0.0,0.0,0.0
1782666339,34607878,-1.6564744154559534,0.12967252731323242,-1.521905247365133,0.00686808442696929,0.0007669904152862728,0.6743901968002319,0.0,-0.0,0.0,0.0,0.0,0.0
1782666339,42609465,-1.6564505735980433,0.12967252731323242,-1.5218694845782679,0.00686808442696929,0.0008392703020945191,0.6743782162666321,0.0,-0.0,0.0,0.0,0.0,0.0
1782666339,50606645,-1.6564386526690882,0.12967252731323242,-1.521893326436178,0.006880068685859442,0.0007909588748589158,0.6743302345275879,0.0,-0.0,0.0,0.0,0.0,0.0
1782666339,58613769,-1.6564386526690882,0.12963628768920898,-1.521905247365133,0.006916021462529898,0.0008153018425218761,0.6743901968002319,0.0,-0.0,0.0,0.0,0.0,0.0
1782666339,66589467,-1.656414810811178,0.12967252731323242,-1.5218575636493128,0.006916021462529898,0.0008392703020945191,0.6742942929267883,0.0,-0.0,0.0,0.0,0.0,0.0
1782666339,74641276,-1.656426731740133,0.12964820861816406,-1.5218575636493128,0.006892052944749594,0.0008512545027770102,0.6743422150611877,0.0,-0.0,0.0,0.0,0.0,0.0
1782666339,82612381,-1.6564386526690882,0.1296844482421875,-1.521881405507223,0.006856100168079138,0.0007669904152862728,0.6743422150611877,0.0,-0.0,0.0,0.0,0.0,0.0
1782666339,90611579,-1.6563904921161097,0.12967252731323242,-1.521881405507223,0.006880068685859442,0.0008153018425218761,0.674318253993988,0.0,-0.0,0.0,0.0,0.0,0.0
1782666339,98607685,-1.656414810811178,0.12966012954711914,-1.5218694845782679,0.00692800572142005,0.0008033175836317241,0.6743422150611877,0.0,-0.0,0.0,0.0,0.0,0.0
1782666339,106627160,-1.6564505735980433,0.12967252731323242,-1.5218694845782679,0.006832132115960121,0.0008153018425218761,0.6743302345275879,0.0,-0.0,0.0,0.0,0.0,0.0
1782666339,114604784,-1.6564863363849085,0.12967252731323242,-1.521881405507223,0.006856100168079138,0.0008033175836317241,0.6742823123931885,0.0,-0.0,0.0,0.0,0.0,0.0
1782666339,122588519,-1.656414810811178,0.12964820861816406,-1.5219176451312464,0.00686808442696929,0.0008033175836317241,0.6743542551994324,0.0,-0.0,0.0,0.0,0.0,0.0
1782666339,130613662,-1.656414810811178,0.12964820861816406,-1.5218337217914026,0.006844115909188986,0.0008033175836317241,0.6743302345275879,0.0,-0.0,0.0,0.0,0.0,0.0
1782666339,138625749,-1.6564386526690882,0.12963628768920898,-1.5218456427203577,0.006904037203639746,0.0007909588748589158,0.6743422150611877,0.0,-0.0,0.0,0.0,0.0,0.0
1782666339,146585854,-1.6564386526690882,0.12969636917114258,-1.521905247365133,0.006880068685859442,0.0008153018425218761,0.6743782162666321,0.0,-0.0,0.0,0.0,0.0,0.0
1782666339,154602237,-1.6564505735980433,0.12967252731323242,-1.521893326436178,0.006808163598179817,0.0008153018425218761,0.6743662357330322,0.0,-0.0,0.0,0.0,0.0,0.0
1782666339,162688899,-1.656426731740133,0.12967252731323242,-1.5218456427203577,0.00686808442696929,0.0008392703020945191,0.6743662357330322,0.0,-0.0,0.0,0.0,0.0,0.0
1782666339,170610263,-1.6564505735980433,0.12966012954711914,-1.5218694845782679,0.006892052944749594,0.0007550062146037817,0.6743542551994324,0.0,-0.0,0.0,0.0,0.0,0.0
1782666339,178618535,-1.656426731740133,0.12967252731323242,-1.521893326436178,0.006856100168079138,0.0008033175836317241,0.6743302345275879,0.0,-0.0,0.0,0.0,0.0,0.0
1782666339,186591103,-1.6564624945269983,0.1296844482421875,-1.5218575636493128,0.006892052944749594,0.0008272860432043672,0.6743782162666321,0.0,-0.0,0.0,0.0,0.0,0.0
1782666339,194608746,-1.656426731740133,0.12966012954711914,-1.5218694845782679,0.006844115909188986,0.0008033175836317241,0.674318253993988,0.0,-0.0,0.0,0.0,0.0,0.0
1782666339,205928001,-1.656414810811178,0.12967252731323242,-1.5218694845782679,0.006916021462529898,0.0007789746159687638,0.6743662357330322,0.0,-0.0,0.0,0.0,0.0,0.0
1782666339,210602697,-1.6564386526690882,0.12963628768920898,-1.5218337217914026,0.006892052944749594,0.0008033175836317241,0.6743782162666321,0.0,-0.0,0.0,0.0,0.0,0.0
1782666339,219452049,-1.6563542524920862,0.12967252731323242,-1.5219176451312464,0.006916021462529898,0.0007789746159687638,0.6743542551994324,0.0,-0.0,0.0,0.0,0.0,0.0
1782666339,226593593,-1.6564505735980433,0.12961292266845703,-1.521881405507223,0.00686808442696929,0.0008153018425218761,0.6743422150611877,0.0,-0.0,0.0,0.0,0.0,0.0
1782666339,234615884,-1.656426731740133,0.12969636917114258,-1.521893326436178,0.00686808442696929,0.0008272860432043672,0.6743302345275879,0.0,-0.0,0.0,0.0,0.0,0.0
1782666339,242594508,-1.656414810811178,0.12967252731323242,-1.5218694845782679,0.00686808442696929,0.0008392703020945191,0.674318253993988,0.0,-0.0,0.0,0.0,0.0,0.0
1782666339,250600076,-1.6564024130450647,0.12963628768920898,-1.521905247365133,0.00692800572142005,0.0007909588748589158,0.6743422150611877,0.0,-0.0,0.0,0.0,0.0,0.0
1782666339,258606255,-1.6563780943499964,0.12967252731323242,-1.521881405507223,0.006832132115960121,0.0008512545027770102,0.6743542551994324,0.0,-0.0,0.0,0.0,0.0,0.0
1782666339,266588231,-1.6564386526690882,0.12966012954711914,-1.5218694845782679,0.006880068685859442,0.0008272860432043672,0.6743302345275879,0.0,-0.0,0.0,0.0,0.0,0.0
1782666339,274588818,-1.6564624945269983,0.12967252731323242,-1.5218694845782679,0.00686808442696929,0.0008512545027770102,0.6743302345275879,0.0,-0.0,0.0,0.0,0.0,0.0
1782666339,282588942,-1.6564505735980433,0.1296844482421875,-1.521893326436178,0.006856100168079138,0.0008033175836317241,0.6743542551994324,0.0,-0.0,0.0,0.0,0.0,0.0
1782666339,290597992,-1.6564505735980433,0.12963628768920898,-1.5218337217914026,0.006856100168079138,0.0007789746159687638,0.6743662357330322,0.0,-0.0,0.0,0.0,0.0,0.0
1782666339,298584153,-1.6564624945269983,0.1296844482421875,-1.5218694845782679,0.006892052944749594,0.0007909588748589158,0.6743542551994324,0.0,-0.0,0.0,0.0,0.0,0.0
1782666339,306584610,-1.6564505735980433,0.12966012954711914,-1.5218213240252894,0.006832132115960121,0.0007909588748589158,0.6743422150611877,0.0,-0.0,0.0,0.0,0.0,0.0
1782666339,314615827,-1.656426731740133,0.12966012954711914,-1.5218456427203577,0.00686808442696929,0.0008033175836317241,0.6743782162666321,0.0,-0.0,0.0,0.0,0.0,0.0
1782666339,322614802,-1.6564386526690882,0.12967252731323242,-1.5218337217914026,0.00686808442696929,0.0008153018425218761,0.6743422150611877,0.0,-0.0,0.0,0.0,0.0,0.0
1782666339,330669538,-1.656414810811178,0.12963628768920898,-1.521881405507223,0.006880068685859442,0.0007789746159687638,0.6743422150611877,0.0,-0.0,0.0,0.0,0.0,0.0
1782666339,338592846,-1.6564386526690882,0.1296844482421875,-1.521881405507223,0.006820147857069969,0.0007789746159687638,0.6743422150611877,0.0,-0.0,0.0,0.0,0.0,0.0
1782666339,346599507,-1.656414810811178,0.1296844482421875,-1.5218694845782679,0.006892052944749594,0.0007909588748589158,0.6743302345275879,0.0,-0.0,0.0,0.0,0.0,0.0
1782666339,354595946,-1.656414810811178,0.12964820861816406,-1.5218337217914026,0.006856100168079138,0.0007789746159687638,0.6743062734603882,0.0,-0.0,0.0,0.0,0.0,0.0
1782666339,362609237,-1.656414810811178,0.12963628768920898,-1.5218337217914026,0.00686808442696929,0.0007909588748589158,0.6743542551994324,0.0,-0.0,0.0,0.0,0.0,0.0
1782666339,370623268,-1.6563661734210413,0.12963628768920898,-1.5218575636493128,0.006856100168079138,0.0008392703020945191,0.6743662357330322,0.0,-0.0,0.0,0.0,0.0,0.0
1782666339,378595688,-1.6564024130450647,0.12966012954711914,-1.5218337217914026,0.006880068685859442,0.0008272860432043672,0.6743422150611877,0.0,-0.0,0.0,0.0,0.0,0.0
1782666339,386605053,-1.6564505735980433,0.12966012954711914,-1.5218575636493128,0.006856100168079138,0.0007909588748589158,0.6743422150611877,0.0,-0.0,0.0,0.0,0.0,0.0
1782666339,394612547,-1.656426731740133,0.12967252731323242,-1.521881405507223,0.006892052944749594,0.0008033175836317241,0.6743302345275879,0.0,-0.0,0.0,0.0,0.0,0.0
1782666339,402606208,-1.6564386526690882,0.12967252731323242,-1.521881405507223,0.006880068685859442,0.0007909588748589158,0.6743302345275879,0.0,-0.0,0.0,0.0,0.0,0.0
1782666339,410612851,-1.656414810811178,0.1296243667602539,-1.5218456427203577,0.006892052944749594,0.0007909588748589158,0.6743782162666321,0.0,-0.0,0.0,0.0,0.0,0.0
1782666339,418603975,-1.6564024130450647,0.1296844482421875,-1.5218575636493128,0.00686808442696929,0.0007669904152862728,0.6743542551994324,0.0,-0.0,0.0,0.0,0.0,0.0
1782666339,426639636,-1.6564624945269983,0.12967252731323242,-1.521881405507223,0.006892052944749594,0.0007789746159687638,0.6743422150611877,0.0,-0.0,0.0,0.0,0.0,0.0
1782666339,434605815,-1.6564386526690882,0.12967252731323242,-1.521893326436178,0.006856100168079138,0.0007789746159687638,0.6743302345275879,0.0,-0.0,0.0,0.0,0.0,0.0
1782666339,442596957,-1.6564744154559534,0.12967252731323242,-1.521893326436178,0.006880068685859442,0.0007909588748589158,0.6743422150611877,0.0,-0.0,0.0,0.0,0.0,0.0
1782666339,450603155,-1.6564624945269983,0.12970829010009766,-1.5218694845782679,0.00692800572142005,0.0007789746159687638,0.6743422150611877,0.0,-0.0,0.0,0.0,0.0,0.0
1782666339,458647724,-1.6564024130450647,0.12967252731323242,-1.521893326436178,0.006892052944749594,0.0007789746159687638,0.6743662357330322,0.0,-0.0,0.0,0.0,0.0,0.0
1782666339,466618977,-1.6564505735980433,0.1296844482421875,-1.5218694845782679,0.006880068685859442,0.0008153018425218761,0.6743302345275879,0.0,-0.0,0.0,0.0,0.0,0.0
1782666339,474594953,-1.656414810811178,0.12972021102905273,-1.521881405507223,0.006904037203639746,0.0007669904152862728,0.6743662357330322,0.0,-0.0,0.0,0.0,0.0,0.0
1782666339,482606355,-1.6564024130450647,0.1296243667602539,-1.5218575636493128,0.006832132115960121,0.0007789746159687638,0.6742942929267883,0.0,-0.0,0.0,0.0,0.0,0.0
1782666339,490631590,-1.656414810811178,0.12963628768920898,-1.5218575636493128,0.00686808442696929,0.0007909588748589158,0.6743662357330322,0.0,-0.0,0.0,0.0,0.0,0.0
1782666339,498595862,-1.6564386526690882,0.12963628768920898,-1.5218213240252894,0.00686808442696929,0.0008272860432043672,0.674318253993988,0.0,-0.0,0.0,0.0,0.0,0.0
1782666339,506614319,-1.6564024130450647,0.1296243667602539,-1.521893326436178,0.006880068685859442,0.0007669904152862728,0.6743302345275879,0.0,-0.0,0.0,0.0,0.0,0.0
1782666339,514615980,-1.6564386526690882,0.1296243667602539,-1.5218213240252894,0.006844115909188986,0.0008272860432043672,0.6743302345275879,0.0,-0.0,0.0,0.0,0.0,0.0
1782666339,522638678,-1.6564386526690882,0.12970829010009766,-1.5218456427203577,0.006832132115960121,0.0008512545027770102,0.6743302345275879,0.0,-0.0,0.0,0.0,0.0,0.0
1782666339,530611006,-1.6564024130450647,0.12966012954711914,-1.5218337217914026,0.00686808442696929,0.0008033175836317241,0.6743302345275879,0.0,-0.0,0.0,0.0,0.0,0.0
1782666339,538611000,-1.6564624945269983,0.12964820861816406,-1.5218694845782679,0.006892052944749594,0.0008272860432043672,0.6742942929267883,0.0,-0.0,0.0,0.0,0.0,0.0
1782666339,546652809,-1.6564024130450647,0.12970829010009766,-1.5218694845782679,0.006892052944749594,0.0008033175836317241,0.6743542551994324,0.0,-0.0,0.0,0.0,0.0,0.0
1782666339,554611526,-1.6564744154559534,0.12963628768920898,-1.5218694845782679,0.006880068685859442,0.0008272860432043672,0.6743422150611877,0.0,-0.0,0.0,0.0,0.0,0.0
1782666339,562589668,-1.6564624945269983,0.12963628768920898,-1.5217974821673792,0.00692800572142005,0.0008153018425218761,0.6743302345275879,0.0,-0.0,0.0,0.0,0.0,0.0
1782666339,570592273,-1.656426731740133,0.12967252731323242,-1.5218694845782679,0.006904037203639746,0.0007789746159687638,0.6742942929267883,0.0,-0.0,0.0,0.0,0.0,0.0
1782666339,578628046,-1.6564744154559534,0.1296243667602539,-1.521881405507223,0.006880068685859442,0.0008392703020945191,0.6743422150611877,0.0,-0.0,0.0,0.0,0.0,0.0
1782666339,587657528,-1.6564863363849085,0.12967252731323242,-1.521881405507223,0.00686808442696929,0.0008272860432043672,0.6743542551994324,0.0,-0.0,0.0,0.0,0.0,0.0
1782666339,594966518,-1.656414810811178,0.1296243667602539,-1.521881405507223,0.006856100168079138,0.0008153018425218761,0.6743062734603882,0.0,-0.0,0.0,0.0,0.0,0.0
1782666339,602604658,-1.6564624945269983,0.1296844482421875,-1.5218694845782679,0.00686808442696929,0.0008153018425218761,0.674318253993988,0.0,-0.0,0.0,0.0,0.0,0.0
1782666339,610595893,-1.6564386526690882,0.12969636917114258,-1.5218456427203577,0.00686808442696929,0.0008153018425218761,0.6743422150611877,0.0,-0.0,0.0,0.0,0.0,0.0
1782666339,618732444,-1.6564624945269983,0.12966012954711914,-1.521893326436178,0.006880068685859442,0.0008033175836317241,0.6743542551994324,0.0,-0.0,0.0,0.0,0.0,0.0
1782666339,627153292,-1.6564386526690882,0.12967252731323242,-1.5218456427203577,0.00686808442696929,0.0008153018425218761,0.6743662357330322,0.0,-0.0,0.0,0.0,0.0,0.0
1782666339,656619680,-1.6564505735980433,0.12966012954711914,-1.5218694845782679,0.006856100168079138,0.0007789746159687638,0.674318253993988,0.0,-0.0,0.0,0.0,0.0,0.0
1782666339,696658707,-1.6564386526690882,0.12970829010009766,-1.521893326436178,0.00692800572142005,0.0007909588748589158,0.6743422150611877,0.0,-0.0,0.0,0.0,0.0,0.0
1782666339,763692865,-1.656426731740133,0.1296243667602539,-1.5218694845782679,0.006844115909188986,0.0008392703020945191,0.6743302345275879,0.0,-0.0,0.0,0.0,0.0,0.0
1782666339,777068800,-1.6563904921161097,0.12967252731323242,-1.521881405507223,0.006832132115960121,0.0008272860432043672,0.6743302345275879,0.0,-0.0,0.0,0.0,0.0,0.0
1782666339,782295852,-1.6563904921161097,0.12967252731323242,-1.521881405507223,0.006832132115960121,0.0008272860432043672,0.6743302345275879,0.0,-0.0,0.0,0.0,0.0,0.0
1782666339,791537131,-1.656426731740133,0.12964820861816406,-1.521881405507223,0.006880068685859442,0.0008033175836317241,0.674318253993988,0.0,-0.0,0.0,0.0,0.0,0.0
1782666339,797412075,-1.6564505735980433,0.12969636917114258,-1.5218337217914026,0.00686808442696929,0.0008392703020945191,0.674318253993988,0.0,-0.0,0.0,0.0,0.0,0.0
1782666339,813315452,-1.656426731740133,0.1296243667602539,-1.5218694845782679,0.006880068685859442,0.0008153018425218761,0.6743422150611877,0.0,-0.0,0.0,0.0,0.0,0.0
1782666339,818703708,-1.656426731740133,0.12967252731323242,-1.521881405507223,0.006892052944749594,0.0008392703020945191,0.6743062734603882,0.0,-0.0,0.0,0.0,0.0,0.0
1782666339,833146354,-1.6564024130450647,0.12966012954711914,-1.5218694845782679,0.00686808442696929,0.0007550062146037817,0.6743062734603882,0.0,-0.0,0.0,0.0,0.0,0.0
1782666339,839702654,-1.6563904921161097,0.12967252731323242,-1.521905247365133,0.006880068685859442,0.0007789746159687638,0.6743062734603882,0.0,-0.0,0.0,0.0,0.0,0.0
1782666339,844242200,-1.6563904921161097,0.12967252731323242,-1.521905247365133,0.006880068685859442,0.0007789746159687638,0.6743062734603882,0.0,-0.0,0.0,0.0,0.0,0.0
1782666339,850725722,-1.656414810811178,0.12967252731323242,-1.5218456427203577,0.006832132115960121,0.0008033175836317241,0.6743062734603882,0.0,-0.0,0.0,0.0,0.0,0.0
1782666339,859155016,-1.6563904921161097,0.1296844482421875,-1.5218694845782679,0.00686808442696929,0.0008033175836317241,0.6743062734603882,0.0,-0.0,0.0,0.0,0.0,0.0
1782666339,866601784,-1.6564505735980433,0.1296243667602539,-1.5218694845782679,0.006892052944749594,0.0007909588748589158,0.6743302345275879,0.0,-0.0,0.0,0.0,0.0,0.0
1782666339,874707668,-1.6563904921161097,0.12963628768920898,-1.5218456427203577,0.006808163598179817,0.0007909588748589158,0.6743782162666321,0.0,-0.0,0.0,0.0,0.0,0.0
1782666339,899991566,-1.6564024130450647,0.12969636917114258,-1.5218337217914026,0.006832132115960121,0.0008153018425218761,0.6743542551994324,0.0,-0.0,0.0,0.0,0.0,0.0
1782666339,907497298,-1.656426731740133,0.12964820861816406,-1.5218337217914026,0.00686808442696929,0.0008033175836317241,0.6743422150611877,0.0,-0.0,0.0,0.0,0.0,0.0
1782666339,916561670,-1.656414810811178,0.1296243667602539,-1.5218694845782679,0.006916021462529898,0.0007909588748589158,0.6743422150611877,0.0,-0.0,0.0,0.0,0.0,0.0
1782666339,923582936,-1.656414810811178,0.12969636917114258,-1.5218694845782679,0.006892052944749594,0.0008033175836317241,0.6743542551994324,0.0,-0.0,0.0,0.0,0.0,0.0
1782666339,930600090,-1.656426731740133,0.12967252731323242,-1.5218456427203577,0.006892052944749594,0.0007789746159687638,0.6743542551994324,0.0,-0.0,0.0,0.0,0.0,0.0
1782666339,938596696,-1.656426731740133,0.12967252731323242,-1.521905247365133,0.006832132115960121,0.0008272860432043672,0.6743901968002319,0.0,-0.0,0.0,0.0,0.0,0.0
1782666339,946985544,-1.6564505735980433,0.1296243667602539,-1.521881405507223,0.006892052944749594,0.0007789746159687638,0.674318253993988,0.0,-0.0,0.0,0.0,0.0,0.0
1782666339,954615703,-1.6564024130450647,0.12961292266845703,-1.5218575636493128,0.006832132115960121,0.0008033175836317241,0.6743662357330322,0.0,-0.0,0.0,0.0,0.0,0.0
1782666339,962677679,-1.6564505735980433,0.1296243667602539,-1.5218456427203577,0.00686808442696929,0.0007909588748589158,0.6743662357330322,0.0,-0.0,0.0,0.0,0.0,0.0
1782666339,970617895,-1.6564624945269983,0.12966012954711914,-1.5218094030963343,0.006880068685859442,0.0008033175836317241,0.6743662357330322,0.0,-0.0,0.0,0.0,0.0,0.0
1782666339,978630704,-1.6564024130450647,0.12964820861816406,-1.521881405507223,0.006880068685859442,0.0008153018425218761,0.6743662357330322,0.0,-0.0,0.0,0.0,0.0,0.0
1782666339,986694366,-1.6564624945269983,0.12970829010009766,-1.5218575636493128,0.006880068685859442,0.0008153018425218761,0.6743542551994324,0.0,-0.0,0.0,0.0,0.0,0.0
1782666339,994736045,-1.6564386526690882,0.12970829010009766,-1.5218456427203577,0.006892052944749594,0.0008153018425218761,0.6743062734603882,0.0,-0.0,0.0,0.0,0.0,0.0
1782666340,2847115,-1.656426731740133,0.12966012954711914,-1.5218575636493128,0.006904037203639746,0.0007789746159687638,0.6743062734603882,0.0,-0.0,0.0,0.0,0.0,0.0
1782666340,10740682,-1.6564024130450647,0.12963628768920898,-1.5218694845782679,0.006856100168079138,0.0008272860432043672,0.6743422150611877,0.0,-0.0,0.0,0.0,0.0,0.0
1782666340,19521107,-1.6564744154559534,0.1296844482421875,-1.5218337217914026,0.006832132115960121,0.0008033175836317241,0.674318253993988,0.0,-0.0,0.0,0.0,0.0,0.0
1782666340,26817708,-1.6564386526690882,0.12966012954711914,-1.5218575636493128,0.006892052944749594,0.0008153018425218761,0.6743302345275879,0.0,-0.0,0.0,0.0,0.0,0.0
1782666340,34617794,-1.6564386526690882,0.12967252731323242,-1.5218575636493128,0.006844115909188986,0.0007789746159687638,0.6743782162666321,0.0,-0.0,0.0,0.0,0.0,0.0
1782666340,42595362,-1.6563904921161097,0.1296844482421875,-1.5218456427203577,0.006892052944749594,0.0008153018425218761,0.6743422150611877,0.0,-0.0,0.0,0.0,0.0,0.0
1782666340,50698543,-1.656426731740133,0.12964820861816406,-1.5218213240252894,0.006820147857069969,0.0007909588748589158,0.6743062734603882,0.0,-0.0,0.0,0.0,0.0,0.0
1782666340,58652870,-1.656414810811178,0.12966012954711914,-1.5218456427203577,0.00686808442696929,0.0007909588748589158,0.6743662357330322,0.0,-0.0,0.0,0.0,0.0,0.0
1782666340,66651716,-1.6564624945269983,0.12963628768920898,-1.5218694845782679,0.006880068685859442,0.0007789746159687638,0.6743662357330322,0.0,-0.0,0.0,0.0,0.0,0.0
1782666340,74628692,-1.6564505735980433,0.12961292266845703,-1.5218337217914026,0.006844115909188986,0.0008033175836317241,0.6743062734603882,0.0,-0.0,0.0,0.0,0.0,0.0
1782666340,82632890,-1.656426731740133,0.12967252731323242,-1.5218694845782679,0.00686808442696929,0.0007669904152862728,0.6743302345275879,0.0,-0.0,0.0,0.0,0.0,0.0
1782666340,90616514,-1.6564386526690882,0.12966012954711914,-1.521905247365133,0.006892052944749594,0.0008392703020945191,0.6743542551994324,0.0,-0.0,0.0,0.0,0.0,0.0
1782666340,98618786,-1.6564386526690882,0.12969636917114258,-1.5218575636493128,0.006916021462529898,0.0008272860432043672,0.6743542551994324,0.0,-0.0,0.0,0.0,0.0,0.0
1782666340,106596761,-1.6563904921161097,0.12967252731323242,-1.5218575636493128,0.006856100168079138,0.0007909588748589158,0.674318253993988,0.0,-0.0,0.0,0.0,0.0,0.0
1782666340,114918536,-1.6564024130450647,0.12964820861816406,-1.5218694845782679,0.006916021462529898,0.0008512545027770102,0.674318253993988,0.0,-0.0,0.0,0.0,0.0,0.0
1782666340,122581380,-1.6564386526690882,0.1296243667602539,-1.521881405507223,0.006856100168079138,0.0008272860432043672,0.6743542551994324,0.0,-0.0,0.0,0.0,0.0,0.0
1782666340,130674430,-1.6564386526690882,0.1296844482421875,-1.5219176451312464,0.006892052944749594,0.0008153018425218761,0.6743901968002319,0.0,-0.0,0.0,0.0,0.0,0.0
1782666340,138588220,-1.656426731740133,0.12964820861816406,-1.5218337217914026,0.006856100168079138,0.0008153018425218761,0.6743302345275879,0.0,-0.0,0.0,0.0,0.0,0.0
1782666340,146608585,-1.656426731740133,0.12966012954711914,-1.5218694845782679,0.006808163598179817,0.0008153018425218761,0.6743302345275879,0.0,-0.0,0.0,0.0,0.0,0.0
1782666340,154674709,-1.6564386526690882,0.12966012954711914,-1.521893326436178,0.006844115909188986,0.0008272860432043672,0.674318253993988,0.0,-0.0,0.0,0.0,0.0,0.0
1782666340,162634611,-1.656426731740133,0.12967252731323242,-1.5218694845782679,0.00686808442696929,0.0008153018425218761,0.6743662357330322,0.0,-0.0,0.0,0.0,0.0,0.0
1782666340,171227127,-1.6564386526690882,0.12969636917114258,-1.5218575636493128,0.006880068685859442,0.0008033175836317241,0.6743901968002319,0.0,-0.0,0.0,0.0,0.0,0.0
1782666340,178922268,-1.656426731740133,0.12969636917114258,-1.5218094030963343,0.006832132115960121,0.0008392703020945191,0.6743422150611877,0.0,-0.0,0.0,0.0,0.0,0.0
1782666340,186658038,-1.6564386526690882,0.12966012954711914,-1.521893326436178,0.006856100168079138,0.0008872071630321443,0.6743422150611877,0.0,-0.0,0.0,0.0,0.0,0.0
1782666340,194718663,-1.6564505735980433,0.1296243667602539,-1.521893326436178,0.00686808442696929,0.0007789746159687638,0.6743302345275879,0.0,-0.0,0.0,0.0,0.0,0.0
1782666340,203913053,-1.656414810811178,0.12967252731323242,-1.5218337217914026,0.006892052944749594,0.0008033175836317241,0.6743542551994324,0.0,-0.0,0.0,0.0,0.0,0.0
1782666340,218653479,-1.6564386526690882,0.1296844482421875,-1.521893326436178,0.006832132115960121,0.0007669904152862728,0.6743422150611877,0.0,-0.0,0.0,0.0,0.0,0.0
1782666340,226825270,-1.656426731740133,0.12970829010009766,-1.521881405507223,0.006880068685859442,0.0008392703020945191,0.6743422150611877,0.0,-0.0,0.0,0.0,0.0,0.0
1782666340,234765875,-1.6564386526690882,0.12967252731323242,-1.5218694845782679,0.006832132115960121,0.0008033175836317241,0.6743662357330322,0.0,-0.0,0.0,0.0,0.0,0.0
1782666340,242646554,-1.656414810811178,0.12963628768920898,-1.521893326436178,0.006880068685859442,0.0007909588748589158,0.6743302345275879,0.0,-0.0,0.0,0.0,0.0,0.0
1782666340,250595344,-1.6563904921161097,0.1296844482421875,-1.5218694845782679,0.006880068685859442,0.0007909588748589158,0.6743782162666321,0.0,-0.0,0.0,0.0,0.0,0.0
1782666340,258638284,-1.6564505735980433,0.1296844482421875,-1.5218575636493128,0.006880068685859442,0.0007789746159687638,0.674318253993988,0.0,-0.0,0.0,0.0,0.0,0.0
1782666340,266857353,-1.6563780943499964,0.12969636917114258,-1.5218694845782679,0.00686808442696929,0.0008153018425218761,0.6743782162666321,0.0,-0.0,0.0,0.0,0.0,0.0
