LukePepin/On-Edge/data/archived_logs/deceleration_data_1782779315.csv
timestamp_sec,timestamp_nanosec,shoulder_pan_pos,shoulder_lift_pos,elbow_pos,wrist_1_pos,wrist_2_pos,wrist_3_pos,shoulder_pan_vel,shoulder_lift_vel,elbow_vel,wrist_1_vel,wrist_2_vel,wrist_3_vel
1782779318,838455855,-1.4285157362567347,-0.3972676436053675,-2.281942669545309,-4.759847942982809,-3.562991205845968,0.9983181953430176,0.0,-0.0,0.0,0.0,0.0,0.0
1782779318,846454092,-1.4285038153277796,-0.39729148546327764,-2.281942669545309,-4.759895865117208,-3.562967363988058,0.998366117477417,0.0,-0.0,0.0,0.0,0.0,0.0
1782779318,854604032,-1.4285038153277796,-0.39727956453432256,-2.2818945089923304,-4.759883944188253,-3.563003126774923,0.9983181953430176,0.0,-0.0,0.0,0.0,0.0,0.0
1782779318,862508992,-1.4285276571856897,-0.3973034063922327,-2.281942669545309,-4.7598599831210535,-3.562979284917013,0.9983301758766174,0.0,-0.0,0.0,0.0,0.0,0.0
1782779318,870457655,-1.4284794966327112,-0.39727956453432256,-2.281955067311422,-4.759919826184408,-3.562979284917013,0.9983301758766174,0.0,-0.0,0.0,0.0,0.0,0.0
1782779318,878487262,-1.428455654774801,-0.39727956453432256,-2.2818945089923304,-4.759836022053854,-3.562979284917013,0.9983541369438171,0.0,-0.0,0.0,0.0,0.0,0.0
1782779318,890850931,-1.4285038153277796,-0.3973272482501429,-2.281942669545309,-4.759871904050009,-3.562991205845968,0.9983181953430176,0.0,-0.0,0.0,0.0,0.0,0.0
1782779318,894500495,-1.4285038153277796,-0.3973272482501429,-2.281942669545309,-4.759871904050009,-3.562991205845968,0.9983181953430176,0.0,-0.0,0.0,0.0,0.0,0.0
1782779318,902463084,-1.4285038153277796,-0.3972676436053675,-2.2819908300982874,-4.7598599831210535,-3.562979284917013,0.9983541369438171,0.0,-0.0,0.0,0.0,0.0,0.0
1782779318,910450710,-1.4285038153277796,-0.39723140398134404,-2.2819302717791956,-4.7598599831210535,-3.5630391279803675,0.9983301758766174,0.0,-0.0,0.0,0.0,0.0,0.0
1782779318,918467243,-1.4284918943988245,-0.3973153273211878,-2.281942669545309,-4.759871904050009,-3.5630512873279017,0.9984140396118164,0.0,-0.0,0.0,0.0,0.0,0.0
1782779318,926460202,-1.4285157362567347,-0.3973153273211878,-2.2819302717791956,-4.759883944188253,-3.5630152861224573,0.9983541369438171,0.0,-0.0,0.0,0.0,0.0,0.0
1782779318,934482328,-1.428551975880758,-0.39729148546327764,-2.2819302717791956,-4.759895865117208,-3.5630152861224573,0.9983421564102173,0.0,-0.0,0.0,0.0,0.0,0.0
1782779318,942455380,-1.4285038153277796,-0.39727956453432256,-2.2819064299212855,-4.759847942982809,-3.5630152861224573,0.9983301758766174,0.0,-0.0,0.0,0.0,0.0,0.0
1782779318,950460598,-1.4285276571856897,-0.3973153273211878,-2.281955067311422,-4.759883944188253,-3.562979284917013,0.9983421564102173,0.0,-0.0,0.0,0.0,0.0,0.0
1782779318,958467965,-1.4284794966327112,-0.3972676436053675,-2.2818945089923304,-4.759847942982809,-3.562979284917013,0.9983301758766174,0.0,-0.0,0.0,0.0,0.0,0.0
1782779318,966451646,-1.4285157362567347,-0.3973153273211878,-2.281942669545309,-4.759895865117208,-3.5630391279803675,0.9983301758766174,0.0,-0.0,0.0,0.0,0.0,0.0
1782779318,974455457,-1.4285276571856897,-0.3973153273211878,-2.2819302717791956,-4.759847942982809,-3.562991205845968,0.9982941746711731,0.0,-0.0,0.0,0.0,0.0,0.0
1782779318,982458490,-1.4285157362567347,-0.39729148546327764,-2.281942669545309,-4.759836022053854,-3.5629432837115687,0.9983421564102173,0.0,-0.0,0.0,0.0,0.0,0.0
1782779318,990468690,-1.4284794966327112,-0.3973153273211878,-2.2819302717791956,-4.759847942982809,-3.5630152861224573,0.9983301758766174,0.0,-0.0,0.0,0.0,0.0,0.0
1782779318,998459816,-1.4285276571856897,-0.39729148546327764,-2.2819302717791956,-4.7598599831210535,-3.563003126774923,0.9982941746711731,0.0,-0.0,0.0,0.0,0.0,0.0
1782779319,6465090,-1.428455654774801,-0.39729148546327764,-2.281955067311422,-4.759931866322653,-3.562967363988058,0.9983301758766174,0.0,-0.0,0.0,0.0,0.0,0.0
1782779319,14452197,-1.4285038153277796,-0.3973153273211878,-2.2819789091693323,-4.759895865117208,-3.5630512873279017,0.9983421564102173,0.0,-0.0,0.0,0.0,0.0,0.0
1782779319,22451082,-1.4285395781146448,-0.3972676436053675,-2.281942669545309,-4.759812060986654,-3.5630272070514124,0.9983062148094177,0.0,-0.0,0.0,0.0,0.0,0.0
1782779319,30518634,-1.4285157362567347,-0.3973153273211878,-2.2819064299212855,-4.759847942982809,-3.562967363988058,0.9983780980110168,0.0,-0.0,0.0,0.0,0.0,0.0
1782779319,38474815,-1.4285276571856897,-0.3973034063922327,-2.281942669545309,-4.759836022053854,-3.562991205845968,0.9983541369438171,0.0,-0.0,0.0,0.0,0.0,0.0
1782779319,46457959,-1.4284918943988245,-0.39729148546327764,-2.2819302717791956,-4.759871904050009,-3.563003126774923,0.9983780980110168,0.0,-0.0,0.0,0.0,0.0,0.0
1782779319,54460289,-1.4285276571856897,-0.3972676436053675,-2.281942669545309,-4.759907905255453,-3.563003126774923,0.9983301758766174,0.0,-0.0,0.0,0.0,0.0,0.0
1782779319,62447378,-1.4285038153277796,-0.39729148546327764,-2.2819183508502405,-4.759895865117208,-3.563003126774923,0.9982941746711731,0.0,-0.0,0.0,0.0,0.0,0.0
1782779319,70460874,-1.4285038153277796,-0.39727956453432256,-2.281942669545309,-4.7598599831210535,-3.562991205845968,0.998366117477417,0.0,-0.0,0.0,0.0,0.0,0.0
1782779319,80960919,-1.4285157362567347,-0.39729148546327764,-2.281955067311422,-4.759836022053854,-3.562967363988058,0.9983181953430176,0.0,-0.0,0.0,0.0,0.0,0.0
1782779319,86457663,-1.4285038153277796,-0.3973272482501429,-2.281942669545309,-4.759895865117208,-3.563003126774923,0.9983541369438171,0.0,-0.0,0.0,0.0,0.0,0.0
1782779319,94467807,-1.4284918943988245,-0.3973034063922327,-2.281942669545309,-4.759871904050009,-3.562979284917013,0.9983062148094177,0.0,-0.0,0.0,0.0,0.0,0.0
1782779319,102984950,-1.4285395781146448,-0.3973272482501429,-2.2819789091693323,-4.759883944188253,-3.563003126774923,0.998366117477417,0.0,-0.0,0.0,0.0,0.0,0.0
1782779319,111004224,-1.4285276571856897,-0.3973034063922327,-2.281942669545309,-4.759895865117208,-3.563003126774923,0.9983541369438171,0.0,-0.0,0.0,0.0,0.0,0.0
1782779319,118461092,-1.4285038153277796,-0.39727956453432256,-2.281942669545309,-4.759836022053854,-3.562979284917013,0.9983541369438171,0.0,-0.0,0.0,0.0,0.0,0.0
1782779319,126510143,-1.4285276571856897,-0.39729148546327764,-2.281955067311422,-4.759847942982809,-3.5629552046405237,0.998366117477417,0.0,-0.0,0.0,0.0,0.0,0.0
1782779319,134448140,-1.4284794966327112,-0.39727956453432256,-2.2819064299212855,-4.759847942982809,-3.563003126774923,0.9983301758766174,0.0,-0.0,0.0,0.0,0.0,0.0
1782779319,142456358,-1.4285038153277796,-0.3972557226764124,-2.281955067311422,-4.759895865117208,-3.562979284917013,0.9983541369438171,0.0,-0.0,0.0,0.0,0.0,0.0
1782779319,150459299,-1.428551975880758,-0.39729148546327764,-2.281955067311422,-4.759907905255453,-3.5630152861224573,0.9983301758766174,0.0,-0.0,0.0,0.0,0.0,0.0
1782779319,158461591,-1.4285276571856897,-0.3972676436053675,-2.281942669545309,-4.7598599831210535,-3.563003126774923,0.9983301758766174,0.0,-0.0,0.0,0.0,0.0,0.0
1782779319,166460106,-1.428551975880758,-0.3973272482501429,-2.2819908300982874,-4.759907905255453,-3.563003126774923,0.9983421564102173,0.0,-0.0,0.0,0.0,0.0,0.0
1782779319,174464509,-1.4284794966327112,-0.3972438017474573,-2.281942669545309,-4.759883944188253,-3.562979284917013,0.9983181953430176,0.0,-0.0,0.0,0.0,0.0,0.0
1782779319,182468524,-1.4284918943988245,-0.3973153273211878,-2.2819302717791956,-4.759847942982809,-3.5630152861224573,0.9983062148094177,0.0,-0.0,0.0,0.0,0.0,0.0
1782779319,190455631,-1.4285157362567347,-0.3973034063922327,-2.281955067311422,-4.759883944188253,-3.562991205845968,0.998366117477417,0.0,-0.0,0.0,0.0,0.0,0.0
1782779319,198465146,-1.4285038153277796,-0.3972557226764124,-2.2819302717791956,-4.759883944188253,-3.563003126774923,0.9983301758766174,0.0,-0.0,0.0,0.0,0.0,0.0
1782779319,206480901,-1.4285038153277796,-0.3972557226764124,-2.281955067311422,-4.759883944188253,-3.5630152861224573,0.9982941746711731,0.0,-0.0,0.0,0.0,0.0,0.0
1782779319,214436342,-1.4284918943988245,-0.3973153273211878,-2.2819669882403772,-4.7598599831210535,-3.5630272070514124,0.9983301758766174,0.0,-0.0,0.0,0.0,0.0,0.0
1782779319,222483431,-1.4285276571856897,-0.3973272482501429,-2.281942669545309,-4.7598599831210535,-3.5629552046405237,0.9983541369438171,0.0,-0.0,0.0,0.0,0.0,0.0
1782779319,230456112,-1.4285276571856897,-0.3973034063922327,-2.2819064299212855,-4.7598599831210535,-3.562979284917013,0.9983900785446167,0.0,-0.0,0.0,0.0,0.0,0.0
1782779319,238469923,-1.4285395781146448,-0.3972676436053675,-2.2819064299212855,-4.759895865117208,-3.5630152861224573,0.9983181953430176,0.0,-0.0,0.0,0.0,0.0,0.0
1782779319,246454086,-1.4285038153277796,-0.3972676436053675,-2.281942669545309,-4.759919826184408,-3.5630152861224573,0.9983900785446167,0.0,-0.0,0.0,0.0,0.0,0.0
1782779319,254474730,-1.4284918943988245,-0.3972676436053675,-2.2819183508502405,-4.759895865117208,-3.5630391279803675,0.998366117477417,0.0,-0.0,0.0,0.0,0.0,0.0
1782779319,262469541,-1.4285038153277796,-0.3972676436053675,-2.2819064299212855,-4.759871904050009,-3.563003126774923,0.9983421564102173,0.0,-0.0,0.0,0.0,0.0,0.0
1782779319,270450797,-1.428455654774801,-0.3973272482501429,-2.2819183508502405,-4.759895865117208,-3.5630272070514124,0.9983541369438171,0.0,-0.0,0.0,0.0,0.0,0.0
1782779319,278453496,-1.4285157362567347,-0.39729148546327764,-2.2819064299212855,-4.759847942982809,-3.563003126774923,0.998366117477417,0.0,-0.0,0.0,0.0,0.0,0.0
1782779319,286474437,-1.4285038153277796,-0.3973034063922327,-2.2819064299212855,-4.759836022053854,-3.5630272070514124,0.9983541369438171,0.0,-0.0,0.0,0.0,0.0,0.0
1782779319,294566229,-1.4285038153277796,-0.39729148546327764,-2.2818945089923304,-4.759871904050009,-3.5630272070514124,0.9983301758766174,0.0,-0.0,0.0,0.0,0.0,0.0
1782779319,302488596,-1.4284918943988245,-0.3972676436053675,-2.2819302717791956,-4.759895865117208,-3.562979284917013,0.9983541369438171,0.0,-0.0,0.0,0.0,0.0,0.0
1782779319,310473166,-1.428551975880758,-0.3973034063922327,-2.2819064299212855,-4.759895865117208,-3.562979284917013,0.998366117477417,0.0,-0.0,0.0,0.0,0.0,0.0
1782779319,318488459,-1.4284680525409144,-0.3972676436053675,-2.2819183508502405,-4.7598599831210535,-3.5630512873279017,0.9983301758766174,0.0,-0.0,0.0,0.0,0.0,0.0
1782779319,326514177,-1.4284918943988245,-0.3973153273211878,-2.281955067311422,-4.759871904050009,-3.562991205845968,0.9983062148094177,0.0,-0.0,0.0,0.0,0.0,0.0
1782779319,334480784,-1.4285276571856897,-0.39727956453432256,-2.2819908300982874,-4.759836022053854,-3.563003126774923,0.9983421564102173,0.0,-0.0,0.0,0.0,0.0,0.0
1782779319,342466595,-1.4285276571856897,-0.39727956453432256,-2.281955067311422,-4.759847942982809,-3.563003126774923,0.9983181953430176,0.0,-0.0,0.0,0.0,0.0,0.0
1782779319,350488443,-1.428551975880758,-0.39729148546327764,-2.281955067311422,-4.759871904050009,-3.562967363988058,0.9983421564102173,0.0,-0.0,0.0,0.0,0.0,0.0
1782779319,358576587,-1.4284794966327112,-0.3973034063922327,-2.2819183508502405,-4.759907905255453,-3.562991205845968,0.9983541369438171,0.0,-0.0,0.0,0.0,0.0,0.0
1782779319,366483158,-1.4285038153277796,-0.3972676436053675,-2.2819789091693323,-4.759836022053854,-3.562991205845968,0.998366117477417,0.0,-0.0,0.0,0.0,0.0,0.0
1782779319,374458061,-1.428455654774801,-0.3973153273211878,-2.281955067311422,-4.759871904050009,-3.562991205845968,0.998366117477417,0.0,-0.0,0.0,0.0,0.0,0.0
1782779319,382487483,-1.4285157362567347,-0.39735156694521123,-2.2820027510272425,-4.759883944188253,-3.562979284917013,0.9983541369438171,0.0,-0.0,0.0,0.0,0.0,0.0
1782779319,390776460,-1.4284918943988245,-0.3973034063922327,-2.2819669882403772,-4.759883944188253,-3.563003126774923,0.9983421564102173,0.0,-0.0,0.0,0.0,0.0,0.0
1782779319,398482161,-1.4285038153277796,-0.39727956453432256,-2.2819183508502405,-4.7598599831210535,-3.5630272070514124,0.9983780980110168,0.0,-0.0,0.0,0.0,0.0,0.0
1782779319,406464250,-1.428455654774801,-0.3973153273211878,-2.2819302717791956,-4.7598599831210535,-3.562991205845968,0.9983301758766174,0.0,-0.0,0.0,0.0,0.0,0.0
1782779319,414482505,-1.4285038153277796,-0.3972557226764124,-2.281942669545309,-4.759907905255453,-3.5630272070514124,0.9983301758766174,0.0,-0.0,0.0,0.0,0.0,0.0
1782779319,422502927,-1.4285157362567347,-0.3973272482501429,-2.281942669545309,-4.759931866322653,-3.5629432837115687,0.998366117477417,0.0,-0.0,0.0,0.0,0.0,0.0
1782779319,430475090,-1.4285276571856897,-0.39727956453432256,-2.281942669545309,-4.759883944188253,-3.562967363988058,0.9983780980110168,0.0,-0.0,0.0,0.0,0.0,0.0
1782779319,438465049,-1.4284794966327112,-0.3972676436053675,-2.2819669882403772,-4.7598599831210535,-3.5630152861224573,0.9983541369438171,0.0,-0.0,0.0,0.0,0.0,0.0
1782779319,446476453,-1.4285038153277796,-0.3973034063922327,-2.2818945089923304,-4.7598599831210535,-3.562991205845968,0.9982941746711731,0.0,-0.0,0.0,0.0,0.0,0.0
1782779319,454513708,-1.428551975880758,-0.3972557226764124,-2.2819789091693323,-4.759895865117208,-3.5630272070514124,0.998366117477417,0.0,-0.0,0.0,0.0,0.0,0.0
1782779319,462480038,-1.4284918943988245,-0.3973153273211878,-2.281942669545309,-4.759883944188253,-3.5630272070514124,0.9983181953430176,0.0,-0.0,0.0,0.0,0.0,0.0
1782779319,470462071,-1.4284680525409144,-0.39727956453432256,-2.2819669882403772,-4.759871904050009,-3.5630272070514124,0.9983541369438171,0.0,-0.0,0.0,0.0,0.0,0.0
1782779319,478475549,-1.4285157362567347,-0.3972676436053675,-2.2819183508502405,-4.759871904050009,-3.562991205845968,0.9984020590782166,0.0,-0.0,0.0,0.0,0.0,0.0
1782779319,486510415,-1.428551975880758,-0.3973153273211878,-2.2819669882403772,-4.7598599831210535,-3.563003126774923,0.9983541369438171,0.0,-0.0,0.0,0.0,0.0,0.0
1782779319,494480041,-1.4284918943988245,-0.3973153273211878,-2.281955067311422,-4.759883944188253,-3.5630391279803675,0.9983421564102173,0.0,-0.0,0.0,0.0,0.0,0.0
1782779319,502461463,-1.4285157362567347,-0.39729148546327764,-2.281955067311422,-4.759883944188253,-3.5630152861224573,0.9983900785446167,0.0,-0.0,0.0,0.0,0.0,0.0
1782779319,510481681,-1.4284794966327112,-0.3972557226764124,-2.2819669882403772,-4.759883944188253,-3.562991205845968,0.9983900785446167,0.0,-0.0,0.0,0.0,0.0,0.0
1782779319,518572474,-1.4284918943988245,-0.39735156694521123,-2.2819302717791956,-4.7598599831210535,-3.5630512873279017,0.9983541369438171,0.0,-0.0,0.0,0.0,0.0,0.0
1782779319,526477988,-1.4284794966327112,-0.3972557226764124,-2.2819669882403772,-4.759847942982809,-3.5630391279803675,0.9983900785446167,0.0,-0.0,0.0,0.0,0.0,0.0
1782779319,534470929,-1.4284680525409144,-0.39729148546327764,-2.281955067311422,-4.759883944188253,-3.5630512873279017,0.9983780980110168,0.0,-0.0,0.0,0.0,0.0,0.0
1782779319,542501055,-1.4285157362567347,-0.39733964601625615,-2.281955067311422,-4.759847942982809,-3.5630272070514124,0.9983421564102173,0.0,-0.0,0.0,0.0,0.0,0.0
1782779319,550553551,-1.4284680525409144,-0.39729148546327764,-2.2819183508502405,-4.759883944188253,-3.563003126774923,0.9982821941375732,0.0,-0.0,0.0,0.0,0.0,0.0
1782779319,558491992,-1.4285038153277796,-0.3972557226764124,-2.281942669545309,-4.759847942982809,-3.562991205845968,0.9984020590782166,0.0,-0.0,0.0,0.0,0.0,0.0
1782779319,566469006,-1.4284918943988245,-0.3973034063922327,-2.2819302717791956,-4.759823981915609,-3.562991205845968,0.998366117477417,0.0,-0.0,0.0,0.0,0.0,0.0
1782779319,574474632,-1.4285395781146448,-0.3973034063922327,-2.2819789091693323,-4.759836022053854,-3.5630152861224573,0.9983181953430176,0.0,-0.0,0.0,0.0,0.0,0.0
1782779319,582478165,-1.4285276571856897,-0.39727956453432256,-2.2819669882403772,-4.759836022053854,-3.562979284917013,0.9983541369438171,0.0,-0.0,0.0,0.0,0.0,0.0
1782779319,590476050,-1.4284918943988245,-0.3973034063922327,-2.281955067311422,-4.759823981915609,-3.562967363988058,0.998366117477417,0.0,-0.0,0.0,0.0,0.0,0.0
1782779319,598463898,-1.428551975880758,-0.3972676436053675,-2.2819302717791956,-4.759883944188253,-3.562979284917013,0.9982941746711731,0.0,-0.0,0.0,0.0,0.0,0.0
1782779319,606476209,-1.4285157362567347,-0.3973034063922327,-2.2819669882403772,-4.7598599831210535,-3.562991205845968,0.9983780980110168,0.0,-0.0,0.0,0.0,0.0,0.0
1782779319,614504261,-1.4284918943988245,-0.39727956453432256,-2.2818945089923304,-4.759847942982809,-3.563003126774923,0.9983780980110168,0.0,-0.0,0.0,0.0,0.0,0.0
1782779319,622481702,-1.4284680525409144,-0.3973034063922327,-2.2819302717791956,-4.759836022053854,-3.562967363988058,0.9983780980110168,0.0,-0.0,0.0,0.0,0.0,0.0
1782779319,630501568,-1.4285395781146448,-0.3973272482501429,-2.281955067311422,-4.759871904050009,-3.5630272070514124,0.9983301758766174,0.0,-0.0,0.0,0.0,0.0,0.0
1782779319,638476638,-1.4285276571856897,-0.3973153273211878,-2.2819669882403772,-4.759871904050009,-3.563003126774923,0.9983900785446167,0.0,-0.0,0.0,0.0,0.0,0.0
1782779319,646514357,-1.4285038153277796,-0.3973153273211878,-2.2819302717791956,-4.7598599831210535,-3.563003126774923,0.9983181953430176,0.0,-0.0,0.0,0.0,0.0,0.0
1782779319,654476631,-1.4285038153277796,-0.3972557226764124,-2.281955067311422,-4.759883944188253,-3.562967363988058,0.9983301758766174,0.0,-0.0,0.0,0.0,0.0,0.0
1782779319,662461331,-1.4284918943988245,-0.3973153273211878,-2.281955067311422,-4.759847942982809,-3.5630152861224573,0.9983900785446167,0.0,-0.0,0.0,0.0,0.0,0.0
1782779319,670463919,-1.4285038153277796,-0.39729148546327764,-2.2819183508502405,-4.759895865117208,-3.5630152861224573,0.9983301758766174,0.0,-0.0,0.0,0.0,0.0,0.0
1782779319,678486527,-1.4285395781146448,-0.3973034063922327,-2.2819669882403772,-4.759871904050009,-3.562967363988058,0.9982941746711731,0.0,-0.0,0.0,0.0,0.0,0.0
1782779319,686479838,-1.4285395781146448,-0.3972676436053675,-2.2818945089923304,-4.759847942982809,-3.5630152861224573,0.9983541369438171,0.0,-0.0,0.0,0.0,0.0,0.0
1782779319,694463093,-1.4285276571856897,-0.3972438017474573,-2.2818825880633753,-4.759907905255453,-3.563003126774923,0.9983421564102173,0.0,-0.0,0.0,0.0,0.0,0.0
1782779319,702476608,-1.4285038153277796,-0.3972676436053675,-2.2819064299212855,-4.759847942982809,-3.563003126774923,0.9983780980110168,0.0,-0.0,0.0,0.0,0.0,0.0
1782779319,710468697,-1.4285038153277796,-0.3973034063922327,-2.2819669882403772,-4.759847942982809,-3.562979284917013,0.998366117477417,0.0,-0.0,0.0,0.0,0.0,0.0
1782779319,718474896,-1.4284918943988245,-0.3972676436053675,-2.281942669545309,-4.759836022053854,-3.562979284917013,0.9983780980110168,0.0,-0.0,0.0,0.0,0.0,0.0
1782779319,726461837,-1.4284918943988245,-0.39729148546327764,-2.281955067311422,-4.759871904050009,-3.563003126774923,0.9983421564102173,0.0,-0.0,0.0,0.0,0.0,0.0
1782779319,734466518,-1.4284794966327112,-0.39727956453432256,-2.2819669882403772,-4.759871904050009,-3.562991205845968,0.998366117477417,0.0,-0.0,0.0,0.0,0.0,0.0
1782779319,742514551,-1.4285395781146448,-0.3973272482501429,-2.2819669882403772,-4.7598599831210535,-3.562991205845968,0.9983181953430176,0.0,-0.0,0.0,0.0,0.0,0.0
1782779319,750469140,-1.4284794966327112,-0.3972676436053675,-2.2819064299212855,-4.759883944188253,-3.5630272070514124,0.9983421564102173,0.0,-0.0,0.0,0.0,0.0,0.0
1782779319,758471007,-1.4285157362567347,-0.3973153273211878,-2.2819908300982874,-4.759847942982809,-3.563003126774923,0.9983421564102173,0.0,-0.0,0.0,0.0,0.0,0.0
1782779319,766473577,-1.4285038153277796,-0.3972676436053675,-2.281955067311422,-4.759895865117208,-3.562967363988058,0.9984020590782166,0.0,-0.0,0.0,0.0,0.0,0.0
1782779319,774477370,-1.4285276571856897,-0.39727956453432256,-2.281942669545309,-4.7598599831210535,-3.563003126774923,0.9983301758766174,0.0,-0.0,0.0,0.0,0.0,0.0
1782779319,782478273,-1.4285038153277796,-0.39727956453432256,-2.281942669545309,-4.759847942982809,-3.5630272070514124,0.9983541369438171,0.0,-0.0,0.0,0.0,0.0,0.0
1782779319,790470251,-1.4285276571856897,-0.3972676436053675,-2.281955067311422,-4.759895865117208,-3.563003126774923,0.9983181953430176,0.0,-0.0,0.0,0.0,0.0,0.0
1782779319,798473988,-1.4285038153277796,-0.3973272482501429,-2.281955067311422,-4.759871904050009,-3.562979284917013,0.998366117477417,0.0,-0.0,0.0,0.0,0.0,0.0
1782779319,806505169,-1.4284918943988245,-0.39729148546327764,-2.281942669545309,-4.759871904050009,-3.562991205845968,0.9983301758766174,0.0,-0.0,0.0,0.0,0.0,0.0
1782779319,814773127,-1.4285038153277796,-0.39733964601625615,-2.281942669545309,-4.759883944188253,-3.562991205845968,0.9983421564102173,0.0,-0.0,0.0,0.0,0.0,0.0
1782779319,822478346,-1.4285038153277796,-0.3972438017474573,-2.2819669882403772,-4.759883944188253,-3.5630272070514124,0.9983421564102173,0.0,-0.0,0.0,0.0,0.0,0.0
1782779319,830496046,-1.4284918943988245,-0.3972557226764124,-2.281942669545309,-4.7598599831210535,-3.5630272070514124,0.9983541369438171,0.0,-0.0,0.0,0.0,0.0,0.0
1782779319,838578135,-1.428551975880758,-0.3973153273211878,-2.281955067311422,-4.759871904050009,-3.5630152861224573,0.9983062148094177,0.0,-0.0,0.0,0.0,0.0,0.0
1782779319,846483242,-1.4284680525409144,-0.3972676436053675,-2.2819669882403772,-4.7598599831210535,-3.5630272070514124,0.9983541369438171,0.0,-0.0,0.0,0.0,0.0,0.0
1782779319,854469387,-1.4284918943988245,-0.3972676436053675,-2.2819064299212855,-4.759883944188253,-3.562979284917013,0.9983181953430176,0.0,-0.0,0.0,0.0,0.0,0.0
1782779319,862477290,-1.4285157362567347,-0.39733964601625615,-2.281955067311422,-4.759836022053854,-3.562979284917013,0.9983780980110168,0.0,-0.0,0.0,0.0,0.0,0.0
1782779319,870513675,-1.4285276571856897,-0.3972557226764124,-2.2819064299212855,-4.759871904050009,-3.562991205845968,0.9983301758766174,0.0,-0.0,0.0,0.0,0.0,0.0
1782779319,878478468,-1.4285038153277796,-0.39727956453432256,-2.281942669545309,-4.759871904050009,-3.5630152861224573,0.9983421564102173,0.0,-0.0,0.0,0.0,0.0,0.0
1782779319,886474408,-1.4285157362567347,-0.3972676436053675,-2.281955067311422,-4.759907905255453,-3.5629552046405237,0.9983301758766174,0.0,-0.0,0.0,0.0,0.0,0.0
1782779319,894490534,-1.428455654774801,-0.3973034063922327,-2.2819302717791956,-4.7598599831210535,-3.562967363988058,0.9983780980110168,0.0,-0.0,0.0,0.0,0.0,0.0
1782779319,902503234,-1.4285157362567347,-0.3973153273211878,-2.2818945089923304,-4.7598599831210535,-3.563003126774923,0.9983421564102173,0.0,-0.0,0.0,0.0,0.0,0.0
1782779319,910474471,-1.4285276571856897,-0.39729148546327764,-2.2819302717791956,-4.759895865117208,-3.5630272070514124,0.9983181953430176,0.0,-0.0,0.0,0.0,0.0,0.0
1782779319,918481060,-1.4285157362567347,-0.39727956453432256,-2.281955067311422,-4.759847942982809,-3.562967363988058,0.9983062148094177,0.0,-0.0,0.0,0.0,0.0,0.0
1782779319,926494111,-1.4285276571856897,-0.3973153273211878,-2.281942669545309,-4.759883944188253,-3.5630152861224573,0.9983780980110168,0.0,-0.0,0.0,0.0,0.0,0.0
1782779319,934497459,-1.428455654774801,-0.39733964601625615,-2.2819789091693323,-4.759847942982809,-3.563003126774923,0.998366117477417,0.0,-0.0,0.0,0.0,0.0,0.0
1782779319,942484011,-1.428551975880758,-0.3973153273211878,-2.2819302717791956,-4.759919826184408,-3.562991205845968,0.9982941746711731,0.0,-0.0,0.0,0.0,0.0,0.0
1782779319,950471304,-1.4285038153277796,-0.3973034063922327,-2.2819302717791956,-4.759883944188253,-3.562991205845968,0.9983421564102173,0.0,-0.0,0.0,0.0,0.0,0.0
1782779319,958490411,-1.4285157362567347,-0.3973153273211878,-2.2819669882403772,-4.7598599831210535,-3.563003126774923,0.9983421564102173,0.0,-0.0,0.0,0.0,0.0,0.0
1782779319,966517888,-1.4285157362567347,-0.39727956453432256,-2.281942669545309,-4.759847942982809,-3.562991205845968,0.9983541369438171,0.0,-0.0,0.0,0.0,0.0,0.0
1782779319,974482125,-1.4284918943988245,-0.3973034063922327,-2.281942669545309,-4.759895865117208,-3.562991205845968,0.9983181953430176,0.0,-0.0,0.0,0.0,0.0,0.0
1782779319,982476085,-1.4285395781146448,-0.39729148546327764,-2.2819064299212855,-4.759883944188253,-3.562967363988058,0.9983780980110168,0.0,-0.0,0.0,0.0,0.0,0.0
1782779319,990510951,-1.4284918943988245,-0.3973034063922327,-2.2819789091693323,-4.759895865117208,-3.5630391279803675,0.9983301758766174,0.0,-0.0,0.0,0.0,0.0,0.0
1782779319,998575243,-1.4284918943988245,-0.3973153273211878,-2.2819669882403772,-4.759871904050009,-3.562979284917013,0.9983900785446167,0.0,-0.0,0.0,0.0,0.0,0.0
1782779320,6471036,-1.4284794966327112,-0.39723140398134404,-2.281942669545309,-4.759883944188253,-3.562991205845968,0.9983541369438171,0.0,-0.0,0.0,0.0,0.0,0.0
1782779320,14472180,-1.4284918943988245,-0.39729148546327764,-2.2819064299212855,-4.759895865117208,-3.562967363988058,0.9983541369438171,0.0,-0.0,0.0,0.0,0.0,0.0
1782779320,22481973,-1.4285038153277796,-0.3972676436053675,-2.281955067311422,-4.759871904050009,-3.562967363988058,0.998366117477417,0.0,-0.0,0.0,0.0,0.0,0.0
1782779320,30488950,-1.4285038153277796,-0.39729148546327764,-2.2819302717791956,-4.759883944188253,-3.562979284917013,0.9983421564102173,0.0,-0.0,0.0,0.0,0.0,0.0
1782779320,38487761,-1.4285157362567347,-0.39729148546327764,-2.2819669882403772,-4.759883944188253,-3.563003126774923,0.9983900785446167,0.0,-0.0,0.0,0.0,0.0,0.0
1782779320,46495035,-1.4285038153277796,-0.39729148546327764,-2.281942669545309,-4.7598599831210535,-3.562979284917013,0.9983541369438171,0.0,-0.0,0.0,0.0,0.0,0.0
1782779320,54469772,-1.428455654774801,-0.39729148546327764,-2.2819789091693323,-4.759895865117208,-3.562991205845968,0.9983421564102173,0.0,-0.0,0.0,0.0,0.0,0.0
1782779320,62475361,-1.4285038153277796,-0.39727956453432256,-2.2819669882403772,-4.759847942982809,-3.563003126774923,0.9983780980110168,0.0,-0.0,0.0,0.0,0.0,0.0
1782779320,70490894,-1.4285157362567347,-0.3973034063922327,-2.281955067311422,-4.759847942982809,-3.5630152861224573,0.9983301758766174,0.0,-0.0,0.0,0.0,0.0,0.0
1782779320,78484094,-1.4285276571856897,-0.3972676436053675,-2.2819302717791956,-4.7598599831210535,-3.562979284917013,0.9983421564102173,0.0,-0.0,0.0,0.0,0.0,0.0
1782779320,86466090,-1.4285038153277796,-0.3973153273211878,-2.281942669545309,-4.759883944188253,-3.562991205845968,0.9983900785446167,0.0,-0.0,0.0,0.0,0.0,0.0
1782779320,94491512,-1.4285038153277796,-0.3973153273211878,-2.281942669545309,-4.759883944188253,-3.562991205845968,0.9983181953430176,0.0,-0.0,0.0,0.0,0.0,0.0
1782779320,102577860,-1.4285038153277796,-0.3973272482501429,-2.2819302717791956,-4.759871904050009,-3.563003126774923,0.9983301758766174,0.0,-0.0,0.0,0.0,0.0,0.0
1782779320,110464745,-1.4284794966327112,-0.3973153273211878,-2.2819669882403772,-4.759847942982809,-3.562979284917013,0.9983181953430176,0.0,-0.0,0.0,0.0,0.0,0.0
1782779320,118558482,-1.4285157362567347,-0.3973034063922327,-2.281955067311422,-4.759907905255453,-3.5630152861224573,0.9983541369438171,0.0,-0.0,0.0,0.0,0.0,0.0
1782779320,126483089,-1.428455654774801,-0.3973034063922327,-2.2819669882403772,-4.759836022053854,-3.562979284917013,0.9983301758766174,0.0,-0.0,0.0,0.0,0.0,0.0
1782779320,134550437,-1.4284918943988245,-0.3972676436053675,-2.281942669545309,-4.759871904050009,-3.562979284917013,0.9984020590782166,0.0,-0.0,0.0,0.0,0.0,0.0
1782779320,142443452,-1.4284794966327112,-0.39729148546327764,-2.281942669545309,-4.759883944188253,-3.5630391279803675,0.998366117477417,0.0,-0.0,0.0,0.0,0.0,0.0
1782779320,150506263,-1.4285157362567347,-0.3972676436053675,-2.2819669882403772,-4.759895865117208,-3.5630391279803675,0.998366117477417,0.0,-0.0,0.0,0.0,0.0,0.0
1782779320,158468092,-1.4285276571856897,-0.39729148546327764,-2.281942669545309,-4.759883944188253,-3.5630512873279017,0.998366117477417,0.0,-0.0,0.0,0.0,0.0,0.0
1782779320,166469218,-1.428455654774801,-0.39727956453432256,-2.281942669545309,-4.759871904050009,-3.5630272070514124,0.9983301758766174,0.0,-0.0,0.0,0.0,0.0,0.0
1782779320,174511455,-1.4285157362567347,-0.3972438017474573,-2.2819908300982874,-4.759847942982809,-3.5630272070514124,0.9983541369438171,0.0,-0.0,0.0,0.0,0.0,0.0
1782779320,182468099,-1.4285395781146448,-0.3972676436053675,-2.281955067311422,-4.7598599831210535,-3.562991205845968,0.9983301758766174,0.0,-0.0,0.0,0.0,0.0,0.0
1782779320,190511558,-1.4283841292010706,-0.39721948305238897,-2.2819302717791956,-4.759895865117208,-3.562979284917013,0.9984975457191467,0.04518852010369301,0.03948722407221794,0.0,0.0,0.0,0.0444343127310276
1782779320,198490721,-1.4273889700519007,-0.39656097093691045,-2.282062832509176,-4.759895865117208,-3.562967363988058,0.9993480443954468,0.26252803206443787,0.1687762439250946,0.0,0.0,0.0,0.23262819647789001
1782779320,206477125,-1.425410572682516,-0.39499217668642217,-2.2820146719561976,-4.75972813764681,-3.5629313627826136,1.0017317533493042,0.24615278840065002,0.18797656893730164,0.0034514570143073797,0.0,0.0,0.3155909776687622
1782779320,214487676,-1.423037354146139,-0.39317208925356084,-2.2820027510272425,-4.75975209871401,-3.562979284917013,1.004906177520752,0.40130215883255005,0.29238954186439514,0.00723847234621644,0.013494237326085567,0.0,0.47364214062690735
1782779320,222466821,-1.420255486165182,-0.3910163084613245,-2.282182518635885,-4.759656254445211,-3.5630152861224573,1.0086913108825684,0.2950612008571625,0.23899421095848083,0.0047457534819841385,-0.014189322479069233,0.0,0.44439423084259033
1782779320,230506095,-1.4179180304156702,-0.3890765349017542,-2.281834427510397,-4.759644214306967,-3.562967363988058,1.0121052265167236,0.26310327649116516,0.225738063454628,-0.027971182018518448,0.0024687503464519978,0.0,0.40154504776000977
1782779320,238601405,-1.4153645674334925,-0.38716060320009404,-2.28217059770693,-4.759788099919454,-3.5629072825061243,1.015650749206543,0.41903242468833923,0.2946265935897827,0.0031398669816553593,-0.002205097582191229,0.0,0.5141264796257019
1782779320,246477402,-1.4120920340167444,-0.38454991975893194,-2.2818825880633753,-4.75975209871401,-3.562967363988058,1.0197235345840454,0.3579927682876587,0.29139244556427,0.027156254276633263,-0.002205097582191229,0.0,0.4868599474430084
1782779320,254480435,-1.4087474981891077,-0.3821185270892542,-2.281858746205465,-4.7598599831210535,-3.5629313627826136,1.0239276885986328,0.48260316252708435,0.35428565740585327,-0.032645031809806824,-0.002205097582191229,0.0,0.5819156169891357
1782779320,262470172,-1.405222241078512,-0.3793891111956995,-2.2820385138141077,-4.759524408970968,-3.5629194418536585,1.0285513401031494,0.3576476275920868,0.2844511866569519,-0.007286408916115761,-0.002181129064410925,0.0,0.5146889090538025
1782779320,270496538,-1.4027412573443812,-0.37718516985048467,-2.2817028204547327,-4.759836022053854,-3.5629313627826136,1.032228708267212,0.28615134954452515,0.23802268505096436,-0.003954794257879257,-0.028858015313744545,0.0,0.42002952098846436
1782779320,278489849,-1.3998635450946253,-0.37530547777284795,-2.282206360493795,-4.759871904050009,-3.5629552046405237,1.0359055995941162,0.4357016980648041,0.2980397045612335,-0.012223909609019756,0.0054887752048671246,0.0,0.5086552500724792
1782779320,287021085,-1.396567169819967,-0.37279063860048467,-2.281955067311422,-4.759847942982809,-3.562979284917013,1.039954423904419,0.36594390869140625,0.2801688015460968,0.0018455707468092442,0.0054887752048671246,0.0,0.47065088152885437
1782779320,294472045,-1.3932345549212855,-0.3705394903766077,-2.2819669882403772,-4.759955827389852,-3.5629552046405237,1.0440027713775635,0.48803600668907166,0.34526073932647705,0.0018455707468092442,0.00453003728762269,0.0,0.5591104626655579
1782779320,302545893,-1.3897698561297815,-0.367868725453512,-2.28219443956484,-4.759788099919454,-3.562991205845968,1.0483148097991943,0.36692821979522705,0.2771519720554352,-0.03554521128535271,0.0041705104522407055,0.0,0.47428131103515625
1782779320,310507093,-1.386773411427633,-0.3656533400165003,-2.282050911580221,-4.759919826184408,-3.562979284917013,1.0517408847808838,0.31798145174980164,0.2451045662164688,0.0028762139845639467,-0.01816808618605137,0.0,0.39721155166625977
1782779320,318478552,-1.383740250264303,-0.3637736479388636,-2.282278362904684,-4.759991828595297,-3.5630272070514124,1.0549746751785278,0.45358535647392273,0.30007222294807434,0.004889564123004675,0.002205097582191229,0.0,0.4800848662853241
1782779320,326481974,-1.379927937184469,-0.3611868063556116,-2.28214675584902,-4.759883944188253,-3.5630272070514124,1.058927297592163,0.3926607370376587,0.288707971572876,-0.014381070621311665,0.0087245162576437,0.0,0.4488427937030792
1782779320,334481822,-1.3759124914752405,-0.3585284391986292,-2.281942669545309,-4.760075632725851,-3.5630272070514124,1.0627483129501343,0.52106773853302,0.367235004901886,0.03238137811422348,-0.009875001385807991,0.0,0.5398078560829163
1782779320,342465355,-1.3722685019122522,-0.35582191148866826,-2.281955067311422,-4.759931866322653,-3.5630391279803675,1.0668803453445435,0.37564632296562195,0.2857678532600403,0.008149273693561554,-0.004458131734281778,0.0,0.46030929684638977
1782779320,350513759,-1.3693187872516077,-0.3536422888385218,-2.281858746205465,-4.759919826184408,-3.5630272070514124,1.0703178644180298,0.30903321504592896,0.24395407736301422,-0.007214503828436136,-0.0028762139845639467,0.0,0.3887490928173065
1782779320,358474200,-1.3665021101581019,-0.35165483156313115,-2.2819908300982874,-4.760051671658651,-3.5630512873279017,1.073492169380188,0.4433843791484833,0.30481478571891785,-0.004793690051883459,-0.0021092237439006567,0.0,0.4687078297138214
1782779320,366474899,-1.3631933371173304,-0.3490799109088343,-2.2819669882403772,-4.759812060986654,-3.5630152861224573,1.0773848295211792,0.362339049577713,0.2785453498363495,-0.013709953986108303,-0.0016777915880084038,0.0,0.4494052529335022
1782779320,374578062,-1.3600648085223597,-0.3466375509845179,-2.281750504170553,-4.759955827389852,-3.562991205845968,1.0812056064605713,0.4777199625968933,0.34578484296798706,0.04163319990038872,-0.001390170189552009,0.0,0.540050745010376
1782779320,382468984,-1.3567922751056116,-0.34396678606142217,-2.2816670576678675,-4.7598599831210535,-3.562991205845968,1.0853499174118042,0.3395082950592041,0.2704791724681854,-0.013614079914987087,-0.0011744541116058826,0.0,0.46446382999420166
1782779320,390487406,-1.354335133229391,-0.3419550100909632,-2.2814629713641565,-4.759991828595297,-3.5630632082568567,1.088679552078247,0.27492770552635193,0.2204202562570572,0.031374700367450714,0.0,0.0,0.3930698037147522
1782779320,398481199,-1.351769749318258,-0.34030276933778936,-2.2817986647235315,-4.759991828595297,-3.5630512873279017,1.0920692682266235,0.40817952156066895,0.2814471423625946,-0.03238137811422348,0.0,0.0,0.4787042737007141
1782779320,406507213,-1.3487251440631312,-0.3379910627948206,-2.2818945089923304,-4.759847942982809,-3.5630512873279017,1.0959498882293701,0.3360312879085541,0.25749146938323975,-0.02034921385347843,0.0,0.0,0.44927743077278137
1782779320,414477598,-1.3456204573260706,-0.3357766310321253,-2.2818105856524866,-4.760063711796896,-3.5630391279803675,1.0998185873031616,0.45164230465888977,0.33091801404953003,0.03269296512007713,0.0,0.0,0.5434766411781311
1782779320,422453910,-1.342539135609762,-0.33329707780946904,-2.2818105856524866,-4.759836022053854,-3.5630272070514124,1.1040703058242798,0.3188379108905792,0.25986912846565247,-0.030703585594892502,0.0,0.0,0.4680814743041992
1782779320,430515331,-1.3402980009662073,-0.3314412275897425,-2.281750504170553,-4.7600277105914515,-3.5630391279803675,1.107532262802124,0.25611087679862976,0.21601006388664246,0.02564624324440956,0.0,0.0,0.39534521102905273
1782779320,438587401,-1.3382843176471155,-0.32995683351625615,-2.282074753438131,-4.7600876728640955,-3.562979284917013,1.110777735710144,0.3725528120994568,0.26720666885375977,-0.027779433876276016,0.0,0.0,0.47017791867256165
1782779320,446477879,-1.3355396429644983,-0.32778913179506475,-2.282278362904684,-4.759883944188253,-3.5630391279803675,1.1146464347839355,0.31197336316108704,0.2510998845100403,-0.027587687596678734,0.0,0.0,0.4514122009277344
1782779320,454475079,-1.3327940146075647,-0.3255255858050745,-2.2820985952960413,-4.760111633931295,-3.5630152861224573,1.118515133857727,0.43078017234802246,0.32781168818473816,0.03743872046470642,0.0,0.0,0.5392965078353882
1782779320,462510538,-1.330108944569723,-0.3232625166522425,-2.2822426001178187,-4.7598000208484095,-3.562991205845968,1.1227189302444458,0.29760506749153137,0.24569259583950043,-0.03568902239203453,0.0,0.0,0.45970848202705383
1782779320,470539923,-1.327963654194967,-0.3213465849505823,-2.282074753438131,-4.759991828595297,-3.5629552046405237,1.1260247230529785,0.25911492109298706,0.22208207845687866,0.019342539831995964,0.0,0.0,0.3858345150947571
1782779320,478480901,-1.325470272694723,-0.3195865789996546,-2.282290283833639,-4.760003749524252,-3.562967363988058,1.1293903589248657,0.39870718121528625,0.2779061794281006,0.006447513122111559,-0.0010066749528050423,0.0,0.47104716300964355
1782779320,486470471,-1.322533909474508,-0.3171914259540003,-2.2822182814227503,-4.759943787251608,-3.5630152861224573,1.1331751346588135,0.33052173256874084,0.2619783580303192,-0.014381070621311665,-0.0010066749528050423,0.0,0.4373762905597687
1782779320,494475578,-1.3194649855243128,-0.31493980089296514,-2.282182518635885,-4.760135594998495,-3.5629432837115687,1.136947512626648,0.4498526453971863,0.3255746364593506,0.022650185972452164,-0.0010066749528050423,0.0,0.5222948789596558
1782779320,502560334,-1.3165400663958948,-0.3124492804156702,-2.282266441975729,-4.759788099919454,-3.562991205845968,1.141055941581726,0.33670878410339355,0.25911492109298706,-0.028019119054079056,-0.0010066749528050423,0.0,0.4551960229873657
1782779320,510512922,-1.3137114683734339,-0.3105095068560999,-2.2821224371539515,-4.759979788457052,-3.562991205845968,1.1443253755569458,0.2823675274848938,0.2222099006175995,0.017137441784143448,-0.0010066749528050423,0.0,0.37206703424453735
1782779320,518464271,-1.3110383192645472,-0.308629337941305,-2.282278362904684,-4.759991828595297,-3.5629552046405237,1.147463321685791,0.41423875093460083,0.28875911235809326,-0.0018455707468092442,-0.0010066749528050423,0.0,0.46053940057754517
1782779320,526489730,-1.307741943989889,-0.3062346617328089,-2.282182518635885,-4.759955827389852,-3.562967363988058,1.151175856590271,0.35202303528785706,0.26581332087516785,-0.0018455707468092442,-0.0010066749528050423,0.0,0.4295785427093506
1782779320,534606670,-1.3045538107501429,-0.3039353529559534,-2.2820866743670862,-4.76012355486025,-3.5630152861224573,1.1548770666122437,0.470420777797699,0.3349319398403168,0.024112261831760406,-0.0010066749528050423,0.0,0.5198916792869568
1782779320,542475629,-1.301077667866842,-0.30142051378359014,-2.282206360493795,-4.759907905255453,-3.5630391279803675,1.1589012145996094,0.35657384991645813,0.2623107135295868,-0.025598306208848953,-0.0009347695740871131,0.0,0.44210606813430786
1782779320,550530385,-1.2981651465045374,-0.29936105409731084,-2.2821224371539515,-4.759979788457052,-3.563075129185812,1.162170648574829,0.30740976333618164,0.23316508531570435,0.002061286708340049,-0.00021571606339421123,0.0,0.36645522713661194
1782779320,558468566,-1.2954085508929651,-0.2975652853595179,-2.2823384443866175,-4.760171596203939,-3.563003126774923,1.1652730703353882,0.4293484389781952,0.28694388270378113,-0.0016298546688631177,0.0,0.0,0.4478456974029541
1782779320,566469562,-1.2919443289386194,-0.29507428804506475,-2.2820985952960413,-4.759907905255453,-3.5630391279803675,1.1689375638961792,0.3678869605064392,0.275669127702713,-0.015172028914093971,0.0,0.0,0.4248999059200287
1782779320,574493632,-1.2884324232684534,-0.2926552931415003,-2.2818825880633753,-4.760171596203939,-3.562991205845968,1.1725904941558838,0.4812353551387787,0.3395082950592041,0.0367196649312973,0.0,0.0,0.5070189833641052
1782779320,582460221,-1.2850163618670862,-0.2901409308062952,-2.2817986647235315,-4.759931866322653,-3.563003126774923,1.176506757736206,0.3448772430419922,0.26812705397605896,0.01236772071570158,0.0,0.0,0.43874406814575195
1782779320,590518439,-1.2823312918292444,-0.2880809942828577,-2.281714741383688,-4.760075632725851,-3.5630632082568567,1.1796926259994507,0.2777272164821625,0.22269566357135773,0.013877732679247856,0.0,0.0,0.3678869605064392
1782779320,598588639,-1.2796581427203577,-0.28627282777895147,-2.2818825880633753,-4.760075632725851,-3.563003126774923,1.1826984882354736,0.3999471366405487,0.27991315722465515,0.0076219672337174416,0.0,0.0,0.4353565275669098
1782779320,606464339,-1.2765896956073206,-0.2839134375201624,-2.2819302717791956,-4.759955827389852,-3.5630512873279017,1.1862674951553345,0.335289865732193,0.2577087879180908,-0.019102854654192924,0.0,0.0,0.4195309579372406
1782779320,614477724,-1.2735932509051722,-0.28160268465151006,-2.281750504170553,-4.760063711796896,-3.5630152861224573,1.1898605823516846,0.44306477904319763,0.32133063673973083,0.033316146582365036,0.0,0.0,0.5055745244026184
1782779320,622466943,-1.2705729643451136,-0.2792556921588343,-2.2817629019366663,-4.759895865117208,-3.5630391279803675,1.1937527656555176,0.30996638536453247,0.24867106974124908,-0.02816293016076088,0.0,0.0,0.43388646841049194
1782779320,630592883,-1.2682955900775355,-0.2774599234210413,-2.281714741383688,-4.759955827389852,-3.5630272070514124,1.1969623565673828,0.24867106974124908,0.20697236061096191,0.017161410301923752,0.0,0.0,0.3651513457298279
1782779320,638526805,-1.266186539326803,-0.2757952849017542,-2.28184682527651,-4.760111633931295,-3.5630272070514124,1.1999329328536987,0.36957433819770813,0.26130086183547974,-0.011888351291418076,0.0,0.0,0.42827466130256653
1782779320,646462301,-1.2633574644671839,-0.2737234274493616,-2.2818945089923304,-4.759895865117208,-3.563003126774923,1.20357346534729,0.308470755815506,0.23679549992084503,-0.008580705150961876,0.0,0.0,0.4231741726398468
1782779320,654490501,-1.2605050245868128,-0.2715686003314417,-2.2817748228656214,-4.760051671658651,-3.5630512873279017,1.2071062326431274,0.42078372836112976,0.3073969781398773,0.002229065867140889,0.0,0.0,0.5012154579162598
1782779320,662569942,-1.2576878706561487,-0.2693527380572718,-2.2818105856524866,-4.759812060986654,-3.562979284917013,1.2109984159469604,0.2932204306125641,0.23783093690872192,-0.01919872872531414,0.0,0.0,0.4329405128955841
1782779320,670521123,-1.2555306593524378,-0.2676170508014124,-2.281858746205465,-4.760039750729696,-3.563003126774923,1.2141844034194946,0.23003320395946503,0.19614501297473907,0.0,0.002612561220303178,0.0,0.36627626419067383
1782779320,678468434,-1.2536490599261683,-0.2661078611956995,-2.282062832509176,-4.760063711796896,-3.5630152861224573,1.2172021865844727,0.34694811701774597,0.24887560307979584,-0.0068549769930541515,-0.0024447820615023375,0.0,0.43170055747032166
1782779320,686456486,-1.2509282271014612,-0.2640603224383753,-2.2819789091693323,-4.759967867528097,-3.5630272070514124,1.220842719078064,0.2929392158985138,0.23422609269618988,-0.021595574915409088,-0.0024447820615023375,0.0,0.42055362462997437
1782779320,694553945,-1.2481721083270472,-0.26203662553896123,-2.2820146719561976,-4.76012355486025,-3.5630152861224573,1.2243998050689697,0.4048175513744354,0.298193097114563,0.021595574915409088,0.0,0.0,0.4913468360900879
1782779320,702483460,-1.2454870382892054,-0.2598331610309046,-2.2820146719561976,-4.759883944188253,-3.5629552046405237,1.2282921075820923,0.27904388308525085,0.2317589372396469,-0.026676885783672333,0.0,0.0,0.4261782169342041
1782779320,711071195,-1.2433417479144495,-0.25807315507997686,-2.2819908300982874,-4.76012355486025,-3.563003126774923,1.2313578128814697,0.23528708517551422,0.20082364976406097,0.0027084348257631063,0.0,0.0,0.35560232400894165
1782779320,718468044,-1.2411721388446253,-0.25646859804262334,-2.282158676777975,-4.760075632725851,-3.5629552046405237,1.234351634979248,0.35906654596328735,0.25499874353408813,0.0027084348257631063,0.0,0.0,0.42419683933258057
1782779320,726479726,-1.2383196989642542,-0.25424129167665654,-2.282050911580221,-4.760003749524252,-3.5630272070514124,1.23782479763031,0.3127020001411438,0.24156363308429718,-0.019773971289396286,0.0,0.0,0.4032324254512787
1782779320,734491481,-1.235575024281637,-0.25213414827455694,-2.2819669882403772,-4.760159556065695,-3.562967363988058,1.2412140369415283,0.4169999063014984,0.3008136451244354,0.018503643572330475,0.0,0.0,0.4782952070236206
1782779320,742457181,-1.2323992888080042,-0.2497628370868128,-2.28219443956484,-4.759919826184408,-3.5629552046405237,1.2449384927749634,0.344480961561203,0.2550498843193054,-0.03082342818379402,0.0,0.0,0.4411345422267914
1782779320,750499510,-1.2292826811419886,-0.24738008180727178,-2.2819669882403772,-4.760171596203939,-3.562991205845968,1.24863862991333,0.4445987641811371,0.32515281438827515,0.027827370911836624,0.0,0.0,0.511058509349823
1782779320,758569395,-1.2259753386126917,-0.24505693117250615,-2.282050911580221,-4.759931866322653,-3.5629432837115687,1.252638816833496,0.3306240141391754,0.24876055121421814,-0.020085562020540237,0.0,0.0,0.4377853572368622
1782779320,766469818,-1.2232182661639612,-0.24309331575502569,-2.28184682527651,-4.759967867528097,-3.562991205845968,1.2557884454727173,0.27615490555763245,0.2148851454257965,0.0023249397054314613,0.0,0.0,0.35952675342559814
1782779320,774472369,-1.2206295172320765,-0.24140483537782842,-2.2820866743670862,-4.760171596203939,-3.5630152861224573,1.2586743831634521,0.38051673769950867,0.26297545433044434,0.005368933081626892,0.0,0.0,0.4125002324581146
1782779320,782491199,-1.2174537817584437,-0.23927337328066045,-2.2819669882403772,-4.759931866322653,-3.5630391279803675,1.2618962526321411,0.29061266779899597,0.22352656722068787,-0.010618023574352264,0.0,0.0,0.36356624960899353
1782779320,790506010,-1.215020481740133,-0.23750096956361944,-2.2819302717791956,-4.7600277105914515,-3.5630632082568567,1.2645069360733032,0.24560311436653137,0.19094225764274597,0.021403826773166656,0.0,0.0,0.297336608171463
1782779320,798478284,-1.2127674261676233,-0.23602849641908819,-2.282050911580221,-4.760039750729696,-3.562991205845968,1.2669378519058228,0.35126882791519165,0.23912204802036285,0.006159891840070486,0.0,0.0,0.34895506501197815
1782779320,806456095,-1.209986988698141,-0.23398095766176397,-2.2820265928851526,-4.759979788457052,-3.5630512873279017,1.2698477506637573,0.30066025257110596,0.2237822413444519,-0.01661013625562191,0.0,0.0,0.3613036274909973
1782779320,814480868,-1.2072308699237269,-0.23187333742250615,-2.2817867437945765,-4.760051671658651,-3.5630512873279017,1.2729374170303345,0.3989628553390503,0.2925429344177246,0.031566448509693146,0.0,0.0,0.4358934462070465
1782779320,822493976,-1.204521958027975,-0.22969419160951787,-2.2817867437945765,-4.759955827389852,-3.5630512873279017,1.2763147354125977,0.28431054949760437,0.22714421153068542,0.00635163951665163,0.0,0.0,0.38895362615585327
1782779320,830502324,-1.2023409048663538,-0.22804147401918584,-2.281714741383688,-4.7600277105914515,-3.563099209462301,1.279248595237732,0.22866541147232056,0.1880660504102707,0.0034274884965270758,0.0,0.0,0.32879599928855896
1782779320,838473875,-1.2002432982074183,-0.22647267976869756,-2.28187066713442,-4.760075632725851,-3.5630152861224573,1.2818713188171387,0.34306201338768005,0.2412824034690857,0.0034274884965270758,0.0,0.0,0.37981364130973816
1782779320,846471335,-1.1975467840777796,-0.22443753877748662,-2.28187066713442,-4.7600277105914515,-3.5630272070514124,1.2850924730300903,0.2870333790779114,0.22255505621433258,-0.0010546118719503284,0.0,0.0,0.3817311227321625
1782779320,854570256,-1.1949580351458948,-0.22250920930971319,-2.2817867437945765,-4.76012355486025,-3.5630512873279017,1.2883858680725098,0.3718752861022949,0.2764105498790741,0.016178704798221588,0.0,0.0,0.4540327489376068
1782779320,862473493,-1.192249600087301,-0.22036630312074834,-2.2817986647235315,-4.759907905255453,-3.5630152861224573,1.2919065952301025,0.26789698004722595,0.21478287875652313,-0.018503643572330475,0.0,0.0,0.39136964082717896
1782779320,870504675,-1.1901887098895472,-0.21873790422548467,-2.281726662312643,-4.7600277105914515,-3.5630512873279017,1.2947806119918823,0.21601006388664246,0.17960359156131744,0.014381070621311665,0.0,0.0,0.3250121772289276
1782779320,878473652,-1.1883905569659632,-0.217384163533346,-2.2819302717791956,-4.76012355486025,-3.5630512873279017,1.2974750995635986,0.3170354962348938,0.22173692286014557,-0.0023728767409920692,0.0,0.0,0.3824341893196106
1782779320,886479723,-1.1860173384295862,-0.2155526320086878,-2.2820027510272425,-4.759955827389852,-3.562991205845968,1.3006364107131958,0.2637679874897003,0.20432624220848083,-0.021595574915409088,0.0,0.0,0.37651559710502625
1782779320,894493534,-1.1836450735675257,-0.21369678178896123,-2.2819302717791956,-4.76014751592745,-3.5630632082568567,1.3038822412490845,0.35640767216682434,0.2653658986091614,-0.007526093628257513,0.0,0.0,0.44320541620254517
1782779320,902463715,-1.181415859852926,-0.21185189882387334,-2.2820146719561976,-4.759919826184408,-3.5630391279803675,1.3072826862335205,0.24080942571163177,0.1984076350927353,0.005584648810327053,0.0,0.0,0.3796218931674957
1782779320,910514118,-1.179593865071432,-0.21040326753725225,-2.2819302717791956,-4.760099593793051,-3.5630512873279017,1.310097098350525,0.19863773882389069,0.16745957732200623,0.005392901599407196,0.0,0.0,0.31699714064598083
1782779320,918472985,-1.1778925100909632,-0.20900231996645147,-2.2820985952960413,-4.760075632725851,-3.562979284917013,1.3127074241638184,0.3028845191001892,0.2189246267080307,0.0032357408199459314,0.0,0.0,0.37733373045921326
1782779320,926473463,-1.175591293965475,-0.20723039308656865,-2.2819789091693323,-4.759931866322653,-3.5630272070514124,1.3157975673675537,0.25834792852401733,0.20391719043254852,-0.0027324033435434103,0.0,0.0,0.3604982793331146
1782779320,934481885,-1.1731465498553675,-0.205482308064596,-2.2819789091693323,-4.760159556065695,-3.5630152861224573,1.3188269138336182,0.3572002053260803,0.25921720266342163,0.0019654128700494766,0.0,0.0,0.4201573431491852
1782779320,942479844,-1.1707976500140589,-0.203590218220846,-2.2821348349200647,-4.759895865117208,-3.562991205845968,1.3221079111099243,0.25483256578445435,0.20063190162181854,-0.020061593502759933,0.0,0.0,0.3617638051509857
1782779320,950549932,-1.168760124837057,-0.20202190080751592,-2.282050911580221,-4.760051671658651,-3.5630272070514124,1.3246946334838867,0.21662366390228271,0.17442640662193298,-0.006974819116294384,0.0,0.0,0.29815474152565
1782779320,958485595,-1.1667469183551233,-0.2005847136126917,-2.282278362904684,-4.760111633931295,-3.563003126774923,1.327221155166626,0.316051185131073,0.21900132298469543,-0.005392901599407196,0.0,0.0,0.3622879087924957
1782779320,966467832,-1.1640985647784632,-0.19872838655580694,-2.2820265928851526,-4.759907905255453,-3.562979284917013,1.3302032947540283,0.2818434238433838,0.20919662714004517,0.003379551460966468,0.0,0.0,0.34593823552131653
1782779320,974482254,-1.1613906065570276,-0.19684869447817022,-2.282062832509176,-4.760195557271139,-3.562991205845968,1.333113193511963,0.3752756118774414,0.2642281949520111,0.014189322479069233,0.0,0.0,0.40279778838157654
1782779320,982483250,-1.1586573759662073,-0.19483691850771123,-2.2821224371539515,-4.7598599831210535,-3.5630632082568567,1.3361666202545166,0.26638856530189514,0.2062692940235138,-0.002061286708340049,0.0003115898580290377,0.0,0.34478774666786194
1782779320,990497765,-1.1563804785357874,-0.193244759236471,-2.2820265928851526,-4.759991828595297,-3.563075129185812,1.3385975360870361,0.2248815894126892,0.17751993238925934,-0.008628642186522484,0.0003115898580290377,0.0,0.2903825640678406
1782779320,998518539,-1.1542118231402796,-0.19180757204164678,-2.282182518635885,-4.760063711796896,-3.562991205845968,1.3410524129867554,0.32267287373542786,0.21924421191215515,0.0032836778555065393,0.0003115898580290377,0.0,0.3505018353462219
1782779321,6486720,-1.1516593138324183,-0.1898558775531214,-2.2820265928851526,-4.759895865117208,-3.5630391279803675,1.3438308238983154,0.271668016910553,0.20559178292751312,-0.005440838169306517,0.0003115898580290377,0.0,0.33076462149620056
1782779321,14510957,-1.1490348021136683,-0.18802386919130498,-2.281955067311422,-4.7600876728640955,-3.562979284917013,1.346632957458496,0.35994860529899597,0.25317075848579407,0.014381070621311665,0.0,0.0,0.39009132981300354
1782779321,22468972,-1.1465657393084925,-0.18604833284486944,-2.281955067311422,-4.759907905255453,-3.5630512873279017,1.3495664596557617,0.252953439950943,0.196617990732193,0.005608617328107357,0.0,0.0,0.33549439907073975
1782779321,30519838,-1.1445768515216272,-0.18458730379213506,-2.281942669545309,-4.760003749524252,-3.5630512873279017,1.352021336555481,0.20421119034290314,0.1623079478740692,0.0023728767409920692,0.0,0.0,0.28158774971961975
1782779321,38485779,-1.142754856740133,-0.18330651918520147,-2.2820027510272425,-4.760003749524252,-3.563003126774923,1.354332447052002,0.3018362820148468,0.20605197548866272,0.0023728767409920692,0.0,0.0,0.3349319398403168
1782779321,46478905,-1.1404302755938929,-0.18153411546816045,-2.2819669882403772,-4.759943787251608,-3.5630512873279017,1.3570150136947632,0.2501794993877411,0.19058433175086975,-0.0010546118719503284,0.0,0.0,0.3206019997596741
1782779321,54526067,-1.1382249037372034,-0.17988139787782842,-2.28187066713442,-4.760099593793051,-3.5630272070514124,1.3596853017807007,0.33133986592292786,0.23610521852970123,0.0019174760673195124,0.0,0.0,0.37981364130973816
1782779321,62473693,-1.1359360853778284,-0.17818147340883428,-2.28184682527651,-4.759907905255453,-3.5630512873279017,1.3625472784042358,0.23592625558376312,0.1820707470178604,0.005105279851704836,0.0,0.0,0.3268529772758484
1782779321,70516652,-1.134150807057516,-0.17673236528505498,-2.281858746205465,-4.760003749524252,-3.5630272070514124,1.3649063110351562,0.18971507251262665,0.154497429728508,0.0023489082232117653,0.0,0.0,0.2753112018108368
1782779321,78569055,-1.1324494520770472,-0.17558318773378545,-2.2819789091693323,-4.7600876728640955,-3.563003126774923,1.3671334981918335,0.2764105498790741,0.19068659842014313,0.0023489082232117653,0.0,0.0,0.32285183668136597
1782779321,86467959,-1.1303637663470667,-0.17397815385927373,-2.2819302717791956,-4.759907905255453,-3.5630512873279017,1.3697917461395264,0.22913838922977448,0.17819744348526,-0.0011025487910956144,0.0,0.0,0.31688207387924194
1782779321,94476103,-1.1282551924334925,-0.17245752016176397,-2.2819302717791956,-4.760075632725851,-3.5630512873279017,1.3724743127822876,0.30822786688804626,0.22491994500160217,0.0013662016717717052,0.0,0.0,0.3721053898334503
1782779321,102481822,-1.1262057463275355,-0.17080527940859014,-2.2819302717791956,-4.759871904050009,-3.5630391279803675,1.3752284049987793,0.2135429084300995,0.17332704365253448,-0.0028522456996142864,0.0,0.0,0.3194642961025238
1782779321,110510596,-1.1246359984027308,-0.16947585741151983,-2.281942669545309,-4.759991828595297,-3.5630632082568567,1.3775994777679443,0.17427299916744232,0.1459454894065857,0.0,0.0,0.0,0.27093935012817383
1782779321,118492147,-1.1231978575335901,-0.16845828691591436,-2.2820385138141077,-4.760075632725851,-3.5630152861224573,1.3798266649246216,0.2533752918243408,0.17629274725914001,0.0,0.0,0.0,0.3204997181892395
1782779321,126465662,-1.1213167349444788,-0.16694957414735967,-2.2819908300982874,-4.759907905255453,-3.562991205845968,1.3824489116668701,0.21103741228580475,0.1704508364200592,-0.0049614692106842995,0.0,0.0,0.30110764503479004
1782779321,134501417,-1.1194475332843226,-0.16544086137880498,-2.2820027510272425,-4.760051671658651,-3.5630272070514124,1.3849517107009888,0.2880176901817322,0.21411815285682678,0.0017736653098836541,0.0,0.0,0.3526366353034973
1782779321,142533191,-1.1175535360919397,-0.16390830675234014,-2.282050911580221,-4.759943787251608,-3.562991205845968,1.387645959854126,0.1998521387577057,0.16347122192382812,-0.0023489082232117653,0.0,0.0,0.3021303117275238
1782779321,150509076,-1.1161039511310022,-0.16256696382631475,-2.2819669882403772,-4.759991828595297,-3.562991205845968,1.3898851871490479,0.16786862909793854,0.14110067486763,0.0,0.0,0.0,0.25326022505760193
1782779321,158472795,-1.1146414915667933,-0.16151363054384404,-2.2821224371539515,-4.76012355486025,-3.562979284917013,1.391968846321106,0.25430846214294434,0.17332704365253448,0.0,0.0,0.0,0.3015422821044922
1782779321,166460495,-1.1127246061908167,-0.15994483629335576,-2.2820265928851526,-4.759919826184408,-3.5630632082568567,1.394471287727356,0.21750569343566895,0.16745957732200623,-0.004434163216501474,0.0,0.0,0.28326234221458435
1782779321,174544231,-1.1106751600848597,-0.15851957002748662,-2.282074753438131,-4.760099593793051,-3.5630272070514124,1.3967944383621216,0.29534244537353516,0.20688287913799286,0.0033316146582365036,0.0,0.0,0.32671234011650085
1782779321,182474561,-1.1087105909930628,-0.1569154898272913,-2.282062832509176,-4.759931866322653,-3.5630632082568567,1.3993088006973267,0.21034711599349976,0.1616687923669815,-0.0017257285071536899,0.0,0.0,0.2849752902984619
1782779321,190494057,-1.1070922056781214,-0.1556342283831995,-2.2820146719561976,-4.759979788457052,-3.5630632082568567,1.4013925790786743,0.18047285079956055,0.13928546011447906,-0.0017257285071536899,0.0,0.0,0.2355683147907257
1782779321,198477127,-1.105415169392721,-0.15448457399477178,-2.2821105162249964,-4.760111633931295,-3.562991205845968,1.4033924341201782,0.26131364703178406,0.17023351788520813,0.0,0.0,0.0,0.2844511866569519
1782779321,206469753,-1.1033299604998987,-0.15301210085024053,-2.2820027510272425,-4.759907905255453,-3.5630152861224573,1.4056916236877441,0.22281071543693542,0.1632794737815857,0.0,0.0,0.0,0.26604339480400085
1782779321,214495360,-1.1011489073382776,-0.15156299272646123,-2.2820265928851526,-4.7600876728640955,-3.5630512873279017,1.4079303741455078,0.29393628239631653,0.2012966275215149,0.0016058861510828137,0.0,0.0,0.308470755815506
1782779321,222462264,-1.0990155378924769,-0.15005427995790654,-2.2820385138141077,-4.759907905255453,-3.562991205845968,1.4102414846420288,0.21244356036186218,0.1536920964717865,0.0016058861510828137,0.0,0.0,0.2645605504512787
1782779321,230527945,-1.0973261038409632,-0.1489165464984339,-2.2819908300982874,-4.759979788457052,-3.5630632082568567,1.4121454954147339,0.17835083603858948,0.13157720863819122,0.0016058861510828137,0.0,0.0,0.21960213780403137
1782779321,238500052,-1.0957325140582483,-0.14787513414491826,-2.2820866743670862,-4.760099593793051,-3.5630152861224573,1.41400146484375,0.24404355883598328,0.16418707370758057,0.0016058861510828137,0.0,0.0,0.26811426877975464
1782779321,246465067,-1.0938151518451136,-0.14647418657411748,-2.2820265928851526,-4.759895865117208,-3.5630272070514124,1.4162167310714722,0.20082364976406097,0.15243934094905853,-0.0004793690168298781,0.0,0.0,0.2525443732738495
1782779321,254478674,-1.0919459501849573,-0.14516908327211553,-2.281955067311422,-4.76012355486025,-3.5630272070514124,1.418312430381775,0.26535311341285706,0.1894594132900238,0.0023489082232117653,0.0,0.0,0.2915074825286865
1782779321,262470911,-1.0901363531695765,-0.1437442938434046,-2.281942669545309,-4.759931866322653,-3.5630152861224573,1.4205156564712524,0.1878998726606369,0.1490134596824646,0.0,0.0,0.0,0.2505885362625122
1782779321,270605592,-1.088733975087301,-0.14260656038393194,-2.281942669545309,-4.759979788457052,-3.5630152861224573,1.4222759008407593,0.15329581499099731,0.1239967793226242,0.0,0.0,0.0,0.20543837547302246
1782779321,278493885,-1.0872719923602503,-0.14170819917787725,-2.2820027510272425,-4.760039750729696,-3.562979284917013,1.4239881038665771,0.22426798939704895,0.15171070396900177,0.0,0.0,0.0,0.2471754401922226
1782779321,286467233,-1.0856903235064905,-0.14037925401796514,-2.2820146719561976,-4.759895865117208,-3.5630512873279017,1.426131010055542,0.18704339861869812,0.143401637673378,0.0,0.0,0.0,0.24442705512046814
1782779321,294476377,-1.0840371290790003,-0.139169994984762,-2.281942669545309,-4.760099593793051,-3.562979284917013,1.4281548261642456,0.23912204802036285,0.17590925097465515,0.0,0.0,0.0,0.28170278668403625
1782779321,302476743,-1.082526985798971,-0.1379006544696253,-2.281955067311422,-4.759883944188253,-3.5630632082568567,1.430322527885437,0.16745957732200623,0.1348496973514557,0.0,0.0,0.0,0.23872576653957367
1782779321,310491906,-1.081268612538473,-0.13690692583192998,-2.281955067311422,-4.760003749524252,-3.5630632082568567,1.4319988489151,0.13764920830726624,0.11305438727140427,0.0,0.0,0.0,0.20132219791412354
1782779321,318475791,-1.0800707975970667,-0.13602096239198858,-2.2820146719561976,-4.760039750729696,-3.563003126774923,1.4336631298065186,0.1998521387577057,0.13856959342956543,0.0,0.0,0.0,0.2377542406320572
1782779321,326462917,-1.078608814870016,-0.13488322893251592,-2.2820385138141077,-4.759895865117208,-3.5630152861224573,1.4356986284255981,0.1665136218070984,0.13032445311546326,0.0,0.0,0.0,0.2292662113904953
1782779321,334476543,-1.0771830717669886,-0.13376981416811162,-2.2819908300982874,-4.760063711796896,-3.5630512873279017,1.4376025199890137,0.22352656722068787,0.16276815533638,0.0,0.0,0.0,0.26546815037727356
1782779321,342548076,-1.0757325331317347,-0.13254815736879522,-2.2819789091693323,-4.759919826184408,-3.5630272070514124,1.4396499395370483,0.1572202444076538,0.12292299419641495,0.0,0.0,0.0,0.22748935222625732
1782779321,350501257,-1.074618164693014,-0.13163882890810186,-2.2819908300982874,-4.760015789662496,-3.5630512873279017,1.4412424564361572,0.12733319401741028,0.10534613579511642,0.0,0.0,0.0,0.18866686522960663
1782779321,358467050,-1.0735161940204065,-0.130836311970846,-2.2820866743670862,-4.760099593793051,-3.562991205845968,1.4428231716156006,0.1834513247013092,0.12717978656291962,0.0,0.0,0.0,0.2240123301744461
1782779321,366471990,-1.0721023718463343,-0.1297224203692835,-2.2820027510272425,-4.759955827389852,-3.5630272070514124,1.4446908235549927,0.1547403186559677,0.12219435721635818,-0.0004793690168298781,0.0,0.0,0.20998919010162354
1782779321,374577764,-1.0707600752459925,-0.12868100801576787,-2.2820265928851526,-4.760063711796896,-3.5630272070514124,1.4464633464813232,0.20584744215011597,0.14891119301319122,-0.0004793690168298781,0.0,0.0,0.24147415161132812
1782779321,382470908,-1.0693581740008753,-0.12753135362734014,-2.282074753438131,-4.759943787251608,-3.5630272070514124,1.4482595920562744,0.14553643763065338,0.11380859464406967,-0.0004793690168298781,0.0,0.0,0.20857025682926178
1782779321,390486293,-1.068183724080221,-0.12658530870546514,-2.2820146719561976,-4.759967867528097,-3.5630632082568567,1.4497441053390503,0.1225522831082344,0.0991462916135788,-0.0004793690168298781,0.0,0.0,0.17208708822727203
1782779321,398582770,-1.0670693556415003,-0.12589055696596319,-2.2821105162249964,-4.7600876728640955,-3.562991205845968,1.4512410163879395,0.17960359156131744,0.11970163881778717,-0.0004793690168298781,0.0,0.0,0.20637154579162598
1782779321,406507119,-1.0655596891986292,-0.12475330034364873,-2.2820265928851526,-4.759943787251608,-3.563003126774923,1.4529292583465576,0.155315563082695,0.11449888348579407,0.0,0.0,0.0,0.19484113156795502
1782779321,414491800,-1.0641220251666468,-0.1237714926349085,-2.2820265928851526,-4.760063711796896,-3.5630391279803675,1.4544737339019775,0.20616702735424042,0.14042316377162933,0.0,0.0,0.0,0.21947430074214935
1782779321,422459630,-1.0626118818866175,-0.12268191972841436,-2.2820866743670862,-4.759931866322653,-3.563003126774923,1.45619797706604,0.14800357818603516,0.11091959476470947,0.0,0.0,0.0,0.18738853931427002
1782779321,430521218,-1.0613654295550745,-0.12185556093324834,-2.2820027510272425,-4.759991828595297,-3.5630512873279017,1.4575510025024414,0.12709030508995056,0.09515794366598129,0.0,0.0,0.0,0.1535770446062088
1782779321,438582677,-1.0601914564715784,-0.12106544176210576,-2.2820866743670862,-4.760075632725851,-3.5630391279803675,1.4587962627410889,0.1739150732755661,0.11428157240152359,0.0,0.0,0.0,0.1826332062482834
1782779321,446475303,-1.0588377157794397,-0.12009555498232061,-2.2819789091693323,-4.759931866322653,-3.5630632082568567,1.4602333307266235,0.14451377093791962,0.10886150598526001,0.0,0.0,0.0,0.17636944353580475
1782779321,454481781,-1.0575555006610315,-0.11913806596864873,-2.2819302717791956,-4.760051671658651,-3.5630152861224573,1.4617178440093994,0.18924209475517273,0.13350746035575867,0.0003115898580290377,0.0,0.0,0.2056429088115692
1782779321,462469295,-1.0562251249896448,-0.1181557814227503,-2.2820027510272425,-4.759907905255453,-3.5630272070514124,1.4632750749588013,0.13499031960964203,0.10344143956899643,0.0003115898580290377,0.0,0.0,0.17667624354362488
1782779321,470506717,-1.055206600819723,-0.1173775831805628,-2.2819669882403772,-4.760015789662496,-3.5630272070514124,1.4644843339920044,0.11056166887283325,0.08682331442832947,0.0003115898580290377,0.0,0.0,0.14476944506168365
1782779321,478485676,-1.0542243162738245,-0.11669522920717412,-2.2819789091693323,-4.760099593793051,-3.5630632082568567,1.4657056331634521,0.15194080770015717,0.10541004687547684,0.0003115898580290377,0.0,0.0,0.16995228826999664
1782779321,486477135,-1.0530498663531702,-0.11582070985902959,-2.2819789091693323,-4.759883944188253,-3.563087050114767,1.4671541452407837,0.12753772735595703,0.09644904732704163,0.0003115898580290377,0.0,0.0,0.16115747392177582
1782779321,494470669,-1.0519474188434046,-0.11500674882997686,-2.281942669545309,-4.760099593793051,-3.5630632082568567,1.4684712886810303,0.1632794737815857,0.11683820933103561,0.0,0.0,0.0,0.18493416905403137
1782779321,502463702,-1.0508454481707972,-0.11416846910585576,-2.281955067311422,-4.759967867528097,-3.5630512873279017,1.469848394393921,0.11745180189609528,0.09106732904911041,0.0,0.0,0.0,0.15626151859760284
1782779321,510494772,-1.0501387755023401,-0.11346227327455694,-2.281955067311422,-4.759955827389852,-3.5630272070514124,1.4709737300872803,0.09609111398458481,0.07650729268789291,0.0,0.0,0.0,0.13091248273849487
1782779321,518476842,-1.0492518583880823,-0.11293536821474248,-2.2820027510272425,-4.7600876728640955,-3.5630272070514124,1.4719797372817993,0.13148772716522217,0.08837007731199265,0.0,0.0,0.0,0.1544463038444519
1782779321,526459838,-1.0482333342181605,-0.1122048536883753,-2.2819908300982874,-4.759955827389852,-3.563075129185812,1.473308801651001,0.11146927624940872,0.08504645526409149,0.0,0.0,0.0,0.14783740043640137
1782779321,534487483,-1.0473702589618128,-0.11146241823305303,-2.2820146719561976,-4.760015789662496,-3.563003126774923,1.4745780229568481,0.14094726741313934,0.10142169892787933,0.0,0.0,0.0,0.16938982903957367
1782779321,542468942,-1.0465076605426233,-0.1107562224017542,-2.2819789091693323,-4.759955827389852,-3.5630632082568567,1.4758352041244507,0.09742056578397751,0.07772169262170792,0.0,0.0,0.0,0.14260908961296082
1782779321,550493845,-1.045800511037008,-0.11019307771791631,-2.2820146719561976,-4.759931866322653,-3.5630391279803675,1.4768887758255005,0.07875712960958481,0.06498965620994568,0.0,0.0,0.0,0.11945875734090805
1782779321,558518156,-1.04518968263735,-0.10971433321108037,-2.2820027510272425,-4.760063711796896,-3.5630152861224573,1.47789466381073,0.11008869111537933,0.07980535179376602,0.0,0.0,0.0,0.1386718600988388
1782779321,566465615,-1.0443394819842737,-0.10898381868471319,-2.2820146719561976,-4.759931866322653,-3.5630391279803675,1.4790563583374023,0.09524742513895035,0.07442363351583481,0.0,0.0,0.0,0.1304139345884323
1782779321,574565759,-1.0435965696917933,-0.10845691362489873,-2.2819908300982874,-4.760075632725851,-3.563003126774923,1.480085849761963,0.11998286843299866,0.0888686254620552,0.0,0.0,0.0,0.14694258570671082
1782779321,582474756,-1.0427935759173792,-0.1078103224383753,-2.2820146719561976,-4.760003749524252,-3.5630152861224573,1.4812113046646118,0.08482913672924042,0.06716279685497284,0.0,0.0,0.0,0.12477655708789825
1782779321,590490141,-1.0421102682696741,-0.10729581514467412,-2.2820265928851526,-4.759991828595297,-3.563003126774923,1.4821093082427979,0.07009013742208481,0.05839353799819946,0.0,0.0,0.0,0.10261053591966629
1782779321,598474859,-1.0415952841388147,-0.1068647543536585,-2.2820866743670862,-4.760051671658651,-3.5630391279803675,1.4830074310302734,0.09951700270175934,0.06982169300317764,0.0,0.0,0.0,0.11907526105642319
1782779321,606511096,-1.0407803694354456,-0.1062539259540003,-2.2820027510272425,-4.759943787251608,-3.5630632082568567,1.4839295148849487,0.0876542180776596,0.06695826351642609,0.0,0.0,0.0,0.11302881687879562
1782779321,614495462,-1.0399892965899866,-0.10569125810732061,-2.2819908300982874,-4.760075632725851,-3.563003126774923,1.4848155975341797,0.11182720214128494,0.08133932948112488,0.0,0.0,0.0,0.12486603856086731
1782779321,622459458,-1.0392230192767542,-0.10512859026064092,-2.2820385138141077,-4.759967867528097,-3.562979284917013,1.485809087753296,0.08407492935657501,0.06266311556100845,0.0,0.0,0.0,0.10716134309768677
1782779321,630506029,-1.0385163466082972,-0.10464936891664678,-2.2820146719561976,-4.759991828595297,-3.563003126774923,1.4865877628326416,0.0703202411532402,0.05429013818502426,0.0,0.0,0.0,0.0873602107167244
1782779321,638523488,-1.0378087202655237,-0.10418254533876592,-2.282074753438131,-4.760015789662496,-3.563003126774923,1.487234115600586,0.09524742513895035,0.06555211544036865,0.0,0.0,0.0,0.1014600470662117
1782779321,646481706,-1.037018124257223,-0.10361987749208623,-2.2819669882403772,-4.759943787251608,-3.5630272070514124,1.4881322383880615,0.08434338122606277,0.06075842306017876,0.0,0.0,0.0,0.09681975841522217
1782779321,654478165,-1.0362151304828089,-0.1030810515033167,-2.2819908300982874,-4.760075632725851,-3.5630272070514124,1.488910436630249,0.10216312110424042,0.07204596698284149,0.0,0.0,0.0,0.10230373591184616
1782779321,662466921,-1.035412613545553,-0.10260183015932256,-2.2819789091693323,-4.759967867528097,-3.563003126774923,1.4896886348724365,0.07490939646959305,0.0563354454934597,0.0,0.0,0.0,0.08695114403963089
1782779321,670584064,-1.0348370710956019,-0.10212260881532842,-2.2819789091693323,-4.759967867528097,-3.5630272070514124,1.4902634620666504,0.060029782354831696,0.0476684533059597,0.0,0.0,0.0,0.06994952261447906
1782779321,678486116,-1.034262482319967,-0.10172778764833623,-2.2820146719561976,-4.760039750729696,-3.5630152861224573,1.4907784461975098,0.07704418897628784,0.05475033074617386,0.0,0.0,0.0,0.08315454423427582
1782779321,686456853,-1.0336030165301722,-0.10132104555238897,-2.2819908300982874,-4.759943787251608,-3.563003126774923,1.491472840309143,0.06296991556882858,0.0503273531794548,0.0,0.0,0.0,0.07485826313495636
1782779321,694478572,-1.0330880323993128,-0.10087758699526006,-2.2819908300982874,-4.759991828595297,-3.563003126774923,1.4920116662979126,0.08035502582788467,0.0561053492128849,0.0,0.0,0.0,0.08321846276521683
1782779321,702510568,-1.0324648062335413,-0.10048228899110967,-2.2819908300982874,-4.759979788457052,-3.563003126774923,1.4926581382751465,0.05439240485429764,0.04366732016205788,0.0,0.0,0.0,0.07028188556432724
1782779321,710494119,-1.0320819059955042,-0.10012323061098272,-2.2819908300982874,-4.759967867528097,-3.5630632082568567,1.4931490421295166,0.040893372148275375,0.03515372797846794,0.0,0.0,0.0,0.05825292319059372
1782779321,718474449,-1.0317581335650843,-0.09989577928651983,-2.2819669882403772,-4.760039750729696,-3.5630632082568567,1.4936280250549316,0.05698738619685173,0.03978123515844345,0.0,0.0,0.0,0.06422266364097595
1782779321,726467260,-1.0313027540790003,-0.09948856035341436,-2.281955067311422,-4.759955827389852,-3.5630272070514124,1.494166612625122,0.044204212725162506,0.036201946437358856,0.0,0.0,0.0,0.061295315623283386
1782779321,734480108,-1.0309069792376917,-0.09926110902895147,-2.2819789091693323,-4.7600277105914515,-3.5630632082568567,1.4946695566177368,0.05228317901492119,0.0406760573387146,0.0,0.0,0.0,0.06331505626440048
1782779321,742480585,-1.030595604573385,-0.09898597398866826,-2.281955067311422,-4.759967867528097,-3.5630632082568567,1.4951848983764648,0.03431003913283348,0.028915539383888245,0.0,0.0,0.0,0.05352314934134483
1782779321,750498230,-1.0303557554828089,-0.09876996675600225,-2.2819669882403772,-4.760003749524252,-3.563003126774923,1.4956039190292358,0.025349033996462822,0.023661654442548752,0.0,0.0,0.0,0.04406359791755676
1782779321,758476152,-1.030128304158346,-0.09856683412660772,-2.2819789091693323,-4.760063711796896,-3.5630152861224573,1.4959272146224976,0.03520486131310463,0.025604696944355965,0.0,0.0,0.0,0.04765567183494568
1782779321,766484037,-1.02991229692568,-0.0983508268939417,-2.281955067311422,-4.760003749524252,-3.5630512873279017,1.4963582754135132,0.02587314322590828,0.023316508159041405,0.0,0.0,0.0,0.04639013484120369
1782779321,774493551,-1.0297210852252405,-0.09820729890932256,-2.2819908300982874,-4.760003749524252,-3.563003126774923,1.496573567390442,0.03129320964217186,0.02582200989127159,0.0,0.0,0.0,0.04686311259865761
1782779321,782476751,-1.029553238545553,-0.09798032442201787,-2.2819789091693323,-4.760039750729696,-3.563075129185812,1.497052550315857,0.01787087693810463,0.016400812193751335,0.0,0.0,0.0,0.03935939073562622
1782779321,790498932,-1.0294812361346644,-0.09798032442201787,-2.2820265928851526,-4.759967867528097,-3.5630512873279017,1.4972562789916992,0.011351457796990871,0.012028966099023819,0.0,0.0,0.0,0.030794665217399597
1782779321,798480706,-1.029421631489889,-0.09787255922426397,-2.282050911580221,-4.760003749524252,-3.5630272070514124,1.4975675344467163,0.01571051962673664,0.014304371550679207,0.0,0.0,0.0,0.0322391651570797
1782779321,806512147,-1.0293615500079554,-0.09775239626039678,-2.2819669882403772,-4.760003749524252,-3.5630272070514124,1.497782826423645,0.01507136132568121,0.01251472719013691,0.0,0.0,0.0,0.028186896815896034
1782779321,814493087,-1.0292776266681116,-0.09768039384950811,-2.2819908300982874,-4.759943787251608,-3.5630152861224573,1.4979506731033325,0.014023141004145145,0.012271846644580364,0.0,0.0,0.0,0.02436472848057747
1782779321,822472954,-1.0291817823993128,-0.09751302400697881,-2.2820265928851526,-4.7600277105914515,-3.562991205845968,1.4981659650802612,0.012207930907607079,0.01020097266882658,0.0,0.0,0.0,0.019813919439911842
1782779321,830511839,-1.029097859059469,-0.09756118455995733,-2.2820027510272425,-4.759991828595297,-3.5630272070514124,1.4982978105545044,0.007273625582456589,0.005535114090889692,0.0,0.0,0.0,0.013486248441040516
1782779321,838575224,-1.0290740172015589,-0.09751302400697881,-2.2820265928851526,-4.759979788457052,-3.563003126774923,1.4983817338943481,0.011594338342547417,0.00800226628780365,0.0,0.0,0.0,0.010073140263557434
1782779321,846475368,-1.0289066473590296,-0.09738141695131475,-2.2820385138141077,-4.760003749524252,-3.563003126774923,1.4984655380249023,0.007375891320407391,0.007529288996011019,0.0,0.0,0.0,0.010009224526584148
1782779321,854474772,-1.028858486806051,-0.0974653402911585,-2.2820146719561976,-4.759979788457052,-3.5630152861224573,1.498489499092102,0.006084790453314781,0.0028889973182231188,0.0,0.0,0.0,0.0062765381298959255
1782779321,862473749,-1.0287869612323206,-0.09741717973817998,-2.2820027510272425,-4.759991828595297,-3.5630152861224573,1.498477578163147,0.003579288488253951,0.0017896442441269755,0.0,0.0,0.0,-0.0007158577209338546
1782779321,870501819,-1.028726879750387,-0.09741717973817998,-2.2819669882403772,-4.760015789662496,-3.562979284917013,1.4984655380249023,0.003016829025000334,0.001291100517846644,0.0,0.0,0.0,-0.0007158577209338546
1782779321,878473631,-1.028714958821432,-0.0974052588092249,-2.2819669882403772,-4.759979788457052,-3.5630152861224573,1.498489499092102,0.002684466540813446,0.0010098706698045135,0.0,0.0,0.0,-0.0025694179348647594
1782779321,886469923,-1.0286906401263636,-0.09741717973817998,-2.282050911580221,-4.760003749524252,-3.5630152861224573,1.4983097314834595,0.0017129452899098396,-0.00023009712458588183,0.0,0.0,0.0,-0.01393365953117609
1782779321,894478771,-1.0286791960345667,-0.09751302400697881,-2.2820027510272425,-4.760003749524252,-3.5630272070514124,1.4981659650802612,-0.0003195793251506984,-0.008973787538707256,0.0,0.0,0.0,-0.022792398929595947
1782779321,902469323,-1.0287507216082972,-0.09750110307802373,-2.2819789091693323,-4.759991828595297,-3.5630632082568567,1.4980344772338867,-0.005790777504444122,-0.007529288996011019,0.0,0.0,0.0,-0.01913641020655632
1782779321,910490115,-1.0287030378924769,-0.09753734270204717,-2.2819908300982874,-4.759991828595297,-3.5630632082568567,1.497902750968933,-0.0029529130551964045,-0.003975566942244768,0.0,0.0,0.0,-0.01678430661559105
1782779321,918469389,-1.0287745634662073,-0.09770471254457647,-2.2820146719561976,-4.760015789662496,-3.5630632082568567,1.4977233409881592,-0.01733398251235485,-0.017039969563484192,0.0,0.0,0.0,-0.02720259316265583
1782779321,926459385,-1.0288823286639612,-0.09775239626039678,-2.2819789091693323,-4.7600277105914515,-3.563003126774923,1.4974356889724731,-0.013639646582305431,-0.013447898440063,0.0,0.0,0.0,-0.02804628200829029
1782779321,934516048,-1.0290620962726038,-0.09793216386903936,-2.2819908300982874,-4.759991828595297,-3.562991205845968,1.4972683191299438,-0.029171202331781387,-0.024530909955501556,0.0,0.0,0.0,-0.036853890866041183
1782779321,942472544,-1.0292895475970667,-0.09815913835634404,-2.2819908300982874,-4.760015789662496,-3.562991205845968,1.4969327449798584,-0.021143369376659393,-0.01629854552447796,0.0,0.0,0.0,-0.03340243175625801
1782779321,950492929,-1.0294573942767542,-0.0982430616961878,-2.2819789091693323,-4.760003749524252,-3.5630152861224573,1.4967173337936401,-0.0201079323887825,-0.016745956614613533,0.0,0.0,0.0,-0.029682528227567673
1782779321,958480906,-1.0296853224383753,-0.09837514558901006,-2.2819669882403772,-4.760003749524252,-3.5630391279803675,1.4964301586151123,-0.037940457463264465,-0.026192722842097282,0.0,0.0,0.0,-0.04116182029247284
1782779321,966456125,-1.0300324598895472,-0.09863883653749639,-2.2819789091693323,-4.760063711796896,-3.562991205845968,1.4959990978240967,-0.03497476130723953,-0.025924276560544968,0.0,0.0,0.0,-0.044012464582920074
1782779321,974506936,-1.030379597340719,-0.09891397157777959,-2.2819908300982874,-4.760003749524252,-3.5630272070514124,1.4957118034362793,-0.05351036414504051,-0.035409390926361084,0.0,0.0,0.0,-0.05588803440332413
1782779321,982483302,-1.0308354536639612,-0.09916574159731084,-2.2819908300982874,-4.759979788457052,-3.5630272070514124,1.4952328205108643,-0.041737060993909836,-0.028544826433062553,0.0,0.0,0.0,-0.050646934658288956
1782779321,990500095,-1.031158749257223,-0.09938079515566045,-2.2819669882403772,-4.759979788457052,-3.5630152861224573,1.4948853254318237,-0.0362275131046772,-0.02725372649729252,0.0,0.0,0.0,-0.044498227536678314
1782779321,998486646,-1.0314582029925745,-0.09962064424623662,-2.2819789091693323,-4.759991828595297,-3.563003126774923,1.4945257902145386,-0.058125089854002,-0.0380171574652195,0.0,0.0,0.0,-0.05830405279994011
1782779322,6455698,-1.0320218245135706,-0.09995586076845342,-2.2819669882403772,-4.7600277105914515,-3.5630152861224573,1.4939872026443481,-0.053408097475767136,-0.036917805671691895,0.0,0.0,0.0,-0.058764249086380005
1782779322,14485379,-1.0324648062335413,-0.10032684007753545,-2.2819789091693323,-4.759967867528097,-3.5630272070514124,1.4934842586517334,-0.07354159653186798,-0.05050631985068321,0.0,0.0,0.0,-0.07562525570392609
1782779322,22513690,-1.0330279509173792,-0.1006858984576624,-2.2819908300982874,-4.760051671658651,-3.5630152861224573,1.4928734302520752,-0.0533314011991024,-0.04099563881754875,0.0,0.0,0.0,-0.06768690049648285
1782779322,30513112,-1.0334952513324183,-0.10098535219301397,-2.2820265928851526,-4.760003749524252,-3.5630152861224573,1.4924068450927734,-0.046415701508522034,-0.03546052426099777,0.0,0.0,0.0,-0.06070728972554207
1782779322,38470312,-1.0339511076556605,-0.10128480592836553,-2.2819789091693323,-4.7600277105914515,-3.5630272070514124,1.4918678998947144,-0.07208431512117386,-0.04729774221777916,0.0,0.0,0.0,-0.0770186185836792
1782779322,46470475,-1.0345376173602503,-0.10166818300356084,-2.2820385138141077,-4.760051671658651,-3.5630391279803675,1.491185188293457,-0.06224127113819122,-0.04693981260061264,0.0,0.0,0.0,-0.07961360365152359
1782779322,54480730,-1.0351608435260218,-0.10217076936830694,-2.2820146719561976,-4.759979788457052,-3.5630391279803675,1.490466833114624,-0.08383205533027649,-0.061410363763570786,0.0,0.0,0.0,-0.09627007693052292
1782779322,62533189,-1.0357478300677698,-0.10258943239320928,-2.2820385138141077,-4.760051671658651,-3.5630272070514124,1.4897485971450806,-0.06013204902410507,-0.04848657548427582,0.0,0.0,0.0,-0.08629920333623886
1782779322,70532833,-1.0361912886248987,-0.10298520723451787,-2.2820146719561976,-4.759991828595297,-3.5630152861224573,1.489066243171692,-0.04990550875663757,-0.043296609073877335,0.0,0.0,0.0,-0.07731263339519501
1782779322,78472181,-1.0366466681109827,-0.10334426561464483,-2.2819908300982874,-4.759967867528097,-3.563003126774923,1.4884194135665894,-0.07878270000219345,-0.05742201581597328,0.0,0.0,0.0,-0.09587380290031433
1782779322,86457696,-1.0372937361346644,-0.10381108919252569,-2.2820027510272425,-4.7600876728640955,-3.562991205845968,1.487545371055603,-0.07030745595693588,-0.05601586773991585,0.0,0.0,0.0,-0.09699872136116028
1782779322,94498136,-1.0379651228534144,-0.10432607332338506,-2.2819908300982874,-4.759991828595297,-3.5630152861224573,1.4867311716079712,-0.09982380270957947,-0.07295357435941696,0.0,0.0,0.0,-0.12190034240484238
1782779322,102468966,-1.0386598745929163,-0.10486489931215459,-2.2820265928851526,-4.760063711796896,-3.562991205845968,1.485809087753296,-0.07182864844799042,-0.0595695897936821,0.0,0.0,0.0,-0.10699516534805298
1782779322,110493943,-1.0391987005816858,-0.10529643694032842,-2.282050911580221,-4.759943787251608,-3.563003126774923,1.4849709272384644,-0.0611291341483593,-0.05048075318336487,0.0,0.0,0.0,-0.0926780104637146
1782779322,118488236,-1.0397017637835901,-0.10569125810732061,-2.2820146719561976,-4.759967867528097,-3.5630391279803675,1.4842166900634766,-0.09551586955785751,-0.0675974190235138,0.0,0.0,0.0,-0.11635244637727737
1782779322,126465973,-1.0404928366290491,-0.10627776781191045,-2.2820265928851526,-4.759991828595297,-3.5630632082568567,1.4832111597061157,-0.08372978866100311,-0.06542427837848663,0.0,0.0,0.0,-0.11618626117706299
1782779322,134492932,-1.0413435141192835,-0.1068647543536585,-2.2819669882403772,-4.759967867528097,-3.563075129185812,1.4822531938552856,-0.12136344611644745,-0.0873602107167244,0.0,0.0,0.0,-0.1375086009502411
1782779322,142472132,-1.0421698729144495,-0.10752326646913701,-2.2819669882403772,-4.7600277105914515,-3.5630272070514124,1.4811158180236816,-0.08698949217796326,-0.07117670774459839,0.0,0.0,0.0,-0.12343432009220123
1782779322,150483017,-1.0428412596331995,-0.10800201097597295,-2.2820146719561976,-4.759991828595297,-3.5630632082568567,1.480217695236206,-0.07562525570392609,-0.0607839897274971,0.0,0.0,0.0,-0.10396555066108704
1782779322,158482235,-1.0435126463519495,-0.10850507417787725,-2.2819789091693323,-4.759955827389852,-3.5630391279803675,1.4793795347213745,-0.11501020938158035,-0.08202962577342987,0.0,0.0,0.0,-0.12991538643836975
1782779322,166467620,-1.0444234053241175,-0.10917598405946904,-2.2820027510272425,-4.760003749524252,-3.5630391279803675,1.4782778024673462,-0.10135778039693832,-0.07897444814443588,0.0,0.0,0.0,-0.12999209761619568
1782779322,174483449,-1.0454290548907679,-0.10994178453554326,-2.2820027510272425,-4.759943787251608,-3.5630152861224573,1.4771519899368286,-0.14290308952331543,-0.10080810636281967,0.0,0.0,0.0,-0.1547403186559677
1782779322,182517686,-1.0463879744159144,-0.11068421999086553,-2.2820385138141077,-4.760039750729696,-3.5630391279803675,1.4759306907653809,-0.10339030623435974,-0.08218302577733994,0.0,0.0,0.0,-0.13839063048362732
1782779322,190508145,-1.0472148100482386,-0.11134320894350225,-2.2819789091693323,-4.760003749524252,-3.562967363988058,1.4749372005462646,-0.08871522545814514,-0.0718797817826271,0.0,0.0,0.0,-0.11778415739536285
1782779322,198477586,-1.0480178038226526,-0.11188155809511358,-2.281955067311422,-4.759967867528097,-3.5630632082568567,1.4738953113555908,-0.13198626041412354,-0.09271635860204697,0.0,0.0,0.0,-0.14896231889724731
1782779322,206469897,-1.0490477720843714,-0.11270791689027959,-2.2820146719561976,-4.760039750729696,-3.5630272070514124,1.4726500511169434,-0.11718335002660751,-0.09091392904520035,0.0,0.0,0.0,-0.14746668934822083
1782779322,214581355,-1.0501025358783167,-0.11347419420351201,-2.2820146719561976,-4.759931866322653,-3.563075129185812,1.4714287519454956,-0.16174548864364624,-0.1152147427201271,0.0,0.0,0.0,-0.17644613981246948
1782779322,222469333,-1.0512412230121058,-0.11430007616151983,-2.2820146719561976,-4.760063711796896,-3.5630512873279017,1.47003972530365,-0.11754128336906433,-0.09143804013729095,0.0,0.0,0.0,-0.15776993334293365
1782779322,230487978,-1.0521748701678675,-0.11505490938295537,-2.2820146719561976,-4.760063711796896,-3.5630391279803675,1.4688783884048462,-0.1022653877735138,-0.08124984800815582,0.0,0.0,0.0,-0.13350746035575867
1782779322,238475326,-1.0530498663531702,-0.11566526094545537,-2.2819669882403772,-4.759931866322653,-3.5630632082568567,1.4677530527114868,-0.15071362257003784,-0.10170292854309082,0.0,0.0,0.0,-0.16624517738819122
1782779322,246552895,-1.0542367140399378,-0.1165993849383753,-2.2820265928851526,-4.76012355486025,-3.5630391279803675,1.4663519859313965,-0.13128319382667542,-0.09853269904851913,0.0,0.0,0.0,-0.16367575526237488
1782779322,254490577,-1.0554583708392542,-0.11743718782533819,-2.2820265928851526,-4.759931866322653,-3.5630152861224573,1.4649869203567505,-0.17758384346961975,-0.12655341625213623,0.0,0.0,0.0,-0.19308984279632568
1782779322,262466129,-1.0566685835467737,-0.11838323274721319,-2.2819908300982874,-4.760015789662496,-3.562967363988058,1.4635143280029297,-0.12717978656291962,-0.1000155508518219,0.0,0.0,0.0,-0.17188255488872528
1782779322,270521699,-1.057591740285055,-0.1191018263446253,-2.2820146719561976,-4.7600277105914515,-3.562979284917013,1.4622211456298828,-0.10904046893119812,-0.08879192173480988,0.0,0.0,0.0,-0.14568983018398285
1782779322,278495621,-1.0585740248309534,-0.11985570589174444,-2.2819908300982874,-4.759931866322653,-3.5630632082568567,1.4609755277633667,-0.15990471839904785,-0.10760875791311264,0.0,0.0,0.0,-0.18568837642669678
1782779322,286486228,-1.0597723166095179,-0.1207664648639124,-2.2819908300982874,-4.7600876728640955,-3.563003126774923,1.4594310522079468,-0.1366521269083023,-0.10572962462902069,0.0,0.0,0.0,-0.18231362104415894
1782779322,294478706,-1.0610421339618128,-0.1217120329486292,-2.2820027510272425,-4.759943787251608,-3.563003126774923,1.4579341411590576,-0.1877209097146988,-0.13856959342956543,0.0,0.0,0.0,-0.21924421191215515
1782779322,302484035,-1.062312428151266,-0.12276584306825811,-2.2820265928851526,-4.760039750729696,-3.5630272070514124,1.4562458992004395,-0.1331878900527954,-0.1055634468793869,0.0,0.0,0.0,-0.1903286725282669
1782779322,310507438,-1.0633671919452112,-0.12355548540224248,-2.2820146719561976,-4.7600277105914515,-3.5630272070514124,1.4548332691192627,-0.11572606861591339,-0.09295924007892609,0.0,0.0,0.0,-0.16136199235916138
1782779322,318481323,-1.064385716115133,-0.12433416048158819,-2.281942669545309,-4.759943787251608,-3.5630632082568567,1.453444242477417,-0.1719464659690857,-0.1173495352268219,0.0,0.0,0.0,-0.19914905726909637
1782779322,326473301,-1.0657394568072718,-0.12529212633241826,-2.2820146719561976,-4.760099593793051,-3.5630152861224573,1.4517199993133545,-0.15021507441997528,-0.11311830580234528,0.0,0.0,0.0,-0.19585099816322327
1782779322,334484353,-1.0672014395343226,-0.12639362016786748,-2.2819789091693323,-4.759907905255453,-3.5630152861224573,1.4501276016235352,-0.20596249401569366,-0.1483742892742157,0.0,0.0,0.0,-0.23544049263000488
1782779322,342546978,-1.06862718263735,-0.12751943269838506,-2.2819789091693323,-4.760039750729696,-3.5630632082568567,1.4482595920562744,-0.14891119301319122,-0.11534257233142853,0.0,0.0,0.0,-0.20784161984920502
1782779322,350505863,-1.0697897116290491,-0.1283815542804163,-2.2820385138141077,-4.760051671658651,-3.5630272070514124,1.4467030763626099,-0.12717978656291962,-0.09992606937885284,0.0,0.0,0.0,-0.17736653983592987
1782779322,358469452,-1.0709522406207483,-0.1291597525226038,-2.2819183508502405,-4.759907905255453,-3.563075129185812,1.4452178478240967,-0.1884111911058426,-0.12558189034461975,0.0,0.0,0.0,-0.21870730817317963
1782779322,366483948,-1.0724499861346644,-0.13029700914491826,-2.2819908300982874,-4.760039750729696,-3.562979284917013,1.443350076675415,-0.1602243036031723,-0.12205374240875244,0.0,0.0,0.0,-0.21369631588459015
1782779322,374590537,-1.0740192572223108,-0.13142282167543584,-2.2820265928851526,-4.759871904050009,-3.5630152861224573,1.4415899515151978,-0.22288741171360016,-0.1581917703151703,0.0,0.0,0.0,-0.25274890661239624
1782779322,382465366,-1.075540844594137,-0.1326201597796839,-2.2820027510272425,-4.760051671658651,-3.5630152861224573,1.4396380186080933,-0.1583707332611084,-0.12523674964904785,0.0,0.0,0.0,-0.21861782670021057
1782779322,390493640,-1.0768349806415003,-0.13363820711244756,-2.2820265928851526,-4.760003749524252,-3.562979284917013,1.4380216598510742,-0.1386718600988388,-0.10881037265062332,0.0,0.0,0.0,-0.1844356209039688
1782779322,398474710,-1.07806903520693,-0.13448793092836553,-2.2819669882403772,-4.759883944188253,-3.5630272070514124,1.4364292621612549,-0.20662721991539001,-0.13856959342956543,0.0,0.0,0.0,-0.23404712975025177
1782779322,406551336,-1.0796392599688929,-0.13568574586977178,-2.2820146719561976,-4.76014751592745,-3.5630391279803675,1.43450129032135,-0.17897720634937286,-0.13463237881660461,0.0,0.0,0.0,-0.2292662113904953
1782779322,414490814,-1.0813048521624964,-0.13690692583192998,-2.282062832509176,-4.759883944188253,-3.5630272070514124,1.432633638381958,-0.24570538103580475,-0.1719464659690857,0.0,0.0,0.0,-0.2714379131793976
1782779322,422461828,-1.0830186049090784,-0.13818818727602178,-2.282062832509176,-4.7600876728640955,-3.5630512873279017,1.4305022954940796,-0.17659954726696014,-0.1344022899866104,0.0,0.0,0.0,-0.23664210736751556
1782779322,430505787,-1.0843122641192835,-0.13915807405580694,-2.2820385138141077,-4.760003749524252,-3.562967363988058,1.4287656545639038,-0.14966540038585663,-0.1182187870144844,0.0,0.0,0.0,-0.19995440542697906
1782779322,438576265,-1.0856307188617151,-0.14015180269350225,-2.281955067311422,-4.759931866322653,-3.5630152861224573,1.4270774126052856,-0.21670036017894745,-0.14636734127998352,0.0,0.0,0.0,-0.2452707439661026
1782779322,446472335,-1.0873678366290491,-0.14138538042177373,-2.2820385138141077,-4.760063711796896,-3.562979284917013,1.4250296354293823,-0.18738853931427002,-0.1430053561925888,0.0,0.0,0.0,-0.24071994423866272
1782779322,454482813,-1.0890815893756312,-0.142618481312887,-2.282062832509176,-4.759943787251608,-3.5630391279803675,1.422958254814148,-0.26021426916122437,-0.18272268772125244,-0.001797633827663958,0.0,0.0,-0.2909833788871765
1782779322,462466753,-1.0908554236041468,-0.14397174516786748,-2.2820146719561976,-4.7600876728640955,-3.5630512873279017,1.420707106590271,-0.18127818405628204,-0.142315074801445,0.001701759989373386,0.0,0.0,-0.25222480297088623
1782779322,470489675,-1.0922454039203089,-0.14502507845033819,-2.282062832509176,-4.760039750729696,-3.5630152861224573,1.4188868999481201,-0.15697737038135529,-0.12547963857650757,-0.002157160546630621,0.0,0.0,-0.212737575173378
1782779322,478517597,-1.093623463307516,-0.1460188070880335,-2.2819302717791956,-4.759907905255453,-3.5630272070514124,1.4170668125152588,-0.2312348186969757,-0.15661944448947906,-0.002157160546630621,0.0,0.0,-0.2639980912208557
1782779322,486469575,-1.0954330603228968,-0.14737207094301397,-2.282074753438131,-4.76012355486025,-3.562991205845968,1.4149235486984253,-0.19780682027339935,-0.1534619927406311,0.0011984225129708648,0.0,0.0,-0.25368207693099976
1782779322,494485664,-1.0972541014300745,-0.14889270464052373,-2.2820146719561976,-4.759907905255453,-3.5630152861224573,1.412696361541748,-0.26753902435302734,-0.1955825537443161,-0.0017736653098836541,0.0,0.0,-0.3073969781398773
1782779322,502517956,-1.099123779927389,-0.1503055731402796,-2.282062832509176,-4.7600876728640955,-3.562991205845968,1.4103013277053833,-0.18469129502773285,-0.14896231889724731,0.0016058861510828137,0.0,0.0,-0.26847222447395325
1782779322,510516544,-1.1005614439593714,-0.15143090883363897,-2.2820385138141077,-4.760003749524252,-3.562979284917013,1.4083853960037231,-0.16192445158958435,-0.1305801123380661,0.0016058861510828137,0.0,0.0,-0.225738063454628
1782779322,518477985,-1.1020715872394007,-0.152473274861471,-2.2820027510272425,-4.759871904050009,-3.563075129185812,1.4064937829971313,-0.24184486269950867,-0.16665422916412354,0.0016058861510828137,0.0,0.0,-0.28107643127441406
1782779322,526489111,-1.103964630757467,-0.15394574800600225,-2.2819789091693323,-4.7600876728640955,-3.562967363988058,1.404134750366211,-0.20662721991539001,-0.1593550443649292,0.0,0.0,0.0,-0.27215376496315
1782779322,534606051,-1.1059182325946253,-0.15534669557680303,-2.282062832509176,-4.759895865117208,-3.563003126774923,1.4018117189407349,-0.28418272733688354,-0.20396831631660461,-0.0016298546688631177,0.0,0.0,-0.3224683403968811
1782779322,542478510,-1.10783559480776,-0.15684396425356084,-2.2820027510272425,-4.760075632725851,-3.5630512873279017,1.3992729187011719,-0.1998521387577057,-0.15770600736141205,0.0018455707468092442,0.0,0.0,-0.2819712460041046
1782779322,550512692,-1.1093571821795862,-0.1581366697894495,-2.2820866743670862,-4.7600277105914515,-3.5630512873279017,1.397261381149292,-0.17151184380054474,-0.1387230008840561,0.0018455707468092442,0.0,0.0,-0.23830391466617584
1782779322,558472780,-1.1108792463885706,-0.159250561391012,-2.2819302717791956,-4.759931866322653,-3.5630632082568567,1.3952735662460327,-0.2563154101371765,-0.1754234880208969,0.0018455707468092442,0.0,0.0,-0.2943197786808014
1782779322,566513388,-1.1128447691546839,-0.16079456010927373,-2.2820265928851526,-4.760075632725851,-3.562991205845968,1.3927830457687378,-0.22049695253372192,-0.16800925135612488,0.0,0.0,0.0,-0.2861257791519165
1782779322,574495421,-1.1148932615863245,-0.16238719621767217,-2.282050911580221,-4.7598599831210535,-3.563003126774923,1.3903281688690186,-0.30811282992362976,-0.2156904935836792,-0.0015339808305725455,0.0,0.0,-0.34022417664527893
1782779322,582465547,-1.116906468068258,-0.16396791139711553,-2.2820146719561976,-4.7600876728640955,-3.5630391279803675,1.38770592212677,-0.21700716018676758,-0.16610455513000488,0.0018216022290289402,0.0,0.0,-0.2948566675186157
1782779322,590492098,-1.1185367743121546,-0.16522533098329717,-2.2820985952960413,-4.759955827389852,-3.5630152861224573,1.3855385780334473,-0.18669824302196503,-0.14310762286186218,-0.0019893813878297806,0.0,0.0,-0.24796800315380096
1782779322,598486261,-1.120202366505758,-0.16636306444276983,-2.281955067311422,-4.759931866322653,-3.5630632082568567,1.3835023641586304,-0.27492770552635193,-0.18127818405628204,-0.0019893813878297806,0.0,0.0,-0.30903321504592896
1782779322,606459183,-1.1223834196673792,-0.16791946092714483,-2.2820027510272425,-4.760111633931295,-3.562979284917013,1.380952000617981,-0.2308896780014038,-0.17447753250598907,0.001270327833481133,0.0,0.0,-0.29839763045310974
1782779322,614497012,-1.124563995991842,-0.16953593889345342,-2.2820866743670862,-4.759931866322653,-3.5630152861224573,1.3784735202789307,-0.318479984998703,-0.22410181164741516,-0.0016298546688631177,0.0,0.0,-0.35351866483688354
1782779322,622492749,-1.126733128224508,-0.17109281221498662,-2.2820146719561976,-4.760075632725851,-3.562979284917013,1.375719428062439,-0.22336038947105408,-0.1736210584640503,0.0017736653098836541,0.0,0.0,-0.3071029484272003
1782779322,630488893,-1.1285188833819788,-0.17246944109071904,-2.2820385138141077,-4.760003749524252,-3.563003126774923,1.3735401630401611,-0.1935628205537796,-0.1510971039533615,-0.0018216022290289402,0.0,0.0,-0.2616332173347473
1782779322,638479815,-1.1303280035602015,-0.17364341417421514,-2.2819302717791956,-4.759907905255453,-3.5630391279803675,1.371384859085083,-0.2824825644493103,-0.1941380500793457,-0.0018216022290289402,0.0,0.0,-0.32196977734565735
1782779322,646472756,-1.1325209776507776,-0.17531949678529912,-2.282050911580221,-4.760075632725851,-3.5630512873279017,1.3686662912368774,-0.24231784045696259,-0.18370698392391205,0.009755159728229046,0.0,0.0,-0.3123951852321625
1782779322,654474919,-1.1348579565631312,-0.17692357698549444,-2.282062832509176,-4.759907905255453,-3.562991205845968,1.3661155700683594,-0.3276582956314087,-0.23503142595291138,-0.01176850963383913,0.0,0.0,-0.3736010193824768
1782779322,662553155,-1.137038532887594,-0.17870790163149053,-2.2820385138141077,-4.7600876728640955,-3.5630272070514124,1.363277554512024,-0.22748935222625732,-0.18063902854919434,0.011385014280676842,0.0,0.0,-0.32375943660736084
1782779322,670498948,-1.1385968367206019,-0.1801212469684046,-2.282050911580221,-4.759991828595297,-3.5630152861224573,1.3609188795089722,-0.1974872499704361,-0.15830682218074799,0.008077368140220642,0.0,0.0,-0.27615490555763245
1782779322,678470852,-1.1405022780047815,-0.18136626878847295,-2.2819302717791956,-4.759907905255453,-3.562991205845968,1.3586796522140503,-0.29100894927978516,-0.20316298305988312,0.004026699811220169,0.0,0.0,-0.33769309520721436
1782779322,686486033,-1.142742935811178,-0.1831267515765589,-2.2820146719561976,-4.760051671658651,-3.5630272070514124,1.355865240097046,-0.25263386964797974,-0.19237397611141205,-0.0028043086640536785,0.0,0.0,-0.33052173256874084
1782779322,694591140,-1.1450441519366663,-0.18482715288271123,-2.2820985952960413,-4.759895865117208,-3.5629552046405237,1.3530871868133545,-0.3435094356536865,-0.24539858102798462,-0.013614079914987087,0.0,0.0,-0.39021915197372437
1782779322,702465710,-1.14740497270693,-0.1866706053363245,-2.2820385138141077,-4.760099593793051,-3.562991205845968,1.3500694036483765,-0.24040035903453827,-0.1892804503440857,0.015843145549297333,0.0,0.0,-0.3395082950592041
1782779322,710493984,-1.149250332509176,-0.18809587160219365,-2.282074753438131,-4.760015789662496,-3.5630272070514124,1.3475549221038818,-0.2029200941324234,-0.1652480810880661,0.008628642186522484,0.0,0.0,-0.28736573457717896
1782779322,718483165,-1.1511080900775355,-0.18948489824403936,-2.2819183508502405,-4.759907905255453,-3.5630272070514124,1.3452318906784058,-0.30278223752975464,-0.20804615318775177,0.0041705104522407055,0.0,0.0,-0.34931299090385437
1782779322,726467773,-1.1535165945636194,-0.19130498567690069,-2.2820265928851526,-4.7600876728640955,-3.562991205845968,1.3422980308532715,-0.25834792852401733,-0.19597883522510529,0.014524880796670914,0.0,0.0,-0.3395082950592041
1782779322,734497157,-1.1559131781207483,-0.19306546846498662,-2.2820866743670862,-4.759847942982809,-3.5630272070514124,1.3395075798034668,-0.35335248708724976,-0.2527233362197876,-0.018503643572330475,0.0,0.0,-0.40402498841285706
1782779322,742471783,-1.1583822409259241,-0.19498092332948858,-2.2820385138141077,-4.760099593793051,-3.563003126774923,1.3363343477249146,-0.24853046238422394,-0.19100618362426758,0.016298547387123108,0.0,0.0,-0.3541194796562195
1782779322,750498039,-1.1603711287127894,-0.1964176336871546,-2.2820866743670862,-4.759907905255453,-3.5630152861224573,1.3337476253509521,-0.20750924944877625,-0.16719113290309906,-0.0023489082232117653,0.0,0.0,-0.29890894889831543
1782779322,758575127,-1.1622651259051722,-0.1978071371661585,-2.2819669882403772,-4.759919826184408,-3.563075129185812,1.331341028213501,-0.3053644597530365,-0.21474453806877136,-0.0023489082232117653,0.0,0.0,-0.35952675342559814
1782779322,766465716,-1.1646979490863245,-0.19956666627992803,-2.2820146719561976,-4.760135594998495,-3.562991205845968,1.3283592462539673,-0.265135794878006,-0.2014244645833969,0.016082830727100372,0.0,0.0,-0.34855878353118896
1782779322,774481749,-1.1672022978412073,-0.20138675371278936,-2.282062832509176,-4.759895865117208,-3.562979284917013,1.3253769874572754,-0.36258193850517273,-0.26031655073165894,-0.022050974890589714,0.0,0.0,-0.415951669216156
